archive/calibration-002231.ccmx
CCMX   
DISPLAY	"Factory Calibration"
ORIGINATOR	"ColorHug Factory"
REFERENCE	"ColorMunki"
CREATED	"Wed Nov 20 21:19:20 2013"
DESCRIPTOR	"Device Correction Matrix"
COLOR_REP	"XYZ"
NUMBER_OF_FIELDS	3
NUMBER_OF_SETS	3
INSTRUMENT	"Hughski ColorHug"
TYPE_FACTORY	"YES"
BEGIN_DATA_FORMAT
 XYZ_X	XYZ_Y	XYZ_Z
END_DATA_FORMAT
BEGIN_DATA
 1.2284837173766834	0.66238975593660931	0.79961908860432795
 0.44429013853215793	4.2446502737316631	-0.69717749515150407
 -0.57950853501858901	-1.5056687172371934	5.6766527047309694
END_DATA
