archive/calibration-002541.ccmx
CCMX   
DISPLAY	"Factory Calibration"
ORIGINATOR	"ColorHug Factory"
REFERENCE	"X-Rite ColorMunki"
CREATED	"Wed Oct 22 12:19:27 2014"
DESCRIPTOR	"Device Correction Matrix"
COLOR_REP	"XYZ"
NUMBER_OF_FIELDS	3
NUMBER_OF_SETS	3
INSTRUMENT	"Hughski ColorHug"
TYPE_FACTORY	"YES"
BEGIN_DATA_FORMAT
 XYZ_X	XYZ_Y	XYZ_Z
END_DATA_FORMAT
BEGIN_DATA
 0.903944243927	0.420418860794	0.498374350397
 0.414279284622	1.877245721093	-0.258748075239
 -0.471824208007	-1.271022528157	4.819058135745
END_DATA
