archive/calibration-000340.ccmx
CCMX   
DESCRIPTOR "ColorHug & LCD"
KEYWORD "INSTRUMENT"
INSTRUMENT "ColorHug"
KEYWORD "DISPLAY"
DISPLAY "Factory Calibration"
KEYWORD "TECHNOLOGY"
TECHNOLOGY "LCD"
KEYWORD "REFERENCE"
REFERENCE "X-Rite ColorMunki"
ORIGINATOR "Argyll ccmx"
CREATED "Mon Apr  9 23:48:08 2012"
KEYWORD "COLOR_REP"
KEYWORD "TYPE_FACTORY"
TYPE_FACTORY "YES"
KEYWORD "TYPE_LED"
TYPE_LED "YES"
KEYWORD "TYPE_FACTORY"
TYPE_FACTORY "YES"
COLOR_REP "XYZ"
NUMBER_OF_FIELDS 3
BEGIN_DATA_FORMAT
XYZ_X XYZ_Y XYZ_Z 
END_DATA_FORMAT
NUMBER_OF_SETS 3
BEGIN_DATA
1.2791 0.095871 0.82463 
0.50123 2.4733 -0.46009 
-0.62704 -1.6875 5.4005 
END_DATA
