archive/calibration-000009.ccmx
CCMX   
DESCRIPTOR "ColorHug & LCD"
KEYWORD "INSTRUMENT"
INSTRUMENT "ColorHug"
KEYWORD "DISPLAY"
DISPLAY "Factory Calibration"
KEYWORD "REFERENCE"
REFERENCE "X-Rite ColorMunki"
ORIGINATOR "Argyll ccmx"
CREATED "Thu Jan  5 21:12:29 2012"
KEYWORD "COLOR_REP"
COLOR_REP "XYZ"
KEYWORD "TYPE_FACTORY"
TYPE_FACTORY "YES"
NUMBER_OF_FIELDS 3
BEGIN_DATA_FORMAT
XYZ_X XYZ_Y XYZ_Z 
END_DATA_FORMAT
NUMBER_OF_SETS 3
BEGIN_DATA
1.5361 0.069049 0.84240 
0.60647 2.5145 -0.51057 
-0.65041 -1.7975 5.6688 
END_DATA
