archive/calibration-000010.ccmx
CCMX   
DESCRIPTOR "ColorHug & LCD"
KEYWORD "INSTRUMENT"
INSTRUMENT "ColorHug"
KEYWORD "DISPLAY"
DISPLAY "Factory Calibration"
KEYWORD "REFERENCE"
REFERENCE "X-Rite ColorMunki"
ORIGINATOR "Argyll ccmx"
CREATED "Thu Jan  5 21:12:32 2012"
KEYWORD "COLOR_REP"
COLOR_REP "XYZ"
KEYWORD "TYPE_FACTORY"
TYPE_FACTORY "YES"
NUMBER_OF_FIELDS 3
BEGIN_DATA_FORMAT
XYZ_X XYZ_Y XYZ_Z 
END_DATA_FORMAT
NUMBER_OF_SETS 3
BEGIN_DATA
1.6097272665 0.1165155721 0.836673673 
0.6116132249 2.6732488187 -0.481193101 
-0.7176120507 -1.7209221131 5.5663932408 
END_DATA
