archive/calibration-002146.ccmx
CCMX   
DISPLAY	"Factory Calibration"
ORIGINATOR	"ColorHug Factory"
REFERENCE	"ColorMunki"
CREATED	"Wed Nov 20 20:01:22 2013"
DESCRIPTOR	"Device Correction Matrix"
COLOR_REP	"XYZ"
NUMBER_OF_FIELDS	3
NUMBER_OF_SETS	3
INSTRUMENT	"Hughski ColorHug"
TYPE_FACTORY	"YES"
BEGIN_DATA_FORMAT
 XYZ_X	XYZ_Y	XYZ_Z
END_DATA_FORMAT
BEGIN_DATA
 1.177919609636334	0.49849867326912672	0.77518669884291358
 0.42168365983919709	3.8568421537851973	-0.64257136818775895
 -0.56755181105884112	-1.4984291928550428	5.3762478604725414
END_DATA
