archive/calibration-001935.ccmx
CCMX   
DISPLAY	"Factory Calibration"
ORIGINATOR	"ColorHug Factory"
REFERENCE	"ColorMunki"
CREATED	"Sat May 25 21:48:47 2013"
DESCRIPTOR	"Device Correction Matrix"
COLOR_REP	"XYZ"
NUMBER_OF_FIELDS	3
NUMBER_OF_SETS	3
INSTRUMENT	"Hughski ColorHug"
TYPE_FACTORY	"YES"
BEGIN_DATA_FORMAT
 XYZ_X	XYZ_Y	XYZ_Z
END_DATA_FORMAT
BEGIN_DATA
 1.5506299408320059	0.17523076106788127	0.57396104492049704
 0.615294709852229	2.3511804364886806	-0.39997700675494152
 -0.426918658018208	-1.1200966773462329	3.8271875641885158
END_DATA
