archive/calibration-002062.ccmx
CCMX   
DISPLAY	"Factory Calibration"
ORIGINATOR	"ColorHug Factory"
REFERENCE	"ColorMunki"
CREATED	"Sun Sep 15 20:06:25 2013"
DESCRIPTOR	"Device Correction Matrix"
COLOR_REP	"XYZ"
NUMBER_OF_FIELDS	3
NUMBER_OF_SETS	3
INSTRUMENT	"Hughski ColorHug"
TYPE_FACTORY	"YES"
BEGIN_DATA_FORMAT
 XYZ_X	XYZ_Y	XYZ_Z
END_DATA_FORMAT
BEGIN_DATA
 1.0926593783282499	0.48487462696710648	0.87901767717069679
 0.38894842345462333	3.8267631317505648	-0.63679665630163662
 -0.64259425098920708	-1.6401787829032077	5.9752292391454409
END_DATA
