archive/calibration-000075.ccmx
CCMX   
DESCRIPTOR "ColorHug & LCD"
KEYWORD "INSTRUMENT"
INSTRUMENT "ColorHug"
KEYWORD "DISPLAY"
DISPLAY "Factory Calibration"
KEYWORD "REFERENCE"
REFERENCE "X-Rite ColorMunki"
ORIGINATOR "Argyll ccmx"
CREATED "Thu Feb 23 09:46:47 2012"
KEYWORD "COLOR_REP"
COLOR_REP "XYZ"
KEYWORD "TYPE_FACTORY"
TYPE_FACTORY "YES"
KEYWORD "TYPE_LED"
TYPE_LED "YES"
KEYWORD "TYPE_FACTORY"
TYPE_FACTORY "YES"
NUMBER_OF_FIELDS 3
BEGIN_DATA_FORMAT
XYZ_X XYZ_Y XYZ_Z 
END_DATA_FORMAT
NUMBER_OF_SETS 3
BEGIN_DATA
1.7728 -0.19970 0.78183 
0.91085 2.2532 -0.44728 
-0.25917 -2.0979 5.2726 
END_DATA
