archive/calibration-000245.ccmx
CCMX   

DESCRIPTOR "ColorHug & LCD"
KEYWORD "INSTRUMENT"
INSTRUMENT "ColorHug"
KEYWORD "DISPLAY"
DISPLAY "Factory Calibration"
KEYWORD "TECHNOLOGY"
TECHNOLOGY "LCD"
KEYWORD "REFERENCE"
REFERENCE "X-Rite ColorMunki"
ORIGINATOR "Argyll ccmx"
CREATED "Mon Apr  9 23:13:03 2012"
KEYWORD "COLOR_REP"
KEYWORD "TYPE_LCD"
TYPE_LCD "YES"
KEYWORD "TYPE_LED"
TYPE_LED "YES"
KEYWORD "TYPE_CRT"
TYPE_CRT "YES"
KEYWORD "TYPE_PROJECTOR"
TYPE_PROJECTOR "YES"
KEYWORD "TYPE_FACTORY"
TYPE_FACTORY "YES"

COLOR_REP "XYZ"

NUMBER_OF_FIELDS 3
BEGIN_DATA_FORMAT
XYZ_X XYZ_Y XYZ_Z 
END_DATA_FORMAT

NUMBER_OF_SETS 3
BEGIN_DATA
1.4600 0.23452 0.80827 
0.56052 2.9941 -0.55770 
-0.67342 -1.7929 5.5690 
END_DATA

