archive/calibration-000298.ccmx
CCMX   

DESCRIPTOR "ColorHug & LCD"
KEYWORD "INSTRUMENT"
INSTRUMENT "ColorHug"
KEYWORD "DISPLAY"
DISPLAY "Factory Calibration"
KEYWORD "TECHNOLOGY"
TECHNOLOGY "LCD"
KEYWORD "REFERENCE"
REFERENCE "X-Rite ColorMunki"
ORIGINATOR "Argyll ccmx"
CREATED "Mon Apr  9 19:02:48 2012"
KEYWORD "COLOR_REP"
KEYWORD "TYPE_LCD"
TYPE_LCD "YES"
KEYWORD "TYPE_LED"
TYPE_LED "YES"
KEYWORD "TYPE_CRT"
TYPE_CRT "YES"
KEYWORD "TYPE_PROJECTOR"
TYPE_PROJECTOR "YES"
KEYWORD "TYPE_FACTORY"
TYPE_FACTORY "YES"

COLOR_REP "XYZ"

NUMBER_OF_FIELDS 3
BEGIN_DATA_FORMAT
XYZ_X XYZ_Y XYZ_Z 
END_DATA_FORMAT

NUMBER_OF_SETS 3
BEGIN_DATA
1.4863 0.22462 0.89777 
0.56849 3.0605 -0.58559 
-0.71128 -1.9001 6.2604 
END_DATA

