archive/calibration-002034.ccmx
CCMX   
DISPLAY	"Factory Calibration"
ORIGINATOR	"ColorHug Factory"
REFERENCE	"ColorMunki"
CREATED	"Sun May 26 11:29:26 2013"
DESCRIPTOR	"Device Correction Matrix"
COLOR_REP	"XYZ"
NUMBER_OF_FIELDS	3
NUMBER_OF_SETS	3
INSTRUMENT	"Hughski ColorHug"
TYPE_FACTORY	"YES"
BEGIN_DATA_FORMAT
 XYZ_X	XYZ_Y	XYZ_Z
END_DATA_FORMAT
BEGIN_DATA
 1.8565025341206485	0.19543166915687443	0.5992988221977692
 0.74266030108114867	2.5825354742658582	-0.456001762315901
 -0.46895224106416988	-1.1665061224176518	4.030550800861886
END_DATA
