archive/calibration-001916.ccmx
CCMX   
DISPLAY	"Factory Calibration"
ORIGINATOR	"ColorHug Factory"
REFERENCE	"ColorMunki"
CREATED	"Sat May 25 21:31:25 2013"
DESCRIPTOR	"Device Correction Matrix"
COLOR_REP	"XYZ"
NUMBER_OF_FIELDS	3
NUMBER_OF_SETS	3
INSTRUMENT	"Hughski ColorHug"
TYPE_FACTORY	"YES"
BEGIN_DATA_FORMAT
 XYZ_X	XYZ_Y	XYZ_Z
END_DATA_FORMAT
BEGIN_DATA
 1.79213649263877	0.08875462783901833	0.59420481744314368
 0.72268054724501918	2.2388813457853476	-0.407417804031455
 -0.44597486429676503	-1.1739969349148986	3.8665110038463397
END_DATA
