archive/calibration-002176.ccmx
CCMX   
DISPLAY	"Factory Calibration"
ORIGINATOR	"ColorHug Factory"
REFERENCE	"ColorMunki"
CREATED	"Wed Nov 20 20:35:41 2013"
DESCRIPTOR	"Device Correction Matrix"
COLOR_REP	"XYZ"
NUMBER_OF_FIELDS	3
NUMBER_OF_SETS	3
INSTRUMENT	"Hughski ColorHug"
TYPE_FACTORY	"YES"
BEGIN_DATA_FORMAT
 XYZ_X	XYZ_Y	XYZ_Z
END_DATA_FORMAT
BEGIN_DATA
 1.1723227352480241	0.60768903696671506	0.70593143551664839
 0.42816231428664947	3.8846267999037134	-0.63730080737725447
 -0.49613813097860565	-1.2541664302071061	5.0378486834248237
END_DATA
