archive/calibration-002726.ccmx
CCMX   
DISPLAY	"Factory Calibration"
ORIGINATOR	"ColorHug Factory"
REFERENCE	"X-Rite ColorMunki"
CREATED	"Thu Mar 26 20:39:12 2015"
DESCRIPTOR	"Device Correction Matrix"
COLOR_REP	"XYZ"
NUMBER_OF_FIELDS	3
NUMBER_OF_SETS	3
INSTRUMENT	"Hughski ColorHug"
TYPE_FACTORY	"YES"
BEGIN_DATA_FORMAT
 XYZ_X	XYZ_Y	XYZ_Z
END_DATA_FORMAT
BEGIN_DATA
 1.234541648333	0.678297517263	0.638311961066
 0.545423453127	2.891237385415	-0.523883764455
 -0.86147185937	-1.982205636679	6.933039186936
END_DATA
