archive/calibration-001220.ccmx
CCMX   
DISPLAY	"Factory Calibration"
ORIGINATOR	"ColorHug Factory"
REFERENCE	"ColorMunki"
DESCRIPTOR	"Device Correction Matrix"
COLOR_REP	"XYZ"
NUMBER_OF_FIELDS	3
NUMBER_OF_SETS	3
INSTRUMENT	"Hughski ColorHug"
TYPE_FACTORY	"TRUE"
BEGIN_DATA_FORMAT
 XYZ_X	XYZ_Y	XYZ_Z
END_DATA_FORMAT
BEGIN_DATA
 1.679109135	0.02782163861	0.6609119905
 0.6643404343	1.974832774	-0.3411572317
 -0.50754247	-1.321288937	4.280537434
END_DATA
