archive/calibration-002280.ccmx
CCMX   
DISPLAY	"Factory Calibration"
ORIGINATOR	"ColorHug Factory"
REFERENCE	"ColorMunki"
CREATED	"Tue Jan 21 19:36:49 2014"
DESCRIPTOR	"Device Correction Matrix"
COLOR_REP	"XYZ"
NUMBER_OF_FIELDS	3
NUMBER_OF_SETS	3
INSTRUMENT	"Hughski ColorHug"
TYPE_FACTORY	"YES"
BEGIN_DATA_FORMAT
 XYZ_X	XYZ_Y	XYZ_Z
END_DATA_FORMAT
BEGIN_DATA
 1.241417697187	0.849360877538	0.771905026444
 0.423820089461	4.89200911495	-0.828086936695
 -0.581561298612	-1.505220956506	5.771754337001
END_DATA
