archive/calibration-002544.ccmx
CCMX   
DISPLAY	"Factory Calibration"
ORIGINATOR	"ColorHug Factory"
REFERENCE	"X-Rite ColorMunki"
CREATED	"Wed Oct 22 12:19:27 2014"
DESCRIPTOR	"Device Correction Matrix"
COLOR_REP	"XYZ"
NUMBER_OF_FIELDS	3
NUMBER_OF_SETS	3
INSTRUMENT	"Hughski ColorHug"
TYPE_FACTORY	"YES"
BEGIN_DATA_FORMAT
 XYZ_X	XYZ_Y	XYZ_Z
END_DATA_FORMAT
BEGIN_DATA
 0.802711553545	0.402997586619	0.443995248223
 0.359045181708	1.780435335725	-0.269879734296
 -0.472731175082	-1.236630411796	4.445102381025
END_DATA
