archive/calibration-000640.ccmx
CCMX
DISPLAY	"Factory Calibration"
ORIGINATOR	"ColorHug Factory"
REFERENCE	"ColorMunki"
DESCRIPTOR	"Device Correction Matrix"
COLOR_REP	"XYZ"
NUMBER_OF_FIELDS	3
NUMBER_OF_SETS	3
INSTRUMENT	"Hughski ColorHug"
TYPE_FACTORY	"TRUE"
BEGIN_DATA_FORMAT
 XYZ_X	XYZ_Y	XYZ_Z
END_DATA_FORMAT
BEGIN_DATA
 1.182127146	0.1687982345	0.9077592558
 0.4739910573	2.478013335	-0.3619925506
 -0.6344233223	-1.699648339	5.730287417
END_DATA
