archive/calibration-002067.ccmx
CCMX   
DISPLAY	"Factory Calibration"
ORIGINATOR	"ColorHug Factory"
REFERENCE	"ColorMunki"
CREATED	"Sun Sep 15 20:14:23 2013"
DESCRIPTOR	"Device Correction Matrix"
COLOR_REP	"XYZ"
NUMBER_OF_FIELDS	3
NUMBER_OF_SETS	3
INSTRUMENT	"Hughski ColorHug"
TYPE_FACTORY	"YES"
BEGIN_DATA_FORMAT
 XYZ_X	XYZ_Y	XYZ_Z
END_DATA_FORMAT
BEGIN_DATA
 1.0432409241879084	0.48909540773543148	0.72840916814063594
 0.39300151656568494	3.5579206326438304	-0.63867501655290926
 -0.63201175945232047	-1.5494109753061125	5.1374520238458636
END_DATA
