archive/calibration-000225.ccmx
CCMX   

DESCRIPTOR "ColorHug & LCD"
KEYWORD "INSTRUMENT"
INSTRUMENT "ColorHug"
KEYWORD "DISPLAY"
DISPLAY "Factory Calibration"
KEYWORD "TECHNOLOGY"
TECHNOLOGY "LCD"
KEYWORD "REFERENCE"
REFERENCE "X-Rite ColorMunki"
ORIGINATOR "Argyll ccmx"
CREATED "Mon Apr  2 09:52:58 2012"
KEYWORD "COLOR_REP"
KEYWORD "TYPE_LCD"
TYPE_LCD "YES"
KEYWORD "TYPE_LED"
TYPE_LED "YES"
KEYWORD "TYPE_CRT"
TYPE_CRT "YES"
KEYWORD "TYPE_PROJECTOR"
TYPE_PROJECTOR "YES"
KEYWORD "TYPE_FACTORY"
TYPE_FACTORY "YES"

COLOR_REP "XYZ"

NUMBER_OF_FIELDS 3
BEGIN_DATA_FORMAT
XYZ_X XYZ_Y XYZ_Z 
END_DATA_FORMAT

NUMBER_OF_SETS 3
BEGIN_DATA
2.1734 0.055377 0.91092 
0.87524 2.9121 -0.52949 
-0.75865 -1.9109 6.0180 
END_DATA

