archive/calibration-002108.ccmx
CCMX   
DISPLAY	"Factory Calibration"
ORIGINATOR	"ColorHug Factory"
REFERENCE	"ColorMunki"
CREATED	"Sun Sep 15 20:36:26 2013"
DESCRIPTOR	"Device Correction Matrix"
COLOR_REP	"XYZ"
NUMBER_OF_FIELDS	3
NUMBER_OF_SETS	3
INSTRUMENT	"Hughski ColorHug"
TYPE_FACTORY	"YES"
BEGIN_DATA_FORMAT
 XYZ_X	XYZ_Y	XYZ_Z
END_DATA_FORMAT
BEGIN_DATA
 1.2026811663770345	0.59592834221874091	0.73392790974454902
 0.42926946744953792	4.1038387136615482	-0.74486717079439246
 -0.6558511321445506	-1.6119303113188856	5.3536508840382906
END_DATA
