archive/calibration-002187.ccmx
CCMX   
DISPLAY	"Factory Calibration"
ORIGINATOR	"ColorHug Factory"
REFERENCE	"ColorMunki"
CREATED	"Wed Nov 20 20:51:57 2013"
DESCRIPTOR	"Device Correction Matrix"
COLOR_REP	"XYZ"
NUMBER_OF_FIELDS	3
NUMBER_OF_SETS	3
INSTRUMENT	"Hughski ColorHug"
TYPE_FACTORY	"YES"
BEGIN_DATA_FORMAT
 XYZ_X	XYZ_Y	XYZ_Z
END_DATA_FORMAT
BEGIN_DATA
 1.220147829908321	0.55629207401751113	0.8527362742243636
 0.44097455048141199	4.1193981767100265	-0.68264913749954059
 -0.61351453370881159	-1.5499983469218119	5.8843818281621552
END_DATA
