archive/calibration-000022.ccmx
CCMX   
DESCRIPTOR "ColorHug & LCD"
KEYWORD "INSTRUMENT"
INSTRUMENT "ColorHug"
KEYWORD "DISPLAY"
DISPLAY "Factory Calibration"
KEYWORD "REFERENCE"
REFERENCE "X-Rite ColorMunki"
ORIGINATOR "Argyll ccmx"
CREATED "Thu Jan  5 21:45:18 2012"
KEYWORD "COLOR_REP"
COLOR_REP "XYZ"
KEYWORD "TYPE_FACTORY"
TYPE_FACTORY "YES"
NUMBER_OF_FIELDS 3
BEGIN_DATA_FORMAT
XYZ_X XYZ_Y XYZ_Z 
END_DATA_FORMAT
NUMBER_OF_SETS 3
BEGIN_DATA
1.7214 -0.15500 1.0553 
0.83486 2.2553 -0.32737 
-0.42462 -1.9413 5.5670 
END_DATA
