archive/calibration-002778.ccmx
CCMX   
DISPLAY	"Factory Calibration"
ORIGINATOR	"ColorHug Factory"
REFERENCE	"X-Rite ColorMunki"
CREATED	"Tue May 05 20:53:30 2015"
DESCRIPTOR	"Device Correction Matrix"
COLOR_REP	"XYZ"
NUMBER_OF_FIELDS	3
NUMBER_OF_SETS	3
INSTRUMENT	"Hughski ColorHug"
TYPE_FACTORY	"YES"
BEGIN_DATA_FORMAT
 XYZ_X	XYZ_Y	XYZ_Z
END_DATA_FORMAT
BEGIN_DATA
 0.46754585009	0.208919379217	0.231641217585
 0.201610108159	0.884657838387	-0.179274285051
 -0.223232160126	-0.474789020073	1.871844931438
END_DATA
