archive/calibration-002006.ccmx
CCMX   
DISPLAY	"Factory Calibration"
ORIGINATOR	"ColorHug Factory"
REFERENCE	"ColorMunki"
CREATED	"Sun May 26 10:08:26 2013"
DESCRIPTOR	"Device Correction Matrix"
COLOR_REP	"XYZ"
NUMBER_OF_FIELDS	3
NUMBER_OF_SETS	3
INSTRUMENT	"Hughski ColorHug"
TYPE_FACTORY	"YES"
BEGIN_DATA_FORMAT
 XYZ_X	XYZ_Y	XYZ_Z
END_DATA_FORMAT
BEGIN_DATA
 1.6276910841705829	0.27402118976367129	0.58978494761459277
 0.63913650557272861	2.6849865579926799	-0.46103049808812274
 -0.44124668128353872	-1.1529229097034495	4.0441818286295215
END_DATA
