archive/calibration-002397.ccmx
CCMX   
DISPLAY	"Factory Calibration"
ORIGINATOR	"ColorHug Factory"
REFERENCE	"ColorMunki"
CREATED	"Wed May 14 20:25:29 2014"
DESCRIPTOR	"Device Correction Matrix"
COLOR_REP	"XYZ"
NUMBER_OF_FIELDS	3
NUMBER_OF_SETS	3
INSTRUMENT	"Hughski ColorHug"
TYPE_FACTORY	"YES"
BEGIN_DATA_FORMAT
 XYZ_X	XYZ_Y	XYZ_Z
END_DATA_FORMAT
BEGIN_DATA
 1.103649438219	0.933875283255	0.663806560439
 0.386692455457	4.850142852046	-0.844872899179
 -0.615927984404	-1.445380910907	5.22375649287
END_DATA
