archive/calibration-001923.ccmx
CCMX   
DISPLAY	"Factory Calibration"
ORIGINATOR	"ColorHug Factory"
REFERENCE	"ColorMunki"
CREATED	"Sat May 25 21:40:06 2013"
DESCRIPTOR	"Device Correction Matrix"
COLOR_REP	"XYZ"
NUMBER_OF_FIELDS	3
NUMBER_OF_SETS	3
INSTRUMENT	"Hughski ColorHug"
TYPE_FACTORY	"YES"
BEGIN_DATA_FORMAT
 XYZ_X	XYZ_Y	XYZ_Z
END_DATA_FORMAT
BEGIN_DATA
 1.6196656215483296	0.23031045083544599	0.62249982785623159
 0.63448776128868989	2.7408805199946635	-0.4910139552446971
 -0.49605734469330731	-1.282335550615523	4.2340220971544893
END_DATA
