archive/calibration-001898.ccmx
CCMX   
DISPLAY	"Factory Calibration"
ORIGINATOR	"ColorHug Factory"
REFERENCE	"ColorMunki"
CREATED	"Sat May 25 16:56:50 2013"
DESCRIPTOR	"Device Correction Matrix"
COLOR_REP	"XYZ"
NUMBER_OF_FIELDS	3
NUMBER_OF_SETS	3
INSTRUMENT	"Hughski ColorHug"
TYPE_FACTORY	"YES"
BEGIN_DATA_FORMAT
 XYZ_X	XYZ_Y	XYZ_Z
END_DATA_FORMAT
BEGIN_DATA
 1.5087967192027221	0.1976617354180859	0.60378173172321203
 0.59592320712254532	2.4431639408748316	-0.42176207902748514
 -0.43614484504575085	-1.1811076032404015	4.0247914663736317
END_DATA
