archive/calibration-000220.ccmx
CCMX   

DESCRIPTOR "ColorHug & LCD"
KEYWORD "INSTRUMENT"
INSTRUMENT "ColorHug"
KEYWORD "DISPLAY"
DISPLAY "Factory Calibration"
KEYWORD "TECHNOLOGY"
TECHNOLOGY "LCD"
KEYWORD "REFERENCE"
REFERENCE "X-Rite ColorMunki"
ORIGINATOR "Argyll ccmx"
CREATED "Mon Apr  2 09:01:22 2012"
KEYWORD "COLOR_REP"
KEYWORD "TYPE_LCD"
TYPE_LCD "YES"
KEYWORD "TYPE_LED"
TYPE_LED "YES"
KEYWORD "TYPE_CRT"
TYPE_CRT "YES"
KEYWORD "TYPE_PROJECTOR"
TYPE_PROJECTOR "YES"
KEYWORD "TYPE_FACTORY"
TYPE_FACTORY "YES"

COLOR_REP "XYZ"

NUMBER_OF_FIELDS 3
BEGIN_DATA_FORMAT
XYZ_X XYZ_Y XYZ_Z 
END_DATA_FORMAT

NUMBER_OF_SETS 3
BEGIN_DATA
1.3733 0.098979 0.84968 
0.54663 2.7007 -0.46022 
-0.61138 -1.7234 5.4053 
END_DATA

