archive/calibration-001866.ccmx
CCMX   
DISPLAY	"Factory Calibration"
ORIGINATOR	"ColorHug Factory"
REFERENCE	"X-Rite ColorMunki"
CREATED	"Wed Apr 10 09:44:49 2013"
DESCRIPTOR	"Device Correction Matrix"
COLOR_REP	"XYZ"
NUMBER_OF_FIELDS	3
NUMBER_OF_SETS	3
INSTRUMENT	"Hughski ColorHug"
TYPE_FACTORY	"YES"
BEGIN_DATA_FORMAT
 XYZ_X	XYZ_Y	XYZ_Z
END_DATA_FORMAT
BEGIN_DATA
 1.678129547	0.1290555487	0.6062189404
 0.6777683934	2.24532607	-0.3857136224
 -0.4496593765	-1.191177508	3.954916763
END_DATA
