archive/calibration-002469.ccmx
CCMX   
DISPLAY	"Factory Calibration"
ORIGINATOR	"ColorHug Factory"
REFERENCE	"ColorMunki"
CREATED	"Wed Jun 11 20:01:00 2014"
DESCRIPTOR	"Device Correction Matrix"
COLOR_REP	"XYZ"
NUMBER_OF_FIELDS	3
NUMBER_OF_SETS	3
INSTRUMENT	"Hughski ColorHug"
TYPE_FACTORY	"YES"
BEGIN_DATA_FORMAT
 XYZ_X	XYZ_Y	XYZ_Z
END_DATA_FORMAT
BEGIN_DATA
 1.236952918261	0.924324399253	0.648818087414
 0.424782580345	4.940854562325	-0.900648661988
 -0.612874887281	-1.387364973655	5.20185665525
END_DATA
