archive/calibration-001967.ccmx
CCMX   
DISPLAY	"Factory Calibration"
ORIGINATOR	"ColorHug Factory"
REFERENCE	"ColorMunki"
CREATED	"Sun May 26 09:27:04 2013"
DESCRIPTOR	"Device Correction Matrix"
COLOR_REP	"XYZ"
NUMBER_OF_FIELDS	3
NUMBER_OF_SETS	3
INSTRUMENT	"Hughski ColorHug"
TYPE_FACTORY	"YES"
BEGIN_DATA_FORMAT
 XYZ_X	XYZ_Y	XYZ_Z
END_DATA_FORMAT
BEGIN_DATA
 1.5822014060606233	0.20780164710437471	0.66558243160495256
 0.62509442610834509	2.6217025024478953	-0.44030685143944132
 -0.46598620514201822	-1.2875298389701164	4.3727817315351265
END_DATA
