archive/calibration-001999.ccmx
CCMX   
DISPLAY	"Factory Calibration"
ORIGINATOR	"ColorHug Factory"
REFERENCE	"ColorMunki"
CREATED	"Sun May 26 09:56:24 2013"
DESCRIPTOR	"Device Correction Matrix"
COLOR_REP	"XYZ"
NUMBER_OF_FIELDS	3
NUMBER_OF_SETS	3
INSTRUMENT	"Hughski ColorHug"
TYPE_FACTORY	"YES"
BEGIN_DATA_FORMAT
 XYZ_X	XYZ_Y	XYZ_Z
END_DATA_FORMAT
BEGIN_DATA
 1.5952444778500914	0.18927634171221294	0.62815458323368611
 0.6356689512591811	2.5317152340788103	-0.41421215077762352
 -0.44571974052729391	-1.2337784578548485	4.129715882117333
END_DATA
