archive/calibration-001900.ccmx
CCMX   
DISPLAY	"Factory Calibration"
ORIGINATOR	"ColorHug Factory"
REFERENCE	"ColorMunki"
CREATED	"Sat May 25 16:56:51 2013"
DESCRIPTOR	"Device Correction Matrix"
COLOR_REP	"XYZ"
NUMBER_OF_FIELDS	3
NUMBER_OF_SETS	3
INSTRUMENT	"Hughski ColorHug"
TYPE_FACTORY	"YES"
BEGIN_DATA_FORMAT
 XYZ_X	XYZ_Y	XYZ_Z
END_DATA_FORMAT
BEGIN_DATA
 1.5524354035713253	0.24718414999986818	0.62138003172868939
 0.62105901191464719	2.6449122274846957	-0.44595014012205675
 -0.44752745013191131	-1.2246347275460192	4.1478190435210616
END_DATA
