archive/calibration-000266.ccmx
CCMX   
DESCRIPTOR "ColorHug & LCD"
KEYWORD "INSTRUMENT"
INSTRUMENT "ColorHug"
KEYWORD "DISPLAY"
DISPLAY "Factory Calibration"
KEYWORD "TECHNOLOGY"
TECHNOLOGY "LCD"
KEYWORD "REFERENCE"
REFERENCE "X-Rite ColorMunki"
ORIGINATOR "Argyll ccmx"
CREATED "Mon Apr  9 16:37:07 2012"
KEYWORD "COLOR_REP"
KEYWORD "TYPE_FACTORY"
TYPE_FACTORY "YES"
KEYWORD "TYPE_LED"
TYPE_LED "YES"
KEYWORD "TYPE_FACTORY"
TYPE_FACTORY "YES"
COLOR_REP "XYZ"
NUMBER_OF_FIELDS 3
BEGIN_DATA_FORMAT
XYZ_X XYZ_Y XYZ_Z 
END_DATA_FORMAT
NUMBER_OF_SETS 3
BEGIN_DATA
1.4682 0.17156 0.75952 
0.57823 2.6036 -0.46405 
-0.60297 -1.5363 5.0936 
END_DATA
