archive/calibration-000327.ccmx
CCMX   
DESCRIPTOR "ColorHug & LCD"
KEYWORD "INSTRUMENT"
INSTRUMENT "ColorHug"
KEYWORD "DISPLAY"
DISPLAY "Factory Calibration"
KEYWORD "TECHNOLOGY"
TECHNOLOGY "LCD"
KEYWORD "REFERENCE"
REFERENCE "X-Rite ColorMunki"
ORIGINATOR "Argyll ccmx"
CREATED "Mon Apr  9 22:13:37 2012"
KEYWORD "COLOR_REP"
KEYWORD "TYPE_FACTORY"
TYPE_FACTORY "YES"
KEYWORD "TYPE_LED"
TYPE_LED "YES"
KEYWORD "TYPE_FACTORY"
TYPE_FACTORY "YES"
COLOR_REP "XYZ"
NUMBER_OF_FIELDS 3
BEGIN_DATA_FORMAT
XYZ_X XYZ_Y XYZ_Z 
END_DATA_FORMAT
NUMBER_OF_SETS 3
BEGIN_DATA
1.4889 0.049119 0.98386 
0.63533 2.9201 -0.50171 
-0.65055 -2.1095 6.3165 
END_DATA
