archive/calibration-000143.ccmx
CCMX   
DESCRIPTOR "ColorHug & LCD"
KEYWORD "INSTRUMENT"
INSTRUMENT "ColorHug"
KEYWORD "DISPLAY"
DISPLAY "Factory Calibration"
KEYWORD "REFERENCE"
REFERENCE "X-Rite ColorMunki"
ORIGINATOR "Argyll ccmx"
CREATED "Sun Feb 26 21:01:02 2012"
KEYWORD "COLOR_REP"
COLOR_REP "XYZ"
KEYWORD "TYPE_FACTORY"
TYPE_FACTORY "YES"
KEYWORD "TYPE_LED"
TYPE_LED "YES"
KEYWORD "TYPE_FACTORY"
TYPE_FACTORY "YES"
NUMBER_OF_FIELDS 3
BEGIN_DATA_FORMAT
XYZ_X XYZ_Y XYZ_Z 
END_DATA_FORMAT
NUMBER_OF_SETS 3
BEGIN_DATA
1.3294 0.12593 0.83526 
0.54516 2.6263 -0.43478 
-0.69584 -1.8463 5.4583 
END_DATA
