archive/calibration-000028.ccmx
CCMX   

DESCRIPTOR "ColorHug & LCD"
KEYWORD "INSTRUMENT"
INSTRUMENT "ColorHug"
KEYWORD "DISPLAY"
DISPLAY "Factory Calibration"
KEYWORD "REFERENCE"
REFERENCE "X-Rite ColorMunki"
ORIGINATOR "Argyll ccmx"
CREATED "Fri Jan  6 08:46:21 2012"
KEYWORD "COLOR_REP"
COLOR_REP "XYZ"

KEYWORD "TYPE_LCD"
TYPE_LCD "YES"
KEYWORD "TYPE_CRT"
TYPE_CRT "YES"
KEYWORD "TYPE_PROJECTOR"
TYPE_PROJECTOR "YES"

NUMBER_OF_FIELDS 3
BEGIN_DATA_FORMAT
XYZ_X XYZ_Y XYZ_Z 
END_DATA_FORMAT

NUMBER_OF_SETS 3
BEGIN_DATA
1.4694 0.092149 0.84989 
0.59681 2.5159 -0.42777 
-0.62680 -1.7392 5.5065 
END_DATA
