archive/calibration-002029.ccmx
CCMX   
DISPLAY	"Factory Calibration"
ORIGINATOR	"ColorHug Factory"
REFERENCE	"ColorMunki"
CREATED	"Sun May 26 10:17:35 2013"
DESCRIPTOR	"Device Correction Matrix"
COLOR_REP	"XYZ"
NUMBER_OF_FIELDS	3
NUMBER_OF_SETS	3
INSTRUMENT	"Hughski ColorHug"
TYPE_FACTORY	"YES"
BEGIN_DATA_FORMAT
 XYZ_X	XYZ_Y	XYZ_Z
END_DATA_FORMAT
BEGIN_DATA
 1.6348278522894275	0.22837227428163684	0.74055448124130541
 0.64892584861747882	2.915357964321593	-0.48461703372350651
 -0.55840469839228746	-1.4714613727983703	4.8873851930904957
END_DATA
