archive/calibration-001586.ccmx
CCMX   
DISPLAY	"Factory Calibration"
ORIGINATOR	"ColorHug Factory"
REFERENCE	"ColorMunki"
DESCRIPTOR	"Device Correction Matrix"
COLOR_REP	"XYZ"
NUMBER_OF_FIELDS	3
NUMBER_OF_SETS	3
INSTRUMENT	"Hughski ColorHug"
TYPE_FACTORY	"TRUE"
BEGIN_DATA_FORMAT
 XYZ_X	XYZ_Y	XYZ_Z
END_DATA_FORMAT
BEGIN_DATA
 1.64219267	0.1233918371	0.6050709786
 0.6548365748	2.140449034	-0.3692649957
 -0.4236799501	-1.148735324	3.979472256
END_DATA
