archive/calibration-002169.ccmx
CCMX   
DISPLAY	"Factory Calibration"
ORIGINATOR	"ColorHug Factory"
REFERENCE	"ColorMunki"
CREATED	"Wed Nov 20 20:35:40 2013"
DESCRIPTOR	"Device Correction Matrix"
COLOR_REP	"XYZ"
NUMBER_OF_FIELDS	3
NUMBER_OF_SETS	3
INSTRUMENT	"Hughski ColorHug"
TYPE_FACTORY	"YES"
BEGIN_DATA_FORMAT
 XYZ_X	XYZ_Y	XYZ_Z
END_DATA_FORMAT
BEGIN_DATA
 1.1901513781590181	0.58491541171244632	0.7938149997916587
 0.43328223271034677	4.0966883455296816	-0.67503567783730445
 -0.54342621743082975	-1.4358237391084765	5.5362804837794499
END_DATA
