archive/calibration-002134.ccmx
CCMX   
DISPLAY	"Factory Calibration"
ORIGINATOR	"ColorHug Factory"
REFERENCE	"ColorMunki"
CREATED	"Sun Sep 15 20:50:39 2013"
DESCRIPTOR	"Device Correction Matrix"
COLOR_REP	"XYZ"
NUMBER_OF_FIELDS	3
NUMBER_OF_SETS	3
INSTRUMENT	"Hughski ColorHug"
TYPE_FACTORY	"YES"
BEGIN_DATA_FORMAT
 XYZ_X	XYZ_Y	XYZ_Z
END_DATA_FORMAT
BEGIN_DATA
 1.0762190563414016	0.54734908483662381	0.78714338381472992
 0.37731610691432971	3.7384649502334777	-0.61295042141190459
 -0.51963400959387318	-1.3511331523382466	5.4400795737023451
END_DATA
