archive/calibration-002065.ccmx
CCMX   
DISPLAY	"Factory Calibration"
ORIGINATOR	"ColorHug Factory"
REFERENCE	"ColorMunki"
CREATED	"Sun Sep 15 20:06:26 2013"
DESCRIPTOR	"Device Correction Matrix"
COLOR_REP	"XYZ"
NUMBER_OF_FIELDS	3
NUMBER_OF_SETS	3
INSTRUMENT	"Hughski ColorHug"
TYPE_FACTORY	"YES"
BEGIN_DATA_FORMAT
 XYZ_X	XYZ_Y	XYZ_Z
END_DATA_FORMAT
BEGIN_DATA
 1.0755907820203181	0.4191664956333821	0.73975330367376857
 0.39981803109346953	3.3670539896968856	-0.60355712511242166
 -0.61970207926935639	-1.5645692308157133	5.124142761325718
END_DATA
