upload/colorhug-lenovo-t510.ccmx
CCMX   

DESCRIPTOR "Hughski ColorHug & LCD"
KEYWORD "INSTRUMENT"
INSTRUMENT "Hughski ColorHug"
KEYWORD "DISPLAY"
DISPLAY "Lenovo T510"
KEYWORD "REFERENCE"
REFERENCE "X-Rite ColorMunki"
ORIGINATOR "Argyll ccmx"
CREATED "Tue Jan 10 15:35:54 2012"
KEYWORD "COLOR_REP"
COLOR_REP "XYZ"

KEYWORD "TYPE_LCD"
TYPE_LCD "YES"

NUMBER_OF_FIELDS 3
BEGIN_DATA_FORMAT
XYZ_X XYZ_Y XYZ_Z 
END_DATA_FORMAT

NUMBER_OF_SETS 3
BEGIN_DATA
1.1021 0.069314 6.4043e-03 
0.064766 1.1224 1.1449e-03 
0.093469 -0.089979 1.1646 
END_DATA
