upload/colorhug-dell-U2410-adobeRGB.ccmx
CCMX   

DESCRIPTOR "Hughski ColorHug & LCD"
KEYWORD "INSTRUMENT"
INSTRUMENT "Hughski ColorHug"
KEYWORD "DISPLAY"
DISPLAY "DELL U2410 (AdobeRGB)"
KEYWORD "REFERENCE"
REFERENCE "GretagMacbeth i1 Pro"
ORIGINATOR "Argyll ccmx"
CREATED "Mon Apr  9 01:50:08 2012"
KEYWORD "COLOR_REP"
COLOR_REP "XYZ"

KEYWORD "TYPE_LCD"
TYPE_LCD "YES"

NUMBER_OF_FIELDS 3
BEGIN_DATA_FORMAT
XYZ_X XYZ_Y XYZ_Z 
END_DATA_FORMAT

NUMBER_OF_SETS 3
BEGIN_DATA
0.55597 -0.054577 -0.053661 
0.013115 0.48543 -0.021232 
0.028404 -0.079954 0.48505 
END_DATA
