upload/colorhug-dell-U2410-standard.ccmx
CCMX   

DESCRIPTOR "Hughski ColorHug & LCD"
KEYWORD "INSTRUMENT"
INSTRUMENT "Hughski ColorHug"
KEYWORD "DISPLAY"
DISPLAY "DELL U2410 (standard)"
KEYWORD "REFERENCE"
REFERENCE "GretagMacbeth i1 Pro"
ORIGINATOR "Argyll ccmx"
CREATED "Mon Apr  9 01:49:06 2012"
KEYWORD "COLOR_REP"
COLOR_REP "XYZ"

NUMBER_OF_FIELDS 3
BEGIN_DATA_FORMAT
XYZ_X XYZ_Y XYZ_Z 
END_DATA_FORMAT

NUMBER_OF_SETS 3
BEGIN_DATA
0.46395 -0.043920 -0.039037 
5.2324e-03 0.41805 -0.014550 
0.023676 -0.071131 0.43588 
END_DATA
