upload/colorhug-asus-eee-pc-1215p.ccmx
CCMX   

DESCRIPTOR "Hughski ColorHug & LCD"
KEYWORD "INSTRUMENT"
INSTRUMENT "Hughski ColorHug"
KEYWORD "DISPLAY"
DISPLAY "Asus Eee PC 1215P"
KEYWORD "TECHNOLOGY"
TECHNOLOGY "LCD"
KEYWORD "REFERENCE"
REFERENCE "X-Rite ColorMunki"
ORIGINATOR "Argyll ccmx"
CREATED "Wed Dec 19 18:47:57 2012"
KEYWORD "COLOR_REP"
COLOR_REP "XYZ"

KEYWORD "TYPE_LCD"
TYPE_LCD "YES"

NUMBER_OF_FIELDS 3
BEGIN_DATA_FORMAT
XYZ_X XYZ_Y XYZ_Z 
END_DATA_FORMAT

NUMBER_OF_SETS 3
BEGIN_DATA
0.61400 0.061849 -0.066744 
0.077007 0.55623 -0.035213 
0.040035 6.8985e-03 0.54725 
END_DATA
