data/calibration-001570.ti3
CTI3   
ORIGINATOR	"ColorHug Factory"
DESCRIPTOR	"Calibration Target chart information 3"
DEVICE_CLASS	"DISPLAY"
COLOR_REP	"RGB_XYZ"
TARGET_INSTRUMENT	"Hughski ColorHug"
INSTRUMENT_TYPE_SPECTRAL	"NO"
NORMALIZED_TO_Y_100	"NO"
NUMBER_OF_FIELDS	7
NUMBER_OF_SETS	15
BEGIN_DATA_FORMAT
 SAMPLE_ID	RGB_R	RGB_G	RGB_B	XYZ_X	XYZ_Y	XYZ_Z
END_DATA_FORMAT
BEGIN_DATA
 1	0	0	0	0	0.04577636719	0.04577636719
 2	1	1	1	34.56115723	34.01184082	41.65649414
 3	1	0	0	20.73669434	2.60925293	3.524780273
 4	0	1	0	12.31384277	24.26147461	11.39831543
 5	0	0	1	0.732421875	7.095336914	26.68762207
 6	0	0	0	0	0.04577636719	0.09155273438
 7	1	1	1	34.28649902	33.92028809	41.51916504
 8	1	0	0	20.82824707	2.60925293	3.524780273
 9	0	1	0	12.31384277	24.26147461	11.39831543
 10	0	0	1	0.732421875	7.095336914	26.5045166
 11	0	0	0	0	0.04577636719	0.04577636719
 12	1	1	1	34.51538086	33.96606445	41.56494141
 13	1	0	0	20.73669434	2.60925293	3.524780273
 14	0	1	0	12.31384277	24.21569824	11.4440918
 15	0	0	1	0.732421875	7.095336914	26.73339844
END_DATA
