data/calibration-001209.ti3
CTI3   
ORIGINATOR	"ColorHug Factory"
DESCRIPTOR	"Calibration Target chart information 3"
DEVICE_CLASS	"DISPLAY"
COLOR_REP	"RGB_XYZ"
TARGET_INSTRUMENT	"Hughski ColorHug"
INSTRUMENT_TYPE_SPECTRAL	"NO"
NORMALIZED_TO_Y_100	"NO"
NUMBER_OF_FIELDS	7
NUMBER_OF_SETS	15
BEGIN_DATA_FORMAT
 SAMPLE_ID	RGB_R	RGB_G	RGB_B	XYZ_X	XYZ_Y	XYZ_Z
END_DATA_FORMAT
BEGIN_DATA
 1	0	0	0	0	0	0
 2	1	1	1	42.66357422	51.31530762	60.74523926
 3	1	0	0	24.12414551	3.433227539	4.165649414
 4	0	1	0	14.96887207	36.11755371	16.15905762
 5	0	0	1	0.8697509766	10.80322266	39.27612305
 6	0	0	0	0	0	0
 7	1	1	1	42.52624512	51.31530762	60.79101562
 8	1	0	0	24.03259277	3.433227539	4.165649414
 9	0	1	0	14.83154297	36.02600098	16.15905762
 10	0	0	1	0.8697509766	10.80322266	39.45922852
 11	0	0	0	0	0	0
 12	1	1	1	42.57202148	51.31530762	60.74523926
 13	1	0	0	24.12414551	3.433227539	4.165649414
 14	0	1	0	14.7857666	35.79711914	16.20483398
 15	0	0	1	0.8697509766	10.80322266	39.18457031
END_DATA
