data/calibration-001658.ti3
CTI3   
ORIGINATOR	"ColorHug Factory"
CREATED	"Thu Feb 14 22:47:20 2013"
DESCRIPTOR	"Calibration Target chart information 3"
DEVICE_CLASS	"DISPLAY"
COLOR_REP	"RGB_XYZ"
TARGET_INSTRUMENT	"Hughski ColorHug"
INSTRUMENT_TYPE_SPECTRAL	"NO"
NORMALIZED_TO_Y_100	"NO"
NUMBER_OF_FIELDS	7
NUMBER_OF_SETS	15
BEGIN_DATA_FORMAT
 SAMPLE_ID	RGB_R	RGB_G	RGB_B	XYZ_X	XYZ_Y	XYZ_Z
END_DATA_FORMAT
BEGIN_DATA
 1	0	0	0	0	0	0.04577636719
 2	1	1	1	31.99768066	36.11755371	47.65319824
 3	1	0	0	18.49365234	2.426147461	3.067016602
 4	0	1	0	11.39831543	25.03967285	11.5814209
 5	0	0	1	0.8239746094	8.239746094	32.13500977
 6	0	0	0	0	0	0.04577636719
 7	1	1	1	32.13500977	36.16333008	47.69897461
 8	1	0	0	18.44787598	2.426147461	3.067016602
 9	0	1	0	11.3067627	25.08544922	11.5814209
 10	0	0	1	0.8239746094	8.239746094	32.5012207
 11	0	0	0	0	0	0.04577636719
 12	1	1	1	32.13500977	36.30065918	47.83630371
 13	1	0	0	18.40209961	2.426147461	3.067016602
 14	0	1	0	11.39831543	25.03967285	11.5814209
 15	0	0	1	0.8239746094	8.285522461	32.59277344
END_DATA
