data/calibration-001733.ti3
CTI3   
ORIGINATOR	"ColorHug Factory"
CREATED	"Wed Feb 20 20:24:22 2013"
DESCRIPTOR	"Calibration Target chart information 3"
DEVICE_CLASS	"DISPLAY"
COLOR_REP	"RGB_XYZ"
TARGET_INSTRUMENT	"Hughski ColorHug"
INSTRUMENT_TYPE_SPECTRAL	"NO"
NORMALIZED_TO_Y_100	"NO"
NUMBER_OF_FIELDS	7
NUMBER_OF_SETS	15
BEGIN_DATA_FORMAT
 SAMPLE_ID	RGB_R	RGB_G	RGB_B	XYZ_X	XYZ_Y	XYZ_Z
END_DATA_FORMAT
BEGIN_DATA
 1	0	0	0	0.1831054688	0.2288818359	0.2288818359
 2	1	1	1	43.85375977	44.12841797	54.42810059
 3	1	0	0	26.41296387	3.387451172	4.165649414
 4	0	1	0	15.42663574	31.35681152	13.82446289
 5	0	0	1	1.190185547	9.567260742	36.94152832
 6	0	0	0	0.1831054688	0.2288818359	0.2288818359
 7	1	1	1	43.8079834	44.17419434	54.38232422
 8	1	0	0	26.18408203	3.387451172	4.165649414
 9	0	1	0	15.42663574	31.40258789	13.77868652
 10	0	0	1	1.190185547	9.567260742	36.75842285
 11	0	0	0	0.1831054688	0.2288818359	0.2288818359
 12	1	1	1	43.62487793	44.0826416	54.79431152
 13	1	0	0	26.00097656	3.387451172	4.165649414
 14	0	1	0	15.42663574	31.35681152	13.82446289
 15	0	0	1	1.190185547	9.567260742	36.80419922
END_DATA
