data/calibration-001411.ti3
CTI3   
ORIGINATOR	"ColorHug Factory"
DESCRIPTOR	"Calibration Target chart information 3"
DEVICE_CLASS	"DISPLAY"
COLOR_REP	"RGB_XYZ"
TARGET_INSTRUMENT	"Hughski ColorHug"
INSTRUMENT_TYPE_SPECTRAL	"NO"
NORMALIZED_TO_Y_100	"NO"
NUMBER_OF_FIELDS	7
NUMBER_OF_SETS	15
BEGIN_DATA_FORMAT
 SAMPLE_ID	RGB_R	RGB_G	RGB_B	XYZ_X	XYZ_Y	XYZ_Z
END_DATA_FORMAT
BEGIN_DATA
 1	0	0	0	0.09155273438	0.1373291016	0.1373291016
 2	1	1	1	32.40966797	32.40966797	39.64233398
 3	1	0	0	19.59228516	2.517700195	3.341674805
 4	0	1	0	11.67297363	23.20861816	10.80322266
 5	0	0	1	0.8239746094	6.912231445	25.81787109
 6	0	0	0	0.09155273438	0.1373291016	0.1373291016
 7	1	1	1	32.18078613	32.5012207	39.91699219
 8	1	0	0	19.27185059	2.471923828	3.341674805
 9	0	1	0	11.5814209	23.0255127	10.71166992
 10	0	0	1	0.8239746094	6.912231445	25.86364746
 11	0	0	0	0.09155273438	0.1373291016	0.1373291016
 12	1	1	1	32.40966797	32.73010254	40.05432129
 13	1	0	0	19.27185059	2.471923828	3.341674805
 14	0	1	0	11.5814209	23.11706543	10.71166992
 15	0	0	1	0.8239746094	6.912231445	25.86364746
END_DATA
