data/calibration-001354.ti3
CTI3   
ORIGINATOR	"ColorHug Factory"
DESCRIPTOR	"Calibration Target chart information 3"
DEVICE_CLASS	"DISPLAY"
COLOR_REP	"RGB_XYZ"
TARGET_INSTRUMENT	"Hughski ColorHug"
INSTRUMENT_TYPE_SPECTRAL	"NO"
NORMALIZED_TO_Y_100	"NO"
NUMBER_OF_FIELDS	7
NUMBER_OF_SETS	15
BEGIN_DATA_FORMAT
 SAMPLE_ID	RGB_R	RGB_G	RGB_B	XYZ_X	XYZ_Y	XYZ_Z
END_DATA_FORMAT
BEGIN_DATA
 1	0	0	0	0.09155273438	0.09155273438	0.1373291016
 2	1	1	1	30.30395508	31.63146973	39.82543945
 3	1	0	0	18.12744141	2.334594727	3.067016602
 4	0	1	0	10.80322266	22.61352539	10.62011719
 5	0	0	1	0.6866455078	6.729125977	26.32141113
 6	0	0	0	0.09155273438	0.09155273438	0.1373291016
 7	1	1	1	29.89196777	31.21948242	39.73388672
 8	1	0	0	18.17321777	2.334594727	3.067016602
 9	0	1	0	10.75744629	22.61352539	10.57434082
 10	0	0	1	0.6866455078	6.729125977	26.2298584
 11	0	0	0	0.09155273438	0.09155273438	0.1373291016
 12	1	1	1	30.12084961	31.44836426	39.82543945
 13	1	0	0	18.03588867	2.334594727	3.112792969
 14	0	1	0	10.80322266	22.38464355	10.57434082
 15	0	0	1	0.6866455078	6.729125977	26.27563477
END_DATA
