data/calibration-000116.ti3
CTI3
DESCRIPTOR	"Calibration Target chart information 3"
ORIGINATOR	"ColorHug Factory"
DEVICE_CLASS	"DISPLAY"
COLOR_REP	"RGB_XYZ"
TARGET_INSTRUMENT	"ColorHug"
INSTRUMENT_TYPE_SPECTRAL	"NO"
LUMINANCE_XYZ_CDM2	"53.352356 38.841248 41.175842"
NORMALIZED_TO_Y_100	"YES"
NUMBER_OF_FIELDS	7
NUMBER_OF_SETS	836
BEGIN_DATA_FORMAT
 SAMPLE_ID	RGB_R	RGB_G	RGB_B	XYZ_X	XYZ_Y	XYZ_Z
END_DATA_FORMAT
BEGIN_DATA
 1	100	100	100	130.4806565	99.64830012	105.3927315
 2	100	100	100	138.3352872	98.47596717	105.1582649
 3	100	100	100	139.5076202	100	105.8616647
 4	100	100	100	138.2180539	99.76553341	105.3927315
 5	33.33	32.622	30.968	13.71629543	8.558030481	8.558030481
 6	100	0	100	87.22157093	27.08089097	73.15357562
 7	100	100	0	137.045721	82.41500586	45.72098476
 8	0	100	100	49.94138335	90.38686987	92.02813599
 9	0	100	0	46.8933177	72.56740914	32.12192263
 10	0	0	100	3.751465416	17.81946073	60.49237984
 11	100	0	0	86.63540445	9.495896835	13.24736225
 12	0	0	0	1.289566237	0.468933177	0.468933177
 13	0	52.455	100	12.77842907	34.46658851	67.52637749
 14	100	0	50.3	86.16647128	13.24736225	25.90855803
 15	100	54.739	100	100.9378664	45.60375147	81.5943728
 16	100	52.128	0	98.47596717	25.67409144	20.63305979
 17	0	0	46.181	2.227432591	3.282532239	10.31652989
 18	0	51.141	0	10.66822978	16.17819461	7.385697538
 19	0	100	51.348	46.42438453	76.78780774	45.36928488
 20	100	100	52.037	135.6389215	86.16647128	59.32004689
 21	49.216	0	0	18.4056272	2.227432591	3.048065651
 22	56.159	100	0	69.51934349	75.02930832	35.75615475
 23	49.226	100	100	66.58851114	92.49706917	94.13833529
 24	44.487	0	100	17.46776084	19.34349355	62.48534584
 25	100	44.498	52.029	94.84173505	25.32239156	32.00468933
 26	48.926	48.544	100	29.07385698	33.88042204	69.4021102
 27	51.368	100	47.25	66.23681125	78.07737397	46.18991794
 28	49.893	0	49.033	19.10902696	5.744431419	14.88862837
 29	53.109	51.372	0	31.18405627	18.4056272	10.43376319
 30	0	58.587	53.943	15.00586166	25.79132474	24.15005862
 31	100	28.065	100	90.73856975	31.77022274	75.4982415
 32	0	0	72.874	2.110199297	8.440797186	28.13599062
 33	0	26.758	100	4.454865182	21.92262603	61.66471278
 34	0	25.426	0	2.813599062	3.985932005	1.992966002
 35	72.508	0	100	41.96951934	22.15709261	66.47127784
 36	100	27.395	0	90.26963658	13.71629543	15.12309496
 37	74.47	100	100	92.84876905	94.84173505	98.82766706
 38	100	0	25.728	87.10433763	10.43376319	16.4126612
 39	73.862	0	0	43.25908558	4.923798359	6.682297773
 40	100	100	25.402	132.7080891	82.41500586	48.53458382
 41	0	75.751	100	27.31535756	55.80304807	76.90504103
 42	0	75.172	0	24.61899179	37.04572098	16.52989449
 43	0	100	25.864	46.77608441	73.73974209	35.28722157
 44	100	0	74.801	86.98710434	18.2883939	43.14185229
 45	0	100	75.421	50.41031653	82.06330598	63.3059789
 46	24.577	0	0	8.675263775	0.8206330598	1.055099648
 47	26.321	100	0	51.46541618	73.5052755	32.94255569
 48	100	75.835	0	114.1852286	47.36225088	30.24618992
 49	100	100	77.061	136.3423212	91.7936694	77.96014068
 50	71.263	100	0	86.98710434	76.90504103	38.33528722
 51	0	0	15.614	0	0.7033997655	1.524032825
 52	0	30.049	70.936	4.454865182	13.13012896	28.83939039
 53	100	77.691	100	115.7092614	67.64361079	91.44196952
 54	24.486	100	100	55.33411489	91.09026964	92.96600234
 55	100	62.784	31.909	103.985932	35.75615475	29.19109027
 56	29.552	0	100	9.37866354	18.52286049	61.1957796
 57	32.98	70.921	100	30.71512309	50.996483	75.73270809
 58	0	27.681	40.241	3.985932005	6.916764361	9.847596717
 59	67.901	71.021	100	58.85111372	54.51348183	80.42203986
 60	28.154	100	67.829	53.1066823	80.30480657	56.97538101
 61	71.637	100	70.001	88.04220399	84.05627198	64.12661196
 62	58.822	58.763	53.586	41.26611958	28.37045721	27.78429074
 63	33.466	30.48	0	11.72332943	6.447831184	3.86869871
 64	100	73.795	71.277	111.3716295	53.1066823	56.15474795
 65	68.394	29.692	0	43.61078546	9.144196952	7.971864009
 66	70.399	0	29.039	38.6869871	5.627198124	9.964830012
 67	28.078	0	26.956	6.096131301	1.875732708	4.572098476
 68	28.532	72.339	0	27.90152403	34.58382181	16.17819461
 69	100	30.941	26.496	90.26963658	15.94372802	18.99179367
 70	34.597	0	73.611	14.88862837	9.613130129	30.24618992
 71	71.573	0	72.408	40.67995311	12.66119578	33.99765533
 72	0	71.029	29.412	24.15005862	34.11488863	18.87456038
 73	68.386	75.008	0	58.14771395	40.7971864	22.03985932
 74	68.088	27.309	100	40.67995311	26.02579132	67.76084408
 75	100	26.457	73.749	89.8007034	22.15709261	44.43141852
 76	74.344	100	27.392	91.9109027	78.89800703	42.43845252
 77	27.558	100	28.197	54.04454865	74.44314185	36.6940211
 78	31.196	27.465	100	13.13012896	22.97772567	63.07151231
 79	0	75.521	72.824	25.67409144	45.95545135	45.25205158
 80	0	50.93	25.553	11.84056272	16.88159437	10.31652989
 81	32.06	33.584	64.033	12.1922626	13.83352872	25.32239156
 82	81.666	55.38	0	65.88511137	24.85345838	16.76436108
 83	68.257	32.751	58.286	41.14888628	15.35756155	25.67409144
 84	0	55.248	81.585	13.59906213	29.89449004	45.48651817
 85	73.781	52.099	100	55.0996483	38.92145369	74.09144197
 86	100	50.537	82.952	97.42086753	36.10785463	58.73388042
 87	23.55	0	50.439	4.923798359	4.337631887	13.24736225
 88	31.335	62.746	31.114	23.32942556	27.31535756	16.88159437
 89	100	18.31	49.418	87.45603751	15.00586166	26.37749121
 90	26.498	48.404	0	15.35756155	14.88862837	7.385697538
 91	47.91	100	85.744	63.1887456	86.51817116	76.31887456
 92	71.829	47.313	31.811	52.16881594	19.57796014	17.11606096
 93	31.304	64.132	69.316	25.20515826	34.34935522	38.10082063
 94	80.403	0	54.321	52.28604924	10.1992966	22.86049238
 95	18.455	50.036	100	17.46776084	33.41148886	67.52637749
 96	50.653	100	16.345	64.83001172	75.38100821	36.22508792
 97	80.121	100	52.261	99.41383353	82.29777257	53.81008206
 98	0	22.54	19.289	3.165298945	3.86869871	3.516998828
 99	100	75.273	46.886	109.144197	49.58968347	40.56271981
 100	0	78.618	56.625	40.21101993	46.18991794	34.58382181
 101	51.137	80.627	100	49.12075029	63.42321219	82.29777257
 102	48.446	0	17.864	18.05392732	2.579132474	4.454865182
 103	100	50.023	21.211	93.20046893	25.32239156	22.27432591
 104	50.115	20.118	0	21.21922626	4.68933177	4.220398593
 105	58.099	72.426	33.158	46.42438453	38.45252052	24.38452521
 106	19.364	100	50.197	49.70691676	76.43610785	45.36928488
 107	50.683	19.177	100	22.86049238	22.03985932	64.12661196
 108	53.37	0	81.576	22.3915592	13.36459555	40.44548652
 109	47.768	76.245	0	41.26611958	40.21101993	19.69519343
 110	0	18.927	55.503	2.344665885	6.916764361	16.52989449
 111	0	13.277	0	1.172332943	1.406799531	0.937866354
 112	72.862	72.473	75.625	64.47831184	48.06565064	52.40328253
 113	100	13.904	0	87.22157093	10.66822978	13.83352872
 114	86.349	0	100	66.00234467	24.5017585	69.87104338
 115	100	41.941	100	95.31066823	37.51465416	77.84290739
 116	100	81.785	16.464	118.6400938	55.21688159	34.93552169
 117	0	44.063	52.596	9.144196952	16.06096131	19.22626026
 118	0	0	58.917	0.937866354	5.392731536	17.58499414
 119	59.25	24.551	29.789	29.07385698	7.737397421	9.847596717
 120	82.73	82.874	100	84.40797186	70.10550996	89.21453693
 121	80.039	0	12.618	53.34114889	6.096131301	8.909730363
 122	60.957	47.729	77.817	37.98358734	26.6119578	43.72801876
 123	100	0	38.618	84.99413834	11.60609613	20.51582649
 124	0	40.09	100	8.792497069	27.54982415	64.59554513
 125	0	15.283	82.322	2.227432591	12.66119578	38.21805393
 126	17.592	81.726	100	32.00468933	63.1887456	80.77373974
 127	100	14.13	100	87.33880422	28.37045721	74.09144197
 128	15.261	100	82.059	50.41031653	84.17350528	70.22274326
 129	47.77	79.418	60.389	44.54865182	49.23798359	39.74208675
 130	18.768	16.429	0	7.971864009	2.227432591	1.524032825
 131	55.634	100	65.763	69.16764361	82.06330598	58.38218054
 132	100	100	38.541	136.6940211	84.17350528	52.75498242
 133	17.421	0	83.497	20.86752638	11.84056272	39.15592028
 134	17.237	16.758	100	5.158264947	19.69519343	61.66471278
 135	0	15.067	30.039	1.524032825	2.930832356	5.041031653
 136	0	0	86.505	1.758499414	12.54396249	42.20398593
 137	75.736	72.799	50.02	65.2989449	43.25908558	34.7010551
 138	100	83.323	85.529	120.5158265	68.93317702	75.61547479
 139	100	100	64.894	137.7491208	88.39390387	67.76084408
 140	81.98	84.914	0	87.57327081	55.0996483	30.36342321
 141	0	63.757	15.49	21.21922626	26.14302462	12.89566237
 142	49.514	66.135	100	37.74912075	47.47948417	75.26377491
 143	100	0	61.862	81.82883939	15.24032825	32.82532239
 144	24.308	45.41	49.831	12.89566237	16.64712778	18.75732708
 145	15.963	0	17.047	2.227432591	0.937866354	2.110199297
 146	87.497	100	100	111.957796	96.60023447	101.6412661
 147	52.099	25.003	75.752	23.91559203	15.12309496	35.99062134
 148	14.909	81.162	0	30.5978898	44.07971864	19.92966002
 149	0	34.792	14.626	5.041031653	7.620164127	4.572098476
 150	48.39	45.075	22.552	25.20515826	14.88862837	10.66822978
 151	83.545	65.965	100	76.67057444	51.69988277	81.12543962
 152	16.226	62.345	0	18.17116061	24.61899179	11.37162954
 153	63.222	0	14.914	30.48065651	3.985932005	6.096131301
 154	80.449	13.446	0	52.16881594	7.033997655	8.675263775
 155	83.917	41.562	0	63.3059789	16.52989449	13.36459555
 156	100	60.448	46.3	99.17936694	35.63892145	34.23212192
 157	15.584	0	34.795	7.971864009	2.227432591	6.213364596
 158	17.144	65.121	100	21.80539273	45.25205158	72.80187573
 159	83.602	55.334	62.667	70.33997655	31.18405627	37.39742087
 160	0	82.19	14.22	32.5908558	45.95545135	21.45369285
 161	25.132	74.856	50.616	29.19109027	40.9144197	30.01172333
 162	0	13.769	100	2.696365768	18.99179367	61.07854631
 163	87.181	0	0	62.36811254	7.033997655	9.730363423
 164	0	100	39.19	47.71395076	75.02930832	39.74208675
 165	78.047	65.914	19.865	67.17467761	33.64595545	21.80539273
 166	100	63.961	15.865	103.985932	35.99062134	26.14302462
 167	100	45.955	36.032	96.48300117	24.15005862	25.20515826
 168	15.926	100	16.89	52.16881594	73.27080891	33.88042204
 169	41.459	100	0	57.2098476	73.3880422	34.11488863
 170	48.707	37.288	48.139	26.72919109	13.83352872	17.93669402
 171	83.381	100	13.285	104.1031653	79.01524033	41.73505275
 172	78.129	25.303	75.621	52.75498242	18.2883939	40.21101993
 173	12.396	0	0	1.875732708	0.5861664713	0.5861664713
 174	37.607	48.336	83.346	20.3985932	26.84642438	47.12778429
 175	35.588	15.356	0	10.08206331	2.813599062	2.344665885
 176	61.245	100	100	74.56037515	92.73153576	96.48300117
 177	100	67.29	87.195	108.0890973	51.1137163	69.63657679
 178	0	0	30.615	24.97069168	1.64126612	4.68933177
 179	35.187	81.789	83.323	38.8042204	57.56154748	60.60961313
 180	39.525	80.194	22.879	39.39038687	44.9003517	23.32942556
 181	50.634	34.593	0	23.91559203	9.261430246	6.33059789
 182	14.175	100	63.146	47.24501758	79.48417351	53.57561547
 183	83.493	17.728	34.574	57.56154748	9.847596717	15.35756155
 184	23.463	22.014	79.943	9.847596717	13.83352872	37.28018757
 185	18.066	31.847	0	6.565064478	6.447831184	3.399765533
 186	87.201	100	81.361	112.6611958	90.38686987	78.89800703
 187	0	100	87.95	48.30011723	85.34583822	76.55334115
 188	34.476	17.888	46.22	10.66822978	6.213364596	12.77842907
 189	18.277	0	67.39	3.399765533	7.385697538	24.26729191
 190	100	87.972	0	123.3294256	62.71981243	37.28018757
 191	82.925	34.85	100	62.60257913	31.06682298	71.98124267
 192	0	88.016	100	37.74912075	71.27784291	84.05627198
 193	36.104	85.655	100	43.72801876	69.05041032	84.05627198
 194	60.981	0	0	29.30832356	3.399765533	4.572098476
 195	51.466	61.826	78.106	36.34232122	36.10785463	47.59671747
 196	78.427	31.983	22.175	51.69988277	12.07502931	12.66119578
 197	66.017	44.321	0	42.43845252	15.70926143	10.55099648
 198	83.941	0	84.177	58.03048066	18.17116061	49.12075029
 199	20.158	46.612	23.269	13.01289566	14.3024619	9.026963658
 200	0	100	62.618	47.12778429	78.19460727	52.40328253
 201	33.832	0	13.933	9.144196952	1.524032825	2.579132474
 202	100	17.286	16.322	85.34583822	11.60609613	15.35756155
 203	0	42.204	83.926	8.440797186	22.5087925	44.66588511
 204	0	87.774	0	34.46658851	52.87221571	23.68112544
 205	64.988	0	59.017	32.82532239	8.909730363	22.74325909
 206	14.677	0	100	3.516998828	18.05392732	60.60961313
 207	88.934	82.673	35.021	95.19343494	54.86518171	36.57678781
 208	0	63.778	100	20.04689332	43.84525205	71.98124267
 209	83.429	17.674	100	57.67878077	25.79132474	69.98827667
 210	30.899	100	85.668	54.86518171	85.93200469	75.02930832
 211	83.68	0	41.016	57.2098476	8.792497069	16.99882767
 212	100	63.515	0	103.985932	34.58382181	24.73622509
 213	85.074	69.987	0	83.93903869	37.86635404	23.21219226
 214	20.801	45.524	69.018	15.12309496	20.51582649	31.30128957
 215	21.382	82.482	73.017	34.23212192	55.0996483	50.17584994
 216	100	15.128	64.249	83.35287222	17.11606096	35.28722157
 217	36.522	0	58.427	11.01992966	6.33059789	18.75732708
 218	22.466	81.296	33.007	32.82532239	46.65885111	25.67409144
 219	62.531	87.152	0	63.42321219	55.45134818	27.90152403
 220	84.12	85.397	67.886	87.6905041	63.3059789	55.45134818
 221	18.87	27.336	45.389	7.737397421	7.737397421	12.54396249
 222	66.439	100	14.444	79.13247362	76.31887456	38.45252052
 223	41.636	22.147	19.003	14.77139508	5.041031653	5.275498242
 224	61.271	100	81.94	76.31887456	86.86987104	73.85697538
 225	86.013	100	0	108.5580305	79.01524033	41.73505275
 226	37.57	0	0	17.23329426	1.406799531	1.875732708
 227	100	16.132	84.102	86.04923798	22.74325909	53.69284877
 228	0	100	13.619	47.71395076	72.91910903	33.17702227
 229	38.905	100	56.471	58.26494725	78.78077374	50.17584994
 230	100	15.382	34.563	84.40797186	12.66119578	19.69519343
 231	36.656	14.908	100	21.80539273	20.28135991	62.60257913
 232	0	62.593	66.608	16.99882767	31.65298945	34.23212192
 233	66.347	12.528	100	36.10785463	22.5087925	66.35404455
 234	100	43.375	69.233	93.55216882	28.25322392	43.61078546
 235	100	56.36	61.236	100.2344666	34.7010551	41.50058617
 236	0	86.194	44.955	33.64595545	54.04454865	32.47362251
 237	64.527	87.262	100	67.17467761	73.73974209	88.62837046
 238	34.411	0	42.471	8.792497069	3.751465416	10.1992966
 239	80.23	59.707	85.12	66.94021102	40.32825322	58.85111372
 240	20.625	19.056	14.791	11.13716295	3.165298945	2.930832356
 241	15.341	34.221	100	8.206330598	24.97069168	63.54044549
 242	36.777	0	87.905	10.78546307	14.1852286	45.83821805
 243	34.598	56.247	100	23.21219226	38.21805393	70.10550996
 244	20.86	67.629	17.418	22.62602579	30.24618992	15.24032825
 245	44.958	60.843	18.054	29.77725674	25.43962485	14.41969519
 246	37.421	60.193	0	24.97069168	23.79835873	11.84056272
 247	84.011	33.849	42.612	61.78194607	15.70926143	20.75029308
 248	17.241	60.339	37.743	17.81946073	25.08792497	17.46776084
 249	50.65	17.261	53.278	20.75029308	8.323563892	18.05392732
 250	45.505	48.926	65.152	25.32239156	22.86049238	31.30128957
 251	44.567	84.081	39.649	45.83821805	51.81711606	31.41852286
 252	100	86.339	72.054	122.9777257	69.05041032	64.24384525
 253	68.14	61.135	0	51.23094959	27.19812427	15.94372802
 254	17.93	66.986	81.403	22.5087925	39.74208675	50.29308324
 255	39.242	60.215	48.926	26.26025791	27.43259086	23.79835873
 256	20.099	18.77	62.967	5.627198124	8.675263775	21.92262603
 257	34.553	100	14.582	54.74794842	73.85697538	34.58382181
 258	87.345	0	66.694	63.07151231	13.95076202	33.17702227
 259	0	43.714	39.842	18.17116061	13.95076202	13.01289566
 260	100	37.705	13.955	90.38686987	18.2883939	18.17116061
 261	31.265	86.993	0	41.26611958	52.63774912	24.26729191
 262	51.402	82.661	81.338	49.70691676	59.0855803	60.37514654
 263	100	100	12.984	132.0046893	82.06330598	46.65885111
 264	0	37.859	0	7.268464244	8.675263775	4.103165299
 265	62.092	58.215	100	44.07971864	42.32121923	74.44314185
 266	86.186	100	64.1	108.9097304	85.22860492	63.07151231
 267	100	35.251	85.898	92.96600234	29.19109027	58.38218054
 268	63.182	89.992	41.974	67.99531067	62.36811254	38.21805393
 269	13.504	100	0	48.30011723	72.68464244	32.47362251
 270	100	0	13.228	86.40093787	9.847596717	14.1852286
 271	63.881	40.826	100	43.02461899	31.41852286	69.87104338
 272	69.387	84.838	20.792	69.16764361	53.81008206	29.66002345
 273	0	70.279	45.136	22.5087925	35.16998828	24.5017585
 274	79.094	64.754	40.908	67.2919109	34.58382181	27.78429074
 275	62.385	54.099	17.396	44.78311841	21.68815944	14.1852286
 276	64.408	14.621	0	32.7080891	5.041031653	5.744431419
 277	70.028	15.606	44.651	38.8042204	8.675263775	16.2954279
 278	0	63.544	0	17.11606096	25.79132474	11.60609613
 279	83.475	47.274	20.502	64.24384525	20.3985932	16.76436108
 280	55.866	0	32.671	24.26729191	4.337631887	8.792497069
 281	58.007	0	100	26.84642438	20.63305979	64.59554513
 282	100	0	87.698	87.10433763	22.3915592	56.85814771
 283	0	13.792	67.215	3.86869871	8.440797186	24.26729191
 284	84.123	17.001	58.549	59.2028136	13.36459555	27.08089097
 285	59.579	32.873	15.966	32.7080891	9.730363423	8.323563892
 286	10.41	32.998	28.659	5.861664713	7.854630715	7.15123095
 287	17.231	40.031	85.65	9.730363423	22.27432591	46.42438453
 288	37.568	41.561	10.108	16.64712778	11.60609613	6.916764361
 289	0	69.015	85.092	21.45369285	42.7901524	54.51348183
 290	14.442	100	36.187	48.06565064	74.79484174	38.92145369
 291	100	40.549	0	92.84876905	19.34349355	17.70222743
 292	82.143	45.435	78.429	63.89214537	28.37045721	47.47948417
 293	52.674	0	67.3	28.72215709	9.495896835	27.08089097
 294	0	87.868	66.793	35.75615475	60.49237984	47.24501758
 295	86.53	100	40.524	110.1992966	81.82883939	49.82415006
 296	71.777	85.586	67.232	73.85697538	61.54747948	52.63774912
 297	43.216	100	31.671	61.89917937	75.61547479	39.03868699
 298	39.245	32.908	85.845	17.23329426	19.92966002	46.42438453
 299	0	45.662	67.543	9.495896835	19.92966002	29.77725674
 300	12.161	100	100	49.70691676	90.73856975	92.96600234
 301	67.049	0	85.516	36.34232122	16.17819461	47.24501758
 302	100	89.041	100	126.0257913	82.41500586	98.12426729
 303	20.246	60.698	56.526	18.99179367	28.37045721	27.08089097
 304	52.177	55.457	40.416	32.82532239	23.68112544	19.81242673
 305	72.617	87.018	83.932	75.73270809	68.34701055	69.75381008
 306	40.512	16.723	66.475	18.75732708	10.08206331	25.90855803
 307	68.507	49.232	50.605	45.95545135	22.62602579	25.32239156
 308	65.622	100	54.525	80.77373974	80.89097304	52.28604924
 309	54.115	37.24	66.394	30.5978898	17.46776084	30.36342321
 310	100	76.138	31.267	112.1922626	49.12075029	35.16998828
 311	54.728	65.623	0	40.9144197	30.01172333	15.70926143
 312	63.126	12.526	64.37	31.77022274	10.90269637	26.96365768
 313	72.827	18.08	23.704	42.67291911	7.502930832	10.08206331
 314	23.268	15.278	34.947	9.144196952	3.86869871	7.385697538
 315	87.648	68.954	59.645	81.82883939	42.7901524	41.85228605
 316	0	85.595	85.198	35.87338804	62.60257913	63.89214537
 317	35.798	84.371	69.21	41.73505275	57.32708089	48.53458382
 318	36.062	47.494	35.919	20.16412661	16.76436108	13.95076202
 319	86.083	36.277	59.152	66.35404455	19.81242673	30.71512309
 320	58.21	100	30.361	72.68464244	76.67057444	40.67995311
 321	46.745	14.614	32.317	18.4056272	4.806565064	8.323563892
 322	81.573	73.869	86.954	77.13950762	54.39624853	67.4091442
 323	85.991	49.387	48.206	71.3950762	24.97069168	27.54982415
 324	28.062	87.906	19.654	41.03165299	54.74794842	26.6119578
 325	68.992	17.993	85.124	39.27315358	18.17116061	47.59671747
 326	100	66.147	100	106.0961313	55.0996483	86.40093787
 327	33.358	64.806	84.517	27.43259086	39.50762016	53.57561547
 328	41.351	17.736	80.522	14.77139508	14.06799531	38.92145369
 329	100	100	88.719	136.2250879	94.95896835	90.97303634
 330	66.336	0	44.32	35.16998828	6.799531067	15.12309496
 331	64.85	67.09	12.293	50.29308324	32.7080891	18.75732708
 332	15.262	31.268	63.277	13.71629543	12.1922626	23.68112544
 333	15.008	43.663	37.3	9.613130129	13.95076202	12.3094959
 334	0	57.895	38.078	14.06799531	23.09495897	16.52989449
 335	66.599	58.458	67.871	48.41735053	32.47362251	39.39038687
 336	59.191	18.651	15.215	28.01875733	5.50996483	6.33059789
 337	66.781	31.14	84.629	38.45252052	21.45369285	48.30011723
 338	88.033	85.158	52.14	92.26260258	60.49237984	45.60375147
 339	36.882	100	100	60.14067995	91.55920281	93.7866354
 340	26.102	33.094	17.006	10.55099648	7.620164127	5.392731536
 341	56.309	36.861	35.862	28.83939039	12.54396249	13.48182884
 342	45.839	65.587	67.033	33.88042204	36.34232122	38.10082063
 343	83.709	81.172	16.406	86.63540445	50.64478312	29.77725674
 344	0	48.132	13.005	14.65416178	14.53692849	7.502930832
 345	87.176	50.021	100	72.91910903	39.97655334	76.78780774
 346	51.219	84.244	13.73	50.996483	50.17584994	25.43962485
 347	60.606	71.415	48.406	49.58968347	39.85932005	30.94958968
 348	0	11.359	12.718	0.937866354	1.406799531	1.64126612
 349	86.429	49.705	33.145	70.69167644	23.21219226	21.33645955
 350	34.056	40.958	100	17.11606096	28.95662368	66.35404455
 351	100	30.557	59.628	89.8007034	20.3985932	34.11488863
 352	88.497	26.902	13.449	68.11254396	11.60609613	12.89566237
 353	14.167	51.98	88.218	14.1852286	30.01172333	52.16881594
 354	13.784	12.983	49.37	3.048065651	5.041031653	13.01289566
 355	15.018	88.441	48.062	36.22508792	57.56154748	35.99062134
 356	87.79	25.769	89.215	66.94021102	24.38452521	57.32708089
 357	0	33.206	55.865	6.33059789	11.25439625	18.87456038
 358	74.324	76.029	35.536	66.11957796	44.54865182	29.89449004
 359	65.863	57.223	42.324	46.77608441	26.37749121	22.86049238
 360	30.893	54.646	13.136	19.34349355	19.69519343	10.43376319
 361	0	34.36	28.321	5.041031653	8.323563892	7.15123095
 362	15.443	77.087	85.116	28.6049238	51.93434936	59.2028136
 363	63.381	68.947	68.521	50.29308324	41.26611958	43.37631887
 364	69.733	27.566	42.917	40.9144197	11.37162954	16.88159437
 365	32.754	100	42.76	54.39624853	75.73270809	42.32121923
 366	47.096	29.481	34.829	22.3915592	8.792497069	10.78546307
 367	8.5451	71.948	62.695	23.56389215	39.85932005	35.63892145
 368	0	86.048	29.3	33.05978898	51.81711606	26.84642438
 369	53.697	51.572	85.367	33.05978898	30.94958968	51.93434936
 370	17.608	56.69	12.515	15.59202814	20.63305979	10.31652989
 371	90.638	14.414	49.227	67.05744431	12.42672919	23.21219226
 372	63.248	63.64	89.55	48.8862837	42.67291911	62.36811254
 373	100	85.976	58.455	122.1570926	65.18171161	53.81008206
 374	9.8311	28.027	7.5567	5.275498242	5.041031653	2.930832356
 375	89.831	64.313	69.506	83.7045721	41.38335287	47.71395076
 376	31.754	12.995	25.543	18.2883939	3.165298945	5.041031653
 377	75.914	45.966	64.957	53.81008206	24.5017585	34.93552169
 378	7.5735	50.695	58.941	13.95076202	21.45369285	25.20515826
 379	100	69.835	58.912	107.5029308	46.42438453	45.36928488
 380	32.211	34.376	48.339	20.04689332	11.37162954	16.06096131
 381	13.901	12.159	73.555	3.282532239	9.964830012	30.01172333
 382	87.071	9.028	77.653	62.60257913	17.35052755	43.49355217
 383	23.272	85.409	84.29	37.98358734	62.01641266	63.3059789
 384	93.289	39.48	26.145	79.01524033	18.2883939	18.64009379
 385	65.769	59.63	30.967	49.58968347	27.43259086	19.69519343
 386	100	32.265	41.803	90.62133646	18.17116061	24.73622509
 387	86.568	85.281	86.961	95.31066823	68.93317702	74.91207503
 388	52.577	86.83	30.016	55.21688159	55.45134818	30.5978898
 389	47.921	40.199	76.902	24.61899179	21.33645955	39.50762016
 390	22.36	86.619	61.58	37.51465416	57.32708089	43.25908558
 391	52.232	33.601	88.787	26.26025791	22.3915592	51.93434936
 392	0	28.523	86.267	5.158264947	17.23329426	44.19695193
 393	43.497	67.879	39.551	32.94255569	33.64595545	22.97772567
 394	39.877	45.261	0	19.81242673	13.71629543	7.502930832
 395	86.94	12.43	24.699	61.43024619	8.792497069	13.01289566
 396	28.363	55.339	90.398	22.27432591	33.76318875	56.85814771
 397	39.018	70.534	57.879	32.47362251	38.56975381	33.17702227
 398	12.833	28.519	78.828	5.744431419	15.24032825	36.92848769
 399	68.35	31.815	69.975	40.56271981	17.81946073	34.58382181
 400	56.52	26.226	41.626	27.08089097	9.261430246	14.1852286
 401	12.938	46.218	0	11.48886284	13.24736225	6.213364596
 402	8.6938	60.179	26.117	15.94372802	23.79835873	13.71629543
 403	51.995	89.429	96.608	57.44431419	74.56037515	83.5873388
 404	46.905	47.746	48.909	26.26025791	19.22626026	20.75029308
 405	14.352	81.814	19.479	31.30128957	46.07268464	22.27432591
 406	71.482	38.117	12.273	45.60375147	13.48182884	11.01992966
 407	86.616	60.785	10.012	77.37397421	30.24618992	20.3985932
 408	71.811	88.979	52.186	76.78780774	63.07151231	44.43141852
 409	43.213	100	72.083	61.78194607	82.29777257	62.71981243
