data/calibration-000829.ti3
CTI3   
ORIGINATOR	"ColorHug Factory"
DESCRIPTOR	"Calibration Target chart information 3"
DEVICE_CLASS	"DISPLAY"
COLOR_REP	"RGB_XYZ"
TARGET_INSTRUMENT	"Hughski ColorHug"
INSTRUMENT_TYPE_SPECTRAL	"NO"
NORMALIZED_TO_Y_100	"NO"
NUMBER_OF_FIELDS	7
NUMBER_OF_SETS	15
BEGIN_DATA_FORMAT
 SAMPLE_ID	RGB_R	RGB_G	RGB_B	XYZ_X	XYZ_Y	XYZ_Z
END_DATA_FORMAT
BEGIN_DATA
 1	0	0	0	0.1831054688	0.1373291016	0.1831054688
 2	1	1	1	55.9387207	39.32189941	45.36437988
 3	1	0	0	36.02600098	3.845214844	5.53894043
 4	0	1	0	19.22607422	28.24401855	13.00048828
 5	0	0	1	1.052856445	7.690429688	27.00805664
 6	0	0	0	0.1831054688	0.1373291016	0.1831054688
 7	1	1	1	56.39648438	39.36767578	45.36437988
 8	1	0	0	35.93444824	3.845214844	5.53894043
 9	0	1	0	19.27185059	28.15246582	12.95471191
 10	0	0	1	1.052856445	7.690429688	27.09960938
 11	0	0	0	0.1831054688	0.1373291016	0.1831054688
 12	1	1	1	55.9387207	39.23034668	45.36437988
 13	1	0	0	35.65979004	3.845214844	5.53894043
 14	0	1	0	19.27185059	28.33557129	13.09204102
 15	0	0	1	1.052856445	7.64465332	26.96228027
END_DATA
