data/calibration-001665.ti3
CTI3   
ORIGINATOR	"ColorHug Factory"
CREATED	"Thu Feb 14 22:47:22 2013"
DESCRIPTOR	"Calibration Target chart information 3"
DEVICE_CLASS	"DISPLAY"
COLOR_REP	"RGB_XYZ"
TARGET_INSTRUMENT	"Hughski ColorHug"
INSTRUMENT_TYPE_SPECTRAL	"NO"
NORMALIZED_TO_Y_100	"NO"
NUMBER_OF_FIELDS	7
NUMBER_OF_SETS	15
BEGIN_DATA_FORMAT
 SAMPLE_ID	RGB_R	RGB_G	RGB_B	XYZ_X	XYZ_Y	XYZ_Z
END_DATA_FORMAT
BEGIN_DATA
 1	0	0	0	0.1373291016	0.1373291016	0.1831054688
 2	1	1	1	38.13171387	38.95568848	48.38562012
 3	1	0	0	23.0255127	2.9296875	3.707885742
 4	0	1	0	13.82446289	27.96936035	12.54272461
 5	0	0	1	0.9613037109	8.285522461	32.3638916
 6	0	0	0	0.1373291016	0.1373291016	0.1831054688
 7	1	1	1	38.45214844	38.77258301	47.97363281
 8	1	0	0	23.07128906	2.9296875	3.707885742
 9	0	1	0	13.82446289	27.92358398	12.54272461
 10	0	0	1	0.9613037109	8.285522461	32.45544434
 11	0	0	0	0.1373291016	0.1373291016	0.1831054688
 12	1	1	1	38.2232666	38.86413574	48.38562012
 13	1	0	0	23.11706543	2.9296875	3.707885742
 14	0	1	0	13.82446289	27.87780762	12.54272461
 15	0	0	1	0.9613037109	8.285522461	32.45544434
END_DATA
