data/calibration-001272.ti3
CTI3   
ORIGINATOR	"ColorHug Factory"
DESCRIPTOR	"Calibration Target chart information 3"
DEVICE_CLASS	"DISPLAY"
COLOR_REP	"RGB_XYZ"
TARGET_INSTRUMENT	"Hughski ColorHug"
INSTRUMENT_TYPE_SPECTRAL	"NO"
NORMALIZED_TO_Y_100	"NO"
NUMBER_OF_FIELDS	7
NUMBER_OF_SETS	15
BEGIN_DATA_FORMAT
 SAMPLE_ID	RGB_R	RGB_G	RGB_B	XYZ_X	XYZ_Y	XYZ_Z
END_DATA_FORMAT
BEGIN_DATA
 1	0	0	0	0.1831054688	0.2288818359	0.2746582031
 2	1	1	1	38.54370117	36.62109375	44.26574707
 3	1	0	0	23.48327637	3.021240234	3.890991211
 4	0	1	0	13.87023926	26.41296387	11.9934082
 5	0	0	1	1.007080078	7.736206055	28.70178223
 6	0	0	0	0.2288818359	0.2288818359	0.2746582031
 7	1	1	1	38.58947754	36.75842285	44.31152344
 8	1	0	0	23.4375	3.021240234	3.890991211
 9	0	1	0	13.77868652	26.3671875	12.03918457
 10	0	0	1	1.007080078	7.736206055	28.79333496
 11	0	0	0	0.2288818359	0.2288818359	0.2746582031
 12	1	1	1	38.4979248	36.75842285	44.26574707
 13	1	0	0	23.34594727	3.021240234	3.890991211
 14	0	1	0	13.77868652	26.45874023	12.08496094
 15	0	0	1	1.007080078	7.736206055	28.93066406
END_DATA
