data/calibration-001516.ti3
CTI3   
ORIGINATOR	"ColorHug Factory"
DESCRIPTOR	"Calibration Target chart information 3"
DEVICE_CLASS	"DISPLAY"
COLOR_REP	"RGB_XYZ"
TARGET_INSTRUMENT	"Hughski ColorHug"
INSTRUMENT_TYPE_SPECTRAL	"NO"
NORMALIZED_TO_Y_100	"NO"
NUMBER_OF_FIELDS	7
NUMBER_OF_SETS	15
BEGIN_DATA_FORMAT
 SAMPLE_ID	RGB_R	RGB_G	RGB_B	XYZ_X	XYZ_Y	XYZ_Z
END_DATA_FORMAT
BEGIN_DATA
 1	0	0	0	0.09155273438	0.1373291016	0.1831054688
 2	1	1	1	37.17041016	35.93444824	44.31152344
 3	1	0	0	22.01843262	2.700805664	3.616333008
 4	0	1	0	12.68005371	25.22277832	11.62719727
 5	0	0	1	0.8697509766	7.736206055	28.97644043
 6	0	0	0	0.09155273438	0.1373291016	0.1831054688
 7	1	1	1	37.03308105	35.98022461	44.3572998
 8	1	0	0	21.97265625	2.700805664	3.616333008
 9	0	1	0	12.68005371	25.36010742	11.5814209
 10	0	0	1	0.8697509766	7.736206055	28.8848877
 11	0	0	0	0.1373291016	0.1373291016	0.1831054688
 12	1	1	1	36.94152832	35.88867188	44.26574707
 13	1	0	0	22.06420898	2.700805664	3.616333008
 14	0	1	0	12.68005371	25.22277832	11.67297363
 15	0	0	1	0.8697509766	7.736206055	28.8848877
END_DATA
