data/calibration-002691.ti3
CTI3   
ORIGINATOR	"ColorHug Factory"
CREATED	"Thu Mar 26 20:10:31 2015"
DESCRIPTOR	"Calibration Target chart information 3"
DEVICE_CLASS	"DISPLAY"
COLOR_REP	"RGB_XYZ"
TARGET_INSTRUMENT	"Hughski ColorHug"
INSTRUMENT_TYPE_SPECTRAL	"NO"
NORMALIZED_TO_Y_100	"NO"
NUMBER_OF_FIELDS	7
NUMBER_OF_SETS	15
BEGIN_DATA_FORMAT
 SAMPLE_ID	RGB_R	RGB_G	RGB_B	XYZ_X	XYZ_Y	XYZ_Z
END_DATA_FORMAT
BEGIN_DATA
 1.0	0.0	0.0	0.0	0.384613037109	0.388900756836	0.508499145508
 2.0	1.0	1.0	1.0	58.935241699219	55.727890014648	58.514282226562
 3.0	1.0	0.0	0.0	41.583755493164	4.43049621582	6.965972900391
 4.0	0.0	1.0	0.0	14.760345458984	40.354675292969	15.753845214844
 5.0	0.0	0.0	1.0	2.287628173828	11.299301147461	35.617385864258
 6.0	0.0	0.0	0.0	0.385955810547	0.388793945312	0.508026123047
 7.0	1.0	1.0	1.0	59.3623046875	54.979858398438	58.09928894043
 8.0	1.0	0.0	0.0	42.01025390625	4.452163696289	6.855224609375
 9.0	0.0	1.0	0.0	14.787002563477	39.960968017578	15.603805541992
 10.0	0.0	0.0	1.0	2.281890869141	11.36198425293	35.617385864258
 11.0	0.0	0.0	0.0	0.38298034668	0.388000488281	0.50764465332
 12.0	1.0	1.0	1.0	59.3623046875	54.979858398438	57.690139770508
 13.0	1.0	0.0	0.0	42.226791381836	4.423324584961	6.872482299805
 14.0	0.0	1.0	0.0	14.813735961914	39.766983032227	15.603805541992
 15.0	0.0	0.0	1.0	2.285064697266	11.299301147461	35.617385864258
END_DATA
