data/calibration-001443.ti3
CTI3   
ORIGINATOR	"ColorHug Factory"
DESCRIPTOR	"Calibration Target chart information 3"
DEVICE_CLASS	"DISPLAY"
COLOR_REP	"RGB_XYZ"
TARGET_INSTRUMENT	"Hughski ColorHug"
INSTRUMENT_TYPE_SPECTRAL	"NO"
NORMALIZED_TO_Y_100	"NO"
NUMBER_OF_FIELDS	7
NUMBER_OF_SETS	15
BEGIN_DATA_FORMAT
 SAMPLE_ID	RGB_R	RGB_G	RGB_B	XYZ_X	XYZ_Y	XYZ_Z
END_DATA_FORMAT
BEGIN_DATA
 1	0	0	0	0.04577636719	0.09155273438	0.09155273438
 2	1	1	1	29.52575684	34.56115723	41.1529541
 3	1	0	0	17.25769043	2.426147461	2.838134766
 4	0	1	0	10.94055176	25.40588379	11.16943359
 5	0	0	1	0.7781982422	7.049560547	27.19116211
 6	0	0	0	0.04577636719	0.09155273438	0.09155273438
 7	1	1	1	29.4342041	34.60693359	41.10717773
 8	1	0	0	17.25769043	2.426147461	2.838134766
 9	0	1	0	10.94055176	25.26855469	11.12365723
 10	0	0	1	0.7781982422	7.049560547	27.19116211
 11	0	0	0	0.04577636719	0.09155273438	0.09155273438
 12	1	1	1	29.5715332	34.65270996	41.015625
 13	1	0	0	17.25769043	2.426147461	2.838134766
 14	0	1	0	10.94055176	25.40588379	11.12365723
 15	0	0	1	0.7781982422	7.049560547	27.32849121
END_DATA
