data/calibration-002821.ti3
CTI3   
ORIGINATOR	"ColorHug Factory"
CREATED	"Tue May 05 21:35:41 2015"
DESCRIPTOR	"Calibration Target chart information 3"
DEVICE_CLASS	"DISPLAY"
COLOR_REP	"RGB_XYZ"
TARGET_INSTRUMENT	"Hughski ColorHug"
INSTRUMENT_TYPE_SPECTRAL	"NO"
NORMALIZED_TO_Y_100	"NO"
NUMBER_OF_FIELDS	7
NUMBER_OF_SETS	15
BEGIN_DATA_FORMAT
 SAMPLE_ID	RGB_R	RGB_G	RGB_B	XYZ_X	XYZ_Y	XYZ_Z
END_DATA_FORMAT
BEGIN_DATA
 1.0	0.0	0.0	0.0	0.690078735352	0.66357421875	0.808364868164
 2.0	1.0	1.0	1.0	118.724624633789	110.702697753906	118.724624633789
 3.0	1.0	0.0	0.0	84.453598022461	8.110885620117	12.880493164062
 4.0	0.0	1.0	0.0	28.743850708008	78.01904296875	30.00732421875
 5.0	0.0	0.0	1.0	4.149948120117	22.629821777344	73.801788330078
 6.0	0.0	0.0	0.0	0.690078735352	0.663421630859	0.80876159668
 7.0	1.0	1.0	1.0	118.724624633789	110.702697753906	118.724624633789
 8.0	1.0	0.0	0.0	84.453598022461	8.110885620117	12.880493164062
 9.0	0.0	1.0	0.0	28.743850708008	78.01904296875	30.00732421875
 10.0	0.0	0.0	1.0	4.149948120117	22.629821777344	73.801788330078
 11.0	0.0	0.0	0.0	0.690200805664	0.66357421875	0.807083129883
 12.0	1.0	1.0	1.0	118.724624633789	110.702697753906	118.724624633789
 13.0	1.0	0.0	0.0	84.453598022461	8.110885620117	12.880493164062
 14.0	0.0	1.0	0.0	28.743850708008	78.01904296875	30.00732421875
 15.0	0.0	0.0	1.0	4.152038574219	22.629821777344	73.801788330078
END_DATA
