data/calibration-000423.ti3
CTI3
ORIGINATOR	"ColorHug Factory"
DESCRIPTOR	"Calibration Target chart information 3"
DEVICE_CLASS	"DISPLAY"
COLOR_REP	"RGB_XYZ"
TARGET_INSTRUMENT	"Hughski ColorHug"
INSTRUMENT_TYPE_SPECTRAL	"NO"
NORMALIZED_TO_Y_100	"NO"
NUMBER_OF_FIELDS	7
NUMBER_OF_SETS	15
BEGIN_DATA_FORMAT
 SAMPLE_ID	RGB_R	RGB_G	RGB_B	XYZ_X	XYZ_Y	XYZ_Z
END_DATA_FORMAT
BEGIN_DATA
 1	0	0	0	0.04577636719	0	0.09155273438
 2	1	1	1	53.69567871	34.33227539	38.77258301
 3	1	0	0	34.01184082	3.204345703	4.806518555
 4	0	1	0	17.578125	24.71923828	10.94055176
 5	0	0	1	0.7781982422	6.362915039	23.11706543
 6	0	0	0	0.04577636719	0	0.09155273438
 7	1	1	1	53.64990234	34.33227539	39.00146484
 8	1	0	0	33.78295898	3.204345703	4.806518555
 9	0	1	0	17.48657227	24.39880371	10.94055176
 10	0	0	1	0.7781982422	6.408691406	23.1628418
 11	0	0	0	0.04577636719	0	0.09155273438
 12	1	1	1	53.74145508	34.24072266	39.04724121
 13	1	0	0	33.96606445	3.204345703	4.806518555
 14	0	1	0	17.66967773	24.71923828	10.94055176
 15	0	0	1	0.7781982422	6.408691406	23.1628418
END_DATA
