data/calibration-002699.ti3
CTI3   
ORIGINATOR	"ColorHug Factory"
CREATED	"Thu Mar 26 20:16:48 2015"
DESCRIPTOR	"Calibration Target chart information 3"
DEVICE_CLASS	"DISPLAY"
COLOR_REP	"RGB_XYZ"
TARGET_INSTRUMENT	"Hughski ColorHug"
INSTRUMENT_TYPE_SPECTRAL	"NO"
NORMALIZED_TO_Y_100	"NO"
NUMBER_OF_FIELDS	7
NUMBER_OF_SETS	15
BEGIN_DATA_FORMAT
 SAMPLE_ID	RGB_R	RGB_G	RGB_B	XYZ_X	XYZ_Y	XYZ_Z
END_DATA_FORMAT
BEGIN_DATA
 1.0	0.0	0.0	0.0	0.32502746582	0.341247558594	0.440444946289
 2.0	1.0	1.0	1.0	51.848098754883	48.473358154297	50.257659912109
 3.0	1.0	0.0	0.0	37.75114440918	3.742340087891	5.61865234375
 4.0	0.0	1.0	0.0	13.128204345703	35.772918701172	13.495880126953
 5.0	0.0	0.0	1.0	1.899368286133	9.869873046875	31.267166137695
 6.0	0.0	0.0	0.0	0.323547363281	0.342498779297	0.439331054688
 7.0	1.0	1.0	1.0	51.848098754883	48.473358154297	50.257659912109
 8.0	1.0	0.0	0.0	37.236358642578	3.716873168945	5.688888549805
 9.0	0.0	1.0	0.0	13.149276733398	35.772918701172	13.342010498047
 10.0	0.0	0.0	1.0	1.89892578125	9.869873046875	31.386962890625
 11.0	0.0	0.0	0.0	0.323486328125	0.339828491211	0.435272216797
 12.0	1.0	1.0	1.0	51.848098754883	49.05387878418	50.257659912109
 13.0	1.0	0.0	0.0	37.75114440918	3.728713989258	5.614791870117
 14.0	0.0	1.0	0.0	13.044570922852	35.617385864258	13.342010498047
 15.0	0.0	0.0	1.0	1.897613525391	9.869873046875	31.267166137695
END_DATA
