data/calibration-001353.ti3
CTI3   
ORIGINATOR	"ColorHug Factory"
DESCRIPTOR	"Calibration Target chart information 3"
DEVICE_CLASS	"DISPLAY"
COLOR_REP	"RGB_XYZ"
TARGET_INSTRUMENT	"Hughski ColorHug"
INSTRUMENT_TYPE_SPECTRAL	"NO"
NORMALIZED_TO_Y_100	"NO"
NUMBER_OF_FIELDS	7
NUMBER_OF_SETS	15
BEGIN_DATA_FORMAT
 SAMPLE_ID	RGB_R	RGB_G	RGB_B	XYZ_X	XYZ_Y	XYZ_Z
END_DATA_FORMAT
BEGIN_DATA
 1	0	0	0	0.2288818359	0.2288818359	0.2746582031
 2	1	1	1	37.35351562	38.95568848	48.38562012
 3	1	0	0	22.33886719	3.021240234	3.799438477
 4	0	1	0	13.41247559	27.83203125	12.86315918
 5	0	0	1	1.052856445	8.514404297	31.49414062
 6	0	0	0	0.2288818359	0.2288818359	0.2746582031
 7	1	1	1	37.30773926	38.81835938	48.24829102
 8	1	0	0	22.38464355	3.021240234	3.799438477
 9	0	1	0	13.50402832	27.83203125	12.81738281
 10	0	0	1	1.052856445	8.514404297	31.44836426
 11	0	0	0	0.2288818359	0.2288818359	0.2746582031
 12	1	1	1	37.17041016	39.00146484	48.20251465
 13	1	0	0	22.20153809	3.021240234	3.799438477
 14	0	1	0	13.45825195	27.74047852	12.81738281
 15	0	0	1	1.052856445	8.514404297	31.9519043
END_DATA
