data/calibration-002072.ti3
CTI3   
ORIGINATOR	"ColorHug Factory"
CREATED	"Sun Sep 15 20:14:24 2013"
DESCRIPTOR	"Calibration Target chart information 3"
DEVICE_CLASS	"DISPLAY"
COLOR_REP	"RGB_XYZ"
TARGET_INSTRUMENT	"Hughski ColorHug"
INSTRUMENT_TYPE_SPECTRAL	"NO"
NORMALIZED_TO_Y_100	"NO"
NUMBER_OF_FIELDS	7
NUMBER_OF_SETS	15
BEGIN_DATA_FORMAT
 SAMPLE_ID	RGB_R	RGB_G	RGB_B	XYZ_X	XYZ_Y	XYZ_Z
END_DATA_FORMAT
BEGIN_DATA
 1	0	0	0	0.091552734375	0.091552734375	0.1373291015625
 2	1	1	1	73.79150390625	38.5894775390625	57.220458984375
 3	1	0	0	48.065185546875	4.0740966796875	7.0953369140625
 4	0	1	0	23.6663818359375	25.4058837890625	13.3209228515625
 5	0	0	1	1.190185546875	9.2010498046875	36.62109375
 6	0	0	0	0.091552734375	0.091552734375	0.1373291015625
 7	1	1	1	74.15771484375	38.7725830078125	57.220458984375
 8	1	0	0	48.0194091796875	4.0740966796875	7.0953369140625
 9	0	1	0	23.6663818359375	25.4974365234375	13.36669921875
 10	0	0	1	1.190185546875	9.2010498046875	36.529541015625
 11	0	0	0	0.091552734375	0.091552734375	0.1373291015625
 12	1	1	1	74.2950439453125	38.7725830078125	57.31201171875
 13	1	0	0	48.065185546875	4.0740966796875	7.14111328125
 14	0	1	0	23.7579345703125	25.45166015625	13.36669921875
 15	0	0	1	1.190185546875	9.2010498046875	36.712646484375
END_DATA
