data/calibration-000054.ti3
CTI3
DESCRIPTOR	"Calibration Target chart information 3"
ORIGINATOR	"ColorHug Factory"
DEVICE_CLASS	"DISPLAY"
COLOR_REP	"RGB_XYZ"
TARGET_INSTRUMENT	"ColorHug"
INSTRUMENT_TYPE_SPECTRAL	"NO"
LUMINANCE_XYZ_CDM2	"45.021057 38.520813 42.903900"
NORMALIZED_TO_Y_100	"YES"
NUMBER_OF_FIELDS	7
NUMBER_OF_SETS	836
BEGIN_DATA_FORMAT
 SAMPLE_ID	RGB_R	RGB_G	RGB_B	XYZ_X	XYZ_Y	XYZ_Z
END_DATA_FORMAT
BEGIN_DATA
 1	100	100	100	113.9479905	100	111.1111111
 2	100	100	100	117.7304965	100	111.1111111
 3	100	100	100	116.3120567	99.17257683	110.5200946
 4	100	100	100	117.0212766	98.69976359	110.4018913
 5	33.33	32.622	30.968	10.04728132	6.855791962	7.210401891
 6	100	0	100	68.55791962	25.53191489	77.42316785
 7	100	100	0	115.8392435	82.38770686	45.03546099
 8	0	100	100	43.38061466	92.08037825	99.52718676
 9	0	100	0	41.13475177	74.23167849	33.45153664
 10	0	0	100	2.127659574	17.61229314	65.72104019
 11	100	0	0	71.27659574	7.919621749	11.11111111
 12	0	0	0	0	1.300236407	1.300236407
 13	0	52.455	100	10.28368794	32.74231678	73.04964539
 14	100	0	50.3	71.27659574	10.9929078	22.93144208
 15	100	54.739	100	82.50591017	42.08037825	84.63356974
 16	100	52.128	0	80.26004728	22.45862884	17.84869976
 17	0	0	46.181	0.4728132388	2.600472813	9.456264775
 18	0	51.141	0	8.037825059	14.18439716	6.619385343
 19	0	100	51.348	41.01654846	77.54137116	45.74468085
 20	100	100	52.037	115.8392435	85.57919622	57.80141844
 21	49.216	0	0	12.64775414	1.536643026	2.127659574
 22	56.159	100	0	58.39243499	75.88652482	36.05200946
 23	49.226	100	100	55.91016548	93.49881797	101.6548463
 24	44.487	0	100	11.70212766	18.79432624	67.73049645
 25	100	44.498	52.029	75.6501182	21.51300236	28.48699764
 26	48.926	48.544	100	21.27659574	31.56028369	73.64066194
 27	51.368	100	47.25	55.43735225	78.48699764	45.98108747
 28	49.893	0	49.033	13.59338061	4.609929078	13.23877069
 29	53.109	51.372	0	23.1678487	15.8392435	8.865248227
 30	0	58.587	53.943	11.58392435	23.40425532	22.69503546
 31	100	28.065	100	74.94089835	29.66903073	80.02364066
 32	0	0	72.874	1.182033097	7.68321513	28.60520095
 33	0	26.758	100	3.78250591	21.27659574	68.321513
 34	0	25.426	0	1.891252955	3.191489362	1.654846336
 35	72.508	0	100	34.51536643	21.39479905	71.51300236
 36	100	27.395	0	70.33096927	11.58392435	12.88416076
 37	74.47	100	100	79.43262411	95.86288416	106.0283688
 38	100	0	25.728	71.27659574	8.747044917	13.94799054
 39	73.862	0	0	34.75177305	4.01891253	5.555555556
 40	100	100	25.402	115.8392435	83.33333333	47.87234043
 41	0	75.751	100	34.98817967	55.55555556	84.04255319
 42	0	75.172	0	20.56737589	36.05200946	16.43026005
 43	0	100	25.864	41.13475177	75.17730496	36.643026
 44	100	0	74.801	69.97635934	16.19385343	42.43498818
 45	0	100	75.421	42.43498818	83.33333333	65.72104019
 46	24.577	0	0	2.955082742	0.4728132388	0.7092198582
 47	26.321	100	0	44.32624113	75.05910165	34.1607565
 48	100	75.835	0	94.79905437	45.39007092	28.36879433
 49	100	100	77.061	117.1394799	91.13475177	78.95981087
 50	71.263	100	0	74.46808511	78.48699764	38.88888889
 51	0	0	15.614	68.43971631	0.3546099291	1.182033097
 52	0	30.049	70.936	3.309692671	11.58392435	29.19621749
 53	100	77.691	100	94.68085106	65.95744681	96.3356974
 54	24.486	100	100	57.21040189	93.14420804	100.7092199
 55	100	62.784	31.909	86.28841608	32.62411348	26.24113475
 56	29.552	0	100	6.028368794	18.321513	67.49408983
 57	32.98	70.921	100	24.58628842	49.76359338	81.678487
 58	0	27.681	40.241	2.482269504	5.673758865	8.747044917
 59	67.901	71.021	100	48.10874704	52.95508274	85.69739953
 60	28.154	100	67.829	45.86288416	81.91489362	59.10165485
 61	71.637	100	70.001	75.53191489	85.22458629	65.36643026
 62	58.822	58.763	53.586	31.32387707	25.76832151	25.88652482
 63	33.466	30.48	0	8.156028369	5.082742317	3.073286052
 64	100	73.795	71.277	93.97163121	50.70921986	55.08274232
 65	68.394	29.692	0	30.96926714	7.328605201	6.501182033
 66	70.399	0	29.039	30.85106383	4.491725768	8.510638298
 67	28.078	0	26.956	5.319148936	1.418439716	3.78250591
 68	28.532	72.339	0	22.34042553	33.09692671	15.60283688
 69	100	30.941	26.496	74.3498818	13.23877069	16.31205674
 70	34.597	0	73.611	7.328605201	8.747044917	30.85106383
 71	71.573	0	72.408	32.74231678	11.34751773	33.80614657
 72	0	71.029	29.412	18.20330969	32.62411348	18.08510638
 73	68.386	75.008	0	49.52718676	39.71631206	21.15839243
 74	68.088	27.309	100	32.03309693	24.58628842	73.04964539
 75	100	26.457	73.749	74.3498818	19.5035461	43.02600473
 76	74.344	100	27.392	77.89598109	79.66903073	42.55319149
 77	27.558	100	28.197	45.1536643	76.00472813	37.23404255
 78	31.196	27.465	100	8.392434988	22.10401891	68.67612293
 79	0	75.521	72.824	21.51300236	44.68085106	45.86288416
 80	0	50.93	25.553	9.456264775	14.89361702	9.338061466
 81	32.06	33.584	64.033	8.392434988	11.82033097	24.46808511
 82	81.666	55.38	0	53.19148936	22.22222222	14.77541371
 83	68.257	32.751	58.286	32.26950355	13.00236407	23.75886525
 84	0	55.248	81.585	11.70212766	27.65957447	46.57210402
 85	73.781	52.099	100	43.73522459	36.76122931	78.95981087
 86	100	50.537	82.952	80.4964539	32.50591017	57.68321513
 87	23.55	0	50.439	3.427895981	3.546099291	12.29314421
 88	31.335	62.746	31.114	17.96690307	25.05910165	15.48463357
 89	100	18.31	49.418	72.57683215	12.52955083	23.40425532
 90	26.498	48.404	0	10.40189125	12.76595745	6.264775414
 91	47.91	100	85.744	54.25531915	87.8250591	79.43262411
 92	71.829	47.313	31.811	39.24349882	16.54846336	14.6572104
 93	31.304	64.132	69.316	20.21276596	32.03309693	37.94326241
 94	80.403	0	54.321	42.31678487	8.628841608	21.04018913
 95	18.455	50.036	100	16.66666667	31.91489362	73.52245863
 96	50.653	100	16.345	52.24586288	76.35933806	36.76122931
 97	80.121	100	52.261	81.44208038	83.09692671	53.78250591
 98	0	22.54	19.289	1.654846336	3.073286052	2.955082742
 99	100	75.273	46.886	92.55319149	47.04491726	38.06146572
 100	0	78.618	56.625	28.13238771	44.79905437	34.1607565
 101	51.137	80.627	100	40.07092199	62.52955083	88.77068558
 102	48.446	0	17.864	12.05673759	1.891252955	3.427895981
 103	100	50.023	21.211	79.78723404	21.9858156	19.38534279
 104	50.115	20.118	0	14.89361702	3.546099291	3.191489362
 105	58.099	72.426	33.158	37.58865248	36.17021277	22.57683215
 106	19.364	100	50.197	42.90780142	77.65957447	45.86288416
 107	50.683	19.177	100	19.14893617	21.15839243	69.85815603
 108	53.37	0	81.576	16.54846336	12.05673759	41.01654846
 109	47.768	76.245	0	32.74231678	39.0070922	19.03073286
 110	0	18.927	55.503	1.536643026	5.910165485	15.8392435
 111	0	13.277	0	0.5910165485	0.9456264775	0.5910165485
 112	72.862	72.473	75.625	52.00945626	45.27186761	52.12765957
 113	100	13.904	0	70.33096927	8.747044917	11.58392435
 114	86.349	0	100	51.77304965	23.52245863	74.46808511
 115	100	41.941	100	78.36879433	34.75177305	82.26950355
 116	100	81.785	16.464	98.22695035	52.95508274	32.74231678
 117	0	44.063	52.596	10.04728132	13.59338061	17.73049645
 118	0	0	58.917	0.7092198582	4.728132388	17.37588652
 119	59.25	24.551	29.789	21.86761229	6.264775414	8.274231678
 120	82.73	82.874	100	71.9858156	69.26713948	94.68085106
 121	80.039	0	12.618	41.4893617	4.964539007	7.210401891
 122	60.957	47.729	77.817	29.90543735	23.64066194	43.14420804
 123	100	0	38.618	68.79432624	9.692671395	17.61229314
 124	0	40.09	100	6.737588652	26.12293144	70.33096927
 125	0	15.283	82.322	1.773049645	11.58392435	39.24349882
 126	17.592	81.726	100	28.13238771	62.88416076	87.35224586
 127	100	14.13	100	72.93144208	26.59574468	77.89598109
 128	15.261	100	82.059	43.49881797	85.3427896	73.04964539
 129	47.77	79.418	60.389	35.46099291	47.87234043	39.24349882
 130	18.768	16.429	0	4.373522459	1.536643026	1.063829787
 131	55.634	100	65.763	56.97399527	82.74231678	59.69267139
 132	100	100	38.541	108.7470449	83.92434988	51.65484634
 133	17.421	0	83.497	3.427895981	10.9929078	40.66193853
 134	17.237	16.758	100	3.90070922	19.38534279	67.49408983
 135	0	15.067	30.039	0.8274231678	2.245862884	4.373522459
 136	0	0	86.505	1.536643026	11.93853428	44.44444444
 137	75.736	72.799	50.02	55.43735225	40.54373522	32.62411348
 138	100	83.323	85.529	99.52718676	66.43026005	76.59574468
 139	100	100	64.894	114.7754137	88.17966903	67.73049645
 140	81.98	84.914	0	75.17730496	53.19148936	28.95981087
 141	0	63.757	15.49	14.18439716	24.46808511	12.05673759
 142	49.514	66.135	100	29.55082742	45.86288416	80.85106383
 143	100	0	61.862	71.27659574	13.23877069	30.73286052
 144	24.308	45.41	49.831	9.101654846	14.18439716	17.0212766
 145	15.963	0	17.047	1.300236407	0.5910165485	1.654846336
 146	87.497	100	100	94.91725768	97.39952719	108.2742317
 147	52.099	25.003	75.752	17.61229314	13.23877069	35.81560284
 148	14.909	81.162	0	25.29550827	43.38061466	19.97635934
 149	0	34.792	14.626	3.78250591	6.264775414	3.78250591
 150	48.39	45.075	22.552	17.96690307	12.41134752	8.983451537
 151	83.545	65.965	100	60.9929078	49.64539007	85.81560284
 152	16.226	62.345	0	19.38534279	22.93144208	10.63829787
 153	63.222	0	14.914	23.28605201	3.073286052	4.846335697
 154	80.449	13.446	0	40.78014184	5.673758865	7.092198582
 155	83.917	41.562	0	50.23640662	13.82978723	11.11111111
 156	100	60.448	46.3	83.33333333	31.91489362	30.96926714
 157	15.584	0	34.795	26.47754137	1.536643026	5.319148936
 158	17.144	65.121	100	17.61229314	43.61702128	78.13238771
 159	83.602	55.334	62.667	56.02836879	27.77777778	34.98817967
 160	0	82.19	14.22	34.63356974	44.68085106	21.04018913
 161	25.132	74.856	50.616	23.52245863	39.24349882	28.60520095
 162	0	13.769	100	2.600472813	18.79432624	67.49408983
 163	87.181	0	0	51.06382979	5.791962175	8.037825059
 164	0	100	39.19	41.4893617	76.12293144	40.1891253
 165	78.047	65.914	19.865	54.25531915	31.08747045	19.85815603
 166	100	63.961	15.865	85.10638298	32.74231678	23.40425532
 167	100	45.955	36.032	77.54137116	20.44917258	21.63120567
 168	15.926	100	16.89	45.50827423	74.58628842	34.86997636
 169	41.459	100	0	49.17257683	74.46808511	34.75177305
 170	48.707	37.288	48.139	16.66666667	11.22931442	15.72104019
 171	83.381	100	13.285	85.81560284	79.90543735	41.60756501
 172	78.129	25.303	75.621	41.72576832	15.95744681	39.36170213
 173	12.396	0	0	0.8274231678	0.1182033097	0.3546099291
 174	37.607	48.336	83.346	14.6572104	24.11347518	47.28132388
 175	35.588	15.356	0	6.501182033	2.009456265	1.654846336
 176	61.245	100	100	64.18439716	93.49881797	103.427896
 177	100	67.29	87.195	89.0070922	47.87234043	69.38534279
 178	0	0	30.615	0.2364066194	1.182033097	4.01891253
 179	35.187	81.789	83.323	31.44208038	55.55555556	61.58392435
 180	39.525	80.194	22.879	31.44208038	43.73522459	22.57683215
 181	50.634	34.593	0	17.0212766	7.446808511	4.964539007
 182	14.175	100	63.146	41.60756501	79.78723404	54.37352246
 183	83.493	17.728	34.574	45.86288416	8.037825059	12.88416076
 184	23.463	22.014	79.943	5.082742317	12.41134752	37.94326241
 185	18.066	31.847	0	4.491725768	5.082742317	2.718676123
 186	87.201	100	81.361	94.32624113	90.07092199	80.14184397
 187	0	100	87.95	42.31678487	86.87943262	80.37825059
 188	34.476	17.888	46.22	6.855791962	4.846335697	11.22931442
 189	18.277	0	67.39	2.364066194	6.737588652	24.3498818
 190	100	87.972	0	102.1276596	61.11111111	35.57919622
 191	82.925	34.85	100	50.82742317	28.84160757	75.88652482
 192	0	88.016	100	31.56028369	71.04018913	91.01654846
 193	36.104	85.655	100	35.57919622	68.20330969	89.95271868
 194	60.981	0	0	21.15839243	2.482269504	3.546099291
 195	51.466	61.826	78.106	27.42316785	33.09692671	46.92671395
 196	78.427	31.983	22.175	41.13475177	9.929078014	10.52009456
 197	66.017	44.321	0	31.678487	13.12056738	8.865248227
 198	83.941	0	84.177	45.74468085	16.31205674	48.93617021
 199	20.158	46.612	23.269	8.628841608	12.1749409	7.919621749
 200	0	100	62.618	41.25295508	79.66903073	53.78250591
 201	33.832	0	13.933	5.437352246	0.9456264775	1.773049645
 202	100	17.286	16.322	71.04018913	9.574468085	12.88416076
 203	0	42.204	83.926	11.93853428	20.21276596	45.86288416
 204	0	87.774	0	29.07801418	52.36406619	23.87706856
 205	64.988	0	59.017	25.05910165	7.56501182	21.51300236
 206	14.677	0	100	2.836879433	17.96690307	67.13947991
 207	88.934	82.673	35.021	79.55082742	52.71867612	34.1607565
 208	0	63.778	100	15.36643026	42.08037825	78.0141844
 209	83.429	17.674	100	47.63593381	24.46808511	74.70449173
 210	30.899	100	85.668	46.45390071	86.5248227	78.0141844
 211	83.68	0	41.016	45.98108747	7.210401891	14.6572104
 212	100	63.515	0	85.22458629	31.44208038	21.9858156
 213	85.074	69.987	0	65.01182033	35.81560284	21.27659574
 214	20.801	45.524	69.018	9.574468085	17.96690307	30.73286052
 215	21.382	82.482	73.017	28.25059102	53.19148936	50.70921986
 216	100	15.128	64.249	68.321513	14.6572104	32.86052009
 217	36.522	0	58.427	6.855791962	5.319148936	17.84869976
 218	22.466	81.296	33.007	26.95035461	45.1536643	24.70449173
 219	62.531	87.152	0	51.77304965	54.72813239	27.18676123
 220	84.12	85.397	67.886	74.58628842	60.87470449	54.72813239
 221	18.87	27.336	45.389	4.964539007	6.382978723	11.22931442
 222	66.439	100	14.444	67.0212766	77.06855792	38.41607565
 223	41.636	22.147	19.003	11.46572104	3.90070922	4.137115839
 224	61.271	100	81.94	63.59338061	86.76122931	75.88652482
 225	86.013	100	0	90.66193853	80.02364066	41.72576832
 226	37.57	0	0	6.973995272	0.9456264775	1.182033097
 227	100	16.132	84.102	71.39479905	20.33096927	53.78250591
 228	0	100	13.619	40.78014184	73.99527187	34.1607565
 229	38.905	100	56.471	48.93617021	79.55082742	50.47281324
 230	100	15.382	34.563	71.04018913	10.28368794	16.66666667
 231	36.656	14.908	100	17.25768322	19.73995272	68.321513
 232	0	62.593	66.608	13.71158392	29.55082742	34.1607565
 233	66.347	12.528	100	28.48699764	21.51300236	71.51300236
 234	100	43.375	69.233	76.12293144	24.46808511	41.37115839
 235	100	56.36	61.236	81.44208038	30.96926714	38.41607565
 236	0	86.194	44.955	29.55082742	52.95508274	32.03309693
 237	64.527	87.262	100	55.08274232	72.69503546	94.32624113
 238	34.411	0	42.471	5.673758865	2.836879433	8.983451537
 239	80.23	59.707	85.12	53.90070922	36.99763593	59.45626478
 240	20.625	19.056	14.791	3.427895981	2.364066194	2.245862884
 241	15.341	34.221	100	6.146572104	23.75886525	69.62174941
 242	36.777	0	87.905	7.56501182	13.23877069	47.5177305
 243	34.598	56.247	100	17.49408983	36.76122931	76.24113475
 244	20.86	67.629	17.418	17.96690307	28.36879433	14.42080378
 245	44.958	60.843	18.054	22.34042553	23.04964539	12.88416076
 246	37.421	60.193	0	18.43971631	21.63120567	10.63829787
 247	84.011	33.849	42.612	49.52718676	13.00236407	17.96690307
 248	17.241	60.339	37.743	13.82978723	22.69503546	15.8392435
 249	50.65	17.261	53.278	14.77541371	6.737588652	16.31205674
 250	45.505	48.926	65.152	18.321513	20.09456265	30.14184397
 251	44.567	84.081	39.649	35.93380615	50.47281324	29.90543735
 252	100	86.339	72.054	101.0638298	66.66666667	63.12056738
 253	68.14	61.135	0	43.38061466	24.46808511	14.18439716
 254	17.93	66.986	81.403	17.96690307	37.58865248	50.70921986
 255	39.242	60.215	48.926	19.62174941	24.70449173	21.86761229
 256	20.099	18.77	62.967	3.546099291	7.446808511	21.51300236
 257	34.553	100	14.582	46.09929078	74.58628842	35.22458629
 258	87.345	0	66.694	50.70921986	12.1749409	31.91489362
 259	0	43.714	39.842	6.028368794	11.70212766	11.46572104
 260	100	37.705	13.955	73.99527187	15.13002364	15.01182033
 261	31.265	86.993	0	33.92434988	51.89125296	24.11347518
 262	51.402	82.661	81.338	39.83451537	57.21040189	61.22931442
 263	100	100	12.984	113.8297872	82.15130024	45.39007092
 264	0	37.859	0	4.01891253	6.973995272	3.427895981
 265	62.092	58.215	100	34.51536643	39.71631206	78.84160757
 266	86.186	100	64.1	91.96217494	85.3427896	63.00236407
 267	100	35.251	85.898	75.41371158	25.76832151	58.5106383
 268	63.182	89.992	41.974	54.96453901	60.75650118	36.87943262
 269	13.504	100	0	41.60756501	73.99527187	33.68794326
 270	100	0	13.228	70.33096927	8.037825059	11.70212766
 271	63.881	40.826	100	30.61465721	28.95981087	74.23167849
 272	69.387	84.838	20.792	55.79196217	51.89125296	28.36879433
 273	0	70.279	45.136	17.61229314	33.33333333	23.40425532
 274	79.094	64.754	40.908	53.90070922	31.678487	25.29550827
 275	62.385	54.099	17.396	31.678487	19.03073286	12.29314421
 276	64.408	14.621	0	24.82269504	3.78250591	4.373522459
 277	70.028	15.606	44.651	30.26004728	6.973995272	14.18439716
 278	0	63.544	0	13.59338061	23.87706856	10.87470449
 279	83.475	47.274	20.502	48.34515366	17.0212766	14.06619385
 280	55.866	0	32.671	18.43971631	3.191489362	7.092198582
 281	58.007	0	100	20.33096927	19.85815603	68.67612293
 282	100	0	87.698	70.44917258	19.97635934	56.73758865
 283	0	13.792	67.215	1.182033097	7.328605201	24.23167849
 284	84.123	17.001	58.549	46.45390071	10.9929078	24.70449173
 285	59.579	32.873	15.966	22.93144208	7.68321513	6.619385343
 286	10.41	32.998	28.659	3.6643026	6.264775414	6.028368794
 287	17.231	40.031	85.65	7.092198582	19.85815603	47.28132388
 288	37.568	41.561	10.108	11.34751773	9.338061466	5.437352246
 289	0	69.015	85.092	17.37588652	40.07092199	55.67375887
 290	14.442	100	36.187	41.13475177	74.70449173	38.88888889
 291	100	40.549	0	74.46808511	15.8392435	14.6572104
 292	82.143	45.435	78.429	49.76359338	24.70449173	46.09929078
 293	52.674	0	67.3	15.72104019	8.156028369	26.35933806
 294	0	87.868	66.793	29.78723404	58.74704492	47.5177305
 295	86.53	100	40.524	91.84397163	80.85106383	48.10874704
 296	71.777	85.586	67.232	60.16548463	59.21985816	51.06382979
 297	43.216	100	31.671	49.40898345	75.29550827	38.77068558
 298	39.245	32.908	85.845	11.46572104	17.61229314	46.80851064
 299	0	45.662	67.543	6.737588652	17.25768322	29.19621749
 300	12.161	100	100	42.55319149	91.25295508	99.40898345
 301	67.049	0	85.516	27.54137116	14.6572104	47.75413712
 302	100	89.041	100	103.6643026	80.14184397	102.0094563
 303	20.246	60.698	56.526	14.18439716	25.53191489	25.6501182
 304	52.177	55.457	40.416	24.11347518	20.80378251	17.25768322
 305	72.617	87.018	83.932	62.52955083	65.72104019	70.09456265
 306	40.512	16.723	66.475	9.456264775	8.510638298	25.17730496
 307	68.507	49.232	50.605	35.46099291	19.38534279	22.34042553
 308	65.622	100	54.525	65.95744681	79.90543735	51.65484634
 309	54.115	37.24	66.394	20.33096927	14.77541371	28.84160757
 310	100	76.138	31.267	92.08037825	46.09929078	32.03309693
 311	54.728	65.623	0	30.4964539	27.18676123	14.18439716
 312	63.126	12.526	64.37	23.75886525	9.101654846	25.41371158
 313	72.827	18.08	23.704	33.21513002	5.910165485	8.274231678
 314	23.268	15.278	34.947	3.546099291	2.836879433	6.146572104
 315	87.648	68.954	59.645	67.49408983	39.24349882	39.24349882
 316	0	85.595	85.198	31.08747045	60.40189125	65.01182033
 317	35.798	84.371	69.21	32.9787234	54.8463357	47.99054374
 318	36.062	47.494	35.919	12.76595745	13.94799054	11.70212766
 319	86.083	36.277	59.152	52.12765957	16.66666667	28.13238771
 320	58.21	100	30.361	59.69267139	76.59574468	39.95271868
 321	46.745	14.614	32.317	11.70212766	3.427895981	6.501182033
 322	81.573	73.869	86.954	63.12056738	51.06382979	67.49408983
 323	85.991	49.387	48.206	55.79196217	21.27659574	24.11347518
 324	28.062	87.906	19.654	33.09692671	53.19148936	26.12293144
 325	68.992	17.993	85.124	29.90543735	16.19385343	47.87234043
 326	100	66.147	100	86.5248227	51.1820331	88.17966903
 327	33.358	64.806	84.517	20.33096927	36.76122931	54.13711584
 328	41.351	17.736	80.522	10.04728132	12.41134752	38.88888889
 329	100	100	88.719	112.7659574	93.49881797	91.60756501
 330	66.336	0	44.32	26.24113475	5.437352246	13.00236407
 331	64.85	67.09	12.293	39.47990544	30.14184397	16.90307329
 332	15.262	31.268	63.277	4.255319149	10.28368794	22.69503546
 333	15.008	43.663	37.3	6.619385343	11.34751773	10.52009456
 334	0	57.895	38.078	10.75650118	20.56737589	14.89361702
 335	66.599	58.458	67.871	37.35224586	29.07801418	37.8250591
 336	59.191	18.651	15.215	20.21276596	4.255319149	4.846335697
 337	66.781	31.14	84.629	29.78723404	18.79432624	48.10874704
 338	88.033	85.158	52.14	79.19621749	57.68321513	42.90780142
 339	36.882	100	100	48.10874704	90.89834515	99.76359338
 340	26.102	33.094	17.006	6.146572104	6.028368794	4.255319149
 341	56.309	36.861	35.862	20.92198582	9.929078014	11.11111111
 342	45.839	65.587	67.033	25.41371158	33.21513002	37.11583924
 343	83.709	81.172	16.406	68.67612293	47.87234043	27.65957447
 344	0	48.132	13.005	6.855791962	12.1749409	6.264775414
 345	87.176	50.021	100	58.62884161	36.76122931	79.78723404
 346	51.219	84.244	13.73	39.36170213	48.10874704	23.99527187
 347	60.606	71.415	48.406	38.53427896	36.643026	28.36879433
 348	0	11.359	12.718	0.5910165485	0.8274231678	1.063829787
 349	86.429	49.705	33.145	56.26477541	19.85815603	18.321513
 350	34.056	40.958	100	11.93853428	26.71394799	70.92198582
 351	100	30.557	59.628	72.10401891	16.90307329	31.08747045
 352	88.497	26.902	13.449	53.54609929	9.338061466	10.40189125
 353	14.167	51.98	88.218	10.63829787	27.18676123	52.95508274
 354	13.784	12.983	49.37	2.009456265	4.01891253	11.58392435
 355	15.018	88.441	48.062	30.61465721	56.02836879	34.86997636
 356	87.79	25.769	89.215	52.4822695	21.63120567	57.21040189
 357	0	33.206	55.865	3.546099291	9.338061466	17.49408983
 358	74.324	76.029	35.536	54.25531915	41.96217494	27.42316785
 359	65.863	57.223	42.324	36.05200946	23.1678487	20.21276596
 360	30.893	54.646	13.136	13.356974	17.0212766	8.865248227
 361	0	34.36	28.321	3.427895981	6.619385343	6.028368794
 362	15.443	77.087	85.116	23.40425532	49.40898345	60.52009456
 363	63.381	68.947	68.521	39.71631206	38.06146572	41.96217494
 364	69.733	27.566	42.917	31.20567376	9.101654846	14.42080378
 365	32.754	100	42.76	45.1536643	75.41371158	42.19858156
 366	47.096	29.481	34.829	13.59338061	6.737588652	8.747044917
 367	8.5451	71.948	62.695	18.67612293	37.35224586	34.51536643
 368	0	86.048	29.3	27.42316785	50.47281324	26.12293144
 369	53.697	51.572	85.367	24.23167849	27.65957447	51.65484634
 370	17.608	56.69	12.515	11.46572104	18.321513	9.101654846
 371	90.638	14.414	49.227	54.8463357	10.04728132	20.33096927
 372	63.248	63.64	89.55	37.8250591	39.59810875	63.23877069
 373	100	85.976	58.455	99.29078014	62.41134752	50.82742317
 374	9.8311	28.027	7.5567	2.718676123	4.01891253	2.245862884
 375	89.831	64.313	69.506	68.08510638	37.47044917	45.74468085
 376	31.754	12.995	25.543	5.082742317	2.127659574	4.01891253
 377	75.914	45.966	64.957	42.19858156	20.92198582	32.74231678
 378	7.5735	50.695	58.941	8.747044917	18.67612293	23.87706856
 379	100	69.835	58.912	87.58865248	42.55319149	42.19858156
 380	32.211	34.376	48.339	8.156028369	9.101654846	14.18439716
 381	13.901	12.159	73.555	2.009456265	8.747044917	29.90543735
 382	87.071	9.028	77.653	50.35460993	15.01182033	42.08037825
 383	23.272	85.409	84.29	30.61465721	59.92907801	64.06619385
 384	93.289	39.48	26.145	62.29314421	14.89361702	15.48463357
 385	65.769	59.63	30.967	37.35224586	24.11347518	17.13947991
 386	100	32.265	41.803	71.51300236	14.89361702	20.92198582
 387	86.568	85.281	86.961	77.18676123	65.95744681	74.82269504
 388	52.577	86.83	30.016	43.02600473	53.19148936	29.07801418
 389	47.921	40.199	76.902	17.37588652	18.20330969	38.77068558
 390	22.36	86.619	61.58	30.85106383	55.91016548	42.6713948
 391	52.232	33.601	88.787	18.67612293	19.73995272	51.77304965
 392	0	28.523	86.267	3.427895981	15.60283688	45.39007092
 393	43.497	67.879	39.551	25.05910165	30.85106383	20.92198582
 394	39.877	45.261	0	13.356974	11.22931442	6.028368794
 395	86.94	12.43	24.699	49.52718676	6.973995272	10.63829787
 396	28.363	55.339	90.398	14.89361702	30.96926714	58.03782506
 397	39.018	70.534	57.879	24.58628842	35.46099291	31.32387707
 398	12.833	28.519	78.828	3.90070922	13.356974	36.87943262
 399	68.35	31.815	69.975	30.96926714	15.13002364	33.09692671
 400	56.52	26.226	41.626	19.38534279	7.328605201	11.93853428
 401	12.938	46.218	0	6.855791962	10.9929078	5.200945626
 402	8.6938	60.179	26.117	11.93853428	21.39479905	12.29314421
 403	51.995	89.429	96.608	45.50827423	71.74940898	87.23404255
 404	46.905	47.746	48.909	18.20330969	15.95744681	18.08510638
 405	14.352	81.814	19.479	25.17730496	44.08983452	21.51300236
 406	71.482	38.117	12.273	35.10638298	10.75650118	8.747044917
 407	86.616	60.785	10.012	60.28368794	26.59574468	17.73049645
 408	71.811	88.979	52.186	62.1749409	60.28368794	42.55319149
 409	43.213	100	72.083	50.11820331	81.79669031	63.00236407
