data/calibration-000701.ti3
CTI3
ORIGINATOR	"ColorHug Factory"
DESCRIPTOR	"Calibration Target chart information 3"
DEVICE_CLASS	"DISPLAY"
COLOR_REP	"RGB_XYZ"
TARGET_INSTRUMENT	"Hughski ColorHug"
INSTRUMENT_TYPE_SPECTRAL	"NO"
NORMALIZED_TO_Y_100	"NO"
NUMBER_OF_FIELDS	7
NUMBER_OF_SETS	15
BEGIN_DATA_FORMAT
 SAMPLE_ID	RGB_R	RGB_G	RGB_B	XYZ_X	XYZ_Y	XYZ_Z
END_DATA_FORMAT
BEGIN_DATA
 1	0	0	0	0.1373291016	0.09155273438	0.1373291016
 2	1	1	1	61.06567383	40.8782959	44.99816895
 3	1	0	0	38.3605957	3.936767578	5.53894043
 4	0	1	0	20.2331543	29.4342041	12.81738281
 5	0	0	1	1.007080078	7.827758789	27.05383301
 6	0	0	0	0.1373291016	0.09155273438	0.1373291016
 7	1	1	1	60.28747559	40.69519043	45.36437988
 8	1	0	0	38.63525391	3.890991211	5.493164062
 9	0	1	0	20.14160156	29.1595459	12.81738281
 10	0	0	1	1.007080078	7.827758789	27.23693848
 11	0	0	0	0.1373291016	0.09155273438	0.1373291016
 12	1	1	1	60.42480469	41.015625	45.45593262
 13	1	0	0	38.31481934	3.890991211	5.493164062
 14	0	1	0	20.0958252	29.34265137	12.77160645
 15	0	0	1	1.007080078	7.827758789	27.19116211
END_DATA
