data/calibration-000037.ti3
CTI3
DESCRIPTOR	"Calibration Target chart information 3"
ORIGINATOR	"ColorHug Factory"
DEVICE_CLASS	"DISPLAY"
COLOR_REP	"RGB_XYZ"
TARGET_INSTRUMENT	"ColorHug"
INSTRUMENT_TYPE_SPECTRAL	"NO"
LUMINANCE_XYZ_CDM2	"49.495697 40.683746 45.661926"
NORMALIZED_TO_Y_100	"YES"
NUMBER_OF_FIELDS	7
NUMBER_OF_SETS	836
BEGIN_DATA_FORMAT
 SAMPLE_ID	RGB_R	RGB_G	RGB_B	XYZ_X	XYZ_Y	XYZ_Z
END_DATA_FORMAT
BEGIN_DATA
 1	100	100	100	117.3184358	99.44134078	111.1731844
 2	100	100	100	121.7877095	99.44134078	111.1731844
 3	100	100	100	121.7877095	98.32402235	112.2905028
 4	100	100	100	122.3463687	100	111.1731844
 5	33.33	32.622	30.968	11.17318436	8.938547486	9.497206704
 6	100	0	100	75.97765363	27.93296089	78.77094972
 7	100	100	0	118.9944134	80.44692737	45.81005587
 8	0	100	100	43.57541899	91.62011173	101.1173184
 9	0	100	0	42.45810056	71.50837989	32.96089385
 10	0	0	100	3.351955307	19.55307263	68.7150838
 11	100	0	0	74.8603352	8.938547486	12.29050279
 12	0	0	0	1.117318436	1.117318436	1.117318436
 13	0	52.455	100	11.73184358	35.75418994	76.53631285
 14	100	0	50.3	74.30167598	12.29050279	25.69832402
 15	100	54.739	100	87.70949721	44.69273743	88.82681564
 16	100	52.128	0	84.91620112	25.1396648	19.55307263
 17	0	0	46.181	1.117318436	3.910614525	11.73184358
 18	0	51.141	0	9.497206704	16.20111732	7.82122905
 19	0	100	51.348	42.45810056	77.09497207	47.48603352
 20	100	100	52.037	120.6703911	84.3575419	59.21787709
 21	49.216	0	0	16.20111732	2.234636872	2.793296089
 22	56.159	100	0	62.5698324	75.41899441	36.31284916
 23	49.226	100	100	58.10055866	92.73743017	103.9106145
 24	44.487	0	100	14.52513966	20.67039106	70.94972067
 25	100	44.498	52.029	82.12290503	24.02234637	32.40223464
 26	48.926	48.544	100	25.1396648	34.07821229	77.65363128
 27	51.368	100	47.25	58.65921788	78.77094972	47.48603352
 28	49.893	0	49.033	16.75977654	6.145251397	16.75977654
 29	53.109	51.372	0	27.37430168	17.87709497	10.61452514
 30	0	58.587	53.943	13.96648045	25.69832402	26.25698324
 31	100	28.065	100	78.2122905	31.84357542	83.24022346
 32	0	0	72.874	1.675977654	8.938547486	32.40223464
 33	0	26.758	100	5.027932961	22.90502793	69.83240223
 34	0	25.426	0	2.793296089	4.469273743	2.793296089
 35	72.508	0	100	36.87150838	22.90502793	73.18435754
 36	100	27.395	0	75.97765363	12.84916201	14.52513966
 37	74.47	100	100	82.12290503	96.08938547	105.5865922
 38	100	0	25.728	74.30167598	9.497206704	15.6424581
 39	73.862	0	0	36.87150838	4.469273743	6.703910615
 40	100	100	25.402	120.6703911	82.12290503	48.04469274
 41	0	75.751	100	24.58100559	56.98324022	84.3575419
 42	0	75.172	0	21.7877095	36.31284916	17.31843575
 43	0	100	25.864	41.89944134	72.62569832	36.87150838
 44	100	0	74.801	74.30167598	18.43575419	45.81005587
 45	0	100	75.421	43.57541899	82.68156425	67.03910615
 46	24.577	0	0	4.469273743	1.117318436	1.675977654
 47	26.321	100	0	46.36871508	73.74301676	33.51955307
 48	100	75.835	0	98.88268156	45.81005587	29.60893855
 49	100	100	77.061	121.7877095	89.94413408	81.00558659
 50	71.263	100	0	76.53631285	77.09497207	38.54748603
 51	0	0	15.614	1.117318436	1.117318436	2.234636872
 52	0	30.049	70.936	4.469273743	13.96648045	32.96089385
 53	100	77.691	100	102.2346369	67.03910615	97.20670391
 54	24.486	100	100	46.9273743	91.06145251	102.2346369
 55	100	62.784	31.909	91.06145251	35.19553073	28.49162011
 56	29.552	0	100	7.82122905	19.55307263	69.27374302
 57	32.98	70.921	100	27.37430168	52.51396648	84.3575419
 58	0	27.681	40.241	3.351955307	7.262569832	11.73184358
 59	67.901	71.021	100	50.83798883	54.74860335	88.26815642
 60	28.154	100	67.829	47.48603352	81.56424581	60.33519553
 61	71.637	100	70.001	78.2122905	84.3575419	67.03910615
 62	58.822	58.763	53.586	34.63687151	28.49162011	30.16759777
 63	33.466	30.48	0	10.61452514	6.703910615	4.469273743
 64	100	73.795	71.277	97.76536313	51.39664804	59.21787709
 65	68.394	29.692	0	34.07821229	8.938547486	7.82122905
 66	70.399	0	29.039	32.96089385	5.586592179	10.05586592
 67	28.078	0	26.956	5.586592179	2.793296089	5.027932961
 68	28.532	72.339	0	25.1396648	34.63687151	16.75977654
 69	100	30.941	26.496	77.65363128	15.08379888	18.43575419
 70	34.597	0	73.611	8.379888268	10.61452514	34.07821229
 71	71.573	0	72.408	35.75418994	12.84916201	36.87150838
 72	0	71.029	29.412	19.55307263	33.51955307	20.11173184
 73	68.386	75.008	0	52.51396648	40.78212291	21.7877095
 74	68.088	27.309	100	34.63687151	26.81564246	74.8603352
 75	100	26.457	73.749	77.65363128	21.7877095	46.9273743
 76	74.344	100	27.392	81.00558659	78.2122905	42.45810056
 77	27.558	100	28.197	46.36871508	74.8603352	37.98882682
 78	31.196	27.465	100	10.61452514	24.02234637	72.06703911
 79	0	75.521	72.824	23.46368715	46.36871508	48.60335196
 80	0	50.93	25.553	10.05586592	16.75977654	11.73184358
 81	32.06	33.584	64.033	11.17318436	14.52513966	27.93296089
 82	81.666	55.38	0	57.54189944	24.02234637	16.75977654
 83	68.257	32.751	58.286	35.19553073	15.6424581	27.93296089
 84	0	55.248	81.585	12.29050279	30.72625698	50.27932961
 85	73.781	52.099	100	48.04469274	39.10614525	82.12290503
 86	100	50.537	82.952	84.91620112	35.75418994	62.01117318
 87	23.55	0	50.439	4.469273743	4.469273743	15.08379888
 88	31.335	62.746	31.114	20.67039106	26.81564246	17.87709497
 89	100	18.31	49.418	75.41899441	15.08379888	26.25698324
 90	26.498	48.404	0	13.40782123	15.08379888	7.82122905
 91	47.91	100	85.744	56.98324022	87.70949721	82.12290503
 92	71.829	47.313	31.811	43.01675978	19.55307263	17.31843575
 93	31.304	64.132	69.316	22.34636872	34.07821229	41.34078212
 94	80.403	0	54.321	45.25139665	10.05586592	24.58100559
 95	18.455	50.036	100	13.40782123	34.63687151	74.8603352
 96	50.653	100	16.345	57.54189944	75.41899441	37.4301676
 97	80.121	100	52.261	88.26815642	82.68156425	54.74860335
 98	0	22.54	19.289	2.793296089	4.469273743	3.910614525
 99	100	75.273	46.886	97.76536313	49.16201117	40.78212291
 100	0	78.618	56.625	25.69832402	45.81005587	36.87150838
 101	51.137	80.627	100	43.57541899	63.12849162	91.06145251
 102	48.446	0	17.864	15.08379888	3.351955307	4.469273743
 103	100	50.023	21.211	83.79888268	24.58100559	21.22905028
 104	50.115	20.118	0	17.31843575	5.027932961	4.469273743
 105	58.099	72.426	33.158	41.89944134	37.98882682	24.58100559
 106	19.364	100	50.197	44.13407821	76.53631285	48.04469274
 107	50.683	19.177	100	19.55307263	23.46368715	72.06703911
 108	53.37	0	81.576	19.55307263	13.96648045	45.81005587
 109	47.768	76.245	0	35.75418994	39.66480447	20.11173184
 110	0	18.927	55.503	2.793296089	7.82122905	18.43575419
 111	0	13.277	0	1.675977654	2.234636872	1.117318436
 112	72.862	72.473	75.625	56.42458101	47.48603352	55.30726257
 113	100	13.904	0	75.41899441	9.497206704	12.84916201
 114	86.349	0	100	53.63128492	25.1396648	77.09497207
 115	100	41.941	100	82.68156425	37.4301676	83.79888268
 116	100	81.785	16.464	103.9106145	53.0726257	34.07821229
 117	0	44.063	52.596	7.82122905	16.75977654	21.22905028
 118	0	0	58.917	1.675977654	6.145251397	20.11173184
 119	59.25	24.551	29.789	25.1396648	7.82122905	10.61452514
 120	82.73	82.874	100	77.65363128	70.39106145	95.53072626
 121	80.039	0	12.618	44.69273743	6.145251397	8.379888268
 122	60.957	47.729	77.817	32.40223464	26.81564246	48.04469274
 123	100	0	38.618	75.41899441	11.17318436	19.55307263
 124	0	40.09	100	8.379888268	28.49162011	73.18435754
 125	0	15.283	82.322	2.793296089	13.96648045	43.01675978
 126	17.592	81.726	100	30.72625698	63.68715084	88.26815642
 127	100	14.13	100	75.97765363	29.05027933	81.00558659
 128	15.261	100	82.059	44.69273743	84.91620112	74.8603352
 129	47.77	79.418	60.389	39.66480447	48.60335196	41.89944134
 130	18.768	16.429	0	3.910614525	2.793296089	1.675977654
 131	55.634	100	65.763	62.01117318	81.00558659	61.45251397
 132	100	100	38.541	118.9944134	82.12290503	53.0726257
 133	17.421	0	83.497	3.351955307	12.84916201	44.13407821
 134	17.237	16.758	100	5.027932961	20.67039106	70.39106145
 135	0	15.067	30.039	1.675977654	3.351955307	6.145251397
 136	0	0	86.505	2.234636872	13.96648045	47.48603352
 137	75.736	72.799	50.02	59.21787709	42.45810056	36.31284916
 138	100	83.323	85.529	104.4692737	68.7150838	79.88826816
 139	100	100	64.894	121.2290503	87.70949721	68.7150838
 140	81.98	84.914	0	75.41899441	54.74860335	30.16759777
 141	0	63.757	15.49	15.6424581	26.25698324	13.40782123
 142	49.514	66.135	100	32.96089385	48.04469274	83.79888268
 143	100	0	61.862	74.30167598	14.52513966	34.07821229
 144	24.308	45.41	49.831	11.73184358	16.75977654	20.11173184
 145	15.963	0	17.047	2.793296089	1.117318436	2.793296089
 146	87.497	100	100	98.88268156	97.20670391	107.8212291
 147	52.099	25.003	75.752	20.67039106	15.6424581	40.22346369
 148	14.909	81.162	0	27.37430168	44.13407821	20.67039106
 149	0	34.792	14.626	5.027932961	7.82122905	5.027932961
 150	48.39	45.075	22.552	21.22905028	14.52513966	11.17318436
 151	83.545	65.965	100	67.03910615	52.51396648	87.15083799
 152	16.226	62.345	0	16.20111732	24.02234637	12.29050279
 153	63.222	0	14.914	25.69832402	4.469273743	6.145251397
 154	80.449	13.446	0	45.25139665	6.703910615	8.379888268
 155	83.917	41.562	0	54.74860335	16.20111732	12.84916201
 156	100	60.448	46.3	89.38547486	34.63687151	34.07821229
 157	15.584	0	34.795	2.793296089	2.793296089	7.262569832
 158	17.144	65.121	100	19.55307263	46.36871508	81.56424581
 159	83.602	55.334	62.667	60.89385475	31.2849162	38.54748603
 160	0	82.19	14.22	27.37430168	45.25139665	22.34636872
 161	25.132	74.856	50.616	26.25698324	41.34078212	31.2849162
 162	0	13.769	100	3.351955307	20.67039106	68.15642458
 163	87.181	0	0	53.63128492	6.703910615	9.497206704
 164	0	100	39.19	41.89944134	75.41899441	41.34078212
 165	78.047	65.914	19.865	58.65921788	32.40223464	21.22905028
 166	100	63.961	15.865	89.94413408	34.63687151	25.69832402
 167	100	45.955	36.032	82.68156425	23.46368715	24.58100559
 168	15.926	100	16.89	44.13407821	72.06703911	35.19553073
 169	41.459	100	0	51.39664804	73.74301676	35.19553073
 170	48.707	37.288	48.139	20.67039106	13.96648045	19.55307263
 171	83.381	100	13.285	91.06145251	77.65363128	41.89944134
 172	78.129	25.303	75.621	45.25139665	18.43575419	42.45810056
 173	12.396	0	0	1.675977654	1.117318436	1.117318436
 174	37.607	48.336	83.346	18.43575419	27.37430168	51.95530726
 175	35.588	15.356	0	9.497206704	2.793296089	2.793296089
 176	61.245	100	100	66.48044693	93.8547486	105.027933
 177	100	67.29	87.195	93.29608939	50.83798883	73.74301676
 178	0	0	30.615	1.117318436	2.234636872	5.586592179
 179	35.187	81.789	83.323	34.63687151	57.54189944	65.92178771
 180	39.525	80.194	22.879	34.63687151	45.25139665	23.46368715
 181	50.634	34.593	0	20.67039106	9.497206704	6.703910615
 182	14.175	100	63.146	43.57541899	79.88826816	56.42458101
 183	83.493	17.728	34.574	49.72067039	10.05586592	15.08379888
 184	23.463	22.014	79.943	6.703910615	14.52513966	41.89944134
 185	18.066	31.847	0	6.145251397	6.703910615	3.910614525
 186	87.201	100	81.361	98.32402235	88.82681564	82.68156425
 187	0	100	87.95	43.01675978	86.59217877	82.68156425
 188	34.476	17.888	46.22	8.938547486	6.703910615	13.96648045
 189	18.277	0	67.39	3.351955307	8.379888268	27.37430168
 190	100	87.972	0	107.8212291	62.01117318	36.31284916
 191	82.925	34.85	100	54.18994413	31.2849162	78.77094972
 192	0	88.016	100	32.96089385	72.06703911	93.29608939
 193	36.104	85.655	100	39.10614525	68.7150838	91.62011173
 194	60.981	0	0	24.02234637	3.910614525	4.469273743
 195	51.466	61.826	78.106	31.84357542	36.31284916	51.39664804
 196	78.427	31.983	22.175	45.81005587	11.73184358	12.29050279
 197	66.017	44.321	0	35.19553073	15.6424581	10.61452514
 198	83.941	0	84.177	50.83798883	18.43575419	51.95530726
 199	20.158	46.612	23.269	10.61452514	14.52513966	10.05586592
 200	0	100	62.618	42.45810056	79.32960894	55.30726257
 201	33.832	0	13.933	7.262569832	1.675977654	3.351955307
 202	100	17.286	16.322	75.41899441	10.61452514	14.52513966
 203	0	42.204	83.926	8.379888268	23.46368715	49.16201117
 204	0	87.774	0	31.2849162	51.95530726	24.58100559
 205	64.988	0	59.017	27.93296089	8.938547486	24.58100559
 206	14.677	0	100	3.910614525	19.55307263	68.7150838
 207	88.934	82.673	35.021	83.79888268	53.0726257	36.87150838
 208	0	63.778	100	17.87709497	44.69273743	79.32960894
 209	83.429	17.674	100	51.39664804	26.25698324	76.53631285
 210	30.899	100	85.668	48.04469274	87.15083799	80.44692737
 211	83.68	0	41.016	49.16201117	8.938547486	16.75977654
 212	100	63.515	0	89.94413408	33.51955307	24.02234637
 213	85.074	69.987	0	69.83240223	37.4301676	22.34636872
 214	20.801	45.524	69.018	11.73184358	20.67039106	34.63687151
 215	21.382	82.482	73.017	30.16759777	54.74860335	54.18994413
 216	100	15.128	64.249	75.97765363	16.75977654	36.31284916
 217	36.522	0	58.427	8.938547486	6.703910615	20.67039106
 218	22.466	81.296	33.007	29.05027933	46.36871508	26.81564246
 219	62.531	87.152	0	56.42458101	54.18994413	27.37430168
 220	84.12	85.397	67.886	79.32960894	61.45251397	58.10055866
 221	18.87	27.336	45.389	6.145251397	8.379888268	13.96648045
 222	66.439	100	14.444	71.50837989	75.41899441	38.54748603
 223	41.636	22.147	19.003	12.84916201	5.586592179	5.586592179
 224	61.271	100	81.94	44.69273743	87.15083799	78.2122905
 225	86.013	100	0	96.64804469	78.77094972	41.34078212
 226	37.57	0	0	8.938547486	1.675977654	2.234636872
 227	100	16.132	84.102	75.97765363	22.34636872	58.10055866
 228	0	100	13.619	45.25139665	72.62569832	33.51955307
 229	38.905	100	56.471	51.39664804	78.2122905	53.0726257
 230	100	15.382	34.563	75.97765363	12.29050279	18.99441341
 231	36.656	14.908	100	11.17318436	21.22905028	69.83240223
 232	0	62.593	66.608	15.6424581	32.40223464	37.4301676
 233	66.347	12.528	100	31.2849162	23.46368715	73.74301676
 234	100	43.375	69.233	81.56424581	27.37430168	45.81005587
 235	100	56.36	61.236	87.70949721	34.07821229	41.89944134
 236	0	86.194	44.955	30.16759777	53.0726257	34.63687151
 237	64.527	87.262	100	59.21787709	74.30167598	96.08938547
 238	34.411	0	42.471	7.82122905	4.469273743	11.73184358
 239	80.23	59.707	85.12	58.65921788	39.66480447	64.24581006
 240	20.625	19.056	14.791	5.027932961	3.351955307	3.910614525
 241	15.341	34.221	100	8.379888268	25.69832402	71.50837989
 242	36.777	0	87.905	10.05586592	15.08379888	51.95530726
 243	34.598	56.247	100	20.67039106	39.10614525	77.65363128
 244	20.86	67.629	17.418	19.55307263	30.16759777	16.20111732
 245	44.958	60.843	18.054	26.25698324	25.69832402	15.08379888
 246	37.421	60.193	0	22.34636872	23.46368715	12.29050279
 247	84.011	33.849	42.612	53.0726257	15.6424581	21.22905028
 248	17.241	60.339	37.743	15.6424581	25.69832402	18.43575419
 249	50.65	17.261	53.278	17.87709497	8.379888268	20.11173184
 250	45.505	48.926	65.152	21.7877095	22.90502793	34.07821229
 251	44.567	84.081	39.649	40.22346369	50.83798883	32.40223464
 252	100	86.339	72.054	106.7039106	68.15642458	66.48044693
 253	68.14	61.135	0	44.69273743	26.81564246	15.6424581
 254	17.93	66.986	81.403	20.11173184	40.22346369	55.30726257
 255	39.242	60.215	48.926	23.46368715	27.93296089	25.1396648
 256	20.099	18.77	62.967	5.027932961	8.938547486	25.1396648
 257	34.553	100	14.582	48.04469274	73.74301676	35.19553073
 258	87.345	0	66.694	53.63128492	13.96648045	35.19553073
 259	0	43.714	39.842	7.82122905	14.52513966	13.96648045
 260	100	37.705	13.955	79.32960894	17.31843575	17.31843575
 261	31.265	86.993	0	36.31284916	51.95530726	24.58100559
 262	51.402	82.661	81.338	44.13407821	59.21787709	65.92178771
 263	100	100	12.984	120.1117318	81.56424581	45.25139665
 264	0	37.859	0	5.586592179	8.379888268	4.469273743
 265	62.092	58.215	100	38.54748603	43.01675978	81.56424581
 266	86.186	100	64.1	94.41340782	84.91620112	65.92178771
 267	100	35.251	85.898	79.88826816	28.49162011	63.12849162
 268	63.182	89.992	41.974	58.65921788	62.01117318	39.66480447
 269	13.504	100	0	43.57541899	72.62569832	32.96089385
 270	100	0	13.228	74.8603352	9.497206704	12.84916201
 271	63.881	40.826	100	33.51955307	31.84357542	77.09497207
 272	69.387	84.838	20.792	60.89385475	52.51396648	29.60893855
 273	0	70.279	45.136	19.55307263	35.75418994	26.25698324
 274	79.094	64.754	40.908	59.21787709	34.07821229	27.93296089
 275	62.385	54.099	17.396	35.75418994	21.22905028	14.52513966
 276	64.408	14.621	0	28.49162011	5.586592179	5.586592179
 277	70.028	15.606	44.651	34.07821229	8.379888268	16.75977654
 278	0	63.544	0	15.6424581	25.69832402	12.29050279
 279	83.475	47.274	20.502	56.98324022	20.11173184	16.20111732
 280	55.866	0	32.671	20.11173184	5.027932961	9.497206704
 281	58.007	0	100	23.46368715	21.7877095	70.94972067
 282	100	0	87.698	75.41899441	21.7877095	61.45251397
 283	0	13.792	67.215	2.234636872	9.497206704	27.37430168
 284	84.123	17.001	58.549	50.83798883	13.40782123	27.93296089
 285	59.579	32.873	15.966	26.81564246	9.497206704	8.379888268
 286	10.41	32.998	28.659	5.027932961	8.379888268	8.379888268
 287	17.231	40.031	85.65	9.497206704	22.90502793	51.39664804
 288	37.568	41.561	10.108	14.52513966	11.73184358	7.262569832
 289	0	69.015	85.092	19.55307263	43.57541899	59.21787709
 290	14.442	100	36.187	43.01675978	74.30167598	40.22346369
 291	100	40.549	0	79.32960894	18.43575419	16.75977654
 292	82.143	45.435	78.429	54.74860335	28.49162011	50.83798883
 293	52.674	0	67.3	18.43575419	10.05586592	30.16759777
 294	0	87.868	66.793	31.84357542	60.89385475	50.83798883
 295	86.53	100	40.524	97.20670391	81.00558659	49.72067039
 296	71.777	85.586	67.232	64.24581006	60.89385475	55.86592179
 297	43.216	100	31.671	53.63128492	75.41899441	39.66480447
 298	39.245	32.908	85.845	22.34636872	21.22905028	50.83798883
 299	0	45.662	67.543	8.938547486	20.11173184	33.51955307
 300	12.161	100	100	44.13407821	91.62011173	100
 301	67.049	0	85.516	30.72625698	16.75977654	51.95530726
 302	100	89.041	100	109.4972067	82.68156425	105.5865922
 303	20.246	60.698	56.526	17.31843575	28.49162011	29.60893855
 304	52.177	55.457	40.416	28.49162011	23.46368715	21.22905028
 305	72.617	87.018	83.932	67.03910615	68.15642458	73.74301676
 306	40.512	16.723	66.475	12.84916201	10.61452514	28.49162011
 307	68.507	49.232	50.605	39.10614525	22.34636872	26.81564246
 308	65.622	100	54.525	71.50837989	80.44692737	53.63128492
 309	54.115	37.24	66.394	24.58100559	17.31843575	32.96089385
 310	100	76.138	31.267	98.88268156	48.04469274	34.63687151
 311	54.728	65.623	0	35.19553073	29.60893855	15.6424581
 312	63.126	12.526	64.37	27.37430168	11.17318436	29.05027933
 313	72.827	18.08	23.704	36.87150838	7.262569832	10.05586592
 314	23.268	15.278	34.947	5.027932961	3.910614525	8.379888268
 315	87.648	68.954	59.645	72.06703911	41.34078212	43.01675978
 316	0	85.595	85.198	30.72625698	63.12849162	68.15642458
 317	35.798	84.371	69.21	36.87150838	57.54189944	51.39664804
 318	36.062	47.494	35.919	16.20111732	16.75977654	14.52513966
 319	86.083	36.277	59.152	57.54189944	19.55307263	31.2849162
 320	58.21	100	30.361	62.5698324	76.53631285	41.34078212
 321	46.745	14.614	32.317	15.08379888	5.027932961	8.938547486
 322	81.573	73.869	86.954	69.27374302	53.63128492	71.50837989
 323	85.991	49.387	48.206	60.89385475	24.58100559	27.93296089
 324	28.062	87.906	19.654	36.31284916	54.74860335	26.81564246
 325	68.992	17.993	85.124	32.96089385	18.99441341	52.51396648
 326	100	66.147	100	92.17877095	54.74860335	92.73743017
 327	33.358	64.806	84.517	24.02234637	39.66480447	58.10055866
 328	41.351	17.736	80.522	12.84916201	14.52513966	44.13407821
 329	100	100	88.719	121.2290503	94.97206704	94.41340782
 330	66.336	0	44.32	29.60893855	6.703910615	16.20111732
 331	64.85	67.09	12.293	43.57541899	32.40223464	18.99441341
 332	15.262	31.268	63.277	6.145251397	12.29050279	26.25698324
 333	15.008	43.663	37.3	8.938547486	13.96648045	13.96648045
 334	0	57.895	38.078	12.84916201	22.90502793	17.87709497
 335	66.599	58.458	67.871	42.45810056	31.84357542	41.89944134
 336	59.191	18.651	15.215	24.02234637	5.586592179	6.703910615
 337	66.781	31.14	84.629	34.07821229	21.7877095	51.95530726
 338	88.033	85.158	52.14	84.3575419	59.21787709	46.9273743
 339	36.882	100	100	51.95530726	92.73743017	102.2346369
 340	26.102	33.094	17.006	8.379888268	7.262569832	5.586592179
 341	56.309	36.861	35.862	24.58100559	12.84916201	13.96648045
 342	45.839	65.587	67.033	30.16759777	36.31284916	40.22346369
 343	83.709	81.172	16.406	74.8603352	49.16201117	29.60893855
 344	0	48.132	13.005	8.938547486	14.52513966	7.82122905
 345	87.176	50.021	100	64.24581006	39.66480447	83.79888268
 346	51.219	84.244	13.73	44.13407821	49.72067039	26.25698324
 347	60.606	71.415	48.406	43.57541899	39.66480447	31.84357542
 348	0	11.359	12.718	1.675977654	2.234636872	2.234636872
 349	86.429	49.705	33.145	61.45251397	22.90502793	21.22905028
 350	34.056	40.958	100	15.6424581	30.16759777	73.18435754
 351	100	30.557	59.628	77.65363128	19.55307263	35.19553073
 352	88.497	26.902	13.449	57.54189944	11.17318436	12.29050279
 353	14.167	51.98	88.218	12.84916201	30.16759777	56.98324022
 354	13.784	12.983	49.37	2.793296089	6.145251397	14.52513966
 355	15.018	88.441	48.062	32.40223464	57.54189944	37.98882682
 356	87.79	25.769	89.215	56.98324022	24.58100559	62.01117318
 357	0	33.206	55.865	5.027932961	11.73184358	21.22905028
 358	74.324	76.029	35.536	59.77653631	44.13407821	30.16759777
 359	65.863	57.223	42.324	40.22346369	26.25698324	23.46368715
 360	30.893	54.646	13.136	17.31843575	18.99441341	11.17318436
 361	0	34.36	28.321	5.027932961	8.938547486	7.82122905
 362	15.443	77.087	85.116	25.69832402	52.51396648	64.24581006
 363	63.381	68.947	68.521	44.13407821	40.78212291	45.81005587
 364	69.733	27.566	42.917	35.19553073	11.17318436	17.31843575
 365	32.754	100	42.76	48.60335196	76.53631285	44.13407821
 366	47.096	29.481	34.829	17.31843575	8.938547486	11.73184358
 367	8.5451	71.948	62.695	21.22905028	39.66480447	37.98882682
 368	0	86.048	29.3	29.60893855	51.95530726	27.37430168
 369	53.697	51.572	85.367	29.05027933	30.72625698	56.42458101
 370	17.608	56.69	12.515	13.96648045	20.67039106	11.17318436
 371	90.638	14.414	49.227	58.65921788	11.73184358	23.46368715
 372	63.248	63.64	89.55	42.45810056	41.89944134	67.59776536
 373	100	85.976	58.455	106.1452514	63.68715084	54.74860335
 374	9.8311	28.027	7.5567	4.469273743	5.586592179	3.351955307
 375	89.831	64.313	69.506	72.62569832	40.22346369	50.27932961
 376	31.754	12.995	25.543	7.262569832	3.351955307	5.586592179
 377	75.914	45.966	64.957	46.9273743	24.02234637	36.87150838
 378	7.5735	50.695	58.941	11.17318436	21.7877095	26.81564246
 379	100	69.835	58.912	94.41340782	45.25139665	45.25139665
 380	32.211	34.376	48.339	11.17318436	11.73184358	17.31843575
 381	13.901	12.159	73.555	3.351955307	10.61452514	32.96089385
 382	87.071	9.028	77.653	54.18994413	17.31843575	46.36871508
 383	23.272	85.409	84.29	33.51955307	62.5698324	67.59776536
 384	93.289	39.48	26.145	68.15642458	17.31843575	17.87709497
 385	65.769	59.63	30.967	41.89944134	26.81564246	19.55307263
 386	100	32.265	41.803	77.09497207	17.31843575	24.02234637
 387	86.568	85.281	86.961	82.12290503	69.27374302	79.32960894
 388	52.577	86.83	30.016	48.04469274	55.30726257	30.72625698
 389	47.921	40.199	76.902	21.22905028	21.7877095	43.01675978
 390	22.36	86.619	61.58	32.96089385	56.98324022	45.81005587
 391	52.232	33.601	88.787	22.90502793	22.90502793	56.42458101
 392	0	28.523	86.267	5.027932961	17.87709497	49.72067039
 393	43.497	67.879	39.551	28.49162011	33.51955307	24.02234637
 394	39.877	45.261	0	17.31843575	13.96648045	7.82122905
 395	86.94	12.43	24.699	53.63128492	8.938547486	12.29050279
 396	28.363	55.339	90.398	17.87709497	34.63687151	62.01117318
 397	39.018	70.534	57.879	27.93296089	37.98882682	34.63687151
 398	12.833	28.519	78.828	5.586592179	15.6424581	41.34078212
 399	68.35	31.815	69.975	35.19553073	17.87709497	36.87150838
 400	56.52	26.226	41.626	22.90502793	9.497206704	15.08379888
 401	12.938	46.218	0	8.938547486	13.40782123	6.703910615
 402	8.6938	60.179	26.117	14.52513966	24.02234637	14.52513966
 403	51.995	89.429	96.608	50.27932961	73.74301676	91.62011173
 404	46.905	47.746	48.909	22.34636872	19.55307263	21.7877095
 405	14.352	81.814	19.479	27.93296089	45.25139665	22.90502793
 406	71.482	38.117	12.273	38.54748603	12.84916201	10.61452514
 407	86.616	60.785	10.012	66.48044693	29.60893855	19.55307263
 408	71.811	88.979	52.186	67.03910615	61.45251397	45.81005587
 409	43.213	100	72.083	54.18994413	82.68156425	65.36312849
