data/calibration-000849.ti3
CTI3   
ORIGINATOR	"ColorHug Factory"
DESCRIPTOR	"Calibration Target chart information 3"
DEVICE_CLASS	"DISPLAY"
COLOR_REP	"RGB_XYZ"
TARGET_INSTRUMENT	"Hughski ColorHug"
INSTRUMENT_TYPE_SPECTRAL	"NO"
NORMALIZED_TO_Y_100	"NO"
NUMBER_OF_FIELDS	7
NUMBER_OF_SETS	15
BEGIN_DATA_FORMAT
 SAMPLE_ID	RGB_R	RGB_G	RGB_B	XYZ_X	XYZ_Y	XYZ_Z
END_DATA_FORMAT
BEGIN_DATA
 1	0	0	0	0.09155273438	0.09155273438	0.09155273438
 2	1	1	1	62.94250488	42.52624512	49.3927002
 3	1	0	0	39.96276855	4.119873047	6.225585938
 4	0	1	0	21.14868164	30.07507324	14.09912109
 5	0	0	1	1.052856445	8.239746094	28.79333496
 6	0	0	0	0.09155273438	0.09155273438	0.09155273438
 7	1	1	1	63.40026855	42.57202148	49.43847656
 8	1	0	0	40.10009766	4.119873047	6.225585938
 9	0	1	0	21.05712891	30.02929688	14.00756836
 10	0	0	1	1.052856445	8.239746094	28.93066406
 11	0	0	0	0.09155273438	0.09155273438	0.09155273438
 12	1	1	1	63.03405762	42.57202148	49.3927002
 13	1	0	0	39.91699219	4.119873047	6.225585938
 14	0	1	0	21.10290527	30.12084961	14.14489746
 15	0	0	1	1.052856445	8.193969727	28.97644043
END_DATA
