data/calibration-002535.ti3
CTI3   
ORIGINATOR	"ColorHug Factory"
CREATED	"Wed Oct 22 12:12:10 2014"
DESCRIPTOR	"Calibration Target chart information 3"
DEVICE_CLASS	"DISPLAY"
COLOR_REP	"RGB_XYZ"
TARGET_INSTRUMENT	"Hughski ColorHug"
INSTRUMENT_TYPE_SPECTRAL	"NO"
NORMALIZED_TO_Y_100	"NO"
NUMBER_OF_FIELDS	7
NUMBER_OF_SETS	15
BEGIN_DATA_FORMAT
 SAMPLE_ID	RGB_R	RGB_G	RGB_B	XYZ_X	XYZ_Y	XYZ_Z
END_DATA_FORMAT
BEGIN_DATA
 1.0	0.0	0.0	0.0	0.274139404297	0.285919189453	0.341598510742
 2.0	1.0	1.0	1.0	96.37646484375	92.044937133789	91.022216796875
 3.0	1.0	0.0	0.0	66.601623535156	6.282196044922	9.142852783203
 4.0	0.0	1.0	0.0	24.975601196289	66.064514160156	23.953201293945
 5.0	0.0	0.0	1.0	3.056701660156	16.960647583008	56.109588623047
 6.0	0.0	0.0	0.0	0.27653503418	0.288528442383	0.344390869141
 7.0	1.0	1.0	1.0	96.37646484375	92.044937133789	91.022216796875
 8.0	1.0	0.0	0.0	66.064514160156	6.282196044922	9.183853149414
 9.0	0.0	1.0	0.0	24.975601196289	66.064514160156	23.883377075195
 10.0	0.0	0.0	1.0	3.057846069336	16.960647583008	56.109588623047
 11.0	0.0	0.0	0.0	0.277145385742	0.289855957031	0.345458984375
 12.0	1.0	1.0	1.0	96.37646484375	92.044937133789	91.022216796875
 13.0	1.0	0.0	0.0	66.064514160156	6.287017822266	9.183853149414
 14.0	0.0	1.0	0.0	24.975601196289	66.064514160156	23.883377075195
 15.0	0.0	0.0	1.0	3.053283691406	16.960647583008	56.109588623047
END_DATA
