data/calibration-001278.ti3
CTI3   
ORIGINATOR	"ColorHug Factory"
DESCRIPTOR	"Calibration Target chart information 3"
DEVICE_CLASS	"DISPLAY"
COLOR_REP	"RGB_XYZ"
TARGET_INSTRUMENT	"Hughski ColorHug"
INSTRUMENT_TYPE_SPECTRAL	"NO"
NORMALIZED_TO_Y_100	"NO"
NUMBER_OF_FIELDS	7
NUMBER_OF_SETS	15
BEGIN_DATA_FORMAT
 SAMPLE_ID	RGB_R	RGB_G	RGB_B	XYZ_X	XYZ_Y	XYZ_Z
END_DATA_FORMAT
BEGIN_DATA
 1	0	0	0	0.04577636719	0.09155273438	0.1831054688
 2	1	1	1	32.40966797	33.59985352	37.85705566
 3	1	0	0	19.45495605	2.655029297	3.067016602
 4	0	1	0	11.94763184	24.44458008	10.39123535
 5	0	0	1	0.6866455078	6.866455078	24.58190918
 6	0	0	0	0.04577636719	0.09155273438	0.1831054688
 7	1	1	1	32.2265625	33.50830078	37.85705566
 8	1	0	0	19.59228516	2.655029297	3.067016602
 9	0	1	0	11.8560791	24.44458008	10.39123535
 10	0	0	1	0.6866455078	6.866455078	24.58190918
 11	0	0	0	0.04577636719	0.09155273438	0.1831054688
 12	1	1	1	32.2265625	33.50830078	37.8112793
 13	1	0	0	19.54650879	2.655029297	3.067016602
 14	0	1	0	11.8560791	24.30725098	10.39123535
 15	0	0	1	0.6866455078	6.866455078	24.58190918
END_DATA
