data/calibration-000466.ti3
CTI3
ORIGINATOR	"ColorHug Factory"
DESCRIPTOR	"Calibration Target chart information 3"
DEVICE_CLASS	"DISPLAY"
COLOR_REP	"RGB_XYZ"
TARGET_INSTRUMENT	"Hughski ColorHug"
INSTRUMENT_TYPE_SPECTRAL	"NO"
NORMALIZED_TO_Y_100	"NO"
NUMBER_OF_FIELDS	7
NUMBER_OF_SETS	15
BEGIN_DATA_FORMAT
 SAMPLE_ID	RGB_R	RGB_G	RGB_B	XYZ_X	XYZ_Y	XYZ_Z
END_DATA_FORMAT
BEGIN_DATA
 1	0	0	0	0.04577636719	0	0.04577636719
 2	1	1	1	60.51635742	39.55078125	45.86791992
 3	1	0	0	38.58947754	3.799438477	5.676269531
 4	0	1	0	20.18737793	28.28979492	12.95471191
 5	0	0	1	0.8697509766	7.32421875	27.09960938
 6	0	0	0	0.04577636719	0	0.04577636719
 7	1	1	1	60.60791016	39.68811035	46.00524902
 8	1	0	0	38.3605957	3.753662109	5.630493164
 9	0	1	0	20.05004883	28.19824219	12.90893555
 10	0	0	1	0.8697509766	7.32421875	26.87072754
 11	0	0	0	0.04577636719	0	0.04577636719
 12	1	1	1	61.15722656	39.68811035	45.91369629
 13	1	0	0	37.9486084	3.753662109	5.630493164
 14	0	1	0	19.91271973	28.10668945	12.90893555
 15	0	0	1	0.8697509766	7.32421875	26.82495117
END_DATA
