data/calibration-000318.ti3
CTI3
DESCRIPTOR	"Calibration Target chart information 3"
ORIGINATOR	"ColorHug Factory"
DEVICE_CLASS	"DISPLAY"
COLOR_REP	"RGB_XYZ"
TARGET_INSTRUMENT	"ColorHug"
INSTRUMENT_TYPE_SPECTRAL	"NO"
LUMINANCE_XYZ_CDM2	"50.994873 37.033081 41.267395"
NORMALIZED_TO_Y_100	"YES"
NUMBER_OF_FIELDS	7
NUMBER_OF_SETS	836
BEGIN_DATA_FORMAT
 SAMPLE_ID	RGB_R	RGB_G	RGB_B	XYZ_X	XYZ_Y	XYZ_Z
END_DATA_FORMAT
BEGIN_DATA
 1	100	100	100	135.8816276	100	111.4673243
 2	100	100	100	138.3477189	100	110.7274969
 3	100	100	100	138.1011097	99.50678175	111.2207152
 4	100	100	100	137.1146732	99.50678175	111.2207152
 5	33.33	32.622	30.968	11.71393342	8.384710234	8.754623921
 6	100	0	100	88.28606658	27.99013564	78.91491985
 7	100	100	0	137.1146732	81.3810111	45.37607891
 8	0	100	100	48.45869297	91.12207152	97.78051788
 9	0	100	0	46.85573366	72.13316893	31.93588163
 10	0	0	100	2.219482121	18.86559803	66.21454994
 11	100	0	0	86.31319359	9.124537608	12.94697904
 12	0	0	0	0.1233045623	0.1233045623	0.2466091245
 13	0	52.455	100	12.57706535	35.88162762	73.73612824
 14	100	0	50.3	87.29963009	13.19358816	27.1270037
 15	100	54.739	100	101.7262639	46.60912454	87.66954377
 16	100	52.128	0	98.39704069	25.52404439	20.34525277
 17	0	0	46.181	0.4932182491	3.205918619	11.22071517
 18	0	51.141	0	10.23427867	15.78298397	7.151664612
 19	0	100	51.348	47.22564735	76.07891492	46.48581998
 20	100	100	52.037	137.3612824	85.57336621	60.66584464
 21	49.216	0	0	17.38594328	1.972872996	2.71270037
 22	56.159	100	0	70.40690506	74.47595561	35.38840937
 23	49.226	100	100	66.09124538	92.84833539	100.8631319
 24	44.487	0	100	15.78298397	20.46855734	68.80394575
 25	100	44.498	52.029	95.31442663	25.27743527	33.29223181
 26	48.926	48.544	100	28.36004932	35.14180025	75.33908755
 27	51.368	100	47.25	66.21454994	77.4352651	47.10234279
 28	49.893	0	49.033	18.49568434	5.795314427	15.90628853
 29	53.109	51.372	0	31.07274969	18.00246609	10.23427867
 30	0	58.587	53.943	14.30332922	25.89395808	25.52404439
 31	100	28.065	100	91.61528977	32.675709	81.62762022
 32	0	0	72.874	1.10974106	8.754623921	30.94944513
 33	0	26.758	100	4.438964242	23.05795314	68.06411837
 34	0	25.426	0	2.466091245	3.699136868	1.726263872
 35	72.508	0	100	42.41676942	23.18125771	72.13316893
 36	100	27.395	0	89.02589396	13.31689273	14.91985203
 37	74.47	100	100	92.35511714	95.31442663	104.5622688
 38	100	0	25.728	86.68310727	10.11097411	16.39950678
 39	73.862	0	0	42.54007398	4.562268804	6.411837238
 40	100	100	25.402	136.4981504	82.12083847	48.7053021
 41	0	75.751	100	26.63378545	56.72009864	83.23057953
 42	0	75.172	0	24.04438964	36.62145499	16.39950678
 43	0	100	25.864	46.7324291	72.8729963	35.14180025
 44	100	0	74.801	87.29963009	18.6189889	46.60912454
 45	0	100	75.421	47.7188656	81.75092478	66.3378545
 46	24.577	0	0	4.069050555	0.4932182491	0.7398273736
 47	26.321	100	0	51.17139334	72.13316893	32.675709
 48	100	75.835	0	113.4401973	46.85573366	29.96300863
 49	100	100	77.061	137.1146732	91.12207152	81.25770654
 50	71.263	100	0	87.05302096	76.20221948	38.10110974
 51	0	0	15.614	0.2466091245	0.4932182491	1.356350185
 52	0	30.049	70.936	4.192355117	13.56350185	31.56596794
 53	100	77.691	100	115.2897657	68.18742293	97.65721332
 54	24.486	100	100	52.40443896	90.62885327	98.027127
 55	100	62.784	31.909	104.0690506	35.38840937	29.46979038
 56	29.552	0	100	7.768187423	19.6054254	67.69420469
 57	32.98	70.921	100	30.702836	52.15782984	81.75092478
 58	0	27.681	40.241	3.205918619	6.781750925	10.48088779
 59	67.901	71.021	100	58.8162762	55.2404439	86.06658446
 60	28.154	100	67.829	52.40443896	79.77805179	59.67940814
 61	71.637	100	70.001	88.40937115	84.71023428	66.95437731
 62	58.822	58.763	53.586	39.95067818	28.60665845	29.34648582
 63	33.466	30.48	0	11.0974106	6.041923551	3.575832306
 64	100	73.795	71.277	112.2071517	53.02096178	58.93958076
 65	68.394	29.692	0	39.33415536	8.754623921	7.644882861
 66	70.399	0	29.039	38.10110974	5.42540074	10.11097411
 67	28.078	0	26.956	5.548705302	1.726263872	4.562268804
 68	28.532	72.339	0	27.86683107	34.27866831	15.90628853
 69	100	30.941	26.496	90.75215783	15.65967941	19.11220715
 70	34.597	0	73.611	9.124537608	9.987669544	33.29223181
 71	71.573	0	72.408	40.56720099	13.0702836	36.86806412
 72	0	71.029	29.412	21.82490752	33.90875462	19.11220715
 73	68.386	75.008	0	60.29593095	40.56720099	21.94821208
 74	68.088	27.309	100	40.1972873	27.00369914	73.8594328
 75	100	26.457	73.749	90.38224414	22.5647349	47.59556104
 76	74.344	100	27.392	91.61528977	77.92848335	42.66337855
 77	27.558	100	28.197	51.78791615	73.11960543	36.99136868
 78	31.196	27.465	100	11.22071517	24.04438964	69.66707768
 79	0	75.521	72.824	25.40073983	46.23921085	48.08877928
 80	0	50.93	25.553	10.23427867	16.64611591	10.35758323
 81	32.06	33.584	64.033	11.83723798	14.0567201	27.49691739
 82	81.666	55.38	0	66.58446363	24.41430333	16.52281134
 83	68.257	32.751	58.286	40.56720099	15.53637485	27.25030826
 84	0	55.248	81.585	13.19358816	30.45622688	49.44512947
 85	73.781	52.099	100	54.87053021	39.82737361	80.02466091
 86	100	50.537	82.952	98.52034525	36.86806412	62.51541307
 87	23.55	0	50.439	4.315659679	4.438964242	14.42663379
 88	31.335	62.746	31.114	23.18125771	26.88039457	17.13933416
 89	100	18.31	49.418	88.16276202	14.91985203	27.37361282
 90	26.498	48.404	0	13.93341554	14.54993835	7.028360049
 91	47.91	100	85.744	64.48828607	86.68310727	80.27127004
 92	71.829	47.313	31.811	49.19852035	19.23551171	17.26263872
 93	31.304	64.132	69.316	24.53760789	34.52527744	40.56720099
 94	80.403	0	54.321	52.52774353	10.23427867	24.04438964
 95	18.455	50.036	100	13.93341554	34.52527744	73.61282367
 96	50.653	100	16.345	64.98150432	74.10604192	36.12823674
 97	80.121	100	52.261	99.13686806	81.62762022	55.2404439
 98	0	22.54	19.289	2.096177559	3.575832306	3.329223181
 99	100	75.273	46.886	112.4537608	49.32182491	41.55363748
 100	0	78.618	56.625	27.25030826	45.99260173	36.25154131
 101	51.137	80.627	100	48.95191122	64.24167694	88.65598027
 102	48.446	0	17.864	16.76942047	2.342786683	4.315659679
 103	100	50.023	21.211	96.17755857	24.78421702	22.07151665
 104	50.115	20.118	0	19.6054254	4.315659679	3.82244143
 105	58.099	72.426	33.158	47.34895191	38.10110974	24.66091245
 106	19.364	100	50.197	49.32182491	76.07891492	46.23921085
 107	50.683	19.177	100	21.82490752	23.05795314	70.65351418
 108	53.37	0	81.576	22.07151665	13.93341554	44.38964242
 109	47.768	76.245	0	40.81381011	39.82737361	19.35881628
 110	0	18.927	55.503	1.849568434	7.028360049	17.87916153
 111	0	13.277	0	0.8631319359	1.10974106	0.6165228113
 112	72.862	72.473	75.625	64.48828607	47.96547472	55.73366215
 113	100	13.904	0	87.17632552	10.23427867	13.44019729
 114	86.349	0	100	62.88532676	25.52404439	75.58569667
 115	100	41.941	100	92.23181258	38.47102343	83.72379778
 116	100	81.785	16.464	117.2626387	54.13070284	34.648582
 117	0	44.063	52.596	8.014796547	16.02959309	20.5918619
 118	0	0	58.917	0.7398273736	5.548705302	19.35881628
 119	59.25	24.551	29.789	28.60665845	7.521578298	9.987669544
 120	82.73	82.874	100	87.17632552	71.14673243	95.56103576
 121	80.039	0	12.618	51.17139334	5.795314427	8.631319359
 122	60.957	47.729	77.817	37.85450062	27.1270037	47.22564735
 123	100	0	38.618	86.55980271	11.46732429	20.83847102
 124	0	40.09	100	8.014796547	28.72996301	71.02342787
 125	0	15.283	82.322	2.096177559	13.19358816	42.29346486
 126	17.592	81.726	100	33.29223181	64.3649815	86.68310727
 127	100	14.13	100	88.9025894	29.46979038	80.02466091
 128	15.261	100	82.059	49.32182491	84.34032059	74.35265105
 129	47.77	79.418	60.389	44.26633785	49.56843403	41.80024661
 130	18.768	16.429	0	4.069050555	1.849568434	1.233045623
 131	55.634	100	65.763	70.03699137	81.50431566	60.7891492
 132	100	100	38.541	136.3748459	83.60049322	53.2675709
 133	17.421	0	83.497	3.329223181	12.45376079	43.27990136
 134	17.237	16.758	100	4.932182491	20.96177559	67.44759556
 135	0	15.067	30.039	1.10974106	2.71270037	5.302096178
 136	0	0	86.505	1.602959309	13.31689273	46.60912454
 137	75.736	72.799	50.02	68.55733662	42.78668311	35.88162762
 138	100	83.323	85.529	120.4685573	69.17385943	80.51787916
 139	100	100	64.894	136.1282367	88.16276202	69.79038224
 140	81.98	84.914	0	86.68310727	54.2540074	29.83970407
 141	0	63.757	15.49	16.76942047	25.89395808	12.70036991
 142	49.514	66.135	100	37.73119605	48.82860666	81.75092478
 143	100	0	61.862	86.06658446	15.28976572	34.77188656
 144	24.308	45.41	49.831	12.33045623	16.64611591	19.85203453
 145	15.963	0	17.047	1.972872996	0.7398273736	1.972872996
 146	87.497	100	100	112.4537608	96.91738594	107.5215783
 147	52.099	25.003	75.752	22.81134402	15.53637485	39.2108508
 148	14.909	81.162	0	30.33292232	43.52651048	19.85203453
 149	0	34.792	14.626	4.685573366	7.274969174	4.438964242
 150	48.39	45.075	22.552	24.78421702	14.54993835	10.60419236
 151	83.545	65.965	100	74.22934649	52.77435265	87.29963009
 152	16.226	62.345	0	17.6325524	24.1676942	11.0974106
 153	63.222	0	14.914	30.08631319	3.699136868	5.918618989
 154	80.449	13.446	0	52.15782984	6.658446363	8.384710234
 155	83.917	41.562	0	63.37854501	16.02959309	13.0702836
 156	100	60.448	46.3	102.3427867	35.26510481	35.01849568
 157	15.584	0	34.795	1.972872996	2.096177559	6.5351418
 158	17.144	65.121	100	21.45499383	46.36251541	79.28483354
 159	83.602	55.334	62.667	70.03699137	31.44266338	39.33415536
 160	0	82.19	14.22	29.46979038	45.37607891	21.33168927
 161	25.132	74.856	50.616	28.60665845	40.93711467	31.19605425
 162	0	13.769	100	2.466091245	20.22194821	66.83107275
 163	87.181	0	0	62.02219482	6.658446363	9.371146732
 164	0	100	39.19	46.36251541	74.35265105	40.07398274
 165	78.047	65.914	19.865	66.70776819	33.29223181	21.70160296
 166	100	63.961	15.865	104.0690506	35.51171393	26.01726264
 167	100	45.955	36.032	95.4377312	23.79778052	25.40073983
 168	15.926	100	16.89	47.96547472	71.8865598	33.6621455
 169	41.459	100	0	58.32305795	72.99630086	33.78545006
 170	48.707	37.288	48.139	22.93464858	13.68680641	18.86559803
 171	83.381	100	13.285	103.3292232	78.29839704	41.55363748
 172	78.129	25.303	75.621	51.78791615	18.6189889	43.27990136
 173	12.396	0	0	1.233045623	0.2466091245	0.3699136868
 174	37.607	48.336	83.346	20.22194821	27.49691739	50.80147965
 175	35.588	15.356	0	9.494451295	2.466091245	2.096177559
 176	61.245	100	100	76.94204686	93.95807645	102.5893958
 177	100	67.29	87.195	107.3982737	51.54130703	73.8594328
 178	0	0	30.615	0.3699136868	1.479654747	4.808877928
 179	35.187	81.789	83.323	38.84093711	58.07644883	64.73489519
 180	39.525	80.194	22.879	38.71763255	44.7595561	23.42786683
 181	50.634	34.593	0	23.18125771	9.001233046	6.041923551
 182	14.175	100	63.146	48.7053021	78.79161529	55.2404439
 183	83.493	17.728	34.574	57.45992602	9.617755857	15.53637485
 184	23.463	22.014	79.943	6.658446363	14.30332922	40.93711467
 185	18.066	31.847	0	6.165228113	6.165228113	3.082614057
 186	87.201	100	81.361	110.8508015	90.25893958	82.73736128
 187	0	100	87.95	47.84217016	86.18988903	81.3810111
 188	34.476	17.888	46.22	9.617755857	6.041923551	13.56350185
 189	18.277	0	67.39	3.082614057	7.768187423	26.51048089
 190	100	87.972	0	122.9346486	62.26880395	36.74475956
 191	82.925	34.85	100	61.40567201	32.18249075	78.29839704
 192	0	88.016	100	36.37484587	71.63995068	90.13563502
 193	36.104	85.655	100	43.15659679	69.91368681	90.25893958
 194	60.981	0	0	27.62022195	3.082614057	4.315659679
 195	51.466	61.826	78.106	35.88162762	36.74475956	50.80147965
 196	78.427	31.983	22.175	52.2811344	11.83723798	12.45376079
 197	66.017	44.321	0	40.69050555	15.28976572	10.23427867
 198	83.941	0	84.177	58.32305795	18.74229346	52.65104809
 199	20.158	46.612	23.269	11.22071517	14.0567201	9.124537608
 200	0	100	62.618	46.97903822	78.4217016	54.62392109
 201	33.832	0	13.933	7.768187423	1.233045623	2.466091245
 202	100	17.286	16.322	87.29963009	11.22071517	15.16646116
 203	0	42.204	83.926	8.014796547	23.18125771	48.95191122
 204	0	87.774	0	34.15536375	51.91122072	23.30456227
 205	64.988	0	59.017	32.30579531	9.001233046	24.41430333
 206	14.677	0	100	3.329223181	19.23551171	66.83107275
 207	88.934	82.673	35.021	94.69790382	54.00739827	36.62145499
 208	0	63.778	100	18.49568434	44.63625154	78.29839704
 209	83.429	17.674	100	58.69297164	26.75709001	75.70900123
 210	30.899	100	85.668	53.88409371	85.20345253	79.03822441
 211	83.68	0	41.016	56.72009864	8.631319359	17.50924784
 212	100	63.515	0	103.3292232	34.15536375	24.1676942
 213	85.074	69.987	0	79.53144266	37.60789149	22.81134402
 214	20.801	45.524	69.018	11.71393342	20.71516646	33.78545006
 215	21.382	82.482	73.017	33.78545006	55.36374846	52.52774353
 216	100	15.128	64.249	81.25770654	17.26263872	37.36128237
 217	36.522	0	58.427	9.741060419	6.411837238	20.46855734
 218	22.466	81.296	33.007	32.42909988	46.23921085	26.01726264
 219	62.531	87.152	0	63.25524044	54.62392109	27.49691739
 220	84.12	85.397	67.886	90.87546239	63.00863132	57.95314427
 221	18.87	27.336	45.389	5.672009864	7.644882861	13.31689273
 222	66.439	100	14.444	80.64118372	75.8323058	37.97780518
 223	41.636	22.147	19.003	14.0567201	4.808877928	5.178791615
 224	61.271	100	81.94	75.70900123	86.55980271	77.80517879
 225	86.013	100	0	108.3847102	78.4217016	41.30702836
 226	37.57	0	0	9.494451295	1.10974106	1.602959309
 227	100	16.132	84.102	87.9161529	23.30456227	58.19975339
 228	0	100	13.619	46.36251541	72.25647349	32.92231813
 229	38.905	100	56.471	57.58323058	78.29839704	51.41800247
 230	100	15.382	34.563	87.42293465	12.33045623	19.97533909
 231	36.656	14.908	100	12.57706535	21.45499383	68.68064118
 232	0	62.593	66.608	16.64611591	31.93588163	36.62145499
 233	66.347	12.528	100	35.88162762	23.55117139	72.50308261
 234	100	43.375	69.233	94.4512947	28.48335388	46.36251541
 235	100	56.36	61.236	100.1233046	34.77188656	43.40320592
 236	0	86.194	44.955	33.16892725	53.63748459	33.41553637
 237	64.527	87.262	100	67.07768187	74.47595561	94.69790382
 238	34.411	0	42.471	8.261405672	3.699136868	10.97410604
 239	80.23	59.707	85.12	66.70776819	40.93711467	63.37854501
 240	20.625	19.056	14.791	4.438964242	2.836004932	2.71270037
 241	15.341	34.221	100	7.891491985	26.1405672	69.91368681
 242	36.777	0	87.905	10.48088779	14.91985203	50.18495684
 243	34.598	56.247	100	22.93464858	39.33415536	76.20221948
 244	20.86	67.629	17.418	22.19482121	29.96300863	15.16646116
 245	44.958	60.843	18.054	29.46979038	25.27743527	14.30332922
 246	37.421	60.193	0	24.53760789	23.42786683	11.59062885
 247	84.011	33.849	42.612	62.02219482	15.65967941	21.45499383
 248	17.241	60.339	37.743	17.01602959	25.03082614	18.00246609
 249	50.65	17.261	53.278	20.34525277	8.384710234	19.35881628
 250	45.505	48.926	65.152	25.03082614	23.18125771	33.41553637
 251	44.567	84.081	39.649	45.12946979	51.2946979	31.93588163
 252	100	86.339	72.054	121.0850801	68.80394575	66.83107275
 253	68.14	61.135	0	50.18495684	26.88039457	15.65967941
 254	17.93	66.986	81.403	21.94821208	40.44389642	54.00739827
 255	39.242	60.215	48.926	26.01726264	27.37361282	24.90752158
 256	20.099	18.77	62.967	4.808877928	8.877928483	23.92108508
 257	34.553	100	14.582	54.2540074	72.62638718	34.40197287
 258	87.345	0	66.694	62.76202219	14.0567201	35.51171393
 259	0	43.714	39.842	7.644882861	13.81011097	13.56350185
 260	100	37.705	13.955	91.12207152	17.75585697	17.75585697
 261	31.265	86.993	0	39.95067818	51.78791615	23.79778052
 262	51.402	82.661	81.338	49.93834772	59.67940814	64.48828607
 263	100	100	12.984	135.2651048	81.13440197	46.11590629
 264	0	37.859	0	5.548705302	8.384710234	3.82244143
 265	62.092	58.215	100	44.14303329	43.03329223	79.77805179
 266	86.186	100	64.1	108.5080148	85.20345253	65.22811344
 267	100	35.251	85.898	91.61528977	29.71639951	62.63871763
 268	63.182	89.992	41.974	66.70776819	61.40567201	39.08754624
 269	13.504	100	0	47.7188656	72.13316893	32.05918619
 270	100	0	13.228	85.57336621	9.371146732	13.93341554
 271	63.881	40.826	100	38.59432799	32.30579531	75.8323058
 272	69.387	84.838	20.792	68.18742293	53.02096178	29.46979038
 273	0	70.279	45.136	21.08508015	34.89519112	25.40073983
 274	79.094	64.754	40.908	66.95437731	34.40197287	28.23674476
 275	62.385	54.099	17.396	40.69050555	21.33168927	13.93341554
 276	64.408	14.621	0	31.93588163	4.685573366	5.42540074
 277	70.028	15.606	44.651	38.47102343	8.508014797	17.01602959
 278	0	63.544	0	16.52281134	25.40073983	11.46732429
 279	83.475	47.274	20.502	64.48828607	19.97533909	16.64611591
 280	55.866	0	32.671	23.42786683	4.069050555	9.001233046
 281	58.007	0	100	26.51048089	21.70160296	70.03699137
 282	100	0	87.698	86.55980271	22.93464858	61.65228113
 283	0	13.792	67.215	1.602959309	8.754623921	26.75709001
 284	84.123	17.001	58.549	58.56966708	13.31689273	28.60665845
 285	59.579	32.873	15.966	30.08631319	9.371146732	8.13810111
 286	10.41	32.998	28.659	5.178791615	7.644882861	7.274969174
 287	17.231	40.031	85.65	9.371146732	22.93464858	50.67817509
 288	37.568	41.561	10.108	16.27620222	11.34401973	6.658446363
 289	0	69.015	85.092	20.96177559	43.27990136	58.93958076
 290	14.442	100	36.187	47.84217016	74.22934649	39.08754624
 291	100	40.549	0	91.4919852	18.86559803	17.26263872
 292	82.143	45.435	78.429	63.25524044	28.72996301	50.92478422
 293	52.674	0	67.3	20.96177559	9.741060419	29.46979038
 294	0	87.868	66.793	35.14180025	60.41923551	49.69173859
 295	86.53	100	40.524	109.1245376	80.51787916	50.43156597
 296	71.777	85.586	67.232	73.24290999	61.89889026	54.62392109
 297	43.216	100	31.671	59.8027127	74.72256473	39.08754624
 298	39.245	32.908	85.845	16.02959309	20.5918619	50.67817509
 299	0	45.662	67.543	8.877928483	20.22194821	32.30579531
 300	12.161	100	100	49.07521578	91.12207152	99.0135635
 301	67.049	0	85.516	35.01849568	16.76942047	51.2946979
 302	100	89.041	100	125.1541307	82.86066584	103.945746
 303	20.246	60.698	56.526	18.24907522	28.36004932	28.72996301
 304	52.177	55.457	40.416	32.30579531	23.55117139	20.34525277
 305	72.617	87.018	83.932	76.20221948	68.43403206	73.8594328
 306	40.512	16.723	66.475	13.19358816	10.23427867	28.23674476
 307	68.507	49.232	50.605	45.49938348	22.68803946	26.38717633
 308	65.622	100	54.525	79.77805179	80.51787916	53.63748459
 309	54.115	37.24	66.394	27.1270037	17.75585697	32.675709
 310	100	76.138	31.267	112.0838471	48.58199753	35.14180025
 311	54.728	65.623	0	39.45745993	29.46979038	15.41307028
 312	63.126	12.526	64.37	30.82614057	11.0974106	29.0998767
 313	72.827	18.08	23.704	42.1701603	7.151664612	9.987669544
 314	23.268	15.278	34.947	4.808877928	3.699136868	7.644882861
 315	87.648	68.954	59.645	76.32552404	42.66337855	43.64981504
 316	0	85.595	85.198	33.6621455	63.13193588	67.94081381
 317	35.798	84.371	69.21	40.93711467	57.33662145	50.92478422
 318	36.062	47.494	35.919	17.87916153	16.52281134	14.30332922
 319	86.083	36.277	59.152	64.98150432	19.85203453	32.30579531
 320	58.21	100	30.361	71.39334155	75.8323058	40.56720099
 321	46.745	14.614	32.317	16.64611591	4.685573366	8.384710234
 322	81.573	73.869	86.954	78.17509248	54.87053021	72.00986436
 323	85.991	49.387	48.206	70.28360049	24.66091245	28.36004932
 324	28.062	87.906	19.654	39.70406905	53.88409371	26.51048089
 325	68.992	17.993	85.124	38.34771887	18.74229346	52.03452528
 326	100	66.147	100	105.918619	55.98027127	91.86189889
 327	33.358	64.806	84.517	26.26387176	40.1972873	57.95314427
 328	41.351	17.736	80.522	14.18002466	14.54993835	42.66337855
 329	100	100	88.719	135.0184957	95.06781751	95.4377312
 330	66.336	0	44.32	33.41553637	6.658446363	15.78298397
 331	64.85	67.09	12.293	50.18495684	32.30579531	18.49568434
 332	15.262	31.268	63.277	5.918618989	12.33045623	25.77065351
 333	15.008	43.663	37.3	9.124537608	13.68680641	12.70036991
 334	0	57.895	38.078	13.56350185	22.81134402	17.01602959
 335	66.599	58.458	67.871	48.08877928	32.55240444	41.55363748
 336	59.191	18.651	15.215	27.00369914	5.178791615	6.165228113
 337	66.781	31.14	84.629	38.47102343	22.07151665	52.03452528
 338	88.033	85.158	52.14	96.17755857	60.41923551	46.48581998
 339	36.882	100	100	57.45992602	91.61528977	100
 340	26.102	33.094	17.006	8.631319359	7.274969174	5.178791615
 341	56.309	36.861	35.862	28.23674476	12.33045623	13.81011097
 342	45.839	65.587	67.033	33.16892725	36.25154131	40.69050555
 343	83.709	81.172	16.406	85.08014797	50.30826141	29.46979038
 344	0	48.132	13.005	9.001233046	14.18002466	7.274969174
 345	87.176	50.021	100	73.8594328	40.93711467	82.86066584
 346	51.219	84.244	13.73	49.56843403	49.81504316	25.1541307
 347	60.606	71.415	48.406	49.19852035	39.45745993	31.93588163
 348	0	11.359	12.718	0.7398273736	1.233045623	1.479654747
 349	86.429	49.705	33.145	70.53020962	22.93464858	21.5782984
 350	34.056	40.958	100	16.02959309	30.08631319	72.74969174
 351	100	30.557	59.628	89.88902589	20.34525277	35.75832306
 352	88.497	26.902	13.449	66.95437731	11.22071517	12.57706535
 353	14.167	51.98	88.218	13.44019729	30.702836	56.72009864
 354	13.784	12.983	49.37	2.589395808	5.055487053	13.93341554
 355	15.018	88.441	48.062	36.62145499	56.96670777	36.74475956
 356	87.79	25.769	89.215	66.3378545	25.03082614	61.89889026
 357	0	33.206	55.865	4.685573366	11.34401973	20.34525277
 358	74.324	76.029	35.536	68.06411837	44.01972873	29.96300863
 359	65.863	57.223	42.324	45.86929716	26.38717633	23.55117139
 360	30.893	54.646	13.136	18.49568434	19.35881628	10.23427867
 361	0	34.36	28.321	4.562268804	8.014796547	7.274969174
 362	15.443	77.087	85.116	28.48335388	52.2811344	63.13193588
 363	63.381	68.947	68.521	50.80147965	41.55363748	45.86929716
 364	69.733	27.566	42.917	39.95067818	11.22071517	17.50924784
 365	32.754	100	42.76	53.51418002	74.8458693	43.27990136
 366	47.096	29.481	34.829	19.35881628	8.631319359	10.97410604
 367	8.5451	71.948	62.695	23.05795314	40.07398274	37.60789149
 368	0	86.048	29.3	32.79901356	51.2946979	26.88039457
 369	53.697	51.572	85.367	32.42909988	31.56596794	56.35018496
 370	17.608	56.69	12.515	14.91985203	20.22194821	10.11097411
 371	90.638	14.414	49.227	69.05055487	12.33045623	24.1676942
 372	63.248	63.64	89.55	48.21208385	43.52651048	67.07768187
 373	100	85.976	58.455	120.9617756	65.22811344	55.11713933
 374	9.8311	28.027	7.5567	3.82244143	4.808877928	2.71270037
 375	89.831	64.313	69.506	84.46362515	41.30702836	50.18495684
 376	31.754	12.995	25.543	7.521578298	2.836004932	5.055487053
 377	75.914	45.966	64.957	53.51418002	24.53760789	37.11467324
 378	7.5735	50.695	58.941	11.0974106	21.45499383	26.75709001
 379	100	69.835	58.912	107.5215783	46.11590629	46.85573366
 380	32.211	34.376	48.339	11.83723798	11.34401973	17.01602959
 381	13.901	12.159	73.555	2.959309494	10.35758323	32.79901356
 382	87.071	9.028	77.653	62.63871763	17.75585697	46.48581998
 383	23.272	85.409	84.29	36.74475956	62.02219482	67.07768187
 384	93.289	39.48	26.145	78.17509248	17.75585697	18.49568434
 385	65.769	59.63	30.967	46.85573366	27.1270037	19.72872996
 386	100	32.265	41.803	89.64241677	17.87916153	25.03082614
 387	86.568	85.281	86.961	94.08138101	69.17385943	79.16152898
 388	52.577	86.83	30.016	53.02096178	54.62392109	30.702836
 389	47.921	40.199	76.902	23.55117139	21.70160296	42.90998767
 390	22.36	86.619	61.58	36.99136868	57.33662145	45.00616523
 391	52.232	33.601	88.787	25.40073983	22.93464858	56.22688039
 392	0	28.523	86.267	4.315659679	17.87916153	48.82860666
 393	43.497	67.879	39.551	32.55240444	33.16892725	23.42786683
 394	39.877	45.261	0	18.86559803	13.44019729	7.274969174
 395	86.94	12.43	24.699	61.89889026	8.384710234	12.82367448
 396	28.363	55.339	90.398	19.11220715	34.52527744	61.89889026
 397	39.018	70.534	57.879	31.81257707	38.2244143	34.648582
 398	12.833	28.519	78.828	5.302096178	15.65967941	40.56720099
 399	68.35	31.815	69.975	39.82737361	18.00246609	37.11467324
 400	56.52	26.226	41.626	26.1405672	9.124537608	14.67324291
 401	12.938	46.218	0	9.371146732	12.82367448	5.918618989
 402	8.6938	60.179	26.117	15.41307028	23.55117139	13.68680641
 403	51.995	89.429	96.608	56.72009864	74.47595561	89.14919852
 404	46.905	47.746	48.909	24.78421702	19.23551171	21.70160296
 405	14.352	81.814	19.479	30.57953144	45.25277435	22.19482121
 406	71.482	38.117	12.273	44.63625154	13.0702836	10.72749692
 407	86.616	60.785	10.012	75.95561036	29.71639951	20.22194821
 408	71.811	88.979	52.186	75.58569667	62.51541307	45.62268804
 409	43.213	100	72.083	60.04932182	81.99753391	64.98150432
