data/calibration-001908.ti3
CTI3   
ORIGINATOR	"ColorHug Factory"
CREATED	"Sat May 25 21:31:23 2013"
DESCRIPTOR	"Calibration Target chart information 3"
DEVICE_CLASS	"DISPLAY"
COLOR_REP	"RGB_XYZ"
TARGET_INSTRUMENT	"Hughski ColorHug"
INSTRUMENT_TYPE_SPECTRAL	"NO"
NORMALIZED_TO_Y_100	"NO"
NUMBER_OF_FIELDS	7
NUMBER_OF_SETS	15
BEGIN_DATA_FORMAT
 SAMPLE_ID	RGB_R	RGB_G	RGB_B	XYZ_X	XYZ_Y	XYZ_Z
END_DATA_FORMAT
BEGIN_DATA
 1	0	0	0	0.0457763671875	0.091552734375	0.1373291015625
 2	1	1	1	37.445068359375	37.1246337890625	50.5828857421875
 3	1	0	0	22.613525390625	2.74658203125	3.753662109375
 4	0	1	0	13.1378173828125	25.4974365234375	12.176513671875
 5	0	0	1	0.91552734375	8.9263916015625	34.4696044921875
 6	0	0	0	0.0457763671875	0.091552734375	0.1373291015625
 7	1	1	1	37.628173828125	36.9415283203125	50.4913330078125
 8	1	0	0	22.6593017578125	2.74658203125	3.753662109375
 9	0	1	0	13.1378173828125	25.4974365234375	12.176513671875
 10	0	0	1	0.91552734375	8.9263916015625	34.2864990234375
 11	0	0	0	0.0457763671875	0.091552734375	0.1373291015625
 12	1	1	1	37.445068359375	37.17041015625	50.5828857421875
 13	1	0	0	22.5677490234375	2.74658203125	3.753662109375
 14	0	1	0	13.1378173828125	25.3143310546875	12.1307373046875
 15	0	0	1	0.91552734375	8.9263916015625	34.5611572265625
END_DATA
