data/calibration-001569.ti3
CTI3   
ORIGINATOR	"ColorHug Factory"
DESCRIPTOR	"Calibration Target chart information 3"
DEVICE_CLASS	"DISPLAY"
COLOR_REP	"RGB_XYZ"
TARGET_INSTRUMENT	"Hughski ColorHug"
INSTRUMENT_TYPE_SPECTRAL	"NO"
NORMALIZED_TO_Y_100	"NO"
NUMBER_OF_FIELDS	7
NUMBER_OF_SETS	15
BEGIN_DATA_FORMAT
 SAMPLE_ID	RGB_R	RGB_G	RGB_B	XYZ_X	XYZ_Y	XYZ_Z
END_DATA_FORMAT
BEGIN_DATA
 1	0	0	0	0.09155273438	0.1373291016	0.1831054688
 2	1	1	1	31.44836426	30.57861328	37.58239746
 3	1	0	0	18.99719238	2.471923828	3.295898438
 4	0	1	0	11.3067627	21.83532715	10.34545898
 5	0	0	1	0.732421875	6.546020508	24.49035645
 6	0	0	0	0.09155273438	0.1373291016	0.2288818359
 7	1	1	1	31.44836426	30.57861328	37.62817383
 8	1	0	0	18.85986328	2.471923828	3.295898438
 9	0	1	0	11.3067627	21.69799805	10.25390625
 10	0	0	1	0.732421875	6.546020508	24.49035645
 11	0	0	0	0.09155273438	0.1373291016	0.2288818359
 12	1	1	1	31.49414062	30.53283691	37.62817383
 13	1	0	0	19.08874512	2.471923828	3.295898438
 14	0	1	0	11.3067627	21.60644531	10.29968262
 15	0	0	1	0.7781982422	6.546020508	24.49035645
END_DATA
