data/calibration-001748.ti3
CTI3   
ORIGINATOR	"ColorHug Factory"
CREATED	"Wed Feb 20 20:37:49 2013"
DESCRIPTOR	"Calibration Target chart information 3"
DEVICE_CLASS	"DISPLAY"
COLOR_REP	"RGB_XYZ"
TARGET_INSTRUMENT	"Hughski ColorHug"
INSTRUMENT_TYPE_SPECTRAL	"NO"
NORMALIZED_TO_Y_100	"NO"
NUMBER_OF_FIELDS	7
NUMBER_OF_SETS	15
BEGIN_DATA_FORMAT
 SAMPLE_ID	RGB_R	RGB_G	RGB_B	XYZ_X	XYZ_Y	XYZ_Z
END_DATA_FORMAT
BEGIN_DATA
 1	0	0	0	0	0.09155273438	0.1373291016
 2	1	1	1	34.65270996	37.49084473	48.43139648
 3	1	0	0	20.0958252	2.655029297	3.524780273
 4	0	1	0	12.22229004	26.04675293	12.26806641
 5	0	0	1	0.8697509766	8.422851562	32.3638916
 6	0	0	0	0	0.09155273438	0.1373291016
 7	1	1	1	34.42382812	37.39929199	48.52294922
 8	1	0	0	20.05004883	2.655029297	3.524780273
 9	0	1	0	12.1307373	26.13830566	12.26806641
 10	0	0	1	0.8697509766	8.422851562	32.40966797
 11	0	0	0	0	0.09155273438	0.1373291016
 12	1	1	1	34.56115723	37.44506836	48.20251465
 13	1	0	0	20.05004883	2.655029297	3.524780273
 14	0	1	0	12.17651367	26.13830566	12.26806641
 15	0	0	1	0.8697509766	8.422851562	32.5012207
END_DATA
