data/calibration-001260.ti3
CTI3   
ORIGINATOR	"ColorHug Factory"
DESCRIPTOR	"Calibration Target chart information 3"
DEVICE_CLASS	"DISPLAY"
COLOR_REP	"RGB_XYZ"
TARGET_INSTRUMENT	"Hughski ColorHug"
INSTRUMENT_TYPE_SPECTRAL	"NO"
NORMALIZED_TO_Y_100	"NO"
NUMBER_OF_FIELDS	7
NUMBER_OF_SETS	15
BEGIN_DATA_FORMAT
 SAMPLE_ID	RGB_R	RGB_G	RGB_B	XYZ_X	XYZ_Y	XYZ_Z
END_DATA_FORMAT
BEGIN_DATA
 1	0	0	0	0	0	0.09155273438
 2	1	1	1	34.46960449	35.84289551	42.89245605
 3	1	0	0	20.69091797	2.746582031	3.616333008
 4	0	1	0	12.54272461	25.49743652	11.9934082
 5	0	0	1	0.8239746094	7.64465332	27.74047852
 6	0	0	0	0	0	0.09155273438
 7	1	1	1	34.56115723	35.88867188	43.21289062
 8	1	0	0	20.5078125	2.746582031	3.570556641
 9	0	1	0	12.54272461	25.63476562	12.03918457
 10	0	0	1	0.8239746094	7.64465332	27.87780762
 11	0	0	0	0	0	0.09155273438
 12	1	1	1	34.19494629	35.75134277	43.25866699
 13	1	0	0	20.55358887	2.746582031	3.570556641
 14	0	1	0	12.63427734	25.63476562	11.9934082
 15	0	0	1	0.8239746094	7.64465332	27.74047852
END_DATA
