data/calibration-000268.ti3
CTI3
DESCRIPTOR	"Calibration Target chart information 3"
ORIGINATOR	"ColorHug Factory"
DEVICE_CLASS	"DISPLAY"
COLOR_REP	"RGB_XYZ"
TARGET_INSTRUMENT	"ColorHug"
INSTRUMENT_TYPE_SPECTRAL	"NO"
LUMINANCE_XYZ_CDM2	"48.648834 33.840179 41.290283"
NORMALIZED_TO_Y_100	"YES"
NUMBER_OF_FIELDS	7
NUMBER_OF_SETS	836
BEGIN_DATA_FORMAT
 SAMPLE_ID	RGB_R	RGB_G	RGB_B	XYZ_X	XYZ_Y	XYZ_Z
END_DATA_FORMAT
BEGIN_DATA
 1	100	100	100	141.5654521	100	121.1875843
 2	100	100	100	144.534413	100	121.8623482
 3	100	100	100	142.9149798	99.05533063	121.7273954
 4	100	100	100	144.6693657	100	122.1322537
 5	33.33	32.622	30.968	12.01079622	8.097165992	9.311740891
 6	100	0	100	92.44264507	27.53036437	86.23481781
 7	100	100	0	142.6450742	80.56680162	49.39271255
 8	0	100	100	51.14709852	91.22807018	108.3670715
 9	0	100	0	49.12280702	72.33468286	35.22267206
 10	0	0	100	2.294197031	18.48852901	72.46963563
 11	100	0	0	88.93387314	8.771929825	13.49527665
 12	0	0	0	0	0	0.1349527665
 13	0	52.455	100	13.22537112	35.35762483	81.24156545
 14	100	0	50.3	91.09311741	12.68556005	28.47503374
 15	100	54.739	100	105.9379217	45.88394062	95.41160594
 16	100	52.128	0	102.5641026	25.10121457	21.59244265
 17	0	0	46.181	0.4048582996	2.968960864	11.87584345
 18	0	51.141	0	10.66126856	15.51956815	7.692307692
 19	0	100	51.348	49.39271255	75.97840756	50.74224022
 20	100	100	52.037	143.3198381	85.69500675	65.58704453
 21	49.216	0	0	17.81376518	1.754385965	2.699055331
 22	56.159	100	0	74.08906883	74.76383266	39.00134953
 23	49.226	100	100	69.7705803	92.84750337	110.7962213
 24	44.487	0	100	16.32928475	19.97300945	75.30364372
 25	100	44.498	52.029	99.73009447	24.69635628	35.4925776
 26	48.926	48.544	100	29.55465587	34.54790823	82.32118758
 27	51.368	100	47.25	69.63562753	77.73279352	51.55195682
 28	49.893	0	49.033	19.02834008	5.398110661	16.86909582
 29	53.109	51.372	0	32.11875843	17.81376518	10.93117409
 30	0	58.587	53.943	14.97975709	25.50607287	27.66531714
 31	100	28.065	100	95.81646424	32.2537112	88.66396761
 32	0	0	72.874	1.079622132	8.502024291	33.33333333
 33	0	26.758	100	4.588394062	22.53711201	74.62887989
 34	0	25.426	0	2.429149798	3.50877193	1.754385965
 35	72.508	0	100	44.12955466	22.80701754	78.54251012
 36	100	27.395	0	92.84750337	12.95546559	15.51956815
 37	74.47	100	100	97.03103914	95.41160594	115.2496626
 38	100	0	25.728	90.82321188	9.851551957	17.13900135
 39	73.862	0	0	44.39946019	4.318488529	6.61268556
 40	100	100	25.402	142.6450742	82.05128205	52.90148448
 41	0	75.751	100	27.93522267	56.81511471	91.76788124
 42	0	75.172	0	25.37112011	36.57219973	17.94871795
 43	0	100	25.864	49.12280702	73.41430499	38.86639676
 44	100	0	74.801	90.95816464	18.08367072	49.79757085
 45	0	100	75.421	50.06747638	81.64642375	72.87449393
 46	24.577	0	0	4.183535762	0.4048582996	0.6747638327
 47	26.321	100	0	54.11605938	72.87449393	36.03238866
 48	100	75.835	0	118.488529	46.82860999	32.38866397
 49	100	100	77.061	143.5897436	91.49797571	88.39406208
 50	71.263	100	0	91.36302294	76.51821862	41.70040486
 51	0	0	15.614	0.1349527665	0.2699055331	1.349527665
 52	0	30.049	70.936	4.318488529	13.09041835	34.14304993
 53	100	77.691	100	120.5128205	68.01619433	106.6126856
 54	24.486	100	100	55.06072874	90.68825911	108.2321188
 55	100	62.784	31.909	108.3670715	35.22267206	31.57894737
 56	29.552	0	100	8.097165992	19.16329285	73.95411606
 57	32.98	70.921	100	32.11875843	51.82186235	90.01349528
 58	0	27.681	40.241	3.238866397	6.477732794	11.06612686
 59	67.901	71.021	100	61.53846154	54.92577598	94.73684211
 60	28.154	100	67.829	55.06072874	79.89203779	65.18218623
 61	71.637	100	70.001	92.30769231	84.75033738	73.27935223
 62	58.822	58.763	53.586	41.56545209	28.20512821	31.30904184
 63	33.466	30.48	0	11.33603239	5.802968961	3.778677463
 64	100	73.795	71.277	117.6788124	53.30634278	63.83265857
 65	68.394	29.692	0	40.75573549	8.502024291	7.962213225
 66	70.399	0	29.039	39.67611336	5.128205128	10.52631579
 67	28.078	0	26.956	5.668016194	1.484480432	4.723346829
 68	28.532	72.339	0	29.14979757	34.14304993	17.40890688
 69	100	30.941	26.496	93.65721997	15.24966262	19.97300945
 70	34.597	0	73.611	9.311740891	9.581646424	35.8974359
 71	71.573	0	72.408	42.24021592	12.55060729	39.54116059
 72	0	71.029	29.412	22.67206478	33.73819163	20.78272605
 73	68.386	75.008	0	63.15789474	40.48582996	23.75168691
 74	68.088	27.309	100	41.70040486	26.58569501	80.29689609
 75	100	26.457	73.749	94.06207827	21.99730094	51.14709852
 76	74.344	100	27.392	95.951417	78.13765182	46.55870445
 77	27.558	100	28.197	54.38596491	73.54925776	40.62078273
 78	31.196	27.465	100	11.60593792	23.61673414	75.84345479
 79	0	75.521	72.824	26.58569501	45.88394062	52.63157895
 80	0	50.93	25.553	10.66126856	16.32928475	11.20107962
 81	32.06	33.584	64.033	12.14574899	13.63022942	29.68960864
 82	81.666	55.38	0	69.365722	24.15654521	17.67881242
 83	68.257	32.751	58.286	42.10526316	15.11470985	29.0148448
 84	0	55.248	81.585	13.76518219	30.09446694	54.11605938
 85	73.781	52.099	100	57.48987854	39.54116059	87.04453441
 86	100	50.537	82.952	102.0242915	36.16734143	67.88124157
 87	23.55	0	50.439	4.318488529	4.183535762	15.38461538
 88	31.335	62.746	31.114	24.15654521	26.72064777	18.48852901
 89	100	18.31	49.418	92.03778677	14.43994602	29.0148448
 90	26.498	48.404	0	14.43994602	14.30499325	7.557354926
 91	47.91	100	85.744	67.7462888	86.77462888	87.98920378
 92	71.829	47.313	31.811	51.28205128	18.89338731	18.48852901
 93	31.304	64.132	69.316	25.64102564	34.2780027	44.12955466
 94	80.403	0	54.321	54.38596491	9.851551957	25.64102564
 95	18.455	50.036	100	14.57489879	34.00809717	80.02699055
 96	50.653	100	16.345	68.9608637	74.76383266	39.81106613
 97	80.121	100	52.261	104.8582996	81.51147099	60.32388664
 98	0	22.54	19.289	2.024291498	3.373819163	3.50877193
 99	100	75.273	46.886	117.8137652	49.39271255	44.80431849
 100	0	78.618	56.625	28.74493927	45.88394062	39.40620783
 101	51.137	80.627	100	51.41700405	64.23751687	97.30094467
 102	48.446	0	17.864	17.40890688	2.159244265	4.453441296
 103	100	50.023	21.211	101.0796221	24.42645074	23.48178138
 104	50.115	20.118	0	20.24291498	4.048582996	3.913630229
 105	58.099	72.426	33.158	49.66261808	37.78677463	26.58569501
 106	19.364	100	50.197	52.22672065	76.38326586	50.74224022
 107	50.683	19.177	100	22.67206478	22.53711201	76.92307692
 108	53.37	0	81.576	22.80701754	13.49527665	47.63832659
 109	47.768	76.245	0	43.04993252	39.67611336	21.18758435
 110	0	18.927	55.503	1.889338731	6.747638327	19.16329285
 111	0	13.277	0	0.6747638327	0.9446693657	0.5398110661
 112	72.862	72.473	75.625	67.7462888	47.63832659	60.59379217
 113	100	13.904	0	91.22807018	9.851551957	14.03508772
 114	86.349	0	100	65.7219973	24.83130904	82.72604588
 115	100	41.941	100	99.86504723	37.9217274	91.76788124
 116	100	81.785	16.464	124.0215924	54.25101215	37.38191633
 117	0	44.063	52.596	8.232118758	15.65452092	21.99730094
 118	0	0	58.917	0.6747638327	5.263157895	20.64777328
 119	59.25	24.551	29.789	29.8245614	7.287449393	10.52631579
 120	82.73	82.874	100	91.76788124	70.9851552	104.5883941
 121	80.039	0	12.618	53.57624831	5.533063428	9.041835358
 122	60.957	47.729	77.817	39.27125506	26.72064777	50.87719298
 123	100	0	38.618	90.55330634	11.06612686	21.99730094
 124	0	40.09	100	8.367071525	28.20512821	77.46288799
 125	0	15.283	82.322	2.024291498	12.82051282	45.74898785
 126	17.592	81.726	100	35.22267206	64.1025641	95.00674764
 127	100	14.13	100	92.71255061	28.87989204	87.31443995
 128	15.261	100	82.059	51.95681511	84.34547908	81.37651822
 129	47.77	79.418	60.389	46.28879892	49.25775978	45.34412955
 130	18.768	16.429	0	3.50877193	1.754385965	1.214574899
 131	55.634	100	65.763	73.95411606	81.64642375	66.1268556
 132	100	100	38.541	142.6450742	83.67071525	58.16464238
 133	17.421	0	83.497	3.373819163	12.01079622	47.23346829
 134	17.237	16.758	100	5.128205128	20.37786775	73.95411606
 135	0	15.067	30.039	1.079622132	2.564102564	5.533063428
 136	0	0	86.505	1.619433198	12.82051282	50.74224022
 137	75.736	72.799	50.02	72.06477733	42.91497976	38.73144399
 138	100	83.323	85.529	126.585695	68.9608637	87.44939271
 139	100	100	64.894	143.4547908	88.12415655	75.97840756
 140	81.98	84.914	0	91.63292848	54.25101215	32.52361673
 141	0	63.757	15.49	17.40890688	25.50607287	13.76518219
 142	49.514	66.135	100	39.40620783	48.17813765	89.47368421
 143	100	0	61.862	91.22807018	14.84480432	36.97705803
 144	24.308	45.41	49.831	12.68556005	16.32928475	21.32253711
 145	15.963	0	17.047	1.889338731	0.5398110661	1.889338731
 146	87.497	100	100	118.3535762	97.43589744	118.2186235
 147	52.099	25.003	75.752	23.75168691	14.97975709	42.24021592
 148	14.909	81.162	0	31.71390013	43.85964912	21.72739541
 149	0	34.792	14.626	4.723346829	7.152496626	4.588394062
 150	48.39	45.075	22.552	25.77597841	14.30499325	11.20107962
 151	83.545	65.965	100	80.43184885	52.36167341	95.41160594
 152	16.226	62.345	0	18.48852901	24.02159244	12.01079622
 153	63.222	0	14.914	31.30904184	3.373819163	6.072874494
 154	80.449	13.446	0	54.38596491	6.477732794	8.636977058
 155	83.917	41.562	0	66.26180837	15.78947368	13.76518219
 156	100	60.448	46.3	106.8825911	34.95276653	37.5168691
 157	15.584	0	34.795	1.889338731	1.754385965	6.747638327
 158	17.144	65.121	100	22.53711201	45.88394062	86.50472335
 159	83.602	55.334	62.667	73.54925776	30.90418354	42.51012146
 160	0	82.19	14.22	31.17408907	45.47908232	23.34682861
 161	25.132	74.856	50.616	30.09446694	40.89068826	33.73819163
 162	0	13.769	100	2.564102564	19.70310391	73.14439946
 163	87.181	0	0	65.317139	6.342780027	9.71659919
 164	0	100	39.19	49.12280702	74.35897436	43.99460189
 165	78.047	65.914	19.865	70.04048583	33.19838057	23.34682861
 166	100	63.961	15.865	109.4466937	35.22267206	27.80026991
 167	100	45.955	36.032	99.86504723	23.34682861	27.12550607
 168	15.926	100	16.89	50.87719298	72.87449393	36.97705803
 169	41.459	100	0	61.53846154	73.27935223	37.1120108
 170	48.707	37.288	48.139	23.75168691	13.22537112	20.10796221
 171	83.381	100	13.285	109.0418354	78.54251012	45.34412955
 172	78.129	25.303	75.621	53.71120108	18.08367072	46.55870445
 173	12.396	0	0	1.214574899	0.1349527665	0.2699055331
 174	37.607	48.336	83.346	21.05263158	27.12550607	55.06072874
 175	35.588	15.356	0	9.71659919	2.294197031	2.024291498
 176	61.245	100	100	80.83670715	93.65721997	112.8205128
 177	100	67.29	87.195	112.9554656	51.28205128	80.56680162
 178	0	0	30.615	0.1349527665	1.214574899	4.993252362
 179	35.187	81.789	83.323	40.75573549	58.02968961	70.5802969
 180	39.525	80.194	22.879	40.62078273	44.66936572	25.64102564
 181	50.634	34.593	0	24.02159244	8.636977058	6.20782726
 182	14.175	100	63.146	51.28205128	78.94736842	60.32388664
 183	83.493	17.728	34.574	59.64912281	9.311740891	16.32928475
 184	23.463	22.014	79.943	6.882591093	13.90013495	43.99460189
 185	18.066	31.847	0	6.342780027	5.802968961	3.238866397
 186	87.201	100	81.361	116.4642375	89.87854251	89.87854251
 187	0	100	87.95	50.33738192	86.23481781	88.79892038
 188	34.476	17.888	46.22	9.851551957	5.802968961	14.30499325
 189	18.277	0	67.39	3.10391363	7.287449393	28.47503374
 190	100	87.972	0	129.6896086	62.21322537	40.08097166
 191	82.925	34.85	100	64.37246964	31.30904184	84.75033738
 192	0	88.016	100	38.3265857	71.79487179	98.7854251
 193	36.104	85.655	100	45.74898785	69.63562753	98.7854251
 194	60.981	0	0	28.6099865	2.834008097	4.318488529
 195	51.466	61.826	78.106	37.38191633	36.03238866	54.92577598
 196	78.427	31.983	22.175	54.65587045	11.47098516	13.09041835
 197	66.017	44.321	0	42.37516869	14.97975709	10.79622132
 198	83.941	0	84.177	60.72874494	18.08367072	56.68016194
 199	20.158	46.612	23.269	11.60593792	13.76518219	9.71659919
 200	0	100	62.618	49.66261808	78.40755735	59.78407557
 201	33.832	0	13.933	7.962213225	1.079622132	2.429149798
 202	100	17.286	16.322	91.76788124	10.93117409	15.78947368
 203	0	42.204	83.926	8.367071525	22.67206478	53.03643725
 204	0	87.774	0	35.8974359	52.63157895	25.64102564
 205	64.988	0	59.017	33.60323887	8.636977058	25.91093117
 206	14.677	0	100	3.373819163	18.62348178	73.00944669
 207	88.934	82.673	35.021	100.9446694	54.25101215	39.81106613
 208	0	63.778	100	19.29824561	44.39946019	85.69500675
 209	83.429	17.674	100	61.40350877	26.31578947	82.86099865
 210	30.899	100	85.668	56.81511471	85.42510121	85.96491228
 211	83.68	0	41.016	59.10931174	8.232118758	18.35357625
 212	100	63.515	0	109.1767881	34.00809717	25.91093117
 213	85.074	69.987	0	83.67071525	37.38191633	24.56140351
 214	20.801	45.524	69.018	12.28070175	20.37786775	36.43724696
 215	21.382	82.482	73.017	35.76248313	54.79082321	57.62483131
 216	100	15.128	64.249	92.03778677	16.73414305	39.81106613
 217	36.522	0	58.427	9.986504723	6.072874494	21.86234818
 218	22.466	81.296	33.007	34.2780027	46.15384615	28.34008097
 219	62.531	87.152	0	66.80161943	54.79082321	29.95951417
 220	84.12	85.397	67.886	95.41160594	63.02294197	62.8879892
 221	18.87	27.336	45.389	5.802968961	7.422402159	14.17004049
 222	66.439	100	14.444	85.29014845	75.84345479	41.97031039
 223	41.636	22.147	19.003	14.57489879	4.588394062	5.263157895
 224	61.271	100	81.94	80.43184885	86.90958165	85.29014845
 225	86.013	100	0	113.6302294	78.67746289	45.07422402
 226	37.57	0	0	9.851551957	0.9446693657	1.484480432
 227	100	16.132	84.102	92.71255061	22.67206478	62.61808367
 228	0	100	13.619	49.12280702	72.73954116	36.3022942
 229	38.905	100	56.471	60.32388664	78.00269906	56.54520918
 230	100	15.382	34.563	91.36302294	12.01079622	20.91767881
 231	36.656	14.908	100	12.28070175	20.91767881	75.30364372
 232	0	62.593	66.608	17.40890688	31.30904184	39.67611336
 233	66.347	12.528	100	37.38191633	23.07692308	78.81241565
 234	100	43.375	69.233	99.5951417	27.80026991	49.52766532
 235	100	56.36	61.236	104.7233468	34.41295547	46.42375169
 236	0	86.194	44.955	34.95276653	53.03643725	36.57219973
 237	64.527	87.262	100	70.44534413	73.95411606	103.5087719
 238	34.411	0	42.471	8.502024291	3.373819163	11.47098516
 239	80.23	59.707	85.12	70.71524966	40.35087719	68.5560054
 240	20.625	19.056	14.791	4.453441296	2.699055331	2.699055331
 241	15.341	34.221	100	8.232118758	25.50607287	76.24831309
 242	36.777	0	87.905	10.79622132	14.43994602	54.25101215
 243	34.598	56.247	100	23.88663968	38.86639676	83.67071525
 244	20.86	67.629	17.418	23.21187584	29.55465587	16.46423752
 245	44.958	60.843	18.054	30.90418354	24.83130904	15.38461538
 246	37.421	60.193	0	25.50607287	23.21187584	12.41565452
 247	84.011	33.849	42.612	64.77732794	15.11470985	22.53711201
 248	17.241	60.339	37.743	17.67881242	24.56140351	19.29824561
 249	50.65	17.261	53.278	21.05263158	7.962213225	20.51282051
 250	45.505	48.926	65.152	26.04588394	22.67206478	36.03238866
 251	44.567	84.081	39.649	47.50337382	51.41700405	34.682861
 252	100	86.339	72.054	128.879892	68.42105263	72.33468286
 253	68.14	61.135	0	53.03643725	26.58569501	16.86909582
 254	17.93	66.986	81.403	23.07692308	39.94601889	58.43454791
 255	39.242	60.215	48.926	27.12550607	27.12550607	26.58569501
 256	20.099	18.77	62.967	4.858299595	8.502024291	25.50607287
 257	34.553	100	14.582	57.35492578	73.41430499	37.78677463
 258	87.345	0	66.694	65.58704453	13.63022942	37.78677463
 259	0	43.714	39.842	7.962213225	13.49527665	14.43994602
 260	100	37.705	13.955	95.5465587	17.40890688	18.75843455
 261	31.265	86.993	0	42.10526316	52.22672065	26.18083671
 262	51.402	82.661	81.338	52.49662618	59.10931174	70.1754386
 263	100	100	12.984	142.6450742	81.64642375	50.20242915
 264	0	37.859	0	5.668016194	8.097165992	4.048582996
 265	62.092	58.215	100	46.55870445	42.64507422	87.44939271
 266	86.186	100	64.1	115.1147099	85.42510121	70.85020243
 267	100	35.251	85.898	96.49122807	29.14979757	67.61133603
 268	63.182	89.992	41.974	70.44534413	61.6734143	42.51012146
 269	13.504	100	0	50.33738192	72.33468286	35.4925776
 270	100	0	13.228	90.41835358	9.041835358	14.43994602
 271	63.881	40.826	100	40.21592443	31.8488529	82.59109312
 272	69.387	84.838	20.792	72.33468286	53.44129555	32.2537112
 273	0	70.279	45.136	22.26720648	34.81781377	27.53036437
 274	79.094	64.754	40.908	70.9851552	34.14304993	30.49932524
 275	62.385	54.099	17.396	42.51012146	21.05263158	14.97975709
 276	64.408	14.621	0	33.4682861	4.453441296	5.533063428
 277	70.028	15.606	44.651	40.48582996	8.232118758	17.94871795
 278	0	63.544	0	17.40890688	25.23616734	12.41565452
 279	83.475	47.274	20.502	68.1511471	19.70310391	17.67881242
 280	55.866	0	32.671	23.88663968	3.778677463	9.446693657
 281	58.007	0	100	27.66531714	21.18758435	76.65317139
 282	100	0	87.698	90.95816464	22.26720648	66.5317139
 283	0	13.792	67.215	1.484480432	8.232118758	28.6099865
 284	84.123	17.001	58.549	61.53846154	12.82051282	30.634278
 285	59.579	32.873	15.966	31.30904184	9.041835358	8.502024291
 286	10.41	32.998	28.659	5.263157895	7.422402159	7.692307692
 287	17.231	40.031	85.65	9.71659919	22.40215924	54.79082321
 288	37.568	41.561	10.108	16.86909582	11.06612686	7.01754386
 289	0	69.015	85.092	21.99730094	42.91497976	63.6977058
 290	14.442	100	36.187	50.74224022	73.81916329	43.18488529
 291	100	40.549	0	97.03103914	18.35357625	18.21862348
 292	82.143	45.435	78.429	66.39676113	28.20512821	54.79082321
 293	52.674	0	67.3	21.72739541	9.311740891	31.30904184
 294	0	87.868	66.793	37.24696356	60.59379217	53.84615385
 295	86.53	100	40.524	115.3846154	80.97165992	54.52091768
 296	71.777	85.586	67.232	77.59784076	61.40350877	59.24426451
 297	43.216	100	31.671	63.2928475	75.03373819	42.78002699
 298	39.245	32.908	85.845	16.59919028	19.97300945	54.52091768
 299	0	45.662	67.543	9.176788124	19.70310391	34.81781377
 300	12.161	100	100	51.95681511	91.22807018	108.3670715
 301	67.049	0	85.516	36.57219973	16.19433198	55.06072874
 302	100	89.041	100	132.7935223	82.99595142	114.0350877
 303	20.246	60.698	56.526	19.02834008	28.07017544	30.90418354
 304	52.177	55.457	40.416	34.00809717	23.21187584	21.72739541
 305	72.617	87.018	83.932	80.29689609	68.42105263	79.75708502
 306	40.512	16.723	66.475	13.63022942	9.851551957	30.09446694
 307	68.507	49.232	50.605	47.90823212	22.13225371	28.07017544
 308	65.622	100	54.525	84.61538462	80.70175439	58.56950067
 309	54.115	37.24	66.394	28.34008097	17.13900135	34.81781377
 310	100	76.138	31.267	118.6234818	48.58299595	37.9217274
 311	54.728	65.623	0	41.29554656	29.28475034	16.73414305
 312	63.126	12.526	64.37	32.2537112	10.66126856	30.90418354
 313	72.827	18.08	23.704	43.99460189	6.882591093	10.39136302
 314	23.268	15.278	34.947	4.993252362	3.373819163	7.962213225
 315	87.648	68.954	59.645	87.98920378	42.37516869	46.82860999
 316	0	85.595	85.198	35.62753036	62.75303644	73.81916329
 317	35.798	84.371	69.21	43.04993252	57.35492578	55.46558704
 318	36.062	47.494	35.919	18.62348178	16.32928475	15.24966262
 319	86.083	36.277	59.152	68.9608637	19.29824561	34.54790823
 320	58.21	100	30.361	75.43859649	75.97840756	44.53441296
 321	46.745	14.614	32.317	17.27395412	4.318488529	8.771929825
 322	81.573	73.869	86.954	82.86099865	54.38596491	78.13765182
 323	85.991	49.387	48.206	74.08906883	24.15654521	30.2294197
 324	28.062	87.906	19.654	41.70040486	54.38596491	29.0148448
 325	68.992	17.993	85.124	40.21592443	18.21862348	56.14035088
 326	100	66.147	100	112.2807018	55.33063428	100
 327	33.358	64.806	84.517	27.53036437	39.67611336	63.02294197
 328	41.351	17.736	80.522	14.70985155	14.03508772	46.01889339
 329	100	100	88.719	143.5897436	94.73684211	103.9136302
 330	66.336	0	44.32	34.95276653	6.342780027	16.59919028
 331	64.85	67.09	12.293	52.90148448	32.11875843	19.97300945
 332	15.262	31.268	63.277	6.072874494	11.87584345	27.53036437
 333	15.008	43.663	37.3	9.446693657	13.36032389	13.49527665
 334	0	57.895	38.078	14.30499325	22.53711201	18.21862348
 335	66.599	58.458	67.871	50.47233468	32.11875843	44.93927126
 336	59.191	18.651	15.215	28.20512821	4.993252362	6.342780027
 337	66.781	31.14	84.629	40.48582996	21.45748988	56.14035088
 338	88.033	85.158	52.14	102.0242915	60.45883941	50.33738192
 339	36.882	100	100	60.99865047	91.90283401	109.851552
 340	26.102	33.094	17.006	8.906882591	7.01754386	5.398110661
 341	56.309	36.861	35.862	29.55465587	11.87584345	14.57489879
 342	45.839	65.587	67.033	34.95276653	35.8974359	43.99460189
 343	83.709	81.172	16.406	90.14844804	50.20242915	31.98380567
 344	0	48.132	13.005	9.311740891	13.90013495	7.692307692
 345	87.176	50.021	100	77.59784076	40.35087719	90.28340081
 346	51.219	84.244	13.73	52.63157895	49.79757085	27.66531714
 347	60.606	71.415	48.406	51.68690958	39.27125506	34.41295547
 348	0	11.359	12.718	0.5398110661	1.079622132	1.349527665
 349	86.429	49.705	33.145	74.62887989	22.53711201	22.80701754
 350	34.056	40.958	100	16.73414305	29.4197031	79.08232119
 351	100	30.557	59.628	94.46693657	19.83805668	37.9217274
 352	88.497	26.902	13.449	70.44534413	10.93117409	13.22537112
 353	14.167	51.98	88.218	14.03508772	29.95951417	61.80836707
 354	13.784	12.983	49.37	2.564102564	4.723346829	14.70985155
 355	15.018	88.441	48.062	38.86639676	56.95006748	40.21592443
 356	87.79	25.769	89.215	69.90553306	24.42645074	66.66666667
 357	0	33.206	55.865	4.723346829	10.93117409	21.59244265
 358	74.324	76.029	35.536	71.65991903	43.99460189	32.52361673
 359	65.863	57.223	42.324	48.17813765	25.77597841	25.10121457
 360	30.893	54.646	13.136	19.29824561	19.02834008	10.93117409
 361	0	34.36	28.321	4.723346829	7.692307692	7.692307692
 362	15.443	77.087	85.116	29.95951417	52.22672065	69.365722
 363	63.381	68.947	68.521	53.30634278	40.89068826	49.52766532
 364	69.733	27.566	42.917	41.70040486	10.79622132	18.48852901
 365	32.754	100	42.76	56.68016194	75.97840756	47.09851552
 366	47.096	29.481	34.829	20.10796221	8.232118758	11.60593792
 367	8.5451	71.948	62.695	24.29149798	39.67611336	40.89068826
 368	0	86.048	29.3	34.81781377	51.68690958	29.28475034
 369	53.697	51.572	85.367	34.14304993	31.0391363	60.59379217
 370	17.608	56.69	12.515	15.65452092	19.97300945	10.93117409
 371	90.638	14.414	49.227	71.92982456	11.87584345	25.50607287
 372	63.248	63.64	89.55	50.60728745	42.78002699	73.00944669
 373	100	85.976	58.455	127.8002699	65.317139	59.91902834
 374	9.8311	28.027	7.5567	3.913630229	4.453441296	2.699055331
 375	89.831	64.313	69.506	88.79892038	41.02564103	54.25101215
 376	31.754	12.995	25.543	7.692307692	2.699055331	5.128205128
 377	75.914	45.966	64.957	56.14035088	24.02159244	39.40620783
 378	7.5735	50.695	58.941	11.60593792	21.05263158	28.6099865
 379	100	69.835	58.912	113.7651822	45.88394062	50.33738192
 380	32.211	34.376	48.339	12.28070175	10.93117409	18.08367072
 381	13.901	12.159	73.555	2.968960864	9.851551957	35.22267206
 382	87.071	9.028	77.653	66.26180837	17.13900135	49.79757085
 383	23.272	85.409	84.29	39.00134953	62.21322537	73.14439946
 384	93.289	39.48	26.145	81.91632928	17.40890688	19.43319838
 385	65.769	59.63	30.967	49.52766532	26.72064777	21.18758435
 386	100	32.265	41.803	94.46693657	17.40890688	26.45074224
 387	86.568	85.281	86.961	98.92037787	69.09581646	85.96491228
 388	52.577	86.83	30.016	56.14035088	54.79082321	33.33333333
 389	47.921	40.199	76.902	24.69635628	21.18758435	46.28879892
 390	22.36	86.619	61.58	39.00134953	57.21997301	49.39271255
 391	52.232	33.601	88.787	26.45074224	22.40215924	61.13360324
 392	0	28.523	86.267	4.318488529	17.40890688	52.76653171
 393	43.497	67.879	39.551	34.41295547	32.92847503	25.37112011
 394	39.877	45.261	0	19.70310391	13.09041835	7.692307692
 395	86.94	12.43	24.699	64.9122807	8.097165992	13.36032389
 396	28.363	55.339	90.398	20.10796221	34.00809717	66.80161943
 397	39.018	70.534	57.879	33.60323887	37.9217274	37.65182186
 398	12.833	28.519	78.828	5.398110661	15.11470985	43.72469636
 399	68.35	31.815	69.975	41.97031039	17.40890688	39.54116059
 400	56.52	26.226	41.626	27.39541161	8.771929825	15.51956815
 401	12.938	46.218	0	9.71659919	12.55060729	6.342780027
 402	8.6938	60.179	26.117	16.19433198	23.34682861	14.70985155
 403	51.995	89.429	96.608	60.05398111	74.49392713	97.30094467
 404	46.905	47.746	48.909	25.91093117	18.75843455	23.07692308
 405	14.352	81.814	19.479	32.2537112	45.61403509	24.29149798
 406	71.482	38.117	12.273	46.82860999	12.68556005	11.20107962
 407	86.616	60.785	10.012	80.02699055	29.4197031	21.59244265
 408	71.811	88.979	52.186	80.16194332	63.02294197	49.39271255
 409	43.213	100	72.083	63.6977058	82.32118758	70.9851552
