data/calibration-000989.ti3
CTI3   
ORIGINATOR	"ColorHug Factory"
DESCRIPTOR	"Calibration Target chart information 3"
DEVICE_CLASS	"DISPLAY"
COLOR_REP	"RGB_XYZ"
TARGET_INSTRUMENT	"Hughski ColorHug"
INSTRUMENT_TYPE_SPECTRAL	"NO"
NORMALIZED_TO_Y_100	"NO"
NUMBER_OF_FIELDS	7
NUMBER_OF_SETS	15
BEGIN_DATA_FORMAT
 SAMPLE_ID	RGB_R	RGB_G	RGB_B	XYZ_X	XYZ_Y	XYZ_Z
END_DATA_FORMAT
BEGIN_DATA
 1	0	0	0	0.09155273438	0.09155273438	0.1373291016
 2	1	1	1	54.84008789	37.17041016	44.81506348
 3	1	0	0	34.83581543	3.524780273	5.355834961
 4	0	1	0	18.40209961	26.32141113	12.40539551
 5	0	0	1	0.9155273438	7.369995117	26.82495117
 6	0	0	0	0.09155273438	0.09155273438	0.1373291016
 7	1	1	1	54.84008789	37.26196289	44.81506348
 8	1	0	0	34.69848633	3.524780273	5.355834961
 9	0	1	0	18.26477051	26.32141113	12.40539551
 10	0	0	1	0.9155273438	7.369995117	26.87072754
 11	0	0	0	0.09155273438	0.09155273438	0.1373291016
 12	1	1	1	54.19921875	36.89575195	44.72351074
 13	1	0	0	34.56115723	3.524780273	5.355834961
 14	0	1	0	18.17321777	26.2298584	12.40539551
 15	0	0	1	0.9155273438	7.369995117	26.87072754
END_DATA
