data/calibration-002653.ti3
CTI3   
ORIGINATOR	"ColorHug Factory"
CREATED	"Tue Jan 27 20:24:35 2015"
DESCRIPTOR	"Calibration Target chart information 3"
DEVICE_CLASS	"DISPLAY"
COLOR_REP	"RGB_XYZ"
TARGET_INSTRUMENT	"Hughski ColorHug"
INSTRUMENT_TYPE_SPECTRAL	"NO"
NORMALIZED_TO_Y_100	"NO"
NUMBER_OF_FIELDS	7
NUMBER_OF_SETS	15
BEGIN_DATA_FORMAT
 SAMPLE_ID	RGB_R	RGB_G	RGB_B	XYZ_X	XYZ_Y	XYZ_Z
END_DATA_FORMAT
BEGIN_DATA
 1.0	0.0	0.0	0.0	0.530899047852	0.494522094727	0.599136352539
 2.0	1.0	1.0	1.0	59.795608520508	55.727890014648	56.888885498047
 3.0	1.0	0.0	0.0	42.445587158203	4.459442138672	6.872482299805
 4.0	0.0	1.0	0.0	14.921661376953	40.756210327148	15.456588745117
 5.0	0.0	0.0	1.0	2.323959350586	11.191253662109	34.711853027344
 6.0	0.0	0.0	0.0	0.531661987305	0.499572753906	0.599563598633
 7.0	1.0	1.0	1.0	59.795608520508	55.351348876953	56.496551513672
 8.0	1.0	0.0	0.0	42.445587158203	4.457015991211	6.872482299805
 9.0	0.0	1.0	0.0	15.058822631836	40.354675292969	15.398483276367
 10.0	0.0	0.0	1.0	2.349960327148	11.221908569336	34.711853027344
 11.0	0.0	0.0	0.0	0.533462524414	0.499877929688	0.599487304688
 12.0	1.0	1.0	1.0	59.3623046875	55.727890014648	56.496551513672
 13.0	1.0	0.0	0.0	42.445587158203	4.486297607422	6.866714477539
 14.0	0.0	1.0	0.0	14.94889831543	40.756210327148	15.456588745117
 15.0	0.0	0.0	1.0	2.332565307617	11.2373046875	34.711853027344
END_DATA
