data/calibration-002361.ti3
CTI3   
ORIGINATOR	"ColorHug Factory"
CREATED	"Tue Jan 21 20:55:07 2014"
DESCRIPTOR	"Calibration Target chart information 3"
DEVICE_CLASS	"DISPLAY"
COLOR_REP	"RGB_XYZ"
TARGET_INSTRUMENT	"Hughski ColorHug"
INSTRUMENT_TYPE_SPECTRAL	"NO"
NORMALIZED_TO_Y_100	"NO"
NUMBER_OF_FIELDS	7
NUMBER_OF_SETS	15
BEGIN_DATA_FORMAT
 SAMPLE_ID	RGB_R	RGB_G	RGB_B	XYZ_X	XYZ_Y	XYZ_Z
END_DATA_FORMAT
BEGIN_DATA
 1.0	0.0	0.0	0.0	0.097381591797	0.150421142578	0.287872314453
 2.0	1.0	1.0	1.0	30.453521728516	29.257141113281	45.765350341797
 3.0	1.0	0.0	0.0	18.326614379883	2.250549316406	3.161712646484
 4.0	0.0	1.0	0.0	10.69450378418	19.645080566406	9.822540283203
 5.0	0.0	0.0	1.0	0.860763549805	7.809341430664	33.165985107422
 6.0	0.0	0.0	0.0	0.097564697266	0.151931762695	0.29118347168
 7.0	1.0	1.0	1.0	30.453521728516	29.467620849609	46.0224609375
 8.0	1.0	0.0	0.0	18.244979858398	2.267990112305	3.183822631836
 9.0	0.0	1.0	0.0	10.666656494141	19.504760742188	9.822540283203
 10.0	0.0	0.0	1.0	0.865676879883	7.831726074219	33.032257080078
 11.0	0.0	0.0	0.0	0.098709106445	0.153472900391	0.295272827148
 12.0	1.0	1.0	1.0	30.453521728516	29.574005126953	45.765350341797
 13.0	1.0	0.0	0.0	18.326614379883	2.253021240234	3.196243286133
 14.0	0.0	1.0	0.0	10.666656494141	19.504760742188	9.740783691406
 15.0	0.0	0.0	1.0	0.859237670898	7.77229309082	33.165985107422
END_DATA
