data/calibration-000828.ti3
CTI3   
ORIGINATOR	"ColorHug Factory"
DESCRIPTOR	"Calibration Target chart information 3"
DEVICE_CLASS	"DISPLAY"
COLOR_REP	"RGB_XYZ"
TARGET_INSTRUMENT	"Hughski ColorHug"
INSTRUMENT_TYPE_SPECTRAL	"NO"
NORMALIZED_TO_Y_100	"NO"
NUMBER_OF_FIELDS	7
NUMBER_OF_SETS	15
BEGIN_DATA_FORMAT
 SAMPLE_ID	RGB_R	RGB_G	RGB_B	XYZ_X	XYZ_Y	XYZ_Z
END_DATA_FORMAT
BEGIN_DATA
 1	0	0	0	0.04577636719	0.04577636719	0.09155273438
 2	1	1	1	51.81884766	37.90283203	44.44885254
 3	1	0	0	32.13500977	3.433227539	5.035400391
 4	0	1	0	17.21191406	26.68762207	12.35961914
 5	0	0	1	0.9155273438	7.598876953	26.73339844
 6	0	0	0	0.04577636719	0.04577636719	0.09155273438
 7	1	1	1	51.86462402	37.85705566	44.3572998
 8	1	0	0	32.13500977	3.433227539	5.035400391
 9	0	1	0	17.12036133	26.41296387	12.26806641
 10	0	0	1	0.9155273438	7.64465332	26.6418457
 11	0	0	0	0.04577636719	0.04577636719	0.09155273438
 12	1	1	1	51.63574219	37.8112793	44.49462891
 13	1	0	0	32.0892334	3.433227539	5.035400391
 14	0	1	0	17.12036133	26.59606934	12.40539551
 15	0	0	1	0.9155273438	7.598876953	26.6418457
END_DATA
