data/calibration-002873.ti3
CTI3   
ORIGINATOR	"ColorHug Factory"
CREATED	"Tue May 05 22:15:00 2015"
DESCRIPTOR	"Calibration Target chart information 3"
DEVICE_CLASS	"DISPLAY"
COLOR_REP	"RGB_XYZ"
TARGET_INSTRUMENT	"Hughski ColorHug"
INSTRUMENT_TYPE_SPECTRAL	"NO"
NORMALIZED_TO_Y_100	"NO"
NUMBER_OF_FIELDS	7
NUMBER_OF_SETS	15
BEGIN_DATA_FORMAT
 SAMPLE_ID	RGB_R	RGB_G	RGB_B	XYZ_X	XYZ_Y	XYZ_Z
END_DATA_FORMAT
BEGIN_DATA
 1.0	0.0	0.0	0.0	0.518936157227	0.571533203125	0.60270690918
 2.0	1.0	1.0	1.0	112.219177246094	102.399993896484	110.702697753906
 3.0	1.0	0.0	0.0	79.533966064453	7.677597045898	11.906967163086
 4.0	0.0	1.0	0.0	26.859008789062	73.142852783203	28.054794311523
 5.0	0.0	0.0	1.0	3.725326538086	21.059112548828	68.266662597656
 6.0	0.0	0.0	0.0	0.518829345703	0.571624755859	0.603759765625
 7.0	1.0	1.0	1.0	110.702697753906	102.399993896484	110.702697753906
 8.0	1.0	0.0	0.0	79.533966064453	7.677597045898	11.906967163086
 9.0	0.0	1.0	0.0	26.859008789062	73.142852783203	28.054794311523
 10.0	0.0	0.0	1.0	3.727020263672	21.059112548828	68.266662597656
 11.0	0.0	0.0	0.0	0.519332885742	0.57145690918	0.604125976562
 12.0	1.0	1.0	1.0	110.702697753906	102.399993896484	110.702697753906
 13.0	1.0	0.0	0.0	79.533966064453	7.684799194336	11.906967163086
 14.0	0.0	1.0	0.0	26.859008789062	73.142852783203	28.054794311523
 15.0	0.0	0.0	1.0	3.728713989258	21.059112548828	68.266662597656
END_DATA
