data/calibration-000969.ti3
CTI3   
ORIGINATOR	"ColorHug Factory"
DESCRIPTOR	"Calibration Target chart information 3"
DEVICE_CLASS	"DISPLAY"
COLOR_REP	"RGB_XYZ"
TARGET_INSTRUMENT	"Hughski ColorHug"
INSTRUMENT_TYPE_SPECTRAL	"NO"
NORMALIZED_TO_Y_100	"NO"
NUMBER_OF_FIELDS	7
NUMBER_OF_SETS	15
BEGIN_DATA_FORMAT
 SAMPLE_ID	RGB_R	RGB_G	RGB_B	XYZ_X	XYZ_Y	XYZ_Z
END_DATA_FORMAT
BEGIN_DATA
 1	0	0	0	0.09155273438	0.09155273438	0.1373291016
 2	1	1	1	54.79431152	39.87121582	46.14257812
 3	1	0	0	34.10339355	3.662109375	5.355834961
 4	0	1	0	18.40209961	28.28979492	13.18359375
 5	0	0	1	0.9613037109	7.873535156	27.55737305
 6	0	0	0	0.1373291016	0.09155273438	0.1373291016
 7	1	1	1	54.65698242	39.73388672	46.14257812
 8	1	0	0	34.51538086	3.662109375	5.355834961
 9	0	1	0	18.44787598	28.28979492	13.13781738
 10	0	0	1	0.9613037109	7.873535156	27.60314941
 11	0	0	0	0.1373291016	0.09155273438	0.1373291016
 12	1	1	1	54.29077148	39.68811035	46.09680176
 13	1	0	0	34.19494629	3.662109375	5.355834961
 14	0	1	0	18.40209961	28.38134766	13.18359375
 15	0	0	1	0.9613037109	7.873535156	27.55737305
END_DATA
