data/calibration-000614.ti3
CTI3
ORIGINATOR	"ColorHug Factory"
DESCRIPTOR	"Calibration Target chart information 3"
DEVICE_CLASS	"DISPLAY"
COLOR_REP	"RGB_XYZ"
TARGET_INSTRUMENT	"Hughski ColorHug"
INSTRUMENT_TYPE_SPECTRAL	"NO"
NORMALIZED_TO_Y_100	"NO"
NUMBER_OF_FIELDS	7
NUMBER_OF_SETS	15
BEGIN_DATA_FORMAT
 SAMPLE_ID	RGB_R	RGB_G	RGB_B	XYZ_X	XYZ_Y	XYZ_Z
END_DATA_FORMAT
BEGIN_DATA
 1	0	0	0	0.04577636719	0	0.09155273438
 2	1	1	1	57.67822266	36.94152832	43.25866699
 3	1	0	0	36.52954102	3.524780273	5.355834961
 4	0	1	0	18.81408691	26.27563477	12.22229004
 5	0	0	1	0.8239746094	7.00378418	25.26855469
 6	0	0	0	0.04577636719	0	0.09155273438
 7	1	1	1	57.03735352	36.89575195	43.07556152
 8	1	0	0	36.25488281	3.524780273	5.355834961
 9	0	1	0	18.67675781	26.2298584	12.22229004
 10	0	0	1	0.8239746094	7.00378418	25.26855469
 11	0	0	0	0.04577636719	0	0.09155273438
 12	1	1	1	56.71691895	36.80419922	43.02978516
 13	1	0	0	36.11755371	3.524780273	5.355834961
 14	0	1	0	18.85986328	26.0925293	12.22229004
 15	0	0	1	0.8239746094	6.958007812	25.13122559
END_DATA
