data/calibration-002184.ti3
CTI3   
ORIGINATOR	"ColorHug Factory"
CREATED	"Wed Nov 20 20:45:13 2013"
DESCRIPTOR	"Calibration Target chart information 3"
DEVICE_CLASS	"DISPLAY"
COLOR_REP	"RGB_XYZ"
TARGET_INSTRUMENT	"Hughski ColorHug"
INSTRUMENT_TYPE_SPECTRAL	"NO"
NORMALIZED_TO_Y_100	"NO"
NUMBER_OF_FIELDS	7
NUMBER_OF_SETS	15
BEGIN_DATA_FORMAT
 SAMPLE_ID	RGB_R	RGB_G	RGB_B	XYZ_X	XYZ_Y	XYZ_Z
END_DATA_FORMAT
BEGIN_DATA
 1	0	0	0	0.3204345703125	0.274658203125	0.3662109375
 2	1	1	1	65.5975341796875	33.6456298828125	51.5899658203125
 3	1	0	0	42.0684814453125	3.6163330078125	5.767822265625
 4	0	1	0	20.965576171875	21.881103515625	10.986328125
 5	0	0	1	1.373291015625	8.514404296875	34.881591796875
 6	0	0	0	0.3204345703125	0.274658203125	0.3662109375
 7	1	1	1	66.009521484375	33.87451171875	51.6815185546875
 8	1	0	0	41.5191650390625	3.6163330078125	5.767822265625
 9	0	1	0	20.965576171875	21.9268798828125	11.0321044921875
 10	0	0	1	1.373291015625	8.514404296875	34.7900390625
 11	0	0	0	0.3204345703125	0.274658203125	0.3662109375
 12	1	1	1	64.9566650390625	33.782958984375	51.5899658203125
 13	1	0	0	41.290283203125	3.6163330078125	5.767822265625
 14	0	1	0	20.9197998046875	21.9268798828125	10.986328125
 15	0	0	1	1.373291015625	8.514404296875	34.8358154296875
END_DATA
