data/calibration-002267.ti3
CTI3   
ORIGINATOR	"ColorHug Factory"
CREATED	"Tue Jan 21 19:36:48 2014"
DESCRIPTOR	"Calibration Target chart information 3"
DEVICE_CLASS	"DISPLAY"
COLOR_REP	"RGB_XYZ"
TARGET_INSTRUMENT	"Hughski ColorHug"
INSTRUMENT_TYPE_SPECTRAL	"NO"
NORMALIZED_TO_Y_100	"NO"
NUMBER_OF_FIELDS	7
NUMBER_OF_SETS	15
BEGIN_DATA_FORMAT
 SAMPLE_ID	RGB_R	RGB_G	RGB_B	XYZ_X	XYZ_Y	XYZ_Z
END_DATA_FORMAT
BEGIN_DATA
 1.0	0.0	0.0	0.0	0.201385498047	0.16032409668	0.267822265625
 2.0	1.0	1.0	1.0	72.495574951172	33.300811767578	52.851608276367
 3.0	1.0	0.0	0.0	45.259658813477	3.663681030273	6.068145751953
 4.0	0.0	1.0	0.0	22.260864257812	19.692306518555	10.908111572266
 5.0	0.0	0.0	1.0	1.42024230957	8.151229858398	35.008544921875
 6.0	0.0	0.0	0.0	0.2001953125	0.160903930664	0.26936340332
 7.0	1.0	1.0	1.0	73.142852783203	33.032257080078	53.194793701172
 8.0	1.0	0.0	0.0	46.0224609375	3.683441162109	6.068145751953
 9.0	0.0	1.0	0.0	22.321517944336	19.692306518555	11.055328369141
 10.0	0.0	0.0	1.0	1.406097412109	8.15934753418	35.008544921875
 11.0	0.0	0.0	0.0	0.200225830078	0.160034179688	0.268402099609
 12.0	1.0	1.0	1.0	72.495574951172	33.165985107422	53.194793701172
 13.0	1.0	0.0	0.0	45.511108398438	3.663681030273	6.06364440918
 14.0	0.0	1.0	0.0	22.200531005859	20.582901000977	10.951858520508
 15.0	0.0	0.0	1.0	1.410461425781	8.135040283203	34.859573364258
END_DATA
