data/calibration-000594.ti3
CTI3
ORIGINATOR	"ColorHug Factory"
DESCRIPTOR	"Calibration Target chart information 3"
DEVICE_CLASS	"DISPLAY"
COLOR_REP	"RGB_XYZ"
TARGET_INSTRUMENT	"Hughski ColorHug"
INSTRUMENT_TYPE_SPECTRAL	"NO"
NORMALIZED_TO_Y_100	"NO"
NUMBER_OF_FIELDS	7
NUMBER_OF_SETS	15
BEGIN_DATA_FORMAT
 SAMPLE_ID	RGB_R	RGB_G	RGB_B	XYZ_X	XYZ_Y	XYZ_Z
END_DATA_FORMAT
BEGIN_DATA
 1	0	0	0	0.04577636719	0.04577636719	0
 2	1	1	1	63.12561035	40.69519043	46.50878906
 3	1	0	0	40.37475586	3.936767578	5.859375
 4	0	1	0	20.96557617	29.1595459	13.22937012
 5	0	0	1	0.9155273438	7.598876953	27.23693848
 6	0	0	0	0.04577636719	0.04577636719	0
 7	1	1	1	63.03405762	40.64941406	46.4630127
 8	1	0	0	40.42053223	3.936767578	5.859375
 9	0	1	0	20.9197998	29.11376953	13.22937012
 10	0	0	1	0.9155273438	7.598876953	27.09960938
 11	0	0	0	0.04577636719	0.04577636719	0
 12	1	1	1	63.40026855	40.83251953	46.50878906
 13	1	0	0	40.23742676	3.936767578	5.859375
 14	0	1	0	20.9197998	29.1595459	13.18359375
 15	0	0	1	0.9155273438	7.598876953	27.14538574
END_DATA
