data/calibration-000403.ti3
CTI3
ORIGINATOR	"ColorHug Factory"
DESCRIPTOR	"Calibration Target chart information 3"
DEVICE_CLASS	"DISPLAY"
COLOR_REP	"RGB_XYZ"
TARGET_INSTRUMENT	"Hughski ColorHug"
INSTRUMENT_TYPE_SPECTRAL	"NO"
NORMALIZED_TO_Y_100	"NO"
NUMBER_OF_FIELDS	7
NUMBER_OF_SETS	15
BEGIN_DATA_FORMAT
 SAMPLE_ID	RGB_R	RGB_G	RGB_B	XYZ_X	XYZ_Y	XYZ_Z
END_DATA_FORMAT
BEGIN_DATA
 1	0	0	0	0.09155273438	0	0.09155273438
 2	1	1	1	58.13598633	38.77258301	44.72351074
 3	1	0	0	36.75842285	3.616333008	5.447387695
 4	0	1	0	19.04296875	27.83203125	12.81738281
 5	0	0	1	0.8239746094	7.369995117	26.6418457
 6	0	0	0	0	0	0.09155273438
 7	1	1	1	58.09020996	38.90991211	44.95239258
 8	1	0	0	36.80419922	3.616333008	5.447387695
 9	0	1	0	19.13452148	27.60314941	12.81738281
 10	0	0	1	0.8239746094	7.369995117	26.59606934
 11	0	0	0	0	0	0.09155273438
 12	1	1	1	58.04443359	38.86413574	44.95239258
 13	1	0	0	36.66687012	3.616333008	5.447387695
 14	0	1	0	19.08874512	27.60314941	12.81738281
 15	0	0	1	0.8239746094	7.369995117	26.59606934
END_DATA
