data/calibration-001561.ti3
CTI3   
ORIGINATOR	"ColorHug Factory"
DESCRIPTOR	"Calibration Target chart information 3"
DEVICE_CLASS	"DISPLAY"
COLOR_REP	"RGB_XYZ"
TARGET_INSTRUMENT	"Hughski ColorHug"
INSTRUMENT_TYPE_SPECTRAL	"NO"
NORMALIZED_TO_Y_100	"NO"
NUMBER_OF_FIELDS	7
NUMBER_OF_SETS	15
BEGIN_DATA_FORMAT
 SAMPLE_ID	RGB_R	RGB_G	RGB_B	XYZ_X	XYZ_Y	XYZ_Z
END_DATA_FORMAT
BEGIN_DATA
 1	0	0	0	0.1373291016	0.1373291016	0.1373291016
 2	1	1	1	36.75842285	34.24072266	42.89245605
 3	1	0	0	22.33886719	2.792358398	3.799438477
 4	0	1	0	13.04626465	24.26147461	11.5814209
 5	0	0	1	0.8697509766	7.369995117	27.69470215
 6	0	0	0	0.1373291016	0.1373291016	0.1831054688
 7	1	1	1	36.66687012	34.24072266	42.84667969
 8	1	0	0	22.43041992	2.792358398	3.799438477
 9	0	1	0	13.04626465	24.30725098	11.5814209
 10	0	0	1	0.8697509766	7.369995117	27.78625488
 11	0	0	0	0.1373291016	0.1373291016	0.1831054688
 12	1	1	1	36.80419922	34.28649902	42.93823242
 13	1	0	0	22.43041992	2.792358398	3.845214844
 14	0	1	0	13.04626465	24.30725098	11.62719727
 15	0	0	1	0.8697509766	7.369995117	27.74047852
END_DATA
