data/calibration-002585.ti3
CTI3   
ORIGINATOR	"ColorHug Factory"
CREATED	"Wed Dec 03 19:35:52 2014"
DESCRIPTOR	"Calibration Target chart information 3"
DEVICE_CLASS	"DISPLAY"
COLOR_REP	"RGB_XYZ"
TARGET_INSTRUMENT	"Hughski ColorHug"
INSTRUMENT_TYPE_SPECTRAL	"NO"
NORMALIZED_TO_Y_100	"NO"
NUMBER_OF_FIELDS	7
NUMBER_OF_SETS	15
BEGIN_DATA_FORMAT
 SAMPLE_ID	RGB_R	RGB_G	RGB_B	XYZ_X	XYZ_Y	XYZ_Z
END_DATA_FORMAT
BEGIN_DATA
 1.0	0.0	0.0	0.0	0.467071533203	0.528030395508	0.661926269531
 2.0	1.0	1.0	1.0	109.226654052734	107.789459228516	117.028564453125
 3.0	1.0	0.0	0.0	76.560745239258	7.275299072266	11.425369262695
 4.0	0.0	1.0	0.0	26.771240234375	75.851837158203	29.153015136719
 5.0	0.0	0.0	1.0	3.371185302734	21.671951293945	73.142852783203
 6.0	0.0	0.0	0.0	0.468566894531	0.529159545898	0.662506103516
 7.0	1.0	1.0	1.0	109.226654052734	107.789459228516	117.028564453125
 8.0	1.0	0.0	0.0	75.851837158203	7.268844604492	11.425369262695
 9.0	0.0	1.0	0.0	26.771240234375	75.851837158203	29.153015136719
 10.0	0.0	0.0	1.0	3.372573852539	21.671951293945	73.142852783203
 11.0	0.0	0.0	0.0	0.469711303711	0.530868530273	0.665298461914
 12.0	1.0	1.0	1.0	109.226654052734	107.789459228516	117.028564453125
 13.0	1.0	0.0	0.0	75.851837158203	7.268844604492	11.409469604492
 14.0	0.0	1.0	0.0	26.684036254883	75.851837158203	29.153015136719
 15.0	0.0	0.0	1.0	3.372573852539	21.671951293945	73.142852783203
END_DATA
