data/calibration-002629.ti3
CTI3   
ORIGINATOR	"ColorHug Factory"
CREATED	"Tue Jan 27 19:54:50 2015"
DESCRIPTOR	"Calibration Target chart information 3"
DEVICE_CLASS	"DISPLAY"
COLOR_REP	"RGB_XYZ"
TARGET_INSTRUMENT	"Hughski ColorHug"
INSTRUMENT_TYPE_SPECTRAL	"NO"
NORMALIZED_TO_Y_100	"NO"
NUMBER_OF_FIELDS	7
NUMBER_OF_SETS	15
BEGIN_DATA_FORMAT
 SAMPLE_ID	RGB_R	RGB_G	RGB_B	XYZ_X	XYZ_Y	XYZ_Z
END_DATA_FORMAT
BEGIN_DATA
 1.0	0.0	0.0	0.0	1.110626220703	1.069580078125	1.057983398438
 2.0	1.0	1.0	1.0	73.142852783203	67.70246887207	70.01708984375
 3.0	1.0	0.0	0.0	52.851608276367	5.546371459961	8.497924804688
 4.0	0.0	1.0	0.0	18.00439453125	49.05387878418	18.660583496094
 5.0	0.0	0.0	1.0	3.201248168945	13.76806640625	43.807479858398
 6.0	0.0	0.0	0.0	1.122802734375	1.076049804688	1.066101074219
 7.0	1.0	1.0	1.0	74.472717285156	68.266662597656	71.234771728516
 8.0	1.0	0.0	0.0	53.894729614258	5.645751953125	8.586990356445
 9.0	0.0	1.0	0.0	18.285705566406	49.648483276367	19.095565795898
 10.0	0.0	0.0	1.0	3.24821472168	13.955703735352	44.281066894531
 11.0	0.0	0.0	0.0	1.130554199219	1.092544555664	1.079452514648
 12.0	1.0	1.0	1.0	75.155960083008	68.84033203125	71.859634399414
 13.0	1.0	0.0	0.0	54.613327026367	5.744735717773	8.733474731445
 14.0	0.0	1.0	0.0	18.788986206055	50.881973266602	19.320739746094
 15.0	0.0	0.0	1.0	3.289947509766	14.271774291992	45.010986328125
END_DATA
