data/calibration-001724.ti3
CTI3   
ORIGINATOR	"ColorHug Factory"
CREATED	"Wed Feb 20 20:15:56 2013"
DESCRIPTOR	"Calibration Target chart information 3"
DEVICE_CLASS	"DISPLAY"
COLOR_REP	"RGB_XYZ"
TARGET_INSTRUMENT	"Hughski ColorHug"
INSTRUMENT_TYPE_SPECTRAL	"NO"
NORMALIZED_TO_Y_100	"NO"
NUMBER_OF_FIELDS	7
NUMBER_OF_SETS	15
BEGIN_DATA_FORMAT
 SAMPLE_ID	RGB_R	RGB_G	RGB_B	XYZ_X	XYZ_Y	XYZ_Z
END_DATA_FORMAT
BEGIN_DATA
 1	0	0	0	0.09155273438	0.2288818359	0.2288818359
 2	1	1	1	46.00524902	45.13549805	55.84716797
 3	1	0	0	27.55737305	3.616333008	4.440307617
 4	0	1	0	16.29638672	32.04345703	14.28222656
 5	0	0	1	1.098632812	9.841918945	37.21618652
 6	0	0	0	0.09155273438	0.2288818359	0.2288818359
 7	1	1	1	45.82214355	44.99816895	55.75561523
 8	1	0	0	27.69470215	3.616333008	4.440307617
 9	0	1	0	16.29638672	31.99768066	14.28222656
 10	0	0	1	1.098632812	9.841918945	37.12463379
 11	0	0	0	0.09155273438	0.2288818359	0.2288818359
 12	1	1	1	45.41015625	44.95239258	55.84716797
 13	1	0	0	27.64892578	3.616333008	4.440307617
 14	0	1	0	16.15905762	31.76879883	14.28222656
 15	0	0	1	1.098632812	9.841918945	36.98730469
END_DATA
