data/calibration-002065.ti3
CTI3   
ORIGINATOR	"ColorHug Factory"
CREATED	"Sun Sep 15 20:06:26 2013"
DESCRIPTOR	"Calibration Target chart information 3"
DEVICE_CLASS	"DISPLAY"
COLOR_REP	"RGB_XYZ"
TARGET_INSTRUMENT	"Hughski ColorHug"
INSTRUMENT_TYPE_SPECTRAL	"NO"
NORMALIZED_TO_Y_100	"NO"
NUMBER_OF_FIELDS	7
NUMBER_OF_SETS	15
BEGIN_DATA_FORMAT
 SAMPLE_ID	RGB_R	RGB_G	RGB_B	XYZ_X	XYZ_Y	XYZ_Z
END_DATA_FORMAT
BEGIN_DATA
 1	0	0	0	0.091552734375	0.091552734375	0.1373291015625
 2	1	1	1	73.883056640625	39.0472412109375	56.0760498046875
 3	1	0	0	47.79052734375	4.2572021484375	7.4615478515625
 4	0	1	0	23.895263671875	25.9552001953125	13.9617919921875
 5	0	0	1	1.190185546875	9.1552734375	35.2935791015625
 6	0	0	0	0.091552734375	0.091552734375	0.1373291015625
 7	1	1	1	73.6541748046875	39.459228515625	56.57958984375
 8	1	0	0	47.5616455078125	4.302978515625	7.415771484375
 9	0	1	0	23.98681640625	26.1383056640625	13.916015625
 10	0	0	1	1.190185546875	9.2010498046875	35.2020263671875
 11	0	0	0	0.091552734375	0.091552734375	0.1373291015625
 12	1	1	1	73.9288330078125	39.3218994140625	55.9844970703125
 13	1	0	0	47.515869140625	4.302978515625	7.4615478515625
 14	0	1	0	23.98681640625	26.092529296875	13.916015625
 15	0	0	1	1.190185546875	9.1552734375	35.2020263671875
END_DATA
