data/calibration-001235.ti3
CTI3   
ORIGINATOR	"ColorHug Factory"
DESCRIPTOR	"Calibration Target chart information 3"
DEVICE_CLASS	"DISPLAY"
COLOR_REP	"RGB_XYZ"
TARGET_INSTRUMENT	"Hughski ColorHug"
INSTRUMENT_TYPE_SPECTRAL	"NO"
NORMALIZED_TO_Y_100	"NO"
NUMBER_OF_FIELDS	7
NUMBER_OF_SETS	15
BEGIN_DATA_FORMAT
 SAMPLE_ID	RGB_R	RGB_G	RGB_B	XYZ_X	XYZ_Y	XYZ_Z
END_DATA_FORMAT
BEGIN_DATA
 1	0	0	0	0.04577636719	0.09155273438	0.1373291016
 2	1	1	1	32.13500977	36.30065918	43.25866699
 3	1	0	0	18.99719238	2.655029297	3.295898438
 4	0	1	0	11.90185547	25.9552002	11.8560791
 5	0	0	1	0.7781982422	7.553100586	28.01513672
 6	0	0	0	0.04577636719	0.09155273438	0.1373291016
 7	1	1	1	32.3638916	36.43798828	43.16711426
 8	1	0	0	18.99719238	2.655029297	3.295898438
 9	0	1	0	11.8560791	26.18408203	11.76452637
 10	0	0	1	0.7781982422	7.553100586	28.15246582
 11	0	0	0	0.04577636719	0.09155273438	0.1373291016
 12	1	1	1	32.27233887	36.30065918	43.25866699
 13	1	0	0	18.99719238	2.655029297	3.295898438
 14	0	1	0	11.8560791	26.27563477	11.8560791
 15	0	0	1	0.7781982422	7.598876953	28.10668945
END_DATA
