data/calibration-002157.ti3
CTI3   
ORIGINATOR	"ColorHug Factory"
CREATED	"Wed Nov 20 20:16:20 2013"
DESCRIPTOR	"Calibration Target chart information 3"
DEVICE_CLASS	"DISPLAY"
COLOR_REP	"RGB_XYZ"
TARGET_INSTRUMENT	"Hughski ColorHug"
INSTRUMENT_TYPE_SPECTRAL	"NO"
NORMALIZED_TO_Y_100	"NO"
NUMBER_OF_FIELDS	7
NUMBER_OF_SETS	15
BEGIN_DATA_FORMAT
 SAMPLE_ID	RGB_R	RGB_G	RGB_B	XYZ_X	XYZ_Y	XYZ_Z
END_DATA_FORMAT
BEGIN_DATA
 1	0	0	0	0.091552734375	0.0457763671875	0.091552734375
 2	1	1	1	69.671630859375	32.77587890625	48.980712890625
 3	1	0	0	44.4488525390625	3.5247802734375	5.9051513671875
 4	0	1	0	22.3388671875	21.5606689453125	10.894775390625
 5	0	0	1	1.2359619140625	7.6446533203125	31.9976806640625
 6	0	0	0	0.091552734375	0.0457763671875	0.091552734375
 7	1	1	1	69.580078125	32.8216552734375	48.9349365234375
 8	1	0	0	44.769287109375	3.5247802734375	5.950927734375
 9	0	1	0	22.52197265625	21.4691162109375	10.8489990234375
 10	0	0	1	1.2359619140625	7.6446533203125	31.951904296875
 11	0	0	0	0.091552734375	0.0457763671875	0.091552734375
 12	1	1	1	69.7174072265625	32.77587890625	48.980712890625
 13	1	0	0	44.86083984375	3.5247802734375	5.9051513671875
 14	0	1	0	22.430419921875	21.6064453125	10.8489990234375
 15	0	0	1	1.2359619140625	7.6446533203125	31.7230224609375
END_DATA
