data/calibration-000228.ti3
CTI3
DESCRIPTOR	"Calibration Target chart information 3"
ORIGINATOR	"ColorHug Factory"
DEVICE_CLASS	"DISPLAY"
COLOR_REP	"RGB_XYZ"
TARGET_INSTRUMENT	"ColorHug"
INSTRUMENT_TYPE_SPECTRAL	"NO"
LUMINANCE_XYZ_CDM2	"49.037933 33.794403 38.772583"
NORMALIZED_TO_Y_100	"YES"
NUMBER_OF_FIELDS	7
NUMBER_OF_SETS	836
BEGIN_DATA_FORMAT
 SAMPLE_ID	RGB_R	RGB_G	RGB_B	XYZ_X	XYZ_Y	XYZ_Z
END_DATA_FORMAT
BEGIN_DATA
 1	100	100	100	143.1081081	99.72972973	114.5945946
 2	100	100	100	145.6756757	100	114.5945946
 3	100	100	100	146.0810811	99.86486486	114.0540541
 4	100	100	100	144.1891892	99.45945946	114.5945946
 5	33.33	32.622	30.968	12.83783784	8.513513514	9.189189189
 6	100	0	100	94.05405405	27.83783784	81.89189189
 7	100	100	0	144.5945946	81.35135135	46.35135135
 8	0	100	100	51.75675676	91.08108108	101.2162162
 9	0	100	0	49.72972973	72.2972973	32.83783784
 10	0	0	100	2.297297297	18.51351351	68.37837838
 11	100	0	0	92.16216216	9.189189189	13.37837838
 12	0	0	0	0.1351351351	0.1351351351	0.2702702703
 13	0	52.455	100	13.51351351	35.67567568	76.08108108
 14	100	0	50.3	93.24324324	13.24324324	28.10810811
 15	100	54.739	100	106.4864865	46.62162162	90.27027027
 16	100	52.128	0	103.7837838	25.67567568	20.94594595
 17	0	0	46.181	0.5405405405	3.243243243	11.75675676
 18	0	51.141	0	11.21621622	16.08108108	7.432432432
 19	0	100	51.348	50.13513514	76.35135135	47.7027027
 20	100	100	52.037	144.1891892	85.67567568	61.75675676
 21	49.216	0	0	19.05405405	2.027027027	2.837837838
 22	56.159	100	0	74.86486486	74.59459459	36.48648649
 23	49.226	100	100	70.13513514	92.7027027	103.7837838
 24	44.487	0	100	17.16216216	20.13513514	70.94594595
 25	100	44.498	52.029	101.6216216	25.54054054	34.45945946
 26	48.926	48.544	100	30.54054054	35	77.97297297
 27	51.368	100	47.25	70.54054054	77.7027027	48.37837838
 28	49.893	0	49.033	20.13513514	5.810810811	16.62162162
 29	53.109	51.372	0	33.37837838	18.24324324	10.67567568
 30	0	58.587	53.943	15.54054054	26.08108108	26.62162162
 31	100	28.065	100	97.56756757	32.56756757	84.05405405
 32	0	0	72.874	1.216216216	8.783783784	32.16216216
 33	0	26.758	100	4.72972973	22.97297297	70.40540541
 34	0	25.426	0	2.702702703	3.783783784	1.891891892
 35	72.508	0	100	45.81081081	23.10810811	75.27027027
 36	100	27.395	0	95.81081081	13.51351351	15.40540541
 37	74.47	100	100	98.37837838	95.13513514	107.4324324
 38	100	0	25.728	92.43243243	10.27027027	17.02702703
 39	73.862	0	0	46.21621622	4.72972973	6.756756757
 40	100	100	25.402	143.3783784	82.16216216	49.72972973
 41	0	75.751	100	28.51351351	56.75675676	86.08108108
 42	0	75.172	0	26.08108108	37.02702703	17.02702703
 43	0	100	25.864	49.72972973	73.37837838	36.21621622
 44	100	0	74.801	93.37837838	18.64864865	47.83783784
 45	0	100	75.421	50.81081081	82.02702703	67.97297297
 46	24.577	0	0	4.594594595	0.5405405405	0.8108108108
 47	26.321	100	0	54.72972973	72.56756757	33.64864865
 48	100	75.835	0	120.4054054	47.2972973	30.94594595
 49	100	100	77.061	144.3243243	91.35135135	83.64864865
 50	71.263	100	0	92.56756757	76.48648649	38.91891892
 51	0	0	15.614	0.2702702703	0.4054054054	1.486486486
 52	0	30.049	70.936	4.594594595	13.64864865	32.7027027
 53	100	77.691	100	123.3783784	68.37837838	100.4054054
 54	24.486	100	100	55.67567568	91.62162162	101.6216216
 55	100	62.784	31.909	110.6756757	35.81081081	30.54054054
 56	29.552	0	100	8.378378378	19.18918919	69.32432432
 57	32.98	70.921	100	32.7027027	52.16216216	84.86486486
 58	0	27.681	40.241	3.513513514	6.891891892	10.94594595
 59	67.901	71.021	100	62.83783784	55.27027027	88.91891892
 60	28.154	100	67.829	56.21621622	80	61.08108108
 61	71.637	100	70.001	93.78378378	84.59459459	69.05405405
 62	58.822	58.763	53.586	42.97297297	28.78378378	30.27027027
 63	33.466	30.48	0	12.16216216	6.216216216	3.783783784
 64	100	73.795	71.277	118.7837838	53.78378378	61.08108108
 65	68.394	29.692	0	42.16216216	8.918918919	7.972972973
 66	70.399	0	29.039	41.48648649	5.405405405	10.67567568
 67	28.078	0	26.956	6.081081081	1.756756757	4.864864865
 68	28.532	72.339	0	29.86486486	34.86486486	16.48648649
 69	100	30.941	26.496	96.35135135	15.81081081	19.72972973
 70	34.597	0	73.611	9.864864865	10	34.45945946
 71	71.573	0	72.408	43.51351351	12.97297297	38.24324324
 72	0	71.029	29.412	23.24324324	34.18918919	19.72972973
 73	68.386	75.008	0	64.72972973	40.67567568	22.56756757
 74	68.088	27.309	100	43.24324324	26.89189189	75.94594595
 75	100	26.457	73.749	96.48648649	22.7027027	49.32432432
 76	74.344	100	27.392	96.89189189	78.24324324	43.64864865
 77	27.558	100	28.197	55.13513514	74.18918919	37.83783784
 78	31.196	27.465	100	12.16216216	23.91891892	71.75675676
 79	0	75.521	72.824	27.2972973	46.75675676	49.72972973
 80	0	50.93	25.553	11.08108108	16.89189189	10.81081081
 81	32.06	33.584	64.033	12.83783784	14.05405405	28.64864865
 82	81.666	55.38	0	71.21621622	24.86486486	17.02702703
 83	68.257	32.751	58.286	43.64864865	15.67567568	28.37837838
 84	0	55.248	81.585	14.18918919	30.54054054	51.08108108
 85	73.781	52.099	100	59.32432432	40.13513514	82.83783784
 86	100	50.537	82.952	104.0540541	36.75675676	64.86486486
 87	23.55	0	50.439	4.72972973	4.459459459	15.13513514
 88	31.335	62.746	31.114	25	27.43243243	17.83783784
 89	100	18.31	49.418	93.78378378	15	28.37837838
 90	26.498	48.404	0	15.13513514	14.86486486	7.432432432
 91	47.91	100	85.744	68.51351351	86.75675676	82.7027027
 92	71.829	47.313	31.811	52.97297297	19.45945946	18.10810811
 93	31.304	64.132	69.316	26.35135135	35	42.16216216
 94	80.403	0	54.321	56.08108108	10.27027027	25.13513514
 95	18.455	50.036	100	15	34.45945946	76.21621622
 96	50.653	100	16.345	69.72972973	74.59459459	37.02702703
 97	80.121	100	52.261	106.0810811	82.02702703	56.62162162
 98	0	22.54	19.289	2.297297297	3.648648649	3.648648649
 99	100	75.273	46.886	119.1891892	49.72972973	42.83783784
 100	0	78.618	56.625	29.45945946	46.35135135	37.43243243
 101	51.137	80.627	100	52.43243243	64.59459459	91.35135135
 102	48.446	0	17.864	18.37837838	2.432432432	4.594594595
 103	100	50.023	21.211	103.3783784	25	22.83783784
 104	50.115	20.118	0	21.35135135	4.459459459	4.054054054
 105	58.099	72.426	33.158	51.08108108	38.37837838	25.54054054
 106	19.364	100	50.197	52.7027027	76.21621622	47.7027027
 107	50.683	19.177	100	23.78378378	22.83783784	72.7027027
 108	53.37	0	81.576	23.91891892	13.91891892	45.94594595
 109	47.768	76.245	0	44.05405405	40	20.13513514
 110	0	18.927	55.503	2.027027027	7.027027027	18.64864865
 111	0	13.277	0	0.9459459459	1.216216216	0.6756756757
 112	72.862	72.473	75.625	68.91891892	48.37837838	57.2972973
 113	100	13.904	0	93.10810811	10.40540541	13.91891892
 114	86.349	0	100	67.2972973	25.27027027	77.83783784
 115	100	41.941	100	101.3513514	38.37837838	87.02702703
 116	100	81.785	16.464	124.8648649	54.45945946	35.67567568
 117	0	44.063	52.596	8.648648649	16.21621622	21.35135135
 118	0	0	58.917	0.8108108108	5.540540541	20.13513514
 119	59.25	24.551	29.789	31.21621622	7.702702703	10.54054054
 120	82.73	82.874	100	93.51351351	71.21621622	98.51351351
 121	80.039	0	12.618	55.54054054	5.945945946	9.054054054
 122	60.957	47.729	77.817	40.40540541	27.2972973	48.91891892
 123	100	0	38.618	92.7027027	11.48648649	21.75675676
 124	0	40.09	100	8.513513514	28.51351351	73.37837838
 125	0	15.283	82.322	2.162162162	13.10810811	43.64864865
 126	17.592	81.726	100	35.67567568	64.45945946	89.72972973
 127	100	14.13	100	94.18918919	29.18918919	82.56756757
 128	15.261	100	82.059	52.43243243	84.05405405	76.35135135
 129	47.77	79.418	60.389	47.2972973	50	43.10810811
 130	18.768	16.429	0	3.918918919	2.027027027	1.351351351
 131	55.634	100	65.763	74.72972973	81.48648649	62.56756757
 132	100	100	38.541	143.7837838	83.37837838	54.59459459
 133	17.421	0	83.497	3.648648649	12.2972973	44.59459459
 134	17.237	16.758	100	5.27027027	20.67567568	69.86486486
 135	0	15.067	30.039	1.216216216	2.837837838	5.540540541
 136	0	0	86.505	1.621621622	13.10810811	48.51351351
 137	75.736	72.799	50.02	73.24324324	43.24324324	37.2972973
 138	100	83.323	85.529	127.027027	69.32432432	82.43243243
 139	100	100	64.894	142.8378378	87.7027027	71.62162162
 140	81.98	84.914	0	92.83783784	54.45945946	30.81081081
 141	0	63.757	15.49	18.10810811	26.08108108	13.24324324
 142	49.514	66.135	100	40.40540541	48.64864865	84.18918919
 143	100	0	61.862	93.10810811	15.40540541	35.94594595
 144	24.308	45.41	49.831	13.37837838	16.89189189	20.67567568
 145	15.963	0	17.047	2.162162162	0.8108108108	2.027027027
 146	87.497	100	100	119.4594595	97.02702703	110.8108108
 147	52.099	25.003	75.752	24.72972973	15.54054054	40.54054054
 148	14.909	81.162	0	32.43243243	44.18918919	20.40540541
 149	0	34.792	14.626	5.135135135	7.567567568	4.594594595
 150	48.39	45.075	22.552	26.89189189	14.86486486	11.08108108
 151	83.545	65.965	100	82.02702703	52.7027027	90.27027027
 152	16.226	62.345	0	19.05405405	24.59459459	11.48648649
 153	63.222	0	14.914	32.56756757	3.783783784	6.216216216
 154	80.449	13.446	0	56.35135135	6.891891892	8.648648649
 155	83.917	41.562	0	67.83783784	16.35135135	13.51351351
 156	100	60.448	46.3	109.0540541	35.54054054	36.21621622
 157	15.584	0	34.795	2.162162162	2.027027027	6.891891892
 158	17.144	65.121	100	23.10810811	46.35135135	81.21621622
 159	83.602	55.334	62.667	75	31.62162162	41.08108108
 160	0	82.19	14.22	31.89189189	45.81081081	22.02702703
 161	25.132	74.856	50.616	30.67567568	41.21621622	32.2972973
 162	0	13.769	100	2.567567568	19.86486486	69.32432432
 163	87.181	0	0	67.16216216	6.756756757	9.72972973
 164	0	100	39.19	49.59459459	74.18918919	41.35135135
 165	78.047	65.914	19.865	71.75675676	33.78378378	22.56756757
 166	100	63.961	15.865	111.2162162	35.67567568	26.75675676
 167	100	45.955	36.032	101.0810811	24.05405405	26.35135135
 168	15.926	100	16.89	51.62162162	72.97297297	34.72972973
 169	41.459	100	0	62.43243243	73.64864865	34.59459459
 170	48.707	37.288	48.139	24.72972973	13.91891892	19.72972973
 171	83.381	100	13.285	110.8108108	78.51351351	42.56756757
 172	78.129	25.303	75.621	55.54054054	18.64864865	44.59459459
 173	12.396	0	0	1.351351351	0.2702702703	0.4054054054
 174	37.607	48.336	83.346	21.75675676	27.7027027	52.83783784
 175	35.588	15.356	0	10.54054054	2.567567568	2.297297297
 176	61.245	100	100	81.62162162	93.91891892	105.6756757
 177	100	67.29	87.195	113.7837838	51.75675676	76.08108108
 178	0	0	30.615	0.4054054054	1.486486486	5.135135135
 179	35.187	81.789	83.323	41.89189189	57.97297297	66.35135135
 180	39.525	80.194	22.879	41.75675676	45	24.18918919
 181	50.634	34.593	0	25.27027027	9.189189189	6.351351351
 182	14.175	100	63.146	51.89189189	79.05405405	57.02702703
 183	83.493	17.728	34.574	61.89189189	9.72972973	16.21621622
 184	23.463	22.014	79.943	7.297297297	14.32432432	42.16216216
 185	18.066	31.847	0	6.756756757	6.351351351	3.243243243
 186	87.201	100	81.361	117.2972973	90	84.72972973
 187	0	100	87.95	50.94594595	85.94594595	83.37837838
 188	34.476	17.888	46.22	10.54054054	6.216216216	14.18918919
 189	18.277	0	67.39	3.378378378	7.702702703	27.56756757
 190	100	87.972	0	130.8108108	62.2972973	37.7027027
 191	82.925	34.85	100	66.08108108	31.75675676	80.27027027
 192	0	88.016	100	38.78378378	72.16216216	92.83783784
 193	36.104	85.655	100	46.21621622	70.13513514	92.7027027
 194	60.981	0	0	30	3.108108108	4.459459459
 195	51.466	61.826	78.106	38.51351351	36.62162162	52.7027027
 196	78.427	31.983	22.175	55.81081081	12.02702703	12.97297297
 197	66.017	44.321	0	43.91891892	15.54054054	10.67567568
 198	83.941	0	84.177	62.43243243	18.64864865	54.32432432
 199	20.158	46.612	23.269	12.2972973	14.32432432	9.459459459
 200	0	100	62.618	50	78.24324324	55.81081081
 201	33.832	0	13.933	8.648648649	1.351351351	2.567567568
 202	100	17.286	16.322	93.24324324	11.35135135	15.67567568
 203	0	42.204	83.926	8.648648649	23.24324324	50.54054054
 204	0	87.774	0	36.62162162	52.56756757	24.05405405
 205	64.988	0	59.017	35	9.054054054	25.40540541
 206	14.677	0	100	3.513513514	18.78378378	68.51351351
 207	88.934	82.673	35.021	101.6216216	54.45945946	37.83783784
 208	0	63.778	100	19.72972973	44.45945946	80
 209	83.429	17.674	100	63.37837838	26.62162162	78.10810811
 210	30.899	100	85.668	57.43243243	85.81081081	81.08108108
 211	83.68	0	41.016	60.54054054	8.783783784	18.24324324
 212	100	63.515	0	109.7297297	34.59459459	25
 213	85.074	69.987	0	85.13513514	37.83783784	23.51351351
 214	20.801	45.524	69.018	12.83783784	20.94594595	35
 215	21.382	82.482	73.017	36.21621622	55.13513514	54.72972973
 216	100	15.128	64.249	93.24324324	17.2972973	38.64864865
 217	36.522	0	58.427	10.67567568	6.486486486	21.21621622
 218	22.466	81.296	33.007	34.86486486	46.75675676	26.89189189
 219	62.531	87.152	0	67.43243243	55.40540541	28.37837838
 220	84.12	85.397	67.886	96.75675676	63.51351351	59.72972973
 221	18.87	27.336	45.389	6.216216216	7.837837838	14.05405405
 222	66.439	100	14.444	85.81081081	75.94594595	39.05405405
 223	41.636	22.147	19.003	15.40540541	4.864864865	5.405405405
 224	61.271	100	81.94	81.08108108	86.89189189	80.13513514
 225	86.013	100	0	114.4594595	78.51351351	42.16216216
 226	37.57	0	0	10.54054054	1.216216216	1.756756757
 227	100	16.132	84.102	93.64864865	23.24324324	59.45945946
 228	0	100	13.619	49.45945946	72.16216216	33.78378378
 229	38.905	100	56.471	61.48648649	78.51351351	53.24324324
 230	100	15.382	34.563	93.24324324	12.43243243	20.67567568
 231	36.656	14.908	100	12.83783784	21.21621622	70.67567568
 232	0	62.593	66.608	17.97297297	32.02702703	37.83783784
 233	66.347	12.528	100	38.64864865	23.37837838	74.05405405
 234	100	43.375	69.233	100.2702703	28.51351351	47.83783784
 235	100	56.36	61.236	105.8108108	34.86486486	44.72972973
 236	0	86.194	44.955	35.40540541	53.64864865	34.45945946
 237	64.527	87.262	100	71.21621622	74.05405405	97.16216216
 238	34.411	0	42.471	9.054054054	3.783783784	11.48648649
 239	80.23	59.707	85.12	71.75675676	41.08108108	65.54054054
 240	20.625	19.056	14.791	4.864864865	2.972972973	2.837837838
 241	15.341	34.221	100	8.513513514	25.81081081	71.75675676
 242	36.777	0	87.905	11.48648649	14.72972973	51.89189189
 243	34.598	56.247	100	24.59459459	39.45945946	79.05405405
 244	20.86	67.629	17.418	23.91891892	30.27027027	15.67567568
 245	44.958	60.843	18.054	31.75675676	25.40540541	14.86486486
 246	37.421	60.193	0	26.48648649	23.78378378	12.02702703
 247	84.011	33.849	42.612	66.62162162	15.81081081	22.2972973
 248	17.241	60.339	37.743	18.37837838	25.27027027	18.78378378
 249	50.65	17.261	53.278	22.16216216	8.378378378	20
 250	45.505	48.926	65.152	26.89189189	23.24324324	34.59459459
 251	44.567	84.081	39.649	48.24324324	51.89189189	32.83783784
 252	100	86.339	72.054	128.3783784	68.91891892	68.51351351
 253	68.14	61.135	0	54.05405405	27.16216216	16.21621622
 254	17.93	66.986	81.403	23.64864865	40.40540541	55.94594595
 255	39.242	60.215	48.926	28.10810811	27.83783784	25.81081081
 256	20.099	18.77	62.967	5.27027027	8.918918919	24.86486486
 257	34.553	100	14.582	58.10810811	72.7027027	35.27027027
 258	87.345	0	66.694	67.16216216	14.05405405	36.62162162
 259	0	43.714	39.842	8.378378378	14.05405405	14.18918919
 260	100	37.705	13.955	97.83783784	18.10810811	18.37837838
 261	31.265	86.993	0	42.7027027	52.02702703	24.59459459
 262	51.402	82.661	81.338	53.10810811	59.45945946	66.08108108
 263	100	100	12.984	141.8918919	81.35135135	47.2972973
 264	0	37.859	0	6.081081081	8.513513514	4.054054054
 265	62.092	58.215	100	47.83783784	43.10810811	82.97297297
 266	86.186	100	64.1	114.4594595	85.13513514	66.89189189
 267	100	35.251	85.898	98.24324324	29.59459459	64.59459459
 268	63.182	89.992	41.974	71.08108108	61.89189189	40.27027027
 269	13.504	100	0	50.81081081	72.43243243	32.97297297
 270	100	0	13.228	91.89189189	9.459459459	14.32432432
 271	63.881	40.826	100	41.48648649	32.2972973	77.97297297
 272	69.387	84.838	20.792	73.64864865	53.78378378	30.40540541
 273	0	70.279	45.136	22.83783784	35.40540541	26.21621622
 274	79.094	64.754	40.908	72.02702703	34.86486486	29.45945946
 275	62.385	54.099	17.396	43.78378378	21.62162162	14.59459459
 276	64.408	14.621	0	34.59459459	4.864864865	5.675675676
 277	70.028	15.606	44.651	41.75675676	8.648648649	17.83783784
 278	0	63.544	0	17.97297297	25.67567568	11.75675676
 279	83.475	47.274	20.502	69.32432432	20.27027027	17.2972973
 280	55.866	0	32.671	25	4.189189189	9.459459459
 281	58.007	0	100	28.64864865	21.35135135	72.7027027
 282	100	0	87.698	92.56756757	22.83783784	63.37837838
 283	0	13.792	67.215	1.621621622	8.648648649	27.56756757
 284	84.123	17.001	58.549	62.43243243	13.37837838	29.86486486
 285	59.579	32.873	15.966	32.7027027	9.594594595	8.513513514
 286	10.41	32.998	28.659	5.675675676	7.837837838	7.702702703
 287	17.231	40.031	85.65	10.13513514	22.83783784	52.2972973
 288	37.568	41.561	10.108	17.7027027	11.48648649	7.027027027
 289	0	69.015	85.092	22.56756757	43.10810811	60.40540541
 290	14.442	100	36.187	51.21621622	73.91891892	40.27027027
 291	100	40.549	0	98.78378378	19.05405405	17.83783784
 292	82.143	45.435	78.429	67.2972973	28.91891892	52.83783784
 293	52.674	0	67.3	22.83783784	9.72972973	30.54054054
 294	0	87.868	66.793	37.56756757	60.54054054	51.35135135
 295	86.53	100	40.524	115.8108108	80.94594595	51.48648649
 296	71.777	85.586	67.232	78.51351351	62.02702703	56.21621622
 297	43.216	100	31.671	63.64864865	74.86486486	40.40540541
 298	39.245	32.908	85.845	17.43243243	20.54054054	52.2972973
 299	0	45.662	67.543	9.594594595	20.40540541	33.51351351
 300	12.161	100	100	52.43243243	90.81081081	100.9459459
 301	67.049	0	85.516	37.83783784	16.62162162	52.97297297
 302	100	89.041	100	132.1621622	82.7027027	107.1621622
 303	20.246	60.698	56.526	19.59459459	28.64864865	29.86486486
 304	52.177	55.457	40.416	35	23.91891892	21.21621622
 305	72.617	87.018	83.932	80.81081081	68.37837838	75.67567568
 306	40.512	16.723	66.475	14.45945946	10.27027027	29.32432432
 307	68.507	49.232	50.605	49.05405405	22.83783784	27.43243243
 308	65.622	100	54.525	85.27027027	80.13513514	55
 309	54.115	37.24	66.394	29.45945946	17.83783784	33.78378378
 310	100	76.138	31.267	119.7297297	49.18918919	36.35135135
 311	54.728	65.623	0	42.7027027	29.86486486	16.08108108
 312	63.126	12.526	64.37	33.37837838	11.08108108	30
 313	72.827	18.08	23.704	45.40540541	7.297297297	10.54054054
 314	23.268	15.278	34.947	5.405405405	3.783783784	8.108108108
 315	87.648	68.954	59.645	89.18918919	43.10810811	44.86486486
 316	0	85.595	85.198	36.08108108	62.83783784	69.86486486
 317	35.798	84.371	69.21	43.91891892	57.16216216	52.7027027
 318	36.062	47.494	35.919	19.45945946	16.89189189	14.86486486
 319	86.083	36.277	59.152	70.67567568	19.86486486	33.64864865
 320	58.21	100	30.361	76.35135135	75.94594595	41.75675676
 321	46.745	14.614	32.317	18.10810811	4.72972973	8.918918919
 322	81.573	73.869	86.954	83.64864865	55	74.05405405
 323	85.991	49.387	48.206	75	24.86486486	29.32432432
 324	28.062	87.906	19.654	42.56756757	54.32432432	27.16216216
 325	68.992	17.993	85.124	41.62162162	18.64864865	53.78378378
 326	100	66.147	100	112.4324324	56.08108108	94.18918919
 327	33.358	64.806	84.517	28.37837838	40.40540541	59.18918919
 328	41.351	17.736	80.522	15.40540541	14.45945946	44.05405405
 329	100	100	88.719	143.6486486	95	97.83783784
 330	66.336	0	44.32	36.48648649	6.756756757	16.48648649
 331	64.85	67.09	12.293	54.05405405	32.56756757	19.05405405
 332	15.262	31.268	63.277	6.486486486	12.43243243	26.75675676
 333	15.008	43.663	37.3	10	13.91891892	13.37837838
 334	0	57.895	38.078	14.72972973	23.10810811	17.7027027
 335	66.599	58.458	67.871	51.62162162	32.83783784	43.10810811
 336	59.191	18.651	15.215	29.45945946	5.405405405	6.486486486
 337	66.781	31.14	84.629	41.62162162	22.02702703	54.32432432
 338	88.033	85.158	52.14	102.5675676	60.54054054	48.24324324
 339	36.882	100	100	61.35135135	91.62162162	102.4324324
 340	26.102	33.094	17.006	9.594594595	7.432432432	5.405405405
 341	56.309	36.861	35.862	30.67567568	12.43243243	14.45945946
 342	45.839	65.587	67.033	35.81081081	36.62162162	41.75675676
 343	83.709	81.172	16.406	91.35135135	50.67567568	30.27027027
 344	0	48.132	13.005	9.864864865	14.45945946	7.567567568
 345	87.176	50.021	100	78.78378378	40.94594595	85.40540541
 346	51.219	84.244	13.73	53.37837838	50.40540541	25.94594595
 347	60.606	71.415	48.406	52.56756757	39.86486486	32.97297297
 348	0	11.359	12.718	0.8108108108	1.216216216	1.621621622
 349	86.429	49.705	33.145	75.81081081	23.24324324	22.2972973
 350	34.056	40.958	100	17.2972973	29.86486486	74.18918919
 351	100	30.557	59.628	95.94594595	20.54054054	37.02702703
 352	88.497	26.902	13.449	71.89189189	11.48648649	12.97297297
 353	14.167	51.98	88.218	14.45945946	30.81081081	58.10810811
 354	13.784	12.983	49.37	2.837837838	5.135135135	14.59459459
 355	15.018	88.441	48.062	39.18918919	57.02702703	37.83783784
 356	87.79	25.769	89.215	71.35135135	24.86486486	63.64864865
 357	0	33.206	55.865	5.135135135	11.48648649	21.08108108
 358	74.324	76.029	35.536	72.7027027	44.45945946	30.94594595
 359	65.863	57.223	42.324	49.32432432	26.48648649	24.32432432
 360	30.893	54.646	13.136	19.86486486	19.45945946	10.67567568
 361	0	34.36	28.321	5	8.243243243	7.567567568
 362	15.443	77.087	85.116	30.27027027	52.16216216	64.86486486
 363	63.381	68.947	68.521	53.91891892	41.62162162	47.2972973
 364	69.733	27.566	42.917	43.10810811	11.35135135	18.24324324
 365	32.754	100	42.76	57.02702703	75.67567568	44.05405405
 366	47.096	29.481	34.829	21.08108108	8.783783784	11.48648649
 367	8.5451	71.948	62.695	24.86486486	40.13513514	38.64864865
 368	0	86.048	29.3	35.27027027	51.75675676	27.56756757
 369	53.697	51.572	85.367	35	31.48648649	57.83783784
 370	17.608	56.69	12.515	16.21621622	20.54054054	10.40540541
 371	90.638	14.414	49.227	73.78378378	12.43243243	25
 372	63.248	63.64	89.55	51.35135135	43.24324324	68.78378378
 373	100	85.976	58.455	127.972973	65.27027027	56.35135135
 374	9.8311	28.027	7.5567	4.189189189	4.864864865	2.837837838
 375	89.831	64.313	69.506	90.27027027	41.21621622	51.75675676
 376	31.754	12.995	25.543	8.243243243	2.972972973	5.27027027
 377	75.914	45.966	64.957	57.56756757	24.72972973	38.24324324
 378	7.5735	50.695	58.941	12.02702703	21.62162162	27.7027027
 379	100	69.835	58.912	114.5945946	46.21621622	48.24324324
 380	32.211	34.376	48.339	12.97297297	11.48648649	17.7027027
 381	13.901	12.159	73.555	3.243243243	10.27027027	34.05405405
 382	87.071	9.028	77.653	68.10810811	17.7027027	48.24324324
 383	23.272	85.409	84.29	39.45945946	62.2972973	68.51351351
 384	93.289	39.48	26.145	83.37837838	17.97297297	19.05405405
 385	65.769	59.63	30.967	50.81081081	27.43243243	20.54054054
 386	100	32.265	41.803	95.67567568	18.10810811	25.94594595
 387	86.568	85.281	86.961	100.5405405	69.18918919	81.35135135
 388	52.577	86.83	30.016	57.43243243	54.86486486	31.48648649
 389	47.921	40.199	76.902	25.54054054	21.75675676	44.45945946
 390	22.36	86.619	61.58	39.72972973	57.43243243	46.35135135
 391	52.232	33.601	88.787	27.56756757	22.97297297	58.10810811
 392	0	28.523	86.267	4.594594595	17.83783784	50.27027027
 393	43.497	67.879	39.551	35.27027027	33.64864865	24.32432432
 394	39.877	45.261	0	20.67567568	13.64864865	7.567567568
 395	86.94	12.43	24.699	66.75675676	8.648648649	13.37837838
 396	28.363	55.339	90.398	20.67567568	34.59459459	63.51351351
 397	39.018	70.534	57.879	34.18918919	38.51351351	35.81081081
 398	12.833	28.519	78.828	5.675675676	15.54054054	41.75675676
 399	68.35	31.815	69.975	43.37837838	18.10810811	38.24324324
 400	56.52	26.226	41.626	28.51351351	9.324324324	15.40540541
 401	12.938	46.218	0	10.27027027	13.10810811	6.216216216
 402	8.6938	60.179	26.117	16.62162162	23.78378378	14.18918919
 403	51.995	89.429	96.608	60.40540541	74.18918919	91.08108108
 404	46.905	47.746	48.909	26.89189189	19.45945946	22.56756757
 405	14.352	81.814	19.479	32.83783784	45.40540541	22.83783784
 406	71.482	38.117	12.273	48.37837838	13.24324324	11.08108108
 407	86.616	60.785	10.012	81.08108108	30.13513514	20.81081081
 408	71.811	88.979	52.186	80.94594595	62.83783784	46.48648649
 409	43.213	100	72.083	64.59459459	82.2972973	66.75675676
 410	73.92	23.444	8.2853	47.7027027	7.972972973	8.648648649
 411	40.629	85.534	53.423	47.02702703	55.67567568	40.94594595
 412	38.955	52.128	22.885	23.10810811	18.64864865	12.2972973
 413	46.48	12.229	8.6707	17.2972973	2.972972973	3.648648649
