data/calibration-001708.ti3
CTI3   
ORIGINATOR	"ColorHug Factory"
CREATED	"Wed Feb 20 20:07:23 2013"
DESCRIPTOR	"Calibration Target chart information 3"
DEVICE_CLASS	"DISPLAY"
COLOR_REP	"RGB_XYZ"
TARGET_INSTRUMENT	"Hughski ColorHug"
INSTRUMENT_TYPE_SPECTRAL	"NO"
NORMALIZED_TO_Y_100	"NO"
NUMBER_OF_FIELDS	7
NUMBER_OF_SETS	15
BEGIN_DATA_FORMAT
 SAMPLE_ID	RGB_R	RGB_G	RGB_B	XYZ_X	XYZ_Y	XYZ_Z
END_DATA_FORMAT
BEGIN_DATA
 1	0	0	0	0	0.04577636719	0.09155273438
 2	1	1	1	41.4276123	40.96984863	51.72729492
 3	1	0	0	24.62768555	3.021240234	4.028320312
 4	0	1	0	14.5111084	28.51867676	13.22937012
 5	0	0	1	0.9155273438	8.972167969	34.19494629
 6	0	0	0	0	0.04577636719	0.09155273438
 7	1	1	1	41.24450684	40.92407227	51.68151855
 8	1	0	0	24.49035645	2.975463867	3.982543945
 9	0	1	0	14.41955566	28.47290039	13.18359375
 10	0	0	1	0.9155273438	8.972167969	34.05761719
 11	0	0	0	0	0.04577636719	0.09155273438
 12	1	1	1	41.33605957	40.83251953	51.13220215
 13	1	0	0	24.58190918	2.975463867	3.982543945
 14	0	1	0	14.41955566	28.38134766	13.13781738
 15	0	0	1	0.9155273438	8.972167969	33.92028809
END_DATA
