data/calibration-000055.ti3
CTI3
DESCRIPTOR	"Calibration Target chart information 3"
ORIGINATOR	"ColorHug Factory"
DEVICE_CLASS	"DISPLAY"
COLOR_REP	"RGB_XYZ"
TARGET_INSTRUMENT	"ColorHug"
INSTRUMENT_TYPE_SPECTRAL	"NO"
LUMINANCE_XYZ_CDM2	"49.026489 36.117554 43.292999"
NORMALIZED_TO_Y_100	"YES"
NUMBER_OF_FIELDS	7
NUMBER_OF_SETS	836
BEGIN_DATA_FORMAT
 SAMPLE_ID	RGB_R	RGB_G	RGB_B	XYZ_X	XYZ_Y	XYZ_Z
END_DATA_FORMAT
BEGIN_DATA
 1	100	100	100	133.8403042	100	119.8986058
 2	100	100	100	136.3751584	100	119.7718631
 3	100	100	100	136.3751584	100	119.7718631
 4	100	100	100	136.3751584	100	120.0253485
 5	33.33	32.622	30.968	9.885931559	7.224334601	7.984790875
 6	100	0	100	85.93155894	27.12294043	83.90367554
 7	100	100	0	134.9809886	81.62230672	49.55640051
 8	0	100	100	48.03548796	91.25475285	105.7034221
 9	0	100	0	46.00760456	72.75031686	35.36121673
 10	0	0	100	2.78833967	18.75792142	70.46894804
 11	100	0	0	83.90367554	8.745247148	14.06844106
 12	0	0	0	39.54372624	0.6337135615	0.7604562738
 13	0	52.455	100	11.66032953	33.58681876	77.94676806
 14	100	0	50.3	84.66413181	11.91381496	26.48922687
 15	100	54.739	100	97.84537389	43.47275032	92.39543726
 16	100	52.128	0	94.42332066	22.94043093	21.03929024
 17	0	0	46.181	0.8871989861	3.168567807	10.2661597
 18	0	51.141	0	9.37896071	14.19518378	7.224334601
 19	0	100	51.348	46.00760456	76.17237009	48.16223067
 20	100	100	52.037	134.8542459	84.91761724	62.99112801
 21	49.216	0	0	26.36248416	2.154626109	3.041825095
 22	56.159	100	0	66.41318124	74.77820025	38.78326996
 23	49.226	100	100	63.11787072	92.7756654	107.8580482
 24	44.487	0	100	13.94169835	20.02534854	72.62357414
 25	100	44.498	52.029	90.87452471	22.05323194	32.06590621
 26	48.926	48.544	100	25.22179975	32.44613435	79.21419518
 27	51.368	100	47.25	62.8643853	77.05956907	48.66920152
 28	49.893	0	49.033	16.34980989	5.196451204	14.57541191
 29	53.109	51.372	0	26.48922687	15.96958175	10.01267427
 30	0	58.587	53.943	13.18124208	23.32065906	24.08111534
 31	100	28.065	100	88.21292776	30.79847909	86.31178707
 32	0	0	72.874	1.520912548	8.365019011	30.29150824
 33	0	26.758	100	4.43599493	22.05323194	72.49683143
 34	0	25.426	0	2.534854246	3.422053232	2.154626109
 35	72.508	0	100	40.1774398	22.6869455	77.43979721
 36	100	27.395	0	87.19898606	12.04055767	15.71609632
 37	74.47	100	100	90.49429658	95.56400507	112.8010139
 38	100	0	25.728	84.91761724	9.505703422	16.85678074
 39	73.862	0	0	42.20532319	4.562737643	7.097591888
 40	100	100	25.402	132.4461343	81.62230672	51.83776933
 41	0	75.751	100	26.10899873	54.87959442	87.95944233
 42	0	75.172	0	23.06717364	35.48795944	17.4904943
 43	0	100	25.864	45.62737643	73.76425856	38.02281369
 44	100	0	74.801	84.41064639	17.23700887	46.13434728
 45	0	100	75.421	51.20405577	81.74904943	68.82129278
 46	24.577	0	0	7.858048162	0.8871989861	1.267427123
 47	26.321	100	0	49.04942966	72.87705957	35.86818758
 48	100	75.835	0	109.3789607	44.61343473	31.68567807
 49	100	100	77.061	133.9670469	90.747782	84.41064639
 50	71.263	100	0	97.9721166	76.42585551	41.1913815
 51	0	0	15.614	0.8871989861	0.8871989861	1.64765526
 52	0	30.049	70.936	3.929024081	11.91381496	30.67173638
 53	100	77.691	100	112.6742712	65.65272497	103.1685678
 54	24.486	100	100	54.11913815	91.7617237	106.3371356
 55	100	62.784	31.909	99.61977186	32.69961977	29.40430925
 56	29.552	0	100	19.13814956	19.26489227	71.73637516
 57	32.98	70.921	100	27.8833967	49.68314322	86.69201521
 58	0	27.681	40.241	3.168567807	5.956907478	9.37896071
 59	67.901	71.021	100	54.626109	52.47148289	91.38149556
 60	28.154	100	67.829	50.82382763	79.72116603	61.8504436
 61	71.637	100	70.001	85.93155894	83.77693283	69.20152091
 62	58.822	58.763	53.586	42.20532319	25.60202788	27.62991128
 63	33.466	30.48	0	9.37896071	5.323193916	3.675538657
 64	100	73.795	71.277	107.3510773	50.31685678	59.56907478
 65	68.394	29.692	0	36.62864385	7.858048162	7.858048162
 66	70.399	0	29.039	36.50190114	5.196451204	10.01267427
 67	28.078	0	26.956	4.942965779	1.901140684	4.43599493
 68	28.532	72.339	0	25.09505703	32.19264892	16.4765526
 69	100	30.941	26.496	87.19898606	13.94169835	19.13814956
 70	34.597	0	73.611	8.491761724	9.252217997	32.44613435
 71	71.573	0	72.408	38.27629911	12.04055767	36.24841572
 72	0	71.029	29.412	20.40557668	31.9391635	19.01140684
 73	68.386	75.008	0	56.40050697	38.78326996	22.81368821
 74	68.088	27.309	100	37.38910013	25.60202788	78.20025349
 75	100	26.457	73.749	87.19898606	20.27883397	47.27503169
 76	74.344	100	27.392	88.84664132	77.94676806	45.62737643
 77	27.558	100	28.197	50.82382763	74.01774398	39.03675539
 78	31.196	27.465	100	11.15335868	22.81368821	73.51077313
 79	0	75.521	72.824	23.95437262	44.10646388	48.03548796
 80	0	50.93	25.553	9.252217997	14.70215463	9.885931559
 81	32.06	33.584	64.033	9.885931559	12.04055767	25.85551331
 82	81.666	55.38	0	62.35741445	22.17997465	16.85678074
 83	68.257	32.751	58.286	38.02281369	13.4347275	25.85551331
 84	0	55.248	81.585	12.4207858	27.50316857	48.66920152
 85	73.781	52.099	100	52.09125475	37.38910013	84.79087452
 86	100	50.537	82.952	94.55006337	33.07984791	62.73764259
 87	23.55	0	50.439	42.58555133	4.055766793	13.18124208
 88	31.335	62.746	31.114	20.53231939	24.7148289	16.4765526
 89	100	18.31	49.418	85.42458809	13.4347275	26.74271229
 90	26.498	48.404	0	16.98352345	12.54752852	6.970849176
 91	47.91	100	85.744	60.96324461	86.18504436	83.26996198
 92	71.829	47.313	31.811	46.00760456	16.73003802	16.4765526
 93	31.304	64.132	69.316	21.79974651	31.9391635	39.79721166
 94	80.403	0	54.321	50.31685678	9.37896071	23.32065906
 95	18.455	50.036	100	13.18124208	32.06590621	77.56653992
 96	50.653	100	16.345	62.35741445	75.03168568	39.1634981
 97	80.121	100	52.261	96.70468948	81.36882129	56.52724968
 98	0	22.54	19.289	2.915082383	3.422053232	3.422053232
 99	100	75.273	46.886	107.47782	46.76806084	41.69835234
 100	0	78.618	56.625	31.43219265	43.85297845	35.86818758
 101	51.137	80.627	100	43.97972117	61.59695817	93.91634981
 102	48.446	0	17.864	14.70215463	2.408111534	4.309252218
 103	100	50.023	21.211	92.26869455	22.30671736	22.43346008
 104	50.115	20.118	0	17.23700887	4.055766793	4.055766793
 105	58.099	72.426	33.158	42.07858048	35.48795944	24.20785805
 106	19.364	100	50.197	47.02154626	75.53865653	47.65525982
 107	50.683	19.177	100	19.77186312	22.17997465	74.14448669
 108	53.37	0	81.576	19.64512041	12.80101394	43.85297845
 109	47.768	76.245	0	37.38910013	37.76932826	20.27883397
 110	0	18.927	55.503	2.154626109	6.337135615	16.73003802
 111	0	13.277	0	1.140684411	1.394169835	1.013941698
 112	72.862	72.473	75.625	61.21673004	44.61343473	55.25982256
 113	100	13.904	0	84.28390368	9.632446134	14.32192649
 114	86.349	0	100	78.70722433	24.58808619	80.35487959
 115	100	41.941	100	92.01520913	35.74144487	87.83269962
 116	100	81.785	16.464	114.3219265	51.83776933	35.99493029
 117	0	44.063	52.596	7.097591888	13.68821293	18.75792142
 118	0	0	58.917	1.140684411	5.196451204	18.37769328
 119	59.25	24.551	29.789	26.10899873	6.717363752	9.37896071
 120	82.73	82.874	100	82.88973384	68.31432193	101.0139417
 121	80.039	0	12.618	49.04942966	5.576679341	9.125475285
 122	60.957	47.729	77.817	34.09378961	23.95437262	45.88086185
 123	100	0	38.618	83.90367554	10.51964512	20.6590621
 124	0	40.09	100	7.604562738	26.61596958	74.2712294
 125	0	15.283	82.322	2.281368821	12.04055767	41.44486692
 126	17.592	81.726	100	31.17870722	62.35741445	92.39543726
 127	100	14.13	100	85.17110266	28.01013942	84.41064639
 128	15.261	100	82.059	48.03548796	83.14321926	76.17237009
 129	47.77	79.418	60.389	40.30418251	47.02154626	41.31812421
 130	18.768	16.429	0	3.548795944	2.027883397	1.520912548
 131	55.634	100	65.763	65.90621039	80.98859316	62.61089987
 132	100	100	38.541	124.9683143	82.88973384	56.14702155
 133	17.421	0	83.497	15.96958175	11.66032953	42.71229404
 134	17.237	16.758	100	4.689480355	20.27883397	71.22940431
 135	0	15.067	30.039	1.394169835	2.661596958	4.942965779
 136	0	0	86.505	2.027883397	12.54752852	46.76806084
 137	75.736	72.799	50.02	64.00506971	40.05069708	35.10773131
 138	100	83.323	85.529	109.6324461	65.90621039	81.74904943
 139	100	100	64.894	133.9670469	87.5792142	72.62357414
 140	81.98	84.914	0	89.60709759	52.09125475	31.55893536
 141	0	63.757	15.49	24.08111534	23.95437262	12.80101394
 142	49.514	66.135	100	33.84030418	45.88086185	85.67807351
 143	100	0	61.862	84.28390368	14.06844106	34.34727503
 144	24.308	45.41	49.831	12.16730038	14.19518378	17.87072243
 145	15.963	0	17.047	2.027883397	1.013941698	2.154626109
 146	87.497	100	100	110.5196451	97.33840304	115.3358682
 147	52.099	25.003	75.752	21.03929024	13.81495564	38.1495564
 148	14.909	81.162	0	28.13688213	42.45880862	20.91254753
 149	0	34.792	14.626	4.309252218	6.337135615	4.309252218
 150	48.39	45.075	22.552	21.03929024	12.4207858	9.885931559
 151	83.545	65.965	100	73.51077313	49.93662864	91.88846641
 152	16.226	62.345	0	16.09632446	22.43346008	11.40684411
 153	63.222	0	14.914	28.13688213	3.548795944	5.956907478
 154	80.449	13.446	0	49.17617237	6.210392902	8.871989861
 155	83.917	41.562	0	58.17490494	14.06844106	13.30798479
 156	100	60.448	46.3	98.35234474	32.06590621	34.34727503
 157	15.584	0	34.795	10.64638783	2.027883397	5.830164766
 158	17.144	65.121	100	19.64512041	43.47275032	82.88973384
 159	83.602	55.334	62.667	62.8643853	28.13688213	38.40304183
 160	0	82.19	14.22	28.13688213	43.47275032	22.17997465
 161	25.132	74.856	50.616	26.74271229	38.78326996	30.29150824
 162	0	13.769	100	2.915082383	19.64512041	70.97591888
 163	87.181	0	0	60.45627376	6.463878327	10.13941698
 164	0	100	39.19	48.66920152	74.14448669	42.07858048
 165	78.047	65.914	19.865	63.11787072	30.67173638	21.92648923
 166	100	63.961	15.865	101.2674271	32.82636248	26.61596958
 167	100	45.955	36.032	93.53612167	20.91254753	24.7148289
 168	15.926	100	16.89	47.14828897	72.87705957	36.50190114
 169	41.459	100	0	55.6400507	73.25728771	36.62864385
 170	48.707	37.288	48.139	19.51837769	11.40684411	16.98352345
 171	83.381	100	13.285	101.6476553	78.3269962	44.61343473
 172	78.129	25.303	75.621	50.57034221	16.60329531	42.45880862
 173	12.396	0	0	1.394169835	0.7604562738	0.8871989861
 174	37.607	48.336	83.346	17.11026616	24.33460076	49.68314322
 175	35.588	15.356	0	8.111533587	2.408111534	2.281368821
 176	61.245	100	100	72.49683143	93.66286439	109.7591888
 177	100	67.29	87.195	103.6755387	48.16223067	75.15842839
 178	0	0	30.615	0.7604562738	1.64765526	4.562737643
 179	35.187	81.789	83.323	35.36121673	55.13307985	64.63878327
 180	39.525	80.194	22.879	35.61470215	42.58555133	23.95437262
 181	50.634	34.593	0	20.15209125	7.73130545	5.956907478
 182	14.175	100	63.146	47.27503169	78.20025349	56.78073511
 183	83.493	17.728	34.574	54.37262357	8.618504436	14.95564005
 184	23.463	22.014	79.943	6.210392902	12.92775665	39.67046895
 185	18.066	31.847	0	5.449936629	5.323193916	3.29531052
 186	87.201	100	81.361	108.9987326	88.97338403	85.29784537
 187	0	100	87.95	47.27503169	85.42458809	84.15716096
 188	34.476	17.888	46.22	8.111533587	5.323193916	12.16730038
 189	18.277	0	67.39	3.041825095	7.224334601	25.7287706
 190	100	87.972	0	119.391635	60.20278834	39.29024081
 191	82.925	34.85	100	59.18884664	29.9112801	82.38276299
 192	0	88.016	100	40.68441065	69.96197719	95.43726236
 193	36.104	85.655	100	40.05069708	67.68060837	95.31051965
 194	60.981	0	0	25.47528517	3.041825095	4.689480355
 195	51.466	61.826	78.106	31.9391635	33.07984791	49.93662864
 196	78.427	31.983	22.175	49.68314322	10.39290241	12.4207858
 197	66.017	44.321	0	38.78326996	13.30798479	10.2661597
 198	83.941	0	84.177	55.51330798	17.36375158	52.5982256
 199	20.158	46.612	23.269	9.759188847	12.16730038	8.491761724
 200	0	100	62.618	44.48669202	78.07351077	55.89353612
 201	33.832	0	13.933	9.759188847	1.520912548	2.408111534
 202	100	17.286	16.322	83.65019011	10.39290241	15.71609632
 203	0	42.204	83.926	7.984790875	20.53231939	48.4157161
 204	0	87.774	0	32.82636248	50.95057034	25.09505703
 205	64.988	0	59.017	30.16476553	8.238276299	23.44740177
 206	14.677	0	100	3.422053232	18.88466413	70.84917617
 207	88.934	82.673	35.021	91.25475285	51.45754119	37.26235741
 208	0	63.778	100	17.87072243	42.20532319	82.38276299
 209	83.429	17.674	100	55.89353612	25.47528517	79.97465146
 210	30.899	100	85.668	52.09125475	84.91761724	82.12927757
 211	83.68	0	41.016	52.09125475	7.858048162	16.73003802
 212	100	63.515	0	95.18377693	31.55893536	25.22179975
 213	85.074	69.987	0	76.04562738	35.10773131	23.82762991
 214	20.801	45.524	69.018	23.7008872	18.12420786	32.44613435
 215	21.382	82.482	73.017	31.68567807	52.47148289	53.23193916
 216	100	15.128	64.249	84.91761724	15.58935361	36.50190114
 217	36.522	0	58.427	13.05449937	5.830164766	19.01140684
 218	22.466	81.296	33.007	30.16476553	43.97972117	25.98225602
 219	62.531	87.152	0	56.40050697	53.73891001	29.27756654
 220	84.12	85.397	67.886	87.45247148	60.07604563	58.55513308
 221	18.87	27.336	45.389	5.069708492	6.717363752	12.04055767
 222	66.439	100	14.444	77.05956907	75.66539924	41.1913815
 223	41.636	22.147	19.003	14.95564005	4.309252218	4.942965779
 224	61.271	100	81.94	72.75031686	85.17110266	79.84790875
 225	86.013	100	0	106.590621	78.83396705	44.74017744
 226	37.57	0	0	8.238276299	1.394169835	1.901140684
 227	100	16.132	84.102	84.79087452	21.29277567	58.17490494
 228	0	100	13.619	49.55640051	72.62357414	35.61470215
 229	38.905	100	56.471	54.75285171	77.82002535	53.10519645
 230	100	15.382	34.563	83.77693283	11.15335868	19.64512041
 231	36.656	14.908	100	10.39290241	20.6590621	72.87705957
 232	0	62.593	66.608	15.4626109	29.27756654	35.74144487
 233	66.347	12.528	100	33.71356147	22.6869455	76.04562738
 234	100	43.375	69.233	91.00126743	25.09505703	45.50063371
 235	100	56.36	61.236	96.32446134	31.30544994	42.58555133
 236	0	86.194	44.955	36.37515843	51.45754119	33.58681876
 237	64.527	87.262	100	63.75158428	72.24334601	100.1267427
 238	34.411	0	42.471	7.224334601	3.422053232	9.759188847
 239	80.23	59.707	85.12	63.62484157	37.00887199	63.11787072
 240	20.625	19.056	14.791	21.41951838	2.78833967	2.78833967
 241	15.341	34.221	100	7.224334601	24.46134347	73.89100127
 242	36.777	0	87.905	9.125475285	13.94169835	50.19011407
 243	34.598	56.247	100	20.15209125	36.75538657	80.48162231
 244	20.86	67.629	17.418	20.53231939	28.13688213	15.33586819
 245	44.958	60.843	18.054	25.85551331	22.6869455	13.94169835
 246	37.421	60.193	0	21.29277567	21.16603295	11.53358682
 247	84.011	33.849	42.612	59.06210393	13.56147022	20.27883397
 248	17.241	60.339	37.743	15.20912548	22.43346008	16.85678074
 249	50.65	17.261	53.278	17.74397972	7.224334601	17.61723701
 250	45.505	48.926	65.152	21.41951838	20.27883397	31.9391635
 251	44.567	84.081	39.649	41.1913815	48.66920152	31.43219265
 252	100	86.339	72.054	119.0114068	66.41318124	68.44106464
 253	68.14	61.135	0	47.27503169	24.33460076	15.84283904
 254	17.93	66.986	81.403	23.44740177	37.64258555	53.10519645
 255	39.242	60.215	48.926	22.56020279	24.46134347	23.19391635
 256	20.099	18.77	62.967	5.069708492	7.858048162	22.6869455
 257	34.553	100	14.582	51.71102662	73.38403042	37.00887199
 258	87.345	0	66.694	60.45627376	13.05449937	34.85424588
 259	0	43.714	39.842	6.844106464	11.78707224	12.16730038
 260	100	37.705	13.955	88.59315589	15.58935361	17.99746515
 261	31.265	86.993	0	37.76932826	50.69708492	25.34854246
 262	51.402	82.661	81.338	45.62737643	56.02027883	64.38529785
 263	100	100	12.984	132.5728771	81.36882129	49.68314322
 264	0	37.859	0	4.942965779	7.224334601	3.929024081
 265	62.092	58.215	100	39.92395437	40.55766793	84.28390368
 266	86.186	100	64.1	106.4638783	84.66413181	67.55386565
 267	100	35.251	85.898	89.10012674	26.86945501	62.99112801
 268	63.182	89.992	41.974	63.24461343	59.94930292	39.29024081
 269	13.504	100	0	46.51457541	72.62357414	35.10773131
 270	100	0	13.228	84.03041825	8.871989861	14.57541191
 271	63.881	40.826	100	39.1634981	29.9112801	79.21419518
 272	69.387	84.838	20.792	64.63878327	50.82382763	30.67173638
 273	0	70.279	45.136	19.89860583	32.69961977	24.58808619
 274	79.094	64.754	40.908	63.11787072	31.43219265	27.50316857
 275	62.385	54.099	17.396	38.1495564	19.01140684	13.68821293
 276	64.408	14.621	0	29.78453739	4.43599493	5.703422053
 277	70.028	15.606	44.651	36.50190114	7.604562738	15.96958175
 278	0	63.544	0	16.22306717	23.57414449	11.78707224
 279	83.475	47.274	20.502	60.96324461	17.4904943	16.4765526
 280	55.866	0	32.671	21.03929024	3.802281369	8.365019011
 281	58.007	0	100	24.33460076	21.16603295	74.2712294
 282	100	0	87.698	84.79087452	21.29277567	62.35741445
 283	0	13.792	67.215	1.901140684	7.858048162	25.85551331
 284	84.123	17.001	58.549	56.02027883	11.91381496	27.75665399
 285	59.579	32.873	15.966	27.37642586	8.111533587	7.858048162
 286	10.41	32.998	28.659	4.562737643	6.590621039	6.717363752
 287	17.231	40.031	85.65	8.238276299	20.27883397	50.31685678
 288	37.568	41.561	10.108	13.56147022	9.632446134	6.210392902
 289	0	69.015	85.092	19.77186312	40.68441065	59.31558935
 290	14.442	100	36.187	46.3878327	73.76425856	41.1913815
 291	100	40.549	0	89.22686946	16.73003802	17.74397972
 292	82.143	45.435	78.429	59.69581749	25.34854246	50.31685678
 293	52.674	0	67.3	18.63117871	8.871989861	28.39036755
 294	0	87.868	66.793	32.9531052	58.55513308	50.31685678
 295	86.53	100	40.524	105.8301648	79.84790875	52.47148289
 296	71.777	85.586	67.232	70.59569075	58.68187579	54.87959442
 297	43.216	100	31.671	56.52724968	74.65145754	41.1913815
 298	39.245	32.908	85.845	15.58935361	18.25095057	50.06337136
 299	0	45.662	67.543	7.984790875	17.4904943	30.9252218
 300	12.161	100	100	48.03548796	91.12801014	105.7034221
 301	67.049	0	85.516	33.20659062	15.58935361	50.82382763
 302	100	89.041	100	122.3067174	80.48162231	110.6463878
 303	20.246	60.698	56.526	16.34980989	25.34854246	27.12294043
 304	52.177	55.457	40.416	28.77059569	20.91254753	18.88466413
 305	72.617	87.018	83.932	72.87705957	65.52598226	75.03168568
 306	40.512	16.723	66.475	11.66032953	9.125475285	26.86945501
 307	68.507	49.232	50.605	42.33206591	19.77186312	24.58808619
 308	65.622	100	54.525	76.93282636	79.59442332	55.51330798
 309	54.115	37.24	66.394	24.33460076	15.20912548	31.05196451
 310	100	76.138	31.267	109.3789607	46.00760456	35.86818758
 311	54.728	65.623	0	35.99493029	27.37642586	15.71609632
 312	63.126	12.526	64.37	28.64385298	9.885931559	27.75665399
 313	72.827	18.08	23.704	39.92395437	6.590621039	10.01267427
 314	23.268	15.278	34.947	7.097591888	3.29531052	6.844106464
 315	87.648	68.954	59.645	79.59442332	39.92395437	43.21926489
 316	0	85.595	85.198	32.19264892	60.07604563	69.32826362
 317	35.798	84.371	69.21	37.76932826	54.24588086	51.33079848
 318	36.062	47.494	35.919	15.20912548	14.19518378	12.80101394
 319	86.083	36.277	59.152	62.48415716	17.4904943	31.30544994
 320	58.21	100	30.361	68.94803549	75.79214195	42.58555133
 321	46.745	14.614	32.317	14.32192649	4.055766793	7.477820025
 322	81.573	73.869	86.954	73.38403042	51.45754119	72.37008872
 323	85.991	49.387	48.206	67.55386565	21.79974651	27.12294043
 324	28.062	87.906	19.654	39.1634981	52.47148289	27.75665399
 325	68.992	17.993	85.124	36.24841572	17.11026616	51.45754119
 326	100	66.147	100	102.5348542	52.47148289	97.08491762
 327	33.358	64.806	84.517	23.57414449	36.88212928	57.03422053
 328	41.351	17.736	80.522	12.54752852	13.18124208	41.57160963
 329	100	100	88.719	129.0240811	93.53612167	99.36628644
 330	66.336	0	44.32	41.31812421	6.08365019	14.82889734
 331	64.85	67.09	12.293	46.13434728	30.29150824	18.75792142
 332	15.262	31.268	63.277	5.449936629	10.64638783	24.20785805
 333	15.008	43.663	37.3	7.984790875	11.66032953	11.40684411
 334	0	57.895	38.078	12.54752852	20.6590621	15.96958175
 335	66.599	58.458	67.871	44.3599493	29.40430925	40.93789607
 336	59.191	18.651	15.215	24.84157161	4.816223067	6.08365019
 337	66.781	31.14	84.629	35.74144487	19.77186312	51.83776933
 338	88.033	85.158	52.14	93.53612167	57.41444867	46.64131812
 339	36.882	100	100	54.87959442	90.62103929	106.4638783
 340	26.102	33.094	17.006	7.984790875	6.337135615	4.942965779
 341	56.309	36.861	35.862	24.96831432	10.2661597	12.54752852
 342	45.839	65.587	67.033	29.40430925	33.20659062	39.54372624
 343	83.709	81.172	16.406	81.62230672	47.65525982	30.67173638
 344	0	48.132	13.005	20.27883397	12.29404309	6.970849176
 345	87.176	50.021	100	70.34220532	38.1495564	86.94550063
 346	51.219	84.244	13.73	45.62737643	47.78200253	25.98225602
 347	60.606	71.415	48.406	45.12040558	36.88212928	30.67173638
 348	0	11.359	12.718	4.942965779	1.394169835	1.64765526
 349	86.429	49.705	33.145	67.55386565	20.27883397	20.91254753
 350	34.056	40.958	100	13.94169835	27.50316857	76.04562738
 351	100	30.557	59.628	86.81875792	17.87072243	34.98098859
 352	88.497	26.902	13.449	66.41318124	10.13941698	12.80101394
 353	14.167	51.98	88.218	11.91381496	27.75665399	56.78073511
 354	13.784	12.983	49.37	2.408111534	4.43599493	12.54752852
 355	15.018	88.441	48.062	2.408111534	4.43599493	12.54752852
 356	87.79	25.769	89.215	2.408111534	4.43599493	54.24588086
 357	0	33.206	55.865	4.816223067	9.759188847	18.75792142
 358	74.324	76.029	35.536	64.13181242	41.44486692	29.9112801
 359	65.863	57.223	42.324	43.3460076	23.57414449	22.30671736
 360	30.893	54.646	13.136	21.92648923	17.11026616	9.759188847
 361	0	34.36	28.321	4.309252218	6.970849176	6.717363752
 362	15.443	77.087	85.116	26.74271229	49.68314322	64.13181242
 363	63.381	68.947	68.521	47.14828897	38.65652725	45.24714829
 364	69.733	27.566	42.917	37.76932826	9.759188847	16.34980989
 365	32.754	100	42.76	51.20405577	74.90494297	44.48669202
 366	47.096	29.481	34.829	16.60329531	7.224334601	9.759188847
 367	8.5451	71.948	62.695	21.6730038	37.26235741	36.62864385
 368	0	86.048	29.3	31.68567807	50.06337136	27.75665399
 369	53.697	51.572	85.367	28.77059569	28.26362484	55.25982256
 370	17.608	56.69	12.515	13.56147022	18.25095057	9.885931559
 371	90.638	14.414	49.227	63.62484157	11.02661597	23.19391635
 372	63.248	63.64	89.55	44.48669202	40.30418251	68.18757921
 373	100	85.976	58.455	112.6742712	62.61089987	56.14702155
 374	9.8311	28.027	7.5567	18.50443599	4.309252218	2.78833967
 375	89.831	64.313	69.506	81.49556401	38.02281369	50.06337136
 376	31.754	12.995	25.543	6.463878327	2.661596958	4.689480355
 377	75.914	45.966	64.957	50.44359949	21.54626109	35.86818758
 378	7.5735	50.695	58.941	10.39290241	18.88466413	25.34854246
 379	100	69.835	58.912	102.5348542	43.09252218	46.64131812
 380	32.211	34.376	48.339	10.64638783	9.505703422	15.33586819
 381	13.901	12.159	73.555	2.78833967	9.37896071	31.9391635
 382	87.071	9.028	77.653	60.96324461	16.22306717	46.00760456
 383	23.272	85.409	84.29	35.10773131	59.44233207	67.68060837
 384	93.289	39.48	26.145	74.77820025	15.58935361	18.25095057
 385	65.769	59.63	30.967	46.51457541	24.33460076	19.13814956
 386	100	32.265	41.803	87.32572877	15.71609632	24.20785805
 387	86.568	85.281	86.961	90.62103929	66.03295311	80.60836502
 388	52.577	86.83	30.016	50.19011407	52.5982256	31.05196451
 389	47.921	40.199	76.902	20.40557668	18.75792142	41.31812421
 390	22.36	86.619	61.58	35.10773131	55.51330798	45.24714829
 391	52.232	33.601	88.787	22.30671736	20.53231939	55.51330798
 392	0	28.523	86.267	4.182509506	16.22306717	48.16223067
 393	43.497	67.879	39.551	29.15082383	30.67173638	22.56020279
 394	39.877	45.261	0	16.09632446	11.53358682	6.970849176
 395	86.94	12.43	24.699	59.94930292	7.858048162	13.05449937
 396	28.363	55.339	90.398	16.98352345	31.43219265	61.97718631
 397	39.018	70.534	57.879	28.77059569	35.74144487	33.58681876
 398	12.833	28.519	78.828	4.816223067	13.94169835	39.1634981
 399	68.35	31.815	69.975	37.26235741	15.84283904	35.86818758
 400	56.52	26.226	41.626	23.57414449	7.858048162	13.30798479
 401	12.938	46.218	0	8.238276299	11.15335868	5.830164766
 402	8.6938	60.179	26.117	13.94169835	21.41951838	13.30798479
 403	51.995	89.429	96.608	51.96451204	72.37008872	93.40937896
 404	46.905	47.746	48.909	21.41951838	16.34980989	19.64512041
 405	14.352	81.814	19.479	28.8973384	43.72623574	22.94043093
 406	71.482	38.117	12.273	42.33206591	11.28010139	10.51964512
 407	86.616	60.785	10.012	72.75031686	27.12294043	20.53231939
 408	71.811	88.979	52.186	73.25728771	60.70975919	45.62737643
 409	43.213	100	72.083	57.54119138	81.49556401	66.92015209
