data/calibration-002182.ti3
CTI3   
ORIGINATOR	"ColorHug Factory"
CREATED	"Wed Jun 11 20:23:25 2014"
DESCRIPTOR	"Calibration Target chart information 3"
DEVICE_CLASS	"DISPLAY"
COLOR_REP	"RGB_XYZ"
TARGET_INSTRUMENT	"Hughski ColorHug"
INSTRUMENT_TYPE_SPECTRAL	"NO"
NORMALIZED_TO_Y_100	"NO"
NUMBER_OF_FIELDS	7
NUMBER_OF_SETS	15
BEGIN_DATA_FORMAT
 SAMPLE_ID	RGB_R	RGB_G	RGB_B	XYZ_X	XYZ_Y	XYZ_Z
END_DATA_FORMAT
BEGIN_DATA
 1.0	0.0	0.0	0.0	0.242446899414	0.24186706543	0.448333740234
 2.0	1.0	1.0	1.0	110.702697753906	46.811416625977	79.533966064453
 3.0	1.0	0.0	0.0	68.266662597656	5.197967529297	9.05192565918
 4.0	0.0	1.0	0.0	32.899597167969	29.04963684082	15.633575439453
 5.0	0.0	0.0	1.0	2.072860717773	12.318786621094	53.54248046875
 6.0	0.0	0.0	0.0	0.240707397461	0.242446899414	0.454696655273
 7.0	1.0	1.0	1.0	109.226654052734	46.811416625977	79.533966064453
 8.0	1.0	0.0	0.0	68.266662597656	5.165191650391	9.022018432617
 9.0	0.0	1.0	0.0	32.637435913086	28.444442749023	15.51513671875
 10.0	0.0	0.0	1.0	2.065032958984	12.337341308594	53.54248046875
 11.0	0.0	0.0	0.0	0.242446899414	0.245986938477	0.461364746094
 12.0	1.0	1.0	1.0	109.226654052734	46.545440673828	79.533966064453
 13.0	1.0	0.0	0.0	68.266662597656	5.197967529297	9.09211730957
 14.0	0.0	1.0	0.0	32.899597167969	28.444442749023	15.633575439453
 15.0	0.0	0.0	1.0	2.070251464844	12.30029296875	53.54248046875
END_DATA
