data/calibration-001316.ti3
CTI3   
ORIGINATOR	"ColorHug Factory"
DESCRIPTOR	"Calibration Target chart information 3"
DEVICE_CLASS	"DISPLAY"
COLOR_REP	"RGB_XYZ"
TARGET_INSTRUMENT	"Hughski ColorHug"
INSTRUMENT_TYPE_SPECTRAL	"NO"
NORMALIZED_TO_Y_100	"NO"
NUMBER_OF_FIELDS	7
NUMBER_OF_SETS	15
BEGIN_DATA_FORMAT
 SAMPLE_ID	RGB_R	RGB_G	RGB_B	XYZ_X	XYZ_Y	XYZ_Z
END_DATA_FORMAT
BEGIN_DATA
 1	0	0	0	0.2288818359	0.2288818359	0.2746582031
 2	1	1	1	31.17370605	34.97314453	43.48754883
 3	1	0	0	18.40209961	2.746582031	3.387451172
 4	0	1	0	11.62719727	25.03967285	11.8560791
 5	0	0	1	0.9613037109	7.598876953	28.56445312
 6	0	0	0	0.2288818359	0.2746582031	0.3204345703
 7	1	1	1	31.17370605	34.97314453	43.35021973
 8	1	0	0	18.40209961	2.746582031	3.387451172
 9	0	1	0	11.67297363	25.17700195	11.8560791
 10	0	0	1	0.9613037109	7.598876953	28.56445312
 11	0	0	0	0.2288818359	0.2746582031	0.3204345703
 12	1	1	1	31.21948242	35.0189209	43.48754883
 13	1	0	0	18.40209961	2.746582031	3.387451172
 14	0	1	0	11.67297363	25.17700195	11.8560791
 15	0	0	1	0.9613037109	7.598876953	28.47290039
END_DATA
