data/calibration-000257.ti3
CTI3
DESCRIPTOR	"Calibration Target chart information 3"
ORIGINATOR	"ColorHug Factory"
DEVICE_CLASS	"DISPLAY"
COLOR_REP	"RGB_XYZ"
TARGET_INSTRUMENT	"ColorHug"
INSTRUMENT_TYPE_SPECTRAL	"NO"
LUMINANCE_XYZ_CDM2	"57.128906 39.081573 46.337128"
NORMALIZED_TO_Y_100	"YES"
NUMBER_OF_FIELDS	7
NUMBER_OF_SETS	836
BEGIN_DATA_FORMAT
 SAMPLE_ID	RGB_R	RGB_G	RGB_B	XYZ_X	XYZ_Y	XYZ_Z
END_DATA_FORMAT
BEGIN_DATA
 1	100	100	100	143.9766082	100	118.8304094
 2	100	100	100	145.9649123	99.76608187	118.7134503
 3	100	100	100	147.251462	100	117.3099415
 4	100	100	100	146.6666667	99.64912281	118.7134503
 5	33.33	32.622	30.968	12.51461988	8.304093567	9.239766082
 6	100	0	100	95.0877193	29.00584795	84.32748538
 7	100	100	0	145.7309942	80.35087719	49.12280702
 8	0	100	100	50.99415205	90.1754386	103.9766082
 9	0	100	0	49.59064327	70.99415205	34.26900585
 10	0	0	100	2.339181287	19.29824561	69.59064327
 11	100	0	0	92.86549708	9.590643275	14.73684211
 12	0	0	0	0.2339181287	0.2339181287	0.2339181287
 13	0	52.455	100	13.0994152	35.67251462	77.07602339
 14	100	0	50.3	94.03508772	13.56725146	29.12280702
 15	100	54.739	100	108.6549708	46.66666667	92.74853801
 16	100	52.128	0	105.2631579	25.61403509	22.57309942
 17	0	0	46.181	0.4678362573	3.274853801	11.57894737
 18	0	51.141	0	10.87719298	15.43859649	7.602339181
 19	0	100	51.348	49.8245614	75.43859649	49.12280702
 20	100	100	52.037	144.3274854	83.85964912	64.56140351
 21	49.216	0	0	18.71345029	2.105263158	3.157894737
 22	56.159	100	0	74.85380117	74.03508772	38.12865497
 23	49.226	100	100	69.47368421	92.16374269	106.5497076
 24	44.487	0	100	16.84210526	20.93567251	71.69590643
 25	100	44.498	52.029	101.754386	25.38011696	35.67251462
 26	48.926	48.544	100	30.1754386	35.20467836	79.18128655
 27	51.368	100	47.25	69.35672515	76.49122807	49.70760234
 28	49.893	0	49.033	19.76608187	5.847953216	16.60818713
 29	53.109	51.372	0	32.98245614	17.89473684	11.11111111
 30	0	58.587	53.943	15.0877193	25.49707602	26.66666667
 31	100	28.065	100	98.3625731	33.4502924	86.66666667
 32	0	0	72.874	1.169590643	8.888888889	32.04678363
 33	0	26.758	100	4.561403509	23.2748538	70.99415205
 34	0	25.426	0	2.69005848	3.625730994	1.988304094
 35	72.508	0	100	45.38011696	23.85964912	76.60818713
 36	100	27.395	0	95.90643275	13.68421053	16.7251462
 37	74.47	100	100	98.24561404	95.32163743	111.3450292
 38	100	0	25.728	93.33333333	10.52631579	18.24561404
 39	73.862	0	0	45.73099415	4.795321637	7.368421053
 40	100	100	25.402	145.7309942	81.75438596	52.98245614
 41	0	75.751	100	27.83625731	56.60818713	87.60233918
 42	0	75.172	0	25.49707602	36.14035088	17.66081871
 43	0	100	25.864	49.35672515	71.4619883	37.42690058
 44	100	0	74.801	94.03508772	19.06432749	49.35672515
 45	0	100	75.421	49.70760234	80.35087719	69.47368421
 46	24.577	0	0	4.444444444	0.5847953216	0.9356725146
 47	26.321	100	0	54.38596491	71.4619883	34.85380117
 48	100	75.835	0	121.0526316	46.5497076	32.98245614
 49	100	100	77.061	145.9649123	90.99415205	86.66666667
 50	71.263	100	0	91.8128655	74.85380117	41.05263158
 51	0	0	15.614	0.2339181287	0.4678362573	1.520467836
 52	0	30.049	70.936	4.32748538	13.33333333	32.51461988
 53	100	77.691	100	123.2748538	68.42105263	103.5087719
 54	24.486	100	100	55.32163743	90.76023392	104.3274854
 55	100	62.784	31.909	111.1111111	35.32163743	32.28070175
 56	29.552	0	100	8.187134503	19.88304094	70.64327485
 57	32.98	70.921	100	32.28070175	52.04678363	86.08187135
 58	0	27.681	40.241	3.391812865	6.666666667	10.76023392
 59	67.901	71.021	100	62.57309942	55.55555556	91.22807018
 60	28.154	100	67.829	55.32163743	79.18128655	62.57309942
 61	71.637	100	70.001	93.21637427	83.2748538	70.99415205
 62	58.822	58.763	53.586	42.22222222	28.1871345	30.64327485
 63	33.466	30.48	0	11.8128655	5.964912281	3.976608187
 64	100	73.795	71.277	120.2339181	53.21637427	62.92397661
 65	68.394	29.692	0	41.75438596	8.888888889	8.538011696
 66	70.399	0	29.039	41.05263158	5.614035088	10.99415205
 67	28.078	0	26.956	5.964912281	1.754385965	4.795321637
 68	28.532	72.339	0	29.23976608	33.68421053	17.07602339
 69	100	30.941	26.496	96.49122807	15.90643275	20.93567251
 70	34.597	0	73.611	9.590643275	10.05847953	34.38596491
 71	71.573	0	72.408	43.15789474	13.21637427	38.59649123
 72	0	71.029	29.412	22.57309942	33.33333333	20.11695906
 73	68.386	75.008	0	63.97660819	40.11695906	23.74269006
 74	68.088	27.309	100	42.57309942	27.36842105	77.07602339
 75	100	26.457	73.749	96.84210526	22.80701754	49.8245614
 76	74.344	100	27.392	97.42690058	76.95906433	46.08187135
 77	27.558	100	28.197	54.97076023	72.86549708	39.18128655
 78	31.196	27.465	100	11.8128655	24.21052632	72.16374269
 79	0	75.521	72.824	26.5497076	45.73099415	50.29239766
 80	0	50.93	25.553	10.76023392	16.14035088	10.87719298
 81	32.06	33.584	64.033	12.51461988	13.80116959	28.30409357
 82	81.666	55.38	0	70.64327485	24.32748538	18.24561404
 83	68.257	32.751	58.286	43.15789474	15.43859649	28.30409357
 84	0	55.248	81.585	13.80116959	30.05847953	51.4619883
 85	73.781	52.099	100	58.83040936	40.11695906	84.79532164
 86	100	50.537	82.952	103.9766082	36.95906433	66.08187135
 87	23.55	0	50.439	4.561403509	4.444444444	14.73684211
 88	31.335	62.746	31.114	24.56140351	26.43274854	18.12865497
 89	100	18.31	49.418	94.50292398	15.32163743	29.47368421
 90	26.498	48.404	0	14.73684211	14.26900585	7.602339181
 91	47.91	100	85.744	67.71929825	86.31578947	84.67836257
 92	71.829	47.313	31.811	52.39766082	19.06432749	18.59649123
 93	31.304	64.132	69.316	25.84795322	34.15204678	42.45614035
 94	80.403	0	54.321	56.14035088	10.52631579	25.61403509
 95	18.455	50.036	100	14.61988304	34.38596491	77.19298246
 96	50.653	100	16.345	69.47368421	73.4502924	38.59649123
 97	80.121	100	52.261	106.1988304	81.28654971	58.94736842
 98	0	22.54	19.289	2.222222222	3.50877193	3.50877193
 99	100	75.273	46.886	120.1169591	49.12280702	44.79532164
 100	0	78.618	56.625	28.77192982	45.38011696	37.77777778
 101	51.137	80.627	100	51.69590643	63.74269006	93.0994152
 102	48.446	0	17.864	18.01169591	2.456140351	4.678362573
 103	100	50.023	21.211	104.0935673	25.02923977	24.32748538
 104	50.115	20.118	0	20.81871345	4.32748538	4.32748538
 105	58.099	72.426	33.158	50.1754386	37.66081871	26.19883041
 106	19.364	100	50.197	52.28070175	74.73684211	48.65497076
 107	50.683	19.177	100	23.15789474	23.39181287	73.4502924
 108	53.37	0	81.576	23.50877193	14.03508772	46.08187135
 109	47.768	76.245	0	43.62573099	39.29824561	20.93567251
 110	0	18.927	55.503	1.988304094	7.01754386	18.3625731
 111	0	13.277	0	0.9356725146	1.169590643	0.701754386
 112	72.862	72.473	75.625	68.30409357	47.48538012	58.24561404
 113	100	13.904	0	93.21637427	10.64327485	15.20467836
 114	86.349	0	100	66.9005848	25.96491228	79.41520468
 115	100	41.941	100	101.871345	38.94736842	89.00584795
 116	100	81.785	16.464	126.1988304	54.26900585	37.66081871
 117	0	44.063	52.596	8.421052632	15.67251462	21.16959064
 118	0	0	58.917	0.8187134503	5.497076023	19.64912281
 119	59.25	24.551	29.789	30.64327485	7.485380117	10.64327485
 120	82.73	82.874	100	93.4502924	70.87719298	100.8187135
 121	80.039	0	12.618	54.97076023	6.081871345	9.707602339
 122	60.957	47.729	77.817	39.88304094	26.78362573	49.12280702
 123	100	0	38.618	93.21637427	11.8128655	22.69005848
 124	0	40.09	100	8.187134503	28.5380117	73.80116959
 125	0	15.283	82.322	2.105263158	13.21637427	43.39181287
 126	17.592	81.726	100	34.61988304	63.39181287	91.11111111
 127	100	14.13	100	94.73684211	30.05847953	84.79532164
 128	15.261	100	82.059	51.57894737	82.80701754	77.77777778
 129	47.77	79.418	60.389	46.43274854	48.5380117	43.74269006
 130	18.768	16.429	0	3.742690058	1.871345029	1.403508772
 131	55.634	100	65.763	74.15204678	80.70175439	64.09356725
 132	100	100	38.541	145.2631579	82.69005848	57.77777778
 133	17.421	0	83.497	3.391812865	12.51461988	44.56140351
 134	17.237	16.758	100	5.14619883	21.05263158	70.40935673
 135	0	15.067	30.039	1.169590643	2.69005848	5.380116959
 136	0	0	86.505	1.637426901	13.33333333	48.07017544
 137	75.736	72.799	50.02	72.86549708	42.69005848	38.12865497
 138	100	83.323	85.529	127.8362573	69.00584795	84.9122807
 139	100	100	64.894	145.8479532	87.71929825	74.61988304
 140	81.98	84.914	0	93.0994152	53.91812865	32.51461988
 141	0	63.757	15.49	17.54385965	25.14619883	13.4502924
 142	49.514	66.135	100	39.76608187	48.1871345	85.84795322
 143	100	0	61.862	93.21637427	15.67251462	36.84210526
 144	24.308	45.41	49.831	12.98245614	16.25730994	20.35087719
 145	15.963	0	17.047	2.105263158	0.8187134503	2.105263158
 146	87.497	100	100	120.5847953	97.19298246	114.3859649
 147	52.099	25.003	75.752	24.44444444	15.43859649	40.23391813
 148	14.909	81.162	0	31.8128655	43.04093567	21.16959064
 149	0	34.792	14.626	4.912280702	7.134502924	4.678362573
 150	48.39	45.075	22.552	26.19883041	14.38596491	11.34502924
 151	83.545	65.965	100	82.45614035	52.98245614	92.51461988
 152	16.226	62.345	0	18.59649123	23.74269006	11.8128655
 153	63.222	0	14.914	32.28070175	3.859649123	6.549707602
 154	80.449	13.446	0	56.49122807	6.900584795	9.356725146
 155	83.917	41.562	0	67.95321637	16.14035088	14.50292398
 156	100	60.448	46.3	109.9415205	35.32163743	37.66081871
 157	15.584	0	34.795	2.105263158	2.105263158	6.666666667
 158	17.144	65.121	100	22.45614035	46.08187135	82.69005848
 159	83.602	55.334	62.667	74.85380117	31.22807018	41.28654971
 160	0	82.19	14.22	31.11111111	44.79532164	22.69005848
 161	25.132	74.856	50.616	30.29239766	40.23391813	32.51461988
 162	0	13.769	100	2.456140351	20.35087719	70.05847953
 163	87.181	0	0	66.31578947	7.01754386	10.64327485
 164	0	100	39.19	48.65497076	73.4502924	42.33918129
 165	78.047	65.914	19.865	71.4619883	32.86549708	23.50877193
 166	100	63.961	15.865	111.5789474	35.20467836	28.5380117
 167	100	45.955	36.032	102.2222222	23.85964912	27.60233918
 168	15.926	100	16.89	50.40935673	71.4619883	36.02339181
 169	41.459	100	0	61.75438596	72.04678363	36.02339181
 170	48.707	37.288	48.139	24.32748538	13.4502924	19.53216374
 171	83.381	100	13.285	111.1111111	77.77777778	44.9122807
 172	78.129	25.303	75.621	55.43859649	18.71345029	45.02923977
 173	12.396	0	0	1.403508772	0.2339181287	0.4678362573
 174	37.607	48.336	83.346	21.16959064	27.25146199	52.74853801
 175	35.588	15.356	0	10.1754386	2.456140351	2.339181287
 176	61.245	100	100	81.28654971	92.86549708	108.3040936
 177	100	67.29	87.195	115.2046784	51.8128655	78.01169591
 178	0	0	30.615	0.350877193	1.520467836	4.912280702
 179	35.187	81.789	83.323	40.93567251	56.95906433	67.01754386
 180	39.525	80.194	22.879	40.81871345	43.97660819	24.9122807
 181	50.634	34.593	0	24.67836257	8.771929825	6.549707602
 182	14.175	100	63.146	50.76023392	77.19298246	57.89473684
 183	83.493	17.728	34.574	61.28654971	9.824561404	16.84210526
 184	23.463	22.014	79.943	7.01754386	14.26900585	42.22222222
 185	18.066	31.847	0	6.549707602	5.964912281	3.274853801
 186	87.201	100	81.361	118.9473684	89.23976608	87.48538012
 187	0	100	87.95	50.29239766	84.44444444	84.79532164
 188	34.476	17.888	46.22	10.1754386	6.081871345	13.91812865
 189	18.277	0	67.39	3.274853801	7.719298246	27.01754386
 190	100	87.972	0	132.1637427	61.87134503	40.46783626
 191	82.925	34.85	100	65.96491228	32.28070175	82.10526316
 192	0	88.016	100	38.12865497	71.4619883	94.61988304
 193	36.104	85.655	100	45.38011696	68.88888889	94.61988304
 194	60.981	0	0	29.47368421	3.157894737	4.795321637
 195	51.466	61.826	78.106	37.77777778	36.02339181	52.74853801
 196	78.427	31.983	22.175	55.32163743	11.8128655	13.68421053
 197	66.017	44.321	0	43.39181287	15.0877193	11.22807018
 198	83.941	0	84.177	62.22222222	18.94736842	55.32163743
 199	20.158	46.612	23.269	11.8128655	13.68421053	9.590643275
 200	0	100	62.618	49.23976608	77.30994152	57.30994152
 201	33.832	0	13.933	8.304093567	1.286549708	2.69005848
 202	100	17.286	16.322	94.15204678	11.69590643	16.95906433
 203	0	42.204	83.926	8.421052632	22.92397661	50.1754386
 204	0	87.774	0	36.14035088	51.69590643	25.02923977
 205	64.988	0	59.017	34.50292398	9.122807018	25.49707602
 206	14.677	0	100	3.391812865	19.41520468	69.35672515
 207	88.934	82.673	35.021	102.3391813	53.91812865	39.64912281
 208	0	63.778	100	19.29824561	44.32748538	81.52046784
 209	83.429	17.674	100	62.92397661	27.25146199	80.11695906
 210	30.899	100	85.668	57.19298246	85.14619883	82.80701754
 211	83.68	0	41.016	60.81871345	8.888888889	18.83040936
 212	100	63.515	0	111.3450292	34.15204678	26.78362573
 213	85.074	69.987	0	84.56140351	37.30994152	25.02923977
 214	20.801	45.524	69.018	12.39766082	20.35087719	34.73684211
 215	21.382	82.482	73.017	35.55555556	54.50292398	55.0877193
 216	100	15.128	64.249	94.38596491	17.66081871	39.41520468
 217	36.522	0	58.427	10.29239766	6.432748538	20.93567251
 218	22.466	81.296	33.007	34.15204678	45.61403509	27.48538012
 219	62.531	87.152	0	67.48538012	54.26900585	29.8245614
 220	84.12	85.397	67.886	96.7251462	62.57309942	61.28654971
 221	18.87	27.336	45.389	5.964912281	7.602339181	13.68421053
 222	66.439	100	14.444	85.38011696	74.61988304	41.16959064
 223	41.636	22.147	19.003	15.0877193	4.795321637	5.497076023
 224	61.271	100	81.94	80.35087719	85.96491228	81.87134503
 225	86.013	100	0	115.0877193	77.42690058	44.79532164
 226	37.57	0	0	10.1754386	1.169590643	1.754385965
 227	100	16.132	84.102	94.15204678	23.74269006	60.93567251
 228	0	100	13.619	48.77192982	70.99415205	35.0877193
 229	38.905	100	56.471	60.46783626	76.84210526	54.38596491
 230	100	15.382	34.563	92.98245614	12.74853801	21.6374269
 231	36.656	14.908	100	12.51461988	21.6374269	71.92982456
 232	0	62.593	66.608	17.54385965	31.22807018	37.77777778
 233	66.347	12.528	100	38.12865497	23.85964912	75.32163743
 234	100	43.375	69.233	101.4035088	28.30409357	48.77192982
 235	100	56.36	61.236	107.251462	34.73684211	45.61403509
 236	0	86.194	44.955	34.97076023	52.51461988	34.85380117
 237	64.527	87.262	100	70.76023392	73.91812865	99.29824561
 238	34.411	0	42.471	8.771929825	3.742690058	11.22807018
 239	80.23	59.707	85.12	71.57894737	40.23391813	65.73099415
 240	20.625	19.056	14.791	4.678362573	2.807017544	2.923976608
 241	15.341	34.221	100	8.187134503	25.96491228	72.63157895
 242	36.777	0	87.905	11.11111111	14.97076023	52.28070175
 243	34.598	56.247	100	23.97660819	38.94736842	79.64912281
 244	20.86	67.629	17.418	23.2748538	29.23976608	16.02339181
 245	44.958	60.843	18.054	31.34502924	24.67836257	15.20467836
 246	37.421	60.193	0	25.73099415	22.80701754	12.39766082
 247	84.011	33.849	42.612	65.96491228	15.55555556	22.80701754
 248	17.241	60.339	37.743	17.89473684	24.32748538	18.71345029
 249	50.65	17.261	53.278	21.52046784	8.304093567	19.88304094
 250	45.505	48.926	65.152	26.31578947	22.69005848	34.50292398
 251	44.567	84.081	39.649	47.60233918	50.99415205	33.68421053
 252	100	86.339	72.054	130.2923977	68.5380117	70.87719298
 253	68.14	61.135	0	53.80116959	26.43274854	16.95906433
 254	17.93	66.986	81.403	22.92397661	39.76608187	55.78947368
 255	39.242	60.215	48.926	27.36842105	26.78362573	25.73099415
 256	20.099	18.77	62.967	5.029239766	8.65497076	24.44444444
 257	34.553	100	14.582	57.89473684	72.04678363	36.7251462
 258	87.345	0	66.694	67.01754386	14.26900585	36.95906433
 259	0	43.714	39.842	8.070175439	13.4502924	13.91812865
 260	100	37.705	13.955	98.24561404	18.01169591	19.76608187
 261	31.265	86.993	0	42.10526316	51.34502924	25.61403509
 262	51.402	82.661	81.338	52.86549708	58.71345029	67.25146199
 263	100	100	12.984	144.7953216	81.05263158	49.8245614
 264	0	37.859	0	5.730994152	8.070175439	4.093567251
 265	62.092	58.215	100	47.13450292	43.04093567	84.32748538
 266	86.186	100	64.1	115.4385965	84.32748538	69.12280702
 267	100	35.251	85.898	98.47953216	29.94152047	66.43274854
 268	63.182	89.992	41.974	70.76023392	60.93567251	41.28654971
 269	13.504	100	0	50.40935673	71.11111111	34.50292398
 270	100	0	13.228	92.63157895	9.824561404	15.67251462
 271	63.881	40.826	100	41.16959064	32.39766082	79.53216374
 272	69.387	84.838	20.792	73.21637427	52.63157895	31.8128655
 273	0	70.279	45.136	22.22222222	34.15204678	26.31578947
 274	79.094	64.754	40.908	72.04678363	34.03508772	30.29239766
 275	62.385	54.099	17.396	43.50877193	21.05263158	15.0877193
 276	64.408	14.621	0	34.38596491	4.795321637	6.081871345
 277	70.028	15.606	44.651	41.52046784	8.65497076	18.01169591
 278	0	63.544	0	17.54385965	24.79532164	12.16374269
 279	83.475	47.274	20.502	69.59064327	19.88304094	18.24561404
 280	55.866	0	32.671	24.67836257	4.210526316	9.590643275
 281	58.007	0	100	28.07017544	21.98830409	73.4502924
 282	100	0	87.698	93.91812865	23.39181287	64.09356725
 283	0	13.792	67.215	1.520467836	8.65497076	27.25146199
 284	84.123	17.001	58.549	62.57309942	13.56725146	30.29239766
 285	59.579	32.873	15.966	32.16374269	9.356725146	8.888888889
 286	10.41	32.998	28.659	5.497076023	7.485380117	7.485380117
 287	17.231	40.031	85.65	9.824561404	22.69005848	51.92982456
 288	37.568	41.561	10.108	17.19298246	10.99415205	7.134502924
 289	0	69.015	85.092	21.98830409	42.80701754	60.93567251
 290	14.442	100	36.187	50.1754386	72.16374269	41.52046784
 291	100	40.549	0	99.18128655	18.94736842	19.29824561
 292	82.143	45.435	78.429	67.60233918	28.5380117	53.56725146
 293	52.674	0	67.3	22.33918129	9.707602339	30.29239766
 294	0	87.868	66.793	36.95906433	59.64912281	52.04678363
 295	86.53	100	40.524	116.1403509	80.11695906	53.80116959
 296	71.777	85.586	67.232	78.12865497	60.81871345	57.54385965
 297	43.216	100	31.671	63.2748538	73.80116959	41.6374269
 298	39.245	32.908	85.845	16.95906433	20.35087719	51.8128655
 299	0	45.662	67.543	9.239766082	19.76608187	32.98245614
 300	12.161	100	100	51.34502924	89.8245614	103.7426901
 301	67.049	0	85.516	37.30994152	16.84210526	53.21637427
 302	100	89.041	100	134.502924	81.87134503	109.5906433
 303	20.246	60.698	56.526	19.06432749	27.60233918	29.59064327
 304	52.177	55.457	40.416	34.38596491	23.15789474	21.28654971
 305	72.617	87.018	83.932	80.11695906	67.60233918	76.95906433
 306	40.512	16.723	66.475	14.03508772	10.1754386	28.88888889
 307	68.507	49.232	50.605	48.30409357	22.22222222	27.60233918
 308	65.622	100	54.525	85.26315789	79.18128655	56.84210526
 309	54.115	37.24	66.394	28.88888889	17.42690058	33.68421053
 310	100	76.138	31.267	120.1169591	48.1871345	38.3625731
 311	54.728	65.623	0	41.98830409	28.88888889	16.60818713
 312	63.126	12.526	64.37	32.98245614	11.11111111	29.94152047
 313	72.827	18.08	23.704	45.26315789	7.368421053	10.87719298
 314	23.268	15.278	34.947	5.14619883	3.625730994	7.83625731
 315	87.648	68.954	59.645	89.23976608	42.33918129	45.96491228
 316	0	85.595	85.198	35.55555556	61.98830409	70.64327485
 317	35.798	84.371	69.21	43.15789474	56.25730994	53.33333333
 318	36.062	47.494	35.919	18.94736842	16.14035088	14.73684211
 319	86.083	36.277	59.152	70.05847953	19.76608187	33.80116959
 320	58.21	100	30.361	75.78947368	75.32163743	43.39181287
 321	46.745	14.614	32.317	17.77777778	4.678362573	8.771929825
 322	81.573	73.869	86.954	83.50877193	54.50292398	75.43859649
 323	85.991	49.387	48.206	75.43859649	24.67836257	30.1754386
 324	28.062	87.906	19.654	41.87134503	53.21637427	27.95321637
 325	68.992	17.993	85.124	41.28654971	18.83040936	53.91812865
 326	100	66.147	100	112.748538	56.02339181	97.30994152
 327	33.358	64.806	84.517	27.71929825	39.29824561	59.53216374
 328	41.351	17.736	80.522	15.0877193	14.50292398	43.97660819
 329	100	100	88.719	143.625731	94.15204678	100.9356725
 330	66.336	0	44.32	36.02339181	6.783625731	16.60818713
 331	64.85	67.09	12.293	53.4502924	31.92982456	20
 332	15.262	31.268	63.277	6.198830409	12.16374269	26.31578947
 333	15.008	43.663	37.3	9.590643275	13.33333333	13.21637427
 334	0	57.895	38.078	14.26900585	22.22222222	17.66081871
 335	66.599	58.458	67.871	50.87719298	32.16374269	43.50877193
 336	59.191	18.651	15.215	28.88888889	5.263157895	6.783625731
 337	66.781	31.14	84.629	41.16959064	21.87134503	54.38596491
 338	88.033	85.158	52.14	103.0409357	59.29824561	49.23976608
 339	36.882	100	100	60.81871345	91.22807018	105.1461988
 340	26.102	33.094	17.006	9.239766082	7.134502924	5.497076023
 341	56.309	36.861	35.862	30.52631579	12.16374269	14.50292398
 342	45.839	65.587	67.033	35.43859649	35.90643275	42.10526316
 343	83.709	81.172	16.406	91.8128655	49.35672515	31.92982456
 344	0	48.132	13.005	9.473684211	13.80116959	7.719298246
 345	87.176	50.021	100	78.47953216	41.05263158	87.01754386
 346	51.219	84.244	13.73	52.86549708	48.77192982	27.01754386
 347	60.606	71.415	48.406	51.92982456	39.18128655	33.4502924
 348	0	11.359	12.718	0.8187134503	1.169590643	1.520467836
 349	86.429	49.705	33.145	76.02339181	22.92397661	23.2748538
 350	34.056	40.958	100	16.84210526	29.94152047	75.90643275
 351	100	30.557	59.628	96.7251462	20.58479532	37.66081871
 352	88.497	26.902	13.449	71.57894737	11.4619883	13.91812865
 353	14.167	51.98	88.218	13.91812865	30.1754386	58.24561404
 354	13.784	12.983	49.37	2.69005848	5.029239766	14.15204678
 355	15.018	88.441	48.062	38.59649123	56.02339181	38.59649123
 356	87.79	25.769	89.215	71.22807018	25.26315789	64.56140351
 357	0	33.206	55.865	4.912280702	10.99415205	20.70175439
 358	74.324	76.029	35.536	72.63157895	43.62573099	32.04678363
 359	65.863	57.223	42.324	49.23976608	25.73099415	24.79532164
 360	30.893	54.646	13.136	19.53216374	18.83040936	10.87719298
 361	0	34.36	28.321	4.912280702	7.719298246	7.485380117
 362	15.443	77.087	85.116	29.70760234	51.8128655	65.96491228
 363	63.381	68.947	68.521	53.56725146	41.05263158	47.48538012
 364	69.733	27.566	42.917	42.92397661	11.22807018	18.47953216
 365	32.754	100	42.76	56.84210526	74.61988304	45.49707602
 366	47.096	29.481	34.829	20.58479532	8.421052632	11.4619883
 367	8.5451	71.948	62.695	24.32748538	39.06432749	38.94736842
 368	0	86.048	29.3	34.50292398	50.1754386	28.30409357
 369	53.697	51.572	85.367	34.50292398	30.99415205	58.3625731
 370	17.608	56.69	12.515	15.78947368	19.64912281	10.64327485
 371	90.638	14.414	49.227	74.26900585	12.51461988	25.61403509
 372	63.248	63.64	89.55	51.22807018	43.04093567	69.94152047
 373	100	85.976	58.455	129.5906433	64.44444444	58.71345029
 374	9.8311	28.027	7.5567	4.093567251	4.561403509	2.923976608
 375	89.831	64.313	69.506	90.29239766	41.05263158	52.86549708
 376	31.754	12.995	25.543	8.070175439	2.923976608	5.263157895
 377	75.914	45.966	64.957	57.42690058	24.44444444	38.59649123
 378	7.5735	50.695	58.941	11.69590643	20.81871345	27.36842105
 379	100	69.835	58.912	115.9064327	46.19883041	49.70760234
 380	32.211	34.376	48.339	12.63157895	10.99415205	17.54385965
 381	13.901	12.159	73.555	3.040935673	10.29239766	33.4502924
 382	87.071	9.028	77.653	67.83625731	18.01169591	48.65497076
 383	23.272	85.409	84.29	38.83040936	61.40350877	69.35672515
 384	93.289	39.48	26.145	83.74269006	18.01169591	20.23391813
 385	65.769	59.63	30.967	50.1754386	26.66666667	21.05263158
 386	100	32.265	41.803	96.95906433	18.12865497	27.13450292
 387	86.568	85.281	86.961	101.1695906	69.00584795	83.2748538
 388	52.577	86.83	30.016	56.84210526	54.03508772	32.63157895
 389	47.921	40.199	76.902	25.02923977	21.40350877	44.32748538
 390	22.36	86.619	61.58	38.94736842	56.37426901	47.01754386
 391	52.232	33.601	88.787	27.01754386	22.92397661	58.3625731
 392	0	28.523	86.267	4.444444444	17.77777778	49.8245614
 393	43.497	67.879	39.551	34.73684211	32.74853801	24.67836257
 394	39.877	45.261	0	20.11695906	13.0994152	7.719298246
 395	86.94	12.43	24.699	66.66666667	8.65497076	14.15204678
 396	28.363	55.339	90.398	20.11695906	33.91812865	64.09356725
 397	39.018	70.534	57.879	33.68421053	37.66081871	36.14035088
 398	12.833	28.519	78.828	5.497076023	15.43859649	41.75438596
 399	68.35	31.815	69.975	43.04093567	17.89473684	38.47953216
 400	56.52	26.226	41.626	27.95321637	9.122807018	15.32163743
 401	12.938	46.218	0	9.941520468	12.51461988	6.315789474
 402	8.6938	60.179	26.117	16.14035088	22.92397661	14.38596491
 403	51.995	89.429	96.608	60.23391813	74.26900585	93.21637427
 404	46.905	47.746	48.909	26.31578947	18.83040936	22.45614035
 405	14.352	81.814	19.479	32.28070175	44.67836257	23.50877193
 406	71.482	38.117	12.273	48.30409357	12.98245614	11.69590643
 407	86.616	60.785	10.012	81.87134503	29.35672515	21.98830409
 408	71.811	88.979	52.186	81.16959064	61.98830409	47.83625731
 409	43.213	100	72.083	63.97660819	81.28654971	68.1871345
