data/calibration-002720.ti3
CTI3   
ORIGINATOR	"ColorHug Factory"
CREATED	"Thu Mar 26 20:28:37 2015"
DESCRIPTOR	"Calibration Target chart information 3"
DEVICE_CLASS	"DISPLAY"
COLOR_REP	"RGB_XYZ"
TARGET_INSTRUMENT	"Hughski ColorHug"
INSTRUMENT_TYPE_SPECTRAL	"NO"
NORMALIZED_TO_Y_100	"NO"
NUMBER_OF_FIELDS	7
NUMBER_OF_SETS	15
BEGIN_DATA_FORMAT
 SAMPLE_ID	RGB_R	RGB_G	RGB_B	XYZ_X	XYZ_Y	XYZ_Z
END_DATA_FORMAT
BEGIN_DATA
 1.0	0.0	0.0	0.0	0.420745849609	0.467041015625	0.494644165039
 2.0	1.0	1.0	1.0	58.935241699219	57.690139770508	59.795608520508
 3.0	1.0	0.0	0.0	41.795913696289	4.478942871094	6.709243774414
 4.0	0.0	1.0	0.0	15.086547851562	41.795913696289	15.968795776367
 5.0	0.0	0.0	1.0	2.188613891602	11.603393554688	36.571426391602
 6.0	0.0	0.0	0.0	0.426483154297	0.472290039062	0.499572753906
 7.0	1.0	1.0	1.0	59.795608520508	57.690139770508	59.795608520508
 8.0	1.0	0.0	0.0	42.01025390625	4.474044799805	6.714752197266
 9.0	0.0	1.0	0.0	15.058822631836	41.795913696289	15.968795776367
 10.0	0.0	0.0	1.0	2.189788818359	11.753219604492	37.06787109375
 11.0	0.0	0.0	0.0	0.428466796875	0.474044799805	0.499725341797
 12.0	1.0	1.0	1.0	59.3623046875	57.286712646484	59.3623046875
 13.0	1.0	0.0	0.0	42.226791381836	4.437698364258	6.792694091797
 14.0	0.0	1.0	0.0	15.114379882812	41.795913696289	16.094299316406
 15.0	0.0	0.0	1.0	2.185684204102	11.753219604492	36.571426391602
END_DATA
