data/calibration-000839.ti3
CTI3   
ORIGINATOR	"ColorHug Factory"
DESCRIPTOR	"Calibration Target chart information 3"
DEVICE_CLASS	"DISPLAY"
COLOR_REP	"RGB_XYZ"
TARGET_INSTRUMENT	"Hughski ColorHug"
INSTRUMENT_TYPE_SPECTRAL	"NO"
NORMALIZED_TO_Y_100	"NO"
NUMBER_OF_FIELDS	7
NUMBER_OF_SETS	15
BEGIN_DATA_FORMAT
 SAMPLE_ID	RGB_R	RGB_G	RGB_B	XYZ_X	XYZ_Y	XYZ_Z
END_DATA_FORMAT
BEGIN_DATA
 1	0	0	0	0.09155273438	0.09155273438	0.1831054688
 2	1	1	1	56.62536621	40.69519043	48.24829102
 3	1	0	0	35.5682373	3.662109375	5.447387695
 4	0	1	0	18.85986328	29.0222168	13.50402832
 5	0	0	1	1.052856445	7.919311523	29.1595459
 6	0	0	0	0.09155273438	0.1373291016	0.1831054688
 7	1	1	1	57.17468262	40.83251953	48.38562012
 8	1	0	0	35.52246094	3.662109375	5.447387695
 9	0	1	0	19.04296875	29.1595459	13.50402832
 10	0	0	1	1.052856445	7.919311523	29.34265137
 11	0	0	0	0.09155273438	0.1373291016	0.1831054688
 12	1	1	1	57.26623535	40.96984863	48.43139648
 13	1	0	0	35.38513184	3.662109375	5.447387695
 14	0	1	0	18.90563965	29.11376953	13.45825195
 15	0	0	1	1.052856445	7.919311523	29.25109863
END_DATA
