data/calibration-001358.ti3
CTI3   
ORIGINATOR	"ColorHug Factory"
DESCRIPTOR	"Calibration Target chart information 3"
DEVICE_CLASS	"DISPLAY"
COLOR_REP	"RGB_XYZ"
TARGET_INSTRUMENT	"Hughski ColorHug"
INSTRUMENT_TYPE_SPECTRAL	"NO"
NORMALIZED_TO_Y_100	"NO"
NUMBER_OF_FIELDS	7
NUMBER_OF_SETS	15
BEGIN_DATA_FORMAT
 SAMPLE_ID	RGB_R	RGB_G	RGB_B	XYZ_X	XYZ_Y	XYZ_Z
END_DATA_FORMAT
BEGIN_DATA
 1	0	0	0	0.09155273438	0.09155273438	0.1831054688
 2	1	1	1	34.14916992	37.21618652	46.55456543
 3	1	0	0	20.5078125	2.60925293	3.387451172
 4	0	1	0	12.35961914	26.82495117	12.08496094
 5	0	0	1	0.8697509766	7.827758789	30.85327148
 6	0	0	0	0.09155273438	0.1373291016	0.1831054688
 7	1	1	1	34.51538086	37.30773926	46.55456543
 8	1	0	0	20.32470703	2.60925293	3.387451172
 9	0	1	0	12.26806641	26.82495117	12.08496094
 10	0	0	1	0.8697509766	7.827758789	30.99060059
 11	0	0	0	0.1373291016	0.1373291016	0.1831054688
 12	1	1	1	34.46960449	37.26196289	46.37145996
 13	1	0	0	20.27893066	2.60925293	3.387451172
 14	0	1	0	12.26806641	26.7791748	12.03918457
 15	0	0	1	0.8697509766	7.827758789	30.99060059
END_DATA
