data/calibration-002335.ti3
CTI3   
ORIGINATOR	"ColorHug Factory"
CREATED	"Tue Jan 21 20:30:57 2014"
DESCRIPTOR	"Calibration Target chart information 3"
DEVICE_CLASS	"DISPLAY"
COLOR_REP	"RGB_XYZ"
TARGET_INSTRUMENT	"Hughski ColorHug"
INSTRUMENT_TYPE_SPECTRAL	"NO"
NORMALIZED_TO_Y_100	"NO"
NUMBER_OF_FIELDS	7
NUMBER_OF_SETS	15
BEGIN_DATA_FORMAT
 SAMPLE_ID	RGB_R	RGB_G	RGB_B	XYZ_X	XYZ_Y	XYZ_Z
END_DATA_FORMAT
BEGIN_DATA
 1.0	0.0	0.0	0.0	0.216323852539	0.182266235352	0.270034790039
 2.0	1.0	1.0	1.0	73.142852783203	35.772918701172	55.727890014648
 3.0	1.0	0.0	0.0	46.282470703125	3.838790893555	6.258209228516
 4.0	0.0	1.0	0.0	22.818939208984	22.94677734375	11.652908325195
 5.0	0.0	0.0	1.0	1.519561767578	8.914031982422	37.406387329102
 6.0	0.0	0.0	0.0	0.215560913086	0.18278503418	0.270721435547
 7.0	1.0	1.0	1.0	73.801788330078	35.617385864258	55.727890014648
 8.0	1.0	0.0	0.0	46.0224609375	3.842391967773	6.220184326172
 9.0	0.0	1.0	0.0	22.692520141602	23.141235351562	11.80403137207
 10.0	0.0	0.0	1.0	1.519561767578	8.914031982422	37.406387329102
 11.0	0.0	0.0	0.0	0.216018676758	0.18359375	0.271499633789
 12.0	1.0	1.0	1.0	73.142852783203	35.617385864258	56.109588623047
 13.0	1.0	0.0	0.0	45.765350341797	3.81022644043	6.291854858398
 14.0	0.0	1.0	0.0	22.692520141602	23.141235351562	11.753219604492
 15.0	0.0	0.0	1.0	1.51872253418	8.914031982422	37.406387329102
END_DATA
