data/calibration-001407.ti3
CTI3   
ORIGINATOR	"ColorHug Factory"
DESCRIPTOR	"Calibration Target chart information 3"
DEVICE_CLASS	"DISPLAY"
COLOR_REP	"RGB_XYZ"
TARGET_INSTRUMENT	"Hughski ColorHug"
INSTRUMENT_TYPE_SPECTRAL	"NO"
NORMALIZED_TO_Y_100	"NO"
NUMBER_OF_FIELDS	7
NUMBER_OF_SETS	15
BEGIN_DATA_FORMAT
 SAMPLE_ID	RGB_R	RGB_G	RGB_B	XYZ_X	XYZ_Y	XYZ_Z
END_DATA_FORMAT
BEGIN_DATA
 1	0	0	0	0.2288818359	0.2288818359	0.2746582031
 2	1	1	1	35.75134277	38.0859375	45.50170898
 3	1	0	0	21.37756348	2.975463867	3.662109375
 4	0	1	0	13.04626465	27.55737305	12.45117188
 5	0	0	1	1.007080078	8.056640625	29.75463867
 6	0	0	0	0.2288818359	0.2288818359	0.2746582031
 7	1	1	1	35.75134277	38.26904297	45.45593262
 8	1	0	0	21.37756348	2.975463867	3.662109375
 9	0	1	0	13.09204102	27.42004395	12.40539551
 10	0	0	1	1.007080078	8.102416992	29.89196777
 11	0	0	0	0.2288818359	0.2746582031	0.3204345703
 12	1	1	1	35.84289551	38.3605957	45.68481445
 13	1	0	0	21.33178711	2.975463867	3.662109375
 14	0	1	0	13.09204102	27.60314941	12.40539551
 15	0	0	1	1.007080078	8.102416992	29.80041504
END_DATA
