data/calibration-000774.ti3
CTI3   
ORIGINATOR	"ColorHug Factory"
DESCRIPTOR	"Calibration Target chart information 3"
DEVICE_CLASS	"DISPLAY"
COLOR_REP	"RGB_XYZ"
TARGET_INSTRUMENT	"Hughski ColorHug"
INSTRUMENT_TYPE_SPECTRAL	"NO"
NORMALIZED_TO_Y_100	"NO"
NUMBER_OF_FIELDS	7
NUMBER_OF_SETS	15
BEGIN_DATA_FORMAT
 SAMPLE_ID	RGB_R	RGB_G	RGB_B	XYZ_X	XYZ_Y	XYZ_Z
END_DATA_FORMAT
BEGIN_DATA
 1	0	0	0	0.09155273438	0.09155273438	0.09155273438
 2	1	1	1	58.7310791	39.32189941	46.78344727
 3	1	0	0	37.21618652	3.707885742	5.53894043
 4	0	1	0	19.40917969	27.55737305	12.72583008
 5	0	0	1	0.9613037109	7.598876953	27.74047852
 6	0	0	0	0.09155273438	0.09155273438	0.09155273438
 7	1	1	1	57.54089355	38.90991211	46.09680176
 8	1	0	0	36.94152832	3.662109375	5.493164062
 9	0	1	0	19.22607422	27.78625488	12.77160645
 10	0	0	1	0.9613037109	7.64465332	27.60314941
 11	0	0	0	0.09155273438	0.09155273438	0.1373291016
 12	1	1	1	58.4564209	39.09301758	46.32568359
 13	1	0	0	36.66687012	3.662109375	5.493164062
 14	0	1	0	19.22607422	27.69470215	12.81738281
 15	0	0	1	0.9613037109	7.598876953	27.69470215
END_DATA
