data/calibration-002032.ti3
CTI3   
ORIGINATOR	"ColorHug Factory"
CREATED	"Sun May 26 11:29:26 2013"
DESCRIPTOR	"Calibration Target chart information 3"
DEVICE_CLASS	"DISPLAY"
COLOR_REP	"RGB_XYZ"
TARGET_INSTRUMENT	"Hughski ColorHug"
INSTRUMENT_TYPE_SPECTRAL	"NO"
NORMALIZED_TO_Y_100	"NO"
NUMBER_OF_FIELDS	7
NUMBER_OF_SETS	15
BEGIN_DATA_FORMAT
 SAMPLE_ID	RGB_R	RGB_G	RGB_B	XYZ_X	XYZ_Y	XYZ_Z
END_DATA_FORMAT
BEGIN_DATA
 1	0	0	0	0.0457763671875	0.091552734375	0.1373291015625
 2	1	1	1	40.7867431640625	39.8712158203125	53.2379150390625
 3	1	0	0	24.7650146484375	3.0670166015625	4.21142578125
 4	0	1	0	14.5111083984375	27.374267578125	13.18359375
 5	0	0	1	1.007080078125	9.429931640625	35.797119140625
 6	0	0	0	0.0457763671875	0.091552734375	0.1373291015625
 7	1	1	1	40.924072265625	39.9169921875	53.009033203125
 8	1	0	0	24.8565673828125	3.0670166015625	4.21142578125
 9	0	1	0	14.556884765625	27.374267578125	13.2293701171875
 10	0	0	1	1.007080078125	9.3841552734375	35.70556640625
 11	0	0	0	0.0457763671875	0.091552734375	0.1373291015625
 12	1	1	1	40.6494140625	39.7796630859375	53.192138671875
 13	1	0	0	24.7650146484375	3.0670166015625	4.21142578125
 14	0	1	0	14.46533203125	27.3284912109375	13.18359375
 15	0	0	1	1.007080078125	9.3841552734375	35.614013671875
END_DATA
