data/calibration-000908.ti3
CTI3   
ORIGINATOR	"ColorHug Factory"
DESCRIPTOR	"Calibration Target chart information 3"
DEVICE_CLASS	"DISPLAY"
COLOR_REP	"RGB_XYZ"
TARGET_INSTRUMENT	"Hughski ColorHug"
INSTRUMENT_TYPE_SPECTRAL	"NO"
NORMALIZED_TO_Y_100	"NO"
NUMBER_OF_FIELDS	7
NUMBER_OF_SETS	15
BEGIN_DATA_FORMAT
 SAMPLE_ID	RGB_R	RGB_G	RGB_B	XYZ_X	XYZ_Y	XYZ_Z
END_DATA_FORMAT
BEGIN_DATA
 1	0	0	0	0.04577636719	0.04577636719	0.09155273438
 2	1	1	1	49.62158203	35.98022461	43.02978516
 3	1	0	0	31.76879883	3.25012207	4.806518555
 4	0	1	0	16.84570312	25.90942383	11.94763184
 5	0	0	1	0.8239746094	7.095336914	26.18408203
 6	0	0	0	0.04577636719	0.04577636719	0.09155273438
 7	1	1	1	49.6673584	36.25488281	43.02978516
 8	1	0	0	31.58569336	3.25012207	4.806518555
 9	0	1	0	16.79992676	25.72631836	11.8560791
 10	0	0	1	0.8239746094	7.141113281	26.04675293
 11	0	0	0	0.04577636719	0.04577636719	0.09155273438
 12	1	1	1	50.12512207	36.20910645	42.93823242
 13	1	0	0	31.26525879	3.25012207	4.806518555
 14	0	1	0	16.70837402	25.72631836	11.8560791
 15	0	0	1	0.8239746094	7.095336914	26.00097656
END_DATA
