data/calibration-001620.ti3
CTI3   
ORIGINATOR	"ColorHug Factory"
DESCRIPTOR	"Calibration Target chart information 3"
DEVICE_CLASS	"DISPLAY"
COLOR_REP	"RGB_XYZ"
TARGET_INSTRUMENT	"Hughski ColorHug"
INSTRUMENT_TYPE_SPECTRAL	"NO"
NORMALIZED_TO_Y_100	"NO"
NUMBER_OF_FIELDS	7
NUMBER_OF_SETS	15
BEGIN_DATA_FORMAT
 SAMPLE_ID	RGB_R	RGB_G	RGB_B	XYZ_X	XYZ_Y	XYZ_Z
END_DATA_FORMAT
BEGIN_DATA
 1	0	0	0	0.1373291016	0.1831054688	0.1831054688
 2	1	1	1	30.67016602	30.39550781	37.8112793
 3	1	0	0	18.44787598	2.426147461	3.158569336
 4	0	1	0	11.07788086	21.56066895	10.16235352
 5	0	0	1	0.8239746094	6.683349609	24.71923828
 6	0	0	0	0.1831054688	0.1831054688	0.1831054688
 7	1	1	1	30.76171875	30.39550781	37.8112793
 8	1	0	0	18.44787598	2.426147461	3.158569336
 9	0	1	0	11.07788086	21.65222168	10.16235352
 10	0	0	1	0.8239746094	6.683349609	24.76501465
 11	0	0	0	0.1831054688	0.1831054688	0.1831054688
 12	1	1	1	30.62438965	30.39550781	37.8112793
 13	1	0	0	18.44787598	2.426147461	3.158569336
 14	0	1	0	11.07788086	21.46911621	10.16235352
 15	0	0	1	0.8239746094	6.683349609	24.76501465
END_DATA
