data/calibration-001589.ti3
CTI3   
ORIGINATOR	"ColorHug Factory"
DESCRIPTOR	"Calibration Target chart information 3"
DEVICE_CLASS	"DISPLAY"
COLOR_REP	"RGB_XYZ"
TARGET_INSTRUMENT	"Hughski ColorHug"
INSTRUMENT_TYPE_SPECTRAL	"NO"
NORMALIZED_TO_Y_100	"NO"
NUMBER_OF_FIELDS	7
NUMBER_OF_SETS	15
BEGIN_DATA_FORMAT
 SAMPLE_ID	RGB_R	RGB_G	RGB_B	XYZ_X	XYZ_Y	XYZ_Z
END_DATA_FORMAT
BEGIN_DATA
 1	0	0	0	0.09155273438	0.09155273438	0.1373291016
 2	1	1	1	34.92736816	34.14916992	41.015625
 3	1	0	0	21.14868164	2.746582031	3.524780273
 4	0	1	0	12.77160645	24.21569824	11.07788086
 5	0	0	1	0.8239746094	7.232666016	26.27563477
 6	0	0	0	0.09155273438	0.09155273438	0.1373291016
 7	1	1	1	34.8815918	34.19494629	40.92407227
 8	1	0	0	21.05712891	2.700805664	3.479003906
 9	0	1	0	12.49694824	24.12414551	11.12365723
 10	0	0	1	0.8697509766	7.232666016	26.45874023
 11	0	0	0	0.09155273438	0.09155273438	0.1373291016
 12	1	1	1	34.8815918	34.14916992	40.92407227
 13	1	0	0	20.9197998	2.700805664	3.524780273
 14	0	1	0	12.54272461	24.21569824	11.07788086
 15	0	0	1	0.8697509766	7.232666016	26.18408203
END_DATA
