data/calibration-002225.ti3
CTI3   
ORIGINATOR	"ColorHug Factory"
CREATED	"Wed Nov 20 21:19:19 2013"
DESCRIPTOR	"Calibration Target chart information 3"
DEVICE_CLASS	"DISPLAY"
COLOR_REP	"RGB_XYZ"
TARGET_INSTRUMENT	"Hughski ColorHug"
INSTRUMENT_TYPE_SPECTRAL	"NO"
NORMALIZED_TO_Y_100	"NO"
NUMBER_OF_FIELDS	7
NUMBER_OF_SETS	15
BEGIN_DATA_FORMAT
 SAMPLE_ID	RGB_R	RGB_G	RGB_B	XYZ_X	XYZ_Y	XYZ_Z
END_DATA_FORMAT
BEGIN_DATA
 1	0	0	0	0.1373291015625	0.091552734375	0.1373291015625
 2	1	1	1	69.0765380859375	32.3638916015625	48.2025146484375
 3	1	0	0	44.586181640625	3.6163330078125	6.1798095703125
 4	0	1	0	22.5677490234375	21.3775634765625	11.1236572265625
 5	0	0	1	1.2359619140625	7.5531005859375	31.219482421875
 6	0	0	0	0.1373291015625	0.091552734375	0.1373291015625
 7	1	1	1	68.9849853515625	32.318115234375	48.3856201171875
 8	1	0	0	43.9910888671875	3.570556640625	6.134033203125
 9	0	1	0	22.3846435546875	21.148681640625	10.986328125
 10	0	0	1	1.2359619140625	7.50732421875	31.1279296875
 11	0	0	0	0.1373291015625	0.091552734375	0.1373291015625
 12	1	1	1	68.572998046875	32.2265625	47.607421875
 13	1	0	0	44.2657470703125	3.570556640625	6.1798095703125
 14	0	1	0	22.3388671875	21.2860107421875	10.986328125
 15	0	0	1	1.2359619140625	7.50732421875	31.036376953125
END_DATA
