data/calibration-002859.ti3
CTI3   
ORIGINATOR	"ColorHug Factory"
CREATED	"Tue May 05 22:05:54 2015"
DESCRIPTOR	"Calibration Target chart information 3"
DEVICE_CLASS	"DISPLAY"
COLOR_REP	"RGB_XYZ"
TARGET_INSTRUMENT	"Hughski ColorHug"
INSTRUMENT_TYPE_SPECTRAL	"NO"
NORMALIZED_TO_Y_100	"NO"
NUMBER_OF_FIELDS	7
NUMBER_OF_SETS	15
BEGIN_DATA_FORMAT
 SAMPLE_ID	RGB_R	RGB_G	RGB_B	XYZ_X	XYZ_Y	XYZ_Z
END_DATA_FORMAT
BEGIN_DATA
 1.0	0.0	0.0	0.0	0.836853027344	0.875854492188	0.90950012207
 2.0	1.0	1.0	1.0	120.470581054688	106.389602661133	115.380279541016
 3.0	1.0	0.0	0.0	88.086013793945	8.885025024414	14.222213745117
 4.0	0.0	1.0	0.0	27.582489013672	74.472717285156	29.153015136719
 5.0	0.0	0.0	1.0	4.302520751953	22.021499633789	70.01708984375
 6.0	0.0	0.0	0.0	0.838226318359	0.876983642578	0.90950012207
 7.0	1.0	1.0	1.0	120.470581054688	106.389602661133	115.380279541016
 8.0	1.0	0.0	0.0	88.086013793945	8.894668579102	14.222213745117
 9.0	0.0	1.0	0.0	27.582489013672	74.472717285156	29.153015136719
 10.0	0.0	0.0	1.0	4.304779052734	22.021499633789	70.01708984375
 11.0	0.0	0.0	0.0	0.839767456055	0.878677368164	0.912551879883
 12.0	1.0	1.0	1.0	120.470581054688	106.389602661133	115.380279541016
 13.0	1.0	0.0	0.0	88.086013793945	8.894668579102	14.222213745117
 14.0	0.0	1.0	0.0	27.582489013672	74.472717285156	29.153015136719
 15.0	0.0	0.0	1.0	4.307037353516	22.021499633789	70.01708984375
END_DATA
