data/calibration-000371.ti3
CTI3
ORIGINATOR	"ColorHug Factory"
DESCRIPTOR	"Calibration Target chart information 3"
DEVICE_CLASS	"DISPLAY"
COLOR_REP	"RGB_XYZ"
TARGET_INSTRUMENT	"Hughski ColorHug"
INSTRUMENT_TYPE_SPECTRAL	"NO"
NORMALIZED_TO_Y_100	"NO"
NUMBER_OF_FIELDS	7
NUMBER_OF_SETS	15
BEGIN_DATA_FORMAT
 SAMPLE_ID	RGB_R	RGB_G	RGB_B	XYZ_X	XYZ_Y	XYZ_Z
END_DATA_FORMAT
BEGIN_DATA
 1	0	0	0	0.04577636719	0	0
 2	1	1	1	50.81176758	34.51538086	39.32189941
 3	1	0	0	31.86035156	3.021240234	4.440307617
 4	0	1	0	16.66259766	25.13122559	10.94055176
 5	0	0	1	0.6866455078	6.317138672	23.62060547
 6	0	0	0	0.04577636719	0	0
 7	1	1	1	50.76599121	34.60693359	39.45922852
 8	1	0	0	31.9519043	3.021240234	4.440307617
 9	0	1	0	16.66259766	24.90234375	10.94055176
 10	0	0	1	0.6866455078	6.317138672	23.62060547
 11	0	0	0	0.04577636719	0	0
 12	1	1	1	50.81176758	34.56115723	39.41345215
 13	1	0	0	31.8145752	3.021240234	4.440307617
 14	0	1	0	16.66259766	24.85656738	11.03210449
 15	0	0	1	0.6866455078	6.317138672	23.62060547
END_DATA
