data/calibration-001985.ti3
CTI3   
ORIGINATOR	"ColorHug Factory"
CREATED	"Sun May 26 09:37:36 2013"
DESCRIPTOR	"Calibration Target chart information 3"
DEVICE_CLASS	"DISPLAY"
COLOR_REP	"RGB_XYZ"
TARGET_INSTRUMENT	"Hughski ColorHug"
INSTRUMENT_TYPE_SPECTRAL	"NO"
NORMALIZED_TO_Y_100	"NO"
NUMBER_OF_FIELDS	7
NUMBER_OF_SETS	15
BEGIN_DATA_FORMAT
 SAMPLE_ID	RGB_R	RGB_G	RGB_B	XYZ_X	XYZ_Y	XYZ_Z
END_DATA_FORMAT
BEGIN_DATA
 1	0	0	0	0.091552734375	0.091552734375	0.1373291015625
 2	1	1	1	43.39599609375	33.1878662109375	44.769287109375
 3	1	0	0	27.191162109375	2.9296875	4.1656494140625
 4	0	1	0	15.106201171875	22.796630859375	11.0321044921875
 5	0	0	1	0.91552734375	7.5531005859375	29.8004150390625
 6	0	0	0	0.1373291015625	0.091552734375	0.1373291015625
 7	1	1	1	42.9840087890625	33.050537109375	44.677734375
 8	1	0	0	27.099609375	2.9754638671875	4.1656494140625
 9	0	1	0	15.0604248046875	22.9339599609375	11.1236572265625
 10	0	0	1	0.91552734375	7.5531005859375	29.7088623046875
 11	0	0	0	0.1373291015625	0.091552734375	0.1373291015625
 12	1	1	1	43.39599609375	33.050537109375	44.677734375
 13	1	0	0	27.008056640625	2.9296875	4.1656494140625
 14	0	1	0	15.106201171875	22.8424072265625	11.077880859375
 15	0	0	1	0.91552734375	7.598876953125	29.6173095703125
END_DATA
