data/calibration-000885.ti3
CTI3   
ORIGINATOR	"ColorHug Factory"
DESCRIPTOR	"Calibration Target chart information 3"
DEVICE_CLASS	"DISPLAY"
COLOR_REP	"RGB_XYZ"
TARGET_INSTRUMENT	"Hughski ColorHug"
INSTRUMENT_TYPE_SPECTRAL	"NO"
NORMALIZED_TO_Y_100	"NO"
NUMBER_OF_FIELDS	7
NUMBER_OF_SETS	15
BEGIN_DATA_FORMAT
 SAMPLE_ID	RGB_R	RGB_G	RGB_B	XYZ_X	XYZ_Y	XYZ_Z
END_DATA_FORMAT
BEGIN_DATA
 1	0	0	0	0.04577636719	0	0.04577636719
 2	1	1	1	54.88586426	38.13171387	44.3572998
 3	1	0	0	34.79003906	3.479003906	5.126953125
 4	0	1	0	18.40209961	27.32849121	12.45117188
 5	0	0	1	0.8239746094	7.461547852	26.73339844
 6	0	0	0	0.04577636719	0	0.04577636719
 7	1	1	1	55.3894043	38.68103027	44.72351074
 8	1	0	0	34.65270996	3.479003906	5.126953125
 9	0	1	0	18.40209961	27.55737305	12.49694824
 10	0	0	1	0.8239746094	7.461547852	26.73339844
 11	0	0	0	0.04577636719	0	0.04577636719
 12	1	1	1	54.84008789	38.31481934	44.49462891
 13	1	0	0	34.60693359	3.479003906	5.126953125
 14	0	1	0	18.40209961	27.37426758	12.45117188
 15	0	0	1	0.8239746094	7.461547852	26.7791748
END_DATA
