data/calibration-001530.ti3
CTI3   
ORIGINATOR	"ColorHug Factory"
DESCRIPTOR	"Calibration Target chart information 3"
DEVICE_CLASS	"DISPLAY"
COLOR_REP	"RGB_XYZ"
TARGET_INSTRUMENT	"Hughski ColorHug"
INSTRUMENT_TYPE_SPECTRAL	"NO"
NORMALIZED_TO_Y_100	"NO"
NUMBER_OF_FIELDS	7
NUMBER_OF_SETS	15
BEGIN_DATA_FORMAT
 SAMPLE_ID	RGB_R	RGB_G	RGB_B	XYZ_X	XYZ_Y	XYZ_Z
END_DATA_FORMAT
BEGIN_DATA
 1	0	0	0	0.09155273438	0.1373291016	0.1831054688
 2	1	1	1	40.69519043	41.015625	50.2166748
 3	1	0	0	24.16992188	2.9296875	3.799438477
 4	0	1	0	14.32800293	29.66308594	13.22937012
 5	0	0	1	0.9613037109	8.285522461	33.18786621
 6	0	0	0	0.09155273438	0.1373291016	0.1831054688
 7	1	1	1	40.83251953	41.015625	50.26245117
 8	1	0	0	24.26147461	2.9296875	3.799438477
 9	0	1	0	14.28222656	29.7088623	13.22937012
 10	0	0	1	0.9613037109	8.331298828	33.18786621
 11	0	0	0	0.09155273438	0.1373291016	0.1831054688
 12	1	1	1	40.51208496	40.92407227	50.26245117
 13	1	0	0	24.30725098	2.9296875	3.799438477
 14	0	1	0	14.3737793	29.7088623	13.22937012
 15	0	0	1	0.9613037109	8.331298828	33.18786621
END_DATA
