data/calibration-002619.ti3
CTI3   
ORIGINATOR	"ColorHug Factory"
CREATED	"Tue Jan 27 19:54:49 2015"
DESCRIPTOR	"Calibration Target chart information 3"
DEVICE_CLASS	"DISPLAY"
COLOR_REP	"RGB_XYZ"
TARGET_INSTRUMENT	"Hughski ColorHug"
INSTRUMENT_TYPE_SPECTRAL	"NO"
NORMALIZED_TO_Y_100	"NO"
NUMBER_OF_FIELDS	7
NUMBER_OF_SETS	15
BEGIN_DATA_FORMAT
 SAMPLE_ID	RGB_R	RGB_G	RGB_B	XYZ_X	XYZ_Y	XYZ_Z
END_DATA_FORMAT
BEGIN_DATA
 1.0	0.0	0.0	0.0	0.962966918945	0.86457824707	0.970718383789
 2.0	1.0	1.0	1.0	80.313720703125	73.801788330078	74.472717285156
 3.0	1.0	0.0	0.0	57.690139770508	6.041290283203	9.394485473633
 4.0	0.0	1.0	0.0	19.412307739258	52.851608276367	20.177337646484
 5.0	0.0	0.0	1.0	3.316589355469	14.94889831543	45.511108398438
 6.0	0.0	0.0	0.0	0.968078613281	0.869171142578	0.970153808594
 7.0	1.0	1.0	1.0	81.919998168945	74.472717285156	75.851837158203
 8.0	1.0	0.0	0.0	58.935241699219	6.099761962891	9.525573730469
 9.0	0.0	1.0	0.0	19.73974609375	54.251647949219	20.479995727539
 10.0	0.0	0.0	1.0	3.357376098633	15.170364379883	46.282470703125
 11.0	0.0	0.0	0.0	0.982482910156	0.876327514648	0.981063842773
 12.0	1.0	1.0	1.0	82.747467041016	75.155960083008	76.560745239258
 13.0	1.0	0.0	0.0	59.795608520508	6.2060546875	9.671768188477
 14.0	0.0	1.0	0.0	20.177337646484	54.979858398438	20.791870117188
 15.0	0.0	0.0	1.0	3.397750854492	15.369598388672	47.080459594727
END_DATA
