data/calibration-000684.ti3
CTI3
ORIGINATOR	"ColorHug Factory"
DESCRIPTOR	"Calibration Target chart information 3"
DEVICE_CLASS	"DISPLAY"
COLOR_REP	"RGB_XYZ"
TARGET_INSTRUMENT	"Hughski ColorHug"
INSTRUMENT_TYPE_SPECTRAL	"NO"
NORMALIZED_TO_Y_100	"NO"
NUMBER_OF_FIELDS	7
NUMBER_OF_SETS	15
BEGIN_DATA_FORMAT
 SAMPLE_ID	RGB_R	RGB_G	RGB_B	XYZ_X	XYZ_Y	XYZ_Z
END_DATA_FORMAT
BEGIN_DATA
 1	0	0	0	0.04577636719	0	0.04577636719
 2	1	1	1	59.60083008	40.6036377	47.37854004
 3	1	0	0	37.58239746	3.662109375	5.493164062
 4	0	1	0	20.41625977	29.296875	13.36669922
 5	0	0	1	0.9155273438	7.598876953	28.42712402
 6	0	0	0	0.04577636719	0	0.04577636719
 7	1	1	1	59.87548828	40.78674316	47.60742188
 8	1	0	0	37.90283203	3.662109375	5.493164062
 9	0	1	0	20.3704834	29.296875	13.45825195
 10	0	0	1	0.9155273438	7.598876953	28.28979492
 11	0	0	0	0.04577636719	0	0.04577636719
 12	1	1	1	59.92126465	40.23742676	47.33276367
 13	1	0	0	37.76550293	3.662109375	5.493164062
 14	0	1	0	20.5078125	29.296875	13.45825195
 15	0	0	1	0.9155273438	7.598876953	28.24401855
END_DATA
