data/calibration-000719.ti3
CTI3
ORIGINATOR	"ColorHug Factory"
DESCRIPTOR	"Calibration Target chart information 3"
DEVICE_CLASS	"DISPLAY"
COLOR_REP	"RGB_XYZ"
TARGET_INSTRUMENT	"Hughski ColorHug"
INSTRUMENT_TYPE_SPECTRAL	"NO"
NORMALIZED_TO_Y_100	"NO"
NUMBER_OF_FIELDS	7
NUMBER_OF_SETS	15
BEGIN_DATA_FORMAT
 SAMPLE_ID	RGB_R	RGB_G	RGB_B	XYZ_X	XYZ_Y	XYZ_Z
END_DATA_FORMAT
BEGIN_DATA
 1	0	0	0	0.04577636719	0.04577636719	0.04577636719
 2	1	1	1	52.78015137	34.19494629	38.3605957
 3	1	0	0	33.78295898	3.295898438	4.760742188
 4	0	1	0	17.80700684	24.81079102	11.07788086
 5	0	0	1	0.8239746094	6.362915039	22.75085449
 6	0	0	0	0.04577636719	0.04577636719	0.09155273438
 7	1	1	1	53.0090332	34.37805176	38.77258301
 8	1	0	0	33.69140625	3.295898438	4.760742188
 9	0	1	0	17.76123047	24.90234375	11.12365723
 10	0	0	1	0.8239746094	6.362915039	22.84240723
 11	0	0	0	0.04577636719	0.04577636719	0.09155273438
 12	1	1	1	53.0090332	34.42382812	38.77258301
 13	1	0	0	33.55407715	3.295898438	4.760742188
 14	0	1	0	17.76123047	24.81079102	11.07788086
 15	0	0	1	0.8239746094	6.362915039	22.88818359
END_DATA
