data/calibration-001568.ti3
CTI3   
ORIGINATOR	"ColorHug Factory"
DESCRIPTOR	"Calibration Target chart information 3"
DEVICE_CLASS	"DISPLAY"
COLOR_REP	"RGB_XYZ"
TARGET_INSTRUMENT	"Hughski ColorHug"
INSTRUMENT_TYPE_SPECTRAL	"NO"
NORMALIZED_TO_Y_100	"NO"
NUMBER_OF_FIELDS	7
NUMBER_OF_SETS	15
BEGIN_DATA_FORMAT
 SAMPLE_ID	RGB_R	RGB_G	RGB_B	XYZ_X	XYZ_Y	XYZ_Z
END_DATA_FORMAT
BEGIN_DATA
 1	0	0	0	0	0	0.09155273438
 2	1	1	1	32.91320801	29.4342041	36.84997559
 3	1	0	0	19.95849609	2.334594727	3.204345703
 4	0	1	0	11.4440918	20.7824707	9.750366211
 5	0	0	1	0.6866455078	6.225585938	23.62060547
 6	0	0	0	0	0	0.09155273438
 7	1	1	1	32.86743164	29.47998047	36.75842285
 8	1	0	0	20.14160156	2.334594727	3.204345703
 9	0	1	0	11.4440918	20.7824707	9.750366211
 10	0	0	1	0.6866455078	6.225585938	23.62060547
 11	0	0	0	0	0	0.09155273438
 12	1	1	1	33.00476074	29.47998047	36.71264648
 13	1	0	0	20.14160156	2.334594727	3.204345703
 14	0	1	0	11.4440918	20.82824707	9.750366211
 15	0	0	1	0.6866455078	6.225585938	23.62060547
END_DATA
