data/calibration-001799.ti3
CTI3   
ORIGINATOR	"ColorHug Factory"
CREATED	"Tue Mar 26 20:30:13 2013"
DESCRIPTOR	"Calibration Target chart information 3"
DEVICE_CLASS	"DISPLAY"
COLOR_REP	"RGB_XYZ"
TARGET_INSTRUMENT	"Hughski ColorHug"
INSTRUMENT_TYPE_SPECTRAL	"NO"
NORMALIZED_TO_Y_100	"NO"
NUMBER_OF_FIELDS	7
NUMBER_OF_SETS	15
BEGIN_DATA_FORMAT
 SAMPLE_ID	RGB_R	RGB_G	RGB_B	XYZ_X	XYZ_Y	XYZ_Z
END_DATA_FORMAT
BEGIN_DATA
 1	0	0	0	0.09155273438	0.09155273438	0.1373291016
 2	1	1	1	36.07177734	34.28649902	42.43469238
 3	1	0	0	21.74377441	2.700805664	3.479003906
 4	0	1	0	12.63427734	24.12414551	11.03210449
 5	0	0	1	0.8239746094	7.461547852	27.78625488
 6	0	0	0	0.09155273438	0.09155273438	0.1373291016
 7	1	1	1	36.34643555	34.42382812	42.43469238
 8	1	0	0	21.83532715	2.700805664	3.479003906
 9	0	1	0	12.63427734	24.16992188	11.03210449
 10	0	0	1	0.8239746094	7.461547852	27.87780762
 11	0	0	0	0.09155273438	0.09155273438	0.1373291016
 12	1	1	1	36.34643555	34.42382812	42.43469238
 13	1	0	0	21.83532715	2.700805664	3.479003906
 14	0	1	0	12.68005371	24.26147461	11.03210449
 15	0	0	1	0.8239746094	7.461547852	27.83203125
END_DATA
