data/calibration-000364.ti3
CTI3
ORIGINATOR	"ColorHug Factory"
DESCRIPTOR	"Calibration Target chart information 3"
DEVICE_CLASS	"DISPLAY"
COLOR_REP	"RGB_XYZ"
TARGET_INSTRUMENT	"Hughski ColorHug"
INSTRUMENT_TYPE_SPECTRAL	"NO"
NORMALIZED_TO_Y_100	"NO"
NUMBER_OF_FIELDS	7
NUMBER_OF_SETS	15
BEGIN_DATA_FORMAT
 SAMPLE_ID	RGB_R	RGB_G	RGB_B	XYZ_X	XYZ_Y	XYZ_Z
END_DATA_FORMAT
BEGIN_DATA
 1	0	0	0	0	0.09155273438	0.1373291016
 2	1	1	1	51.86462402	33.96606445	39.68811035
 3	1	0	0	33.05053711	3.387451172	4.989624023
 4	0	1	0	17.53234863	24.26147461	11.4440918
 5	0	0	1	0.8239746094	6.500244141	23.4375
 6	0	0	0	0.09155273438	0.09155273438	0.1373291016
 7	1	1	1	51.58996582	33.96606445	39.64233398
 8	1	0	0	33.05053711	3.387451172	4.989624023
 9	0	1	0	17.4407959	24.35302734	11.4440918
 10	0	0	1	0.8239746094	6.500244141	23.48327637
 11	0	0	0	0.09155273438	0.09155273438	0.1831054688
 12	1	1	1	51.86462402	33.92028809	39.68811035
 13	1	0	0	33.00476074	3.387451172	4.989624023
 14	0	1	0	17.48657227	24.26147461	11.4440918
 15	0	0	1	0.8239746094	6.500244141	23.5748291
END_DATA
