data/calibration-001359.ti3
CTI3   
ORIGINATOR	"ColorHug Factory"
DESCRIPTOR	"Calibration Target chart information 3"
DEVICE_CLASS	"DISPLAY"
COLOR_REP	"RGB_XYZ"
TARGET_INSTRUMENT	"Hughski ColorHug"
INSTRUMENT_TYPE_SPECTRAL	"NO"
NORMALIZED_TO_Y_100	"NO"
NUMBER_OF_FIELDS	7
NUMBER_OF_SETS	15
BEGIN_DATA_FORMAT
 SAMPLE_ID	RGB_R	RGB_G	RGB_B	XYZ_X	XYZ_Y	XYZ_Z
END_DATA_FORMAT
BEGIN_DATA
 1	0	0	0	0.1373291016	0.1831054688	0.1831054688
 2	1	1	1	33.46252441	35.98022461	45.04394531
 3	1	0	0	19.86694336	2.655029297	3.341674805
 4	0	1	0	12.1307373	26.00097656	11.81030273
 5	0	0	1	0.8697509766	7.64465332	29.93774414
 6	0	0	0	0.1373291016	0.1831054688	0.1831054688
 7	1	1	1	33.46252441	36.02600098	45.08972168
 8	1	0	0	19.86694336	2.655029297	3.341674805
 9	0	1	0	12.08496094	25.86364746	11.8560791
 10	0	0	1	0.9155273438	7.690429688	29.89196777
 11	0	0	0	0.1373291016	0.1831054688	0.1831054688
 12	1	1	1	33.32519531	35.98022461	45.04394531
 13	1	0	0	19.91271973	2.655029297	3.341674805
 14	0	1	0	12.1307373	25.90942383	11.81030273
 15	0	0	1	0.9155273438	7.690429688	30.07507324
END_DATA
