data/calibration-002393.ti3
CTI3   
ORIGINATOR	"ColorHug Factory"
CREATED	"Wed May 14 20:21:22 2014"
DESCRIPTOR	"Calibration Target chart information 3"
DEVICE_CLASS	"DISPLAY"
COLOR_REP	"RGB_XYZ"
TARGET_INSTRUMENT	"Hughski ColorHug"
INSTRUMENT_TYPE_SPECTRAL	"NO"
NORMALIZED_TO_Y_100	"NO"
NUMBER_OF_FIELDS	7
NUMBER_OF_SETS	15
BEGIN_DATA_FORMAT
 SAMPLE_ID	RGB_R	RGB_G	RGB_B	XYZ_X	XYZ_Y	XYZ_Z
END_DATA_FORMAT
BEGIN_DATA
 1.0	0.0	0.0	0.0	0.239074707031	0.204650878906	0.271194458008
 2.0	1.0	1.0	1.0	73.142852783203	32.12548828125	53.54248046875
 3.0	1.0	0.0	0.0	46.545440673828	3.585113525391	6.665573120117
 4.0	0.0	1.0	0.0	22.080856323242	20.078430175781	11.160751342773
 5.0	0.0	0.0	1.0	1.25048828125	8.410675048828	34.565399169922
 6.0	0.0	0.0	0.0	0.24186706543	0.207153320312	0.273681640625
 7.0	1.0	1.0	1.0	73.142852783203	32.251968383789	53.194793701172
 8.0	1.0	0.0	0.0	46.282470703125	3.597702026367	6.671005249023
 9.0	0.0	1.0	0.0	22.321517944336	20.078430175781	11.206558227539
 10.0	0.0	0.0	1.0	1.248580932617	8.402038574219	34.420166015625
 11.0	0.0	0.0	0.0	0.242568969727	0.208435058594	0.275924682617
 12.0	1.0	1.0	1.0	72.495574951172	32.12548828125	53.194793701172
 13.0	1.0	0.0	0.0	46.545440673828	3.589828491211	6.709243774414
 14.0	0.0	1.0	0.0	22.200531005859	19.931869506836	11.314910888672
 15.0	0.0	0.0	1.0	1.254898071289	8.33366394043	34.711853027344
END_DATA
