data/calibration-000554.ti3
CTI3
ORIGINATOR	"ColorHug Factory"
DESCRIPTOR	"Calibration Target chart information 3"
DEVICE_CLASS	"DISPLAY"
COLOR_REP	"RGB_XYZ"
TARGET_INSTRUMENT	"Hughski ColorHug"
INSTRUMENT_TYPE_SPECTRAL	"NO"
NORMALIZED_TO_Y_100	"NO"
NUMBER_OF_FIELDS	7
NUMBER_OF_SETS	15
BEGIN_DATA_FORMAT
 SAMPLE_ID	RGB_R	RGB_G	RGB_B	XYZ_X	XYZ_Y	XYZ_Z
END_DATA_FORMAT
BEGIN_DATA
 1	0	0	0	0.04577636719	0	0.04577636719
 2	1	1	1	51.45263672	35.88867188	41.06140137
 3	1	0	0	32.54699707	3.204345703	4.760742188
 4	0	1	0	17.48657227	25.9552002	11.8560791
 5	0	0	1	0.8239746094	6.591796875	24.30725098
 6	0	0	0	0.04577636719	0.04577636719	0.04577636719
 7	1	1	1	51.77307129	35.88867188	41.06140137
 8	1	0	0	32.5012207	3.204345703	4.760742188
 9	0	1	0	17.39501953	25.9552002	11.81030273
 10	0	0	1	0.8239746094	6.591796875	24.30725098
 11	0	0	0	0.04577636719	0.04577636719	0.04577636719
 12	1	1	1	51.54418945	35.79711914	41.06140137
 13	1	0	0	32.27233887	3.204345703	4.760742188
 14	0	1	0	17.39501953	25.9552002	11.81030273
 15	0	0	1	0.8239746094	6.591796875	24.30725098
END_DATA
