data/calibration-002093.ti3
CTI3   
ORIGINATOR	"ColorHug Factory"
CREATED	"Sun Sep 15 20:29:10 2013"
DESCRIPTOR	"Calibration Target chart information 3"
DEVICE_CLASS	"DISPLAY"
COLOR_REP	"RGB_XYZ"
TARGET_INSTRUMENT	"Hughski ColorHug"
INSTRUMENT_TYPE_SPECTRAL	"NO"
NORMALIZED_TO_Y_100	"NO"
NUMBER_OF_FIELDS	7
NUMBER_OF_SETS	15
BEGIN_DATA_FORMAT
 SAMPLE_ID	RGB_R	RGB_G	RGB_B	XYZ_X	XYZ_Y	XYZ_Z
END_DATA_FORMAT
BEGIN_DATA
 1	0	0	0	0.1373291015625	0.091552734375	0.1373291015625
 2	1	1	1	74.9359130859375	35.888671875	53.0548095703125
 3	1	0	0	48.6602783203125	3.936767578125	7.14111328125
 4	0	1	0	23.8494873046875	23.6663818359375	12.4053955078125
 5	0	0	1	1.190185546875	8.60595703125	33.599853515625
 6	0	0	0	0.1373291015625	0.091552734375	0.1373291015625
 7	1	1	1	74.52392578125	36.1175537109375	53.375244140625
 8	1	0	0	48.8433837890625	3.936767578125	7.14111328125
 9	0	1	0	23.98681640625	23.8037109375	12.451171875
 10	0	0	1	1.190185546875	8.60595703125	33.782958984375
 11	0	0	0	0.1373291015625	0.091552734375	0.1373291015625
 12	1	1	1	74.6612548828125	36.3922119140625	53.4210205078125
 13	1	0	0	48.9349365234375	3.936767578125	7.14111328125
 14	0	1	0	23.895263671875	23.8037109375	12.4969482421875
 15	0	0	1	1.190185546875	8.6517333984375	33.8287353515625
END_DATA
