data/calibration-002229.ti3
CTI3   
ORIGINATOR	"ColorHug Factory"
CREATED	"Wed Nov 20 21:19:20 2013"
DESCRIPTOR	"Calibration Target chart information 3"
DEVICE_CLASS	"DISPLAY"
COLOR_REP	"RGB_XYZ"
TARGET_INSTRUMENT	"Hughski ColorHug"
INSTRUMENT_TYPE_SPECTRAL	"NO"
NORMALIZED_TO_Y_100	"NO"
NUMBER_OF_FIELDS	7
NUMBER_OF_SETS	15
BEGIN_DATA_FORMAT
 SAMPLE_ID	RGB_R	RGB_G	RGB_B	XYZ_X	XYZ_Y	XYZ_Z
END_DATA_FORMAT
BEGIN_DATA
 1	0	0	0	0.18310546875	0.18310546875	0.2288818359375
 2	1	1	1	68.8018798828125	31.219482421875	46.1883544921875
 3	1	0	0	44.4488525390625	3.570556640625	5.767822265625
 4	0	1	0	22.2015380859375	20.69091796875	10.3912353515625
 5	0	0	1	1.3275146484375	7.32421875	30.303955078125
 6	0	0	0	0.2288818359375	0.18310546875	0.2288818359375
 7	1	1	1	68.572998046875	31.1737060546875	46.142578125
 8	1	0	0	43.9453125	3.6163330078125	5.767822265625
 9	0	1	0	22.2015380859375	20.6451416015625	10.3912353515625
 10	0	0	1	1.3275146484375	7.32421875	30.3497314453125
 11	0	0	0	0.2288818359375	0.18310546875	0.2288818359375
 12	1	1	1	67.840576171875	31.036376953125	46.1883544921875
 13	1	0	0	44.403076171875	3.6163330078125	5.767822265625
 14	0	1	0	22.2015380859375	20.599365234375	10.3912353515625
 15	0	0	1	1.3275146484375	7.32421875	30.487060546875
END_DATA
