data/calibration-000033.ti3
CTI3
DESCRIPTOR	"Calibration Target chart information 3"
ORIGINATOR	"ColorHug Factory"
DEVICE_CLASS	"DISPLAY"
COLOR_REP	"RGB_XYZ"
TARGET_INSTRUMENT	"ColorHug"
INSTRUMENT_TYPE_SPECTRAL	"NO"
LUMINANCE_XYZ_CDM2	"47.149658 36.792755 40.855408"
NORMALIZED_TO_Y_100	"YES"
NUMBER_OF_FIELDS	7
NUMBER_OF_SETS	836
BEGIN_DATA_FORMAT
 SAMPLE_ID	RGB_R	RGB_G	RGB_B	XYZ_X	XYZ_Y	XYZ_Z
END_DATA_FORMAT
BEGIN_DATA
 1	100	100	100	108.0246914	98.14814815	111.1111111
 2	100	100	100	134.5679012	99.38271605	109.2592593
 3	100	100	100	132.0987654	99.38271605	111.1111111
 4	100	100	100	133.9506173	100	109.2592593
 5	33.33	32.622	30.968	11.72839506	8.024691358	9.259259259
 6	100	0	100	83.33333333	27.16049383	77.77777778
 7	100	100	0	132.7160494	80.86419753	46.2962963
 8	0	100	100	46.91358025	91.35802469	98.14814815
 9	0	100	0	45.0617284	73.45679012	33.33333333
 10	0	0	100	2.469135802	18.51851852	64.19753086
 11	100	0	0	81.48148148	9.259259259	12.96296296
 12	0	0	0	0	0.6172839506	0.6172839506
 13	0	52.455	100	12.34567901	35.18518519	72.83950617
 14	100	0	50.3	46.2962963	12.34567901	26.54320988
 15	100	54.739	100	97.5308642	45.0617284	85.18518519
 16	100	52.128	0	94.44444444	25.92592593	19.75308642
 17	0	0	46.181	13.58024691	3.086419753	11.11111111
 18	0	51.141	0	10.49382716	16.04938272	8.024691358
 19	0	100	51.348	45.67901235	77.16049383	46.2962963
 20	100	100	52.037	132.0987654	84.56790123	61.11111111
 21	49.216	0	0	59.87654321	1.851851852	3.086419753
 22	56.159	100	0	68.51851852	75.92592593	36.41975309
 23	49.226	100	100	64.19753086	91.35802469	100.617284
 24	44.487	0	100	15.43209877	19.75308642	66.66666667
 25	100	44.498	52.029	91.35802469	25.30864198	32.09876543
 26	48.926	48.544	100	28.39506173	34.56790123	72.83950617
 27	51.368	100	47.25	64.19753086	78.39506173	46.91358025
 28	49.893	0	49.033	18.51851852	5.555555556	15.43209877
 29	53.109	51.372	0	29.62962963	17.90123457	11.11111111
 30	0	58.587	53.943	14.19753086	25.92592593	25.30864198
 31	100	28.065	100	54.32098765	31.48148148	80.24691358
 32	0	0	72.874	1.234567901	8.641975309	29.62962963
 33	0	26.758	100	4.320987654	22.22222222	66.66666667
 34	0	25.426	0	2.469135802	3.703703704	2.469135802
 35	72.508	0	100	40.12345679	22.83950617	69.75308642
 36	100	27.395	0	86.41975309	12.96296296	14.81481481
 37	74.47	100	100	88.88888889	95.67901235	104.3209877
 38	100	0	25.728	83.95061728	9.87654321	16.04938272
 39	73.862	0	0	40.74074074	4.938271605	6.172839506
 40	100	100	25.402	132.7160494	82.71604938	48.7654321
 41	0	75.751	100	27.16049383	55.55555556	82.71604938
 42	0	75.172	0	24.07407407	37.03703704	17.28395062
 43	0	100	25.864	46.2962963	74.07407407	36.41975309
 44	100	0	74.801	83.95061728	17.90123457	45.0617284
 45	0	100	75.421	47.5308642	82.09876543	65.43209877
 46	24.577	0	0	4.320987654	0.6172839506	1.234567901
 47	26.321	100	0	49.38271605	73.45679012	34.56790123
 48	100	75.835	0	109.2592593	46.2962963	30.24691358
 49	100	100	77.061	133.3333333	89.50617284	81.48148148
 50	71.263	100	0	84.56790123	77.77777778	38.27160494
 51	0	0	15.614	0	0.6172839506	1.851851852
 52	0	30.049	70.936	4.320987654	13.58024691	30.86419753
 53	100	77.691	100	112.345679	67.90123457	94.44444444
 54	24.486	100	100	51.85185185	91.35802469	97.5308642
 55	100	62.784	31.909	99.38271605	35.18518519	29.62962963
 56	29.552	0	100	8.024691358	19.13580247	65.43209877
 57	32.98	70.921	100	30.24691358	50.61728395	80.86419753
 58	0	27.681	40.241	3.086419753	7.407407407	10.49382716
 59	67.901	71.021	100	56.17283951	54.32098765	85.18518519
 60	28.154	100	67.829	51.2345679	81.48148148	59.87654321
 61	71.637	100	70.001	85.80246914	83.95061728	66.66666667
 62	58.822	58.763	53.586	38.27160494	28.39506173	29.62962963
 63	33.466	30.48	0	11.11111111	6.172839506	3.703703704
 64	100	73.795	71.277	107.4074074	52.4691358	58.02469136
 65	68.394	29.692	0	38.27160494	8.641975309	8.024691358
 66	70.399	0	29.039	37.03703704	5.555555556	9.87654321
 67	28.078	0	26.956	5.555555556	1.851851852	4.320987654
 68	28.532	72.339	0	27.16049383	35.18518519	16.66666667
 69	100	30.941	26.496	87.03703704	15.43209877	19.13580247
 70	34.597	0	73.611	9.259259259	9.259259259	32.71604938
 71	71.573	0	72.408	38.88888889	12.96296296	35.18518519
 72	0	71.029	29.412	20.98765432	33.95061728	19.75308642
 73	68.386	75.008	0	57.40740741	41.35802469	22.22222222
 74	68.088	27.309	100	38.88888889	25.92592593	71.60493827
 75	100	26.457	73.749	85.18518519	22.22222222	46.2962963
 76	74.344	100	27.392	88.88888889	79.01234568	43.20987654
 77	27.558	100	28.197	50.61728395	74.07407407	38.27160494
 78	31.196	27.465	100	11.11111111	23.45679012	67.90123457
 79	0	75.521	72.824	25.30864198	46.2962963	47.5308642
 80	0	50.93	25.553	10.49382716	16.66666667	11.11111111
 81	32.06	33.584	64.033	11.72839506	14.19753086	26.54320988
 82	81.666	55.38	0	64.19753086	24.69135802	16.66666667
 83	68.257	32.751	58.286	38.88888889	15.43209877	26.54320988
 84	0	55.248	81.585	13.58024691	29.62962963	48.14814815
 85	73.781	52.099	100	52.4691358	38.88888889	79.01234568
 86	100	50.537	82.952	94.44444444	35.80246914	60.49382716
 87	23.55	0	50.439	4.938271605	4.320987654	14.19753086
 88	31.335	62.746	31.114	22.22222222	27.16049383	17.90123457
 89	100	18.31	49.418	84.56790123	14.81481481	25.92592593
 90	26.498	48.404	0	13.58024691	14.81481481	7.407407407
 91	47.91	100	85.744	62.34567901	87.65432099	80.24691358
 92	71.829	47.313	31.811	48.14814815	19.13580247	17.28395062
 93	31.304	64.132	69.316	24.07407407	34.56790123	40.12345679
 94	80.403	0	54.321	50.61728395	9.87654321	23.45679012
 95	18.455	50.036	100	14.19753086	33.33333333	71.60493827
 96	50.653	100	16.345	62.96296296	74.69135802	38.27160494
 97	80.121	100	52.261	97.5308642	82.09876543	55.55555556
 98	0	22.54	19.289	1.851851852	4.320987654	3.703703704
 99	100	75.273	46.886	108.6419753	50	41.35802469
 100	0	78.618	56.625	27.77777778	46.2962963	35.80246914
 101	51.137	80.627	100	47.5308642	63.58024691	87.03703704
 102	48.446	0	17.864	16.66666667	2.469135802	4.320987654
 103	100	50.023	21.211	93.82716049	24.69135802	22.22222222
 104	50.115	20.118	0	19.13580247	4.320987654	4.320987654
 105	58.099	72.426	33.158	45.67901235	38.27160494	25.30864198
 106	19.364	100	50.197	49.38271605	75.92592593	47.5308642
 107	50.683	19.177	100	20.98765432	22.83950617	68.51851852
 108	53.37	0	81.576	21.60493827	13.58024691	42.59259259
 109	47.768	76.245	0	39.50617284	40.12345679	20.37037037
 110	0	18.927	55.503	2.469135802	6.790123457	17.90123457
 111	0	13.277	0	0.6172839506	1.851851852	0.6172839506
 112	72.862	72.473	75.625	61.72839506	47.5308642	55.55555556
 113	100	13.904	0	83.95061728	10.49382716	12.96296296
 114	86.349	0	100	61.11111111	24.07407407	74.07407407
 115	100	41.941	100	90.12345679	37.65432099	82.09876543
 116	100	81.785	16.464	114.1975309	54.32098765	34.56790123
 117	0	44.063	52.596	8.024691358	16.04938272	20.37037037
 118	0	0	58.917	0.6172839506	5.555555556	18.51851852
 119	59.25	24.551	29.789	27.77777778	7.407407407	10.49382716
 120	82.73	82.874	100	83.33333333	70.98765432	94.44444444
 121	80.039	0	12.618	50	6.172839506	8.641975309
 122	60.957	47.729	77.817	35.80246914	27.16049383	46.2962963
 123	100	0	38.618	83.33333333	11.72839506	19.75308642
 124	0	40.09	100	8.641975309	27.77777778	69.13580247
 125	0	15.283	82.322	2.469135802	12.96296296	40.74074074
 126	17.592	81.726	100	32.71604938	63.58024691	84.56790123
 127	100	14.13	100	85.18518519	28.39506173	77.77777778
 128	15.261	100	82.059	48.14814815	85.18518519	74.07407407
 129	47.77	79.418	60.389	43.20987654	50	41.35802469
 130	18.768	16.429	0	9.259259259	2.469135802	1.234567901
 131	55.634	100	65.763	66.66666667	82.09876543	61.11111111
 132	100	100	38.541	131.4814815	82.71604938	54.32098765
 133	17.421	0	83.497	4.320987654	12.34567901	41.97530864
 134	17.237	16.758	100	4.938271605	19.75308642	65.43209877
 135	0	15.067	30.039	1.851851852	2.469135802	5.555555556
 136	0	0	86.505	1.851851852	12.96296296	44.44444444
 137	75.736	72.799	50.02	66.04938272	42.59259259	35.80246914
 138	100	83.323	85.529	114.1975309	68.51851852	79.62962963
 139	100	100	64.894	133.3333333	88.88888889	69.13580247
 140	81.98	84.914	0	84.56790123	54.32098765	30.86419753
 141	0	63.757	15.49	16.66666667	26.54320988	12.96296296
 142	49.514	66.135	100	36.41975309	47.5308642	80.24691358
 143	100	0	61.862	83.33333333	14.81481481	33.95061728
 144	24.308	45.41	49.831	12.96296296	16.66666667	19.75308642
 145	15.963	0	17.047	1.851851852	1.234567901	1.851851852
 146	87.497	100	100	107.4074074	97.5308642	107.4074074
 147	52.099	25.003	75.752	23.45679012	15.43209877	37.65432099
 148	14.909	81.162	0	29.62962963	44.44444444	20.98765432
 149	0	34.792	14.626	4.938271605	8.024691358	4.938271605
 150	48.39	45.075	22.552	24.07407407	14.81481481	11.11111111
 151	83.545	65.965	100	72.83950617	51.85185185	86.41975309
 152	16.226	62.345	0	18.51851852	24.07407407	11.72839506
 153	63.222	0	14.914	28.39506173	4.320987654	5.555555556
 154	80.449	13.446	0	50	6.790123457	8.641975309
 155	83.917	41.562	0	61.11111111	16.04938272	12.96296296
 156	100	60.448	46.3	97.5308642	35.18518519	35.18518519
 157	15.584	0	34.795	2.469135802	2.469135802	6.172839506
 158	17.144	65.121	100	21.60493827	45.0617284	77.77777778
 159	83.602	55.334	62.667	66.66666667	30.86419753	38.88888889
 160	0	82.19	14.22	29.62962963	45.67901235	22.22222222
 161	25.132	74.856	50.616	27.77777778	41.35802469	31.48148148
 162	0	13.769	100	2.469135802	19.75308642	64.19753086
 163	87.181	0	0	59.87654321	6.790123457	9.259259259
 164	0	100	39.19	45.67901235	75.30864198	41.35802469
 165	78.047	65.914	19.865	64.81481481	33.33333333	22.22222222
 166	100	63.961	15.865	99.38271605	35.18518519	26.54320988
 167	100	45.955	36.032	92.59259259	23.45679012	25.30864198
 168	15.926	100	16.89	47.5308642	72.83950617	35.18518519
 169	41.459	100	0	56.79012346	74.69135802	35.18518519
 170	48.707	37.288	48.139	22.83950617	13.58024691	19.13580247
 171	83.381	100	13.285	100	79.01234568	43.20987654
 172	78.129	25.303	75.621	50	17.90123457	41.97530864
 173	12.396	0	0	1.234567901	0.6172839506	0.6172839506
 174	37.607	48.336	83.346	19.75308642	27.16049383	50
 175	35.588	15.356	0	9.259259259	3.086419753	1.851851852
 176	61.245	100	100	73.45679012	93.20987654	102.4691358
 177	100	67.29	87.195	103.0864198	51.2345679	72.83950617
 178	0	0	30.615	0.6172839506	1.234567901	4.938271605
 179	35.187	81.789	83.323	37.65432099	58.02469136	63.58024691
 180	39.525	80.194	22.879	38.27160494	45.0617284	24.07407407
 181	50.634	34.593	0	23.45679012	9.259259259	6.172839506
 182	14.175	100	63.146	46.91358025	78.39506173	56.17283951
 183	83.493	17.728	34.574	55.55555556	9.259259259	15.43209877
 184	23.463	22.014	79.943	7.407407407	13.58024691	40.12345679
 185	18.066	31.847	0	6.172839506	6.790123457	3.086419753
 186	87.201	100	81.361	109.2592593	89.50617284	81.48148148
 187	0	100	87.95	46.2962963	86.41975309	81.48148148
 188	34.476	17.888	46.22	9.87654321	6.172839506	12.96296296
 189	18.277	0	67.39	3.086419753	7.407407407	25.92592593
 190	100	87.972	0	118.5185185	62.96296296	37.65432099
 191	82.925	34.85	100	60.49382716	30.86419753	75.30864198
 192	0	88.016	100	35.80246914	71.60493827	89.50617284
 193	36.104	85.655	100	42.59259259	69.75308642	88.27160494
 194	60.981	0	0	26.54320988	3.086419753	4.320987654
 195	51.466	61.826	78.106	35.18518519	36.41975309	49.38271605
 196	78.427	31.983	22.175	48.14814815	11.72839506	12.96296296
 197	66.017	44.321	0	39.50617284	15.43209877	10.49382716
 198	83.941	0	84.177	54.9382716	17.90123457	51.2345679
 199	20.158	46.612	23.269	11.11111111	14.81481481	9.259259259
 200	0	100	62.618	45.67901235	78.39506173	55.55555556
 201	33.832	0	13.933	8.024691358	1.234567901	3.086419753
 202	100	17.286	16.322	83.95061728	11.11111111	14.81481481
 203	0	42.204	83.926	8.641975309	22.83950617	47.5308642
 204	0	87.774	0	32.71604938	52.4691358	24.69135802
 205	64.988	0	59.017	30.86419753	9.259259259	23.45679012
 206	14.677	0	100	3.086419753	18.51851852	65.43209877
 207	88.934	82.673	35.021	92.59259259	54.32098765	37.03703704
 208	0	63.778	100	17.90123457	44.44444444	76.54320988
 209	83.429	17.674	100	56.79012346	25.92592593	72.83950617
 210	30.899	100	85.668	52.4691358	85.18518519	79.62962963
 211	83.68	0	41.016	54.9382716	8.641975309	16.66666667
 212	100	63.515	0	100.617284	33.33333333	24.69135802
 213	85.074	69.987	0	91.35802469	37.65432099	23.45679012
 214	20.801	45.524	69.018	11.72839506	20.37037037	33.33333333
 215	21.382	82.482	73.017	32.71604938	55.55555556	52.4691358
 216	100	15.128	64.249	84.56790123	16.66666667	35.80246914
 217	36.522	0	58.427	10.49382716	6.172839506	19.75308642
 218	22.466	81.296	33.007	31.48148148	46.2962963	26.54320988
 219	62.531	87.152	0	61.11111111	54.9382716	28.39506173
 220	84.12	85.397	67.886	87.65432099	63.58024691	57.40740741
 221	18.87	27.336	45.389	6.172839506	7.407407407	13.58024691
 222	66.439	100	14.444	77.16049383	76.54320988	39.50617284
 223	41.636	22.147	19.003	14.19753086	4.938271605	5.555555556
 224	61.271	100	81.94	74.07407407	85.18518519	77.77777778
 225	86.013	100	0	106.1728395	79.01234568	41.97530864
 226	37.57	0	0	9.259259259	1.851851852	1.234567901
 227	100	16.132	84.102	84.56790123	22.22222222	56.79012346
 228	0	100	13.619	45.67901235	73.45679012	33.95061728
 229	38.905	100	56.471	56.79012346	78.39506173	52.4691358
 230	100	15.382	34.563	84.56790123	12.34567901	19.75308642
 231	36.656	14.908	100	11.72839506	20.98765432	66.04938272
 232	0	62.593	66.608	16.66666667	31.48148148	35.80246914
 233	66.347	12.528	100	33.95061728	22.83950617	70.98765432
 234	100	43.375	69.233	91.35802469	27.77777778	45.0617284
 235	100	56.36	61.236	95.67901235	33.95061728	43.20987654
 236	0	86.194	44.955	32.71604938	53.7037037	34.56790123
 237	64.527	87.262	100	65.43209877	72.83950617	93.20987654
 238	34.411	0	42.471	8.024691358	3.703703704	11.11111111
 239	80.23	59.707	85.12	64.19753086	40.12345679	62.34567901
 240	20.625	19.056	14.791	4.320987654	3.086419753	3.086419753
 241	15.341	34.221	100	8.024691358	25.30864198	68.51851852
 242	36.777	0	87.905	10.49382716	14.81481481	48.14814815
 243	34.598	56.247	100	22.83950617	38.27160494	74.69135802
 244	20.86	67.629	17.418	21.60493827	30.24691358	16.04938272
 245	44.958	60.843	18.054	29.01234568	25.30864198	14.81481481
 246	37.421	60.193	0	24.07407407	23.45679012	12.34567901
 247	84.011	33.849	42.612	59.87654321	15.43209877	20.98765432
 248	17.241	60.339	37.743	17.28395062	25.30864198	17.90123457
 249	50.65	17.261	53.278	19.75308642	8.024691358	19.13580247
 250	45.505	48.926	65.152	24.69135802	22.83950617	32.09876543
 251	44.567	84.081	39.649	43.82716049	51.85185185	32.71604938
 252	100	86.339	72.054	117.2839506	69.13580247	66.66666667
 253	68.14	61.135	0	48.14814815	27.16049383	16.66666667
 254	17.93	66.986	81.403	21.60493827	40.12345679	52.4691358
 255	39.242	60.215	48.926	25.30864198	27.77777778	24.07407407
 256	20.099	18.77	62.967	4.938271605	8.641975309	23.45679012
 257	34.553	100	14.582	53.08641975	74.69135802	35.80246914
 258	87.345	0	66.694	61.11111111	13.58024691	33.95061728
 259	0	43.714	39.842	7.407407407	14.19753086	13.58024691
 260	100	37.705	13.955	88.27160494	17.90123457	17.28395062
 261	31.265	86.993	0	39.50617284	51.85185185	25.30864198
 262	51.402	82.661	81.338	48.14814815	59.87654321	63.58024691
 263	100	100	12.984	131.4814815	82.71604938	46.91358025
 264	0	37.859	0	100	8.024691358	3.703703704
 265	62.092	58.215	100	43.20987654	41.97530864	78.39506173
 266	86.186	100	64.1	106.1728395	85.80246914	64.19753086
 267	100	35.251	85.898	87.65432099	28.39506173	61.72839506
 268	63.182	89.992	41.974	65.43209877	62.34567901	39.50617284
 269	13.504	100	0	46.91358025	72.22222222	33.95061728
 270	100	0	13.228	82.71604938	9.259259259	14.19753086
 271	63.881	40.826	100	37.65432099	31.48148148	72.83950617
 272	69.387	84.838	20.792	66.66666667	53.08641975	30.24691358
 273	0	70.279	45.136	20.98765432	35.18518519	25.30864198
 274	79.094	64.754	40.908	65.43209877	33.95061728	28.39506173
 275	62.385	54.099	17.396	39.50617284	21.60493827	14.19753086
 276	64.408	14.621	0	30.86419753	4.938271605	5.555555556
 277	70.028	15.606	44.651	37.65432099	8.641975309	16.66666667
 278	0	63.544	0	16.66666667	25.30864198	12.34567901
 279	83.475	47.274	20.502	62.34567901	20.37037037	16.66666667
 280	55.866	0	32.671	22.22222222	4.320987654	9.259259259
 281	58.007	0	100	25.92592593	20.98765432	67.90123457
 282	100	0	87.698	83.95061728	21.60493827	59.87654321
 283	0	13.792	67.215	1.851851852	8.641975309	25.92592593
 284	84.123	17.001	58.549	55.55555556	13.58024691	27.77777778
 285	59.579	32.873	15.966	29.01234568	9.87654321	8.641975309
 286	10.41	32.998	28.659	5.555555556	8.024691358	7.407407407
 287	17.231	40.031	85.65	9.259259259	22.22222222	48.7654321
 288	37.568	41.561	10.108	15.43209877	11.11111111	7.407407407
 289	0	69.015	85.092	20.98765432	43.20987654	56.79012346
 290	14.442	100	36.187	46.2962963	75.30864198	40.12345679
 291	100	40.549	0	89.50617284	19.13580247	16.66666667
 292	82.143	45.435	78.429	61.72839506	27.77777778	49.38271605
 293	52.674	0	67.3	21.60493827	9.259259259	28.39506173
 294	0	87.868	66.793	33.95061728	59.87654321	50
 295	86.53	100	40.524	106.7901235	80.86419753	50
 296	71.777	85.586	67.232	72.22222222	61.11111111	54.32098765
 297	43.216	100	31.671	58.02469136	75.92592593	40.74074074
 298	39.245	32.908	85.845	19.13580247	20.37037037	48.7654321
 299	0	45.662	67.543	8.641975309	20.37037037	31.48148148
 300	12.161	100	100	47.5308642	90.12345679	98.7654321
 301	67.049	0	85.516	33.95061728	16.04938272	49.38271605
 302	100	89.041	100	121.6049383	81.48148148	103.0864198
 303	20.246	60.698	56.526	18.51851852	27.77777778	29.01234568
 304	52.177	55.457	40.416	30.86419753	24.07407407	20.37037037
 305	72.617	87.018	83.932	73.45679012	67.28395062	72.83950617
 306	40.512	16.723	66.475	12.96296296	9.87654321	27.77777778
 307	68.507	49.232	50.605	43.82716049	22.22222222	25.92592593
 308	65.622	100	54.525	77.16049383	80.24691358	54.32098765
 309	54.115	37.24	66.394	26.54320988	17.28395062	32.09876543
 310	100	76.138	31.267	106.7901235	48.7654321	35.80246914
 311	54.728	65.623	0	38.88888889	29.62962963	16.04938272
 312	63.126	12.526	64.37	29.62962963	11.11111111	27.77777778
 313	72.827	18.08	23.704	40.74074074	7.407407407	9.87654321
 314	23.268	15.278	34.947	5.555555556	3.703703704	7.407407407
 315	87.648	68.954	59.645	79.01234568	42.59259259	43.20987654
 316	0	85.595	85.198	33.33333333	62.34567901	67.28395062
 317	35.798	84.371	69.21	40.12345679	57.40740741	50.61728395
 318	36.062	47.494	35.919	17.90123457	16.66666667	14.19753086
 319	86.083	36.277	59.152	63.58024691	19.13580247	31.48148148
 320	58.21	100	30.361	70.37037037	77.16049383	41.97530864
 321	46.745	14.614	32.317	16.66666667	4.320987654	8.641975309
 322	81.573	73.869	86.954	75.30864198	54.32098765	70.98765432
 323	85.991	49.387	48.206	67.90123457	24.69135802	28.39506173
 324	28.062	87.906	19.654	39.50617284	53.7037037	27.16049383
 325	68.992	17.993	85.124	37.03703704	17.90123457	50.61728395
 326	100	66.147	100	103.7037037	54.9382716	88.88888889
 327	33.358	64.806	84.517	25.92592593	40.12345679	56.79012346
 328	41.351	17.736	80.522	14.19753086	13.58024691	41.97530864
 329	100	100	88.719	132.7160494	94.44444444	93.82716049
 330	66.336	0	44.32	32.71604938	6.790123457	15.43209877
 331	64.85	67.09	12.293	49.38271605	32.09876543	19.13580247
 332	15.262	31.268	63.277	6.172839506	12.34567901	25.30864198
 333	15.008	43.663	37.3	9.259259259	13.58024691	12.96296296
 334	0	57.895	38.078	13.58024691	23.45679012	16.66666667
 335	66.599	58.458	67.871	45.67901235	32.09876543	41.35802469
 336	59.191	18.651	15.215	25.92592593	5.555555556	6.172839506
 337	66.781	31.14	84.629	37.03703704	21.60493827	50.61728395
 338	88.033	85.158	52.14	91.35802469	59.87654321	46.2962963
 339	36.882	100	100	56.17283951	90.74074074	100
 340	26.102	33.094	17.006	9.259259259	7.407407407	5.555555556
 341	56.309	36.861	35.862	27.77777778	12.34567901	13.58024691
 342	45.839	65.587	67.033	32.09876543	35.80246914	40.74074074
 343	83.709	81.172	16.406	82.09876543	50.61728395	30.24691358
 344	0	48.132	13.005	9.259259259	14.81481481	7.407407407
 345	87.176	50.021	100	70.37037037	40.12345679	80.86419753
 346	51.219	84.244	13.73	48.7654321	50	25.92592593
 347	60.606	71.415	48.406	48.14814815	38.88888889	32.09876543
 348	0	11.359	12.718	0.6172839506	1.851851852	1.234567901
 349	86.429	49.705	33.145	67.28395062	22.22222222	22.22222222
 350	34.056	40.958	100	16.04938272	29.01234568	70.98765432
 351	100	30.557	59.628	85.80246914	20.37037037	34.56790123
 352	88.497	26.902	13.449	64.19753086	11.11111111	12.96296296
 353	14.167	51.98	88.218	13.58024691	30.86419753	54.32098765
 354	13.784	12.983	49.37	3.086419753	4.938271605	13.58024691
 355	15.018	88.441	48.062	35.80246914	58.02469136	37.65432099
 356	87.79	25.769	89.215	64.19753086	24.07407407	59.25925926
 357	0	33.206	55.865	4.938271605	11.11111111	20.37037037
 358	74.324	76.029	35.536	64.81481481	44.44444444	30.24691358
 359	65.863	57.223	42.324	45.0617284	25.92592593	23.45679012
 360	30.893	54.646	13.136	18.51851852	19.13580247	11.11111111
 361	0	34.36	28.321	4.938271605	8.024691358	7.407407407
 362	15.443	77.087	85.116	28.39506173	51.2345679	62.34567901
 363	63.381	68.947	68.521	48.7654321	41.35802469	45.0617284
 364	69.733	27.566	42.917	39.50617284	11.11111111	17.28395062
 365	32.754	100	42.76	52.4691358	75.92592593	44.44444444
 366	47.096	29.481	34.829	19.75308642	8.641975309	11.11111111
 367	8.5451	71.948	62.695	23.45679012	39.50617284	37.03703704
 368	0	86.048	29.3	32.09876543	52.4691358	27.77777778
 369	53.697	51.572	85.367	32.09876543	30.86419753	54.32098765
 370	17.608	56.69	12.515	14.81481481	20.37037037	10.49382716
 371	90.638	14.414	49.227	66.04938272	11.72839506	24.07407407
 372	63.248	63.64	89.55	46.91358025	43.20987654	65.43209877
 373	100	85.976	58.455	114.1975309	64.19753086	55.55555556
 374	9.8311	28.027	7.5567	4.320987654	5.555555556	2.469135802
 375	89.831	64.313	69.506	82.71604938	40.74074074	48.7654321
 376	31.754	12.995	25.543	7.407407407	3.086419753	5.555555556
 377	75.914	45.966	64.957	50.61728395	24.07407407	36.41975309
 378	7.5735	50.695	58.941	11.72839506	21.60493827	25.92592593
 379	100	69.835	58.912	103.0864198	45.67901235	46.91358025
 380	32.211	34.376	48.339	12.34567901	11.72839506	16.66666667
 381	13.901	12.159	73.555	3.086419753	9.87654321	32.09876543
 382	87.071	9.028	77.653	61.11111111	17.28395062	44.44444444
 383	23.272	85.409	84.29	36.41975309	62.34567901	66.04938272
 384	93.289	39.48	26.145	75.30864198	17.90123457	18.51851852
 385	65.769	59.63	30.967	53.08641975	27.16049383	20.37037037
 386	100	32.265	41.803	69.13580247	17.28395062	25.30864198
 387	86.568	85.281	86.961	90.74074074	69.13580247	78.39506173
 388	52.577	86.83	30.016	90.74074074	56.79012346	31.48148148
 389	47.921	40.199	76.902	23.45679012	20.98765432	41.97530864
 390	22.36	86.619	61.58	36.41975309	58.02469136	45.0617284
 391	52.232	33.601	88.787	25.30864198	22.22222222	54.32098765
 392	0	28.523	86.267	4.320987654	17.90123457	47.5308642
 393	43.497	67.879	39.551	31.48148148	33.33333333	24.07407407
 394	39.877	45.261	0	19.13580247	13.58024691	7.407407407
 395	86.94	12.43	24.699	59.25925926	8.024691358	12.96296296
 396	28.363	55.339	90.398	19.13580247	33.95061728	59.25925926
 397	39.018	70.534	57.879	30.86419753	38.27160494	34.56790123
 398	12.833	28.519	78.828	5.555555556	15.43209877	38.88888889
 399	68.35	31.815	69.975	38.88888889	17.90123457	35.80246914
 400	56.52	26.226	41.626	25.92592593	9.259259259	14.81481481
 401	12.938	46.218	0	9.87654321	12.96296296	6.790123457
 402	8.6938	60.179	26.117	15.43209877	23.45679012	14.19753086
 403	51.995	89.429	96.608	55.55555556	73.45679012	88.27160494
 404	46.905	47.746	48.909	24.69135802	19.13580247	21.60493827
 405	14.352	81.814	19.479	30.24691358	45.67901235	23.45679012
 406	71.482	38.117	12.273	43.82716049	12.96296296	11.11111111
 407	86.616	60.785	10.012	74.07407407	29.62962963	20.37037037
 408	71.811	88.979	52.186	73.45679012	62.96296296	46.2962963
 409	43.213	100	72.083	59.25925926	82.71604938	64.19753086
 410	73.92	23.444	8.2853	42.59259259	8.024691358	8.024691358
