data/calibration-000036.ti3
CTI3
DESCRIPTOR	"Calibration Target chart information 3"
ORIGINATOR	"ColorHug Factory"
DEVICE_CLASS	"DISPLAY"
COLOR_REP	"RGB_XYZ"
TARGET_INSTRUMENT	"ColorHug"
INSTRUMENT_TYPE_SPECTRAL	"NO"
LUMINANCE_XYZ_CDM2	"42.915344 33.931732 37.651062"
NORMALIZED_TO_Y_100	"YES"
NUMBER_OF_FIELDS	7
NUMBER_OF_SETS	836
BEGIN_DATA_FORMAT
 SAMPLE_ID	RGB_R	RGB_G	RGB_B	XYZ_X	XYZ_Y	XYZ_Z
END_DATA_FORMAT
BEGIN_DATA
 1	100	100	100	122.8187919	100	110.0671141
 2	100	100	100	126.8456376	100	110.0671141
 3	100	100	100	127.5167785	97.98657718	110.738255
 4	100	100	100	126.1744966	100	110.738255
 5	33.33	32.622	30.968	10.73825503	8.053691275	8.724832215
 6	100	0	100	78.52348993	26.84563758	77.18120805
 7	100	100	0	125.5033557	80.53691275	45.63758389
 8	0	100	100	44.96644295	90.60402685	99.32885906
 9	0	100	0	44.29530201	72.48322148	32.88590604
 10	0	0	100	2.684563758	17.44966443	65.77181208
 11	100	0	0	77.85234899	8.724832215	12.08053691
 12	0	0	0	0	0	0.6711409396
 13	0	52.455	100	12.08053691	34.22818792	73.15436242
 14	100	0	50.3	78.52348993	12.08053691	25.5033557
 15	100	54.739	100	91.94630872	44.29530201	85.90604027
 16	100	52.128	0	87.91946309	24.83221477	19.46308725
 17	0	0	46.181	0	3.355704698	10.73825503
 18	0	51.141	0	10.06711409	15.43624161	7.382550336
 19	0	100	51.348	42.95302013	76.51006711	47.65100671
 20	100	100	52.037	126.1744966	85.23489933	59.06040268
 21	49.216	0	0	16.10738255	2.013422819	2.013422819
 22	56.159	100	0	65.10067114	75.16778523	36.24161074
 23	49.226	100	100	61.0738255	91.27516779	101.3422819
 24	44.487	0	100	14.76510067	18.79194631	67.7852349
 25	100	44.498	52.029	87.24832215	24.16107383	31.54362416
 26	48.926	48.544	100	26.17449664	34.22818792	73.15436242
 27	51.368	100	47.25	61.0738255	78.52348993	47.65100671
 28	49.893	0	49.033	16.77852349	5.369127517	15.43624161
 29	53.109	51.372	0	28.18791946	17.44966443	10.06711409
 30	0	58.587	53.943	14.09395973	25.5033557	24.83221477
 31	100	28.065	100	82.55033557	30.87248322	79.86577181
 32	0	0	72.874	0.6711409396	8.724832215	30.20134228
 33	0	26.758	100	4.697986577	22.14765101	66.44295302
 34	0	25.426	0	2.684563758	3.355704698	2.013422819
 35	72.508	0	100	38.25503356	22.14765101	69.79865772
 36	100	27.395	0	81.20805369	12.75167785	14.09395973
 37	74.47	100	100	84.56375839	95.97315436	104.6979866
 38	100	0	25.728	79.19463087	9.395973154	15.43624161
 39	73.862	0	0	38.25503356	4.026845638	6.040268456
 40	100	100	25.402	125.5033557	82.55033557	48.32214765
 41	0	75.751	100	25.5033557	56.37583893	81.87919463
 42	0	75.172	0	22.81879195	36.24161074	17.44966443
 43	0	100	25.864	43.62416107	73.15436242	36.24161074
 44	100	0	74.801	79.19463087	16.77852349	44.96644295
 45	0	100	75.421	44.96644295	82.55033557	66.44295302
 46	24.577	0	0	4.026845638	0.6711409396	0.6711409396
 47	26.321	100	0	47.65100671	73.15436242	34.22818792
 48	100	75.835	0	104.0268456	46.30872483	28.8590604
 49	100	100	77.061	126.1744966	91.27516779	79.86577181
 50	71.263	100	0	79.19463087	76.51006711	38.9261745
 51	0	0	15.614	0.6711409396	0	1.342281879
 52	0	30.049	70.936	4.026845638	12.75167785	30.87248322
 53	100	77.691	100	106.0402685	67.11409396	95.30201342
 54	24.486	100	100	49.66442953	89.93288591	99.32885906
 55	100	62.784	31.909	94.63087248	34.89932886	28.18791946
 56	29.552	0	100	7.382550336	18.79194631	65.10067114
 57	32.98	70.921	100	28.18791946	51.00671141	81.87919463
 58	0	27.681	40.241	3.355704698	6.040268456	10.73825503
 59	67.901	71.021	100	53.69127517	53.69127517	85.23489933
 60	28.154	100	67.829	48.32214765	80.53691275	60.40268456
 61	71.637	100	70.001	81.87919463	84.56375839	66.44295302
 62	58.822	58.763	53.586	36.24161074	27.51677852	28.8590604
 63	33.466	30.48	0	10.06711409	6.040268456	3.355704698
 64	100	73.795	71.277	102.6845638	51.00671141	58.38926174
 65	68.394	29.692	0	35.5704698	8.053691275	8.053691275
 66	70.399	0	29.039	34.22818792	5.369127517	9.395973154
 67	28.078	0	26.956	5.369127517	2.013422819	4.026845638
 68	28.532	72.339	0	24.83221477	34.89932886	16.10738255
 69	100	30.941	26.496	82.55033557	14.76510067	18.12080537
 70	34.597	0	73.611	8.053691275	10.06711409	32.2147651
 71	71.573	0	72.408	36.91275168	12.08053691	35.5704698
 72	0	71.029	29.412	20.13422819	32.88590604	20.13422819
 73	68.386	75.008	0	54.36241611	40.26845638	22.14765101
 74	68.088	27.309	100	36.24161074	25.5033557	73.15436242
 75	100	26.457	73.749	81.87919463	20.80536913	46.30872483
 76	74.344	100	27.392	84.56375839	79.19463087	42.95302013
 77	27.558	100	28.197	48.32214765	74.4966443	38.25503356
 78	31.196	27.465	100	10.73825503	22.81879195	68.45637584
 79	0	75.521	72.824	22.81879195	46.30872483	47.65100671
 80	0	50.93	25.553	10.06711409	16.10738255	10.73825503
 81	32.06	33.584	64.033	11.40939597	13.42281879	26.84563758
 82	81.666	55.38	0	61.0738255	23.48993289	16.10738255
 83	68.257	32.751	58.286	36.24161074	14.76510067	26.84563758
 84	0	55.248	81.585	12.08053691	30.20134228	48.32214765
 85	73.781	52.099	100	50.33557047	38.25503356	79.19463087
 86	100	50.537	82.952	87.91946309	34.89932886	61.0738255
 87	23.55	0	50.439	4.026845638	4.697986577	13.42281879
 88	31.335	62.746	31.114	21.47651007	26.84563758	16.77852349
 89	100	18.31	49.418	78.52348993	14.09395973	26.17449664
 90	26.498	48.404	0	13.42281879	14.09395973	6.711409396
 91	47.91	100	85.744	59.06040268	86.57718121	81.20805369
 92	71.829	47.313	31.811	44.29530201	18.79194631	17.44966443
 93	31.304	64.132	69.316	22.81879195	33.55704698	40.26845638
 94	80.403	0	54.321	46.30872483	9.395973154	23.48993289
 95	18.455	50.036	100	13.42281879	33.55704698	71.81208054
 96	50.653	100	16.345	59.73154362	74.4966443	38.25503356
 97	80.121	100	52.261	91.27516779	82.55033557	55.70469799
 98	0	22.54	19.289	2.013422819	3.355704698	3.355704698
 99	100	75.273	46.886	101.3422819	48.32214765	41.61073826
 100	0	78.618	56.625	26.17449664	46.30872483	35.5704698
 101	51.137	80.627	100	44.96644295	62.41610738	89.26174497
 102	48.446	0	17.864	15.43624161	2.013422819	4.026845638
 103	100	50.023	21.211	89.26174497	23.48993289	21.47651007
 104	50.115	20.118	0	17.44966443	4.697986577	3.355704698
 105	58.099	72.426	33.158	44.29530201	37.58389262	24.83221477
 106	19.364	100	50.197	46.97986577	75.16778523	47.65100671
 107	50.683	19.177	100	19.46308725	22.14765101	69.12751678
 108	53.37	0	81.576	20.13422819	12.75167785	42.95302013
 109	47.768	76.245	0	38.25503356	38.9261745	20.13422819
 110	0	18.927	55.503	2.013422819	6.711409396	16.77852349
 111	0	13.277	0	0.6711409396	1.342281879	0.6711409396
 112	72.862	72.473	75.625	58.38926174	46.97986577	55.03355705
 113	100	13.904	0	79.86577181	9.395973154	12.75167785
 114	86.349	0	100	56.37583893	24.16107383	74.4966443
 115	100	41.941	100	85.90604027	36.91275168	81.87919463
 116	100	81.785	16.464	108.7248322	54.36241611	33.55704698
 117	0	44.063	52.596	8.053691275	15.43624161	20.13422819
 118	0	0	58.917	1.342281879	5.369127517	18.12080537
 119	59.25	24.551	29.789	26.17449664	7.382550336	9.395973154
 120	82.73	82.874	100	79.86577181	70.46979866	94.63087248
 121	80.039	0	12.618	46.30872483	5.369127517	8.053691275
 122	60.957	47.729	77.817	34.89932886	25.5033557	46.30872483
 123	100	0	38.618	79.19463087	10.06711409	20.13422819
 124	0	40.09	100	8.053691275	27.51677852	69.12751678
 125	0	15.283	82.322	2.013422819	12.75167785	41.61073826
 126	17.592	81.726	100	31.54362416	63.08724832	85.23489933
 127	100	14.13	100	81.20805369	27.51677852	77.85234899
 128	15.261	100	82.059	46.30872483	85.23489933	73.82550336
 129	47.77	79.418	60.389	41.61073826	48.99328859	40.93959732
 130	18.768	16.429	0	3.355704698	2.013422819	1.342281879
 131	55.634	100	65.763	65.10067114	81.87919463	59.73154362
 132	100	100	38.541	126.1744966	82.55033557	53.02013423
 133	17.421	0	83.497	3.355704698	11.40939597	42.28187919
 134	17.237	16.758	100	4.697986577	20.13422819	65.77181208
 135	0	15.067	30.039	1.342281879	2.684563758	5.369127517
 136	0	0	86.505	1.342281879	12.75167785	44.96644295
 137	75.736	72.799	50.02	62.41610738	41.61073826	35.5704698
 138	100	83.323	85.529	108.7248322	68.45637584	79.19463087
 139	100	100	64.894	126.8456376	87.24832215	68.45637584
 140	81.98	84.914	0	79.19463087	54.36241611	30.20134228
 141	0	63.757	15.49	15.43624161	26.17449664	13.42281879
 142	49.514	66.135	100	34.89932886	46.30872483	81.20805369
 143	100	0	61.862	79.19463087	14.09395973	33.55704698
 144	24.308	45.41	49.831	11.40939597	16.77852349	19.46308725
 145	15.963	0	17.047	2.013422819	0.6711409396	2.013422819
 146	87.497	100	100	103.3557047	97.98657718	107.3825503
 147	52.099	25.003	75.752	21.47651007	14.76510067	37.58389262
 148	14.909	81.162	0	27.51677852	44.29530201	20.80536913
 149	0	34.792	14.626	4.697986577	7.382550336	4.026845638
 150	48.39	45.075	22.552	22.81879195	14.09395973	10.73825503
 151	83.545	65.965	100	69.79865772	51.67785235	86.57718121
 152	16.226	62.345	0	16.77852349	24.16107383	11.40939597
 153	63.222	0	14.914	26.84563758	3.355704698	6.040268456
 154	80.449	13.446	0	47.65100671	6.040268456	8.053691275
 155	83.917	41.562	0	57.71812081	15.43624161	12.75167785
 156	100	60.448	46.3	91.94630872	34.22818792	34.89932886
 157	15.584	0	34.795	2.013422819	2.013422819	6.711409396
 158	17.144	65.121	100	19.46308725	44.96644295	79.19463087
 159	83.602	55.334	62.667	63.75838926	30.20134228	38.25503356
 160	0	82.19	14.22	28.18791946	45.63758389	21.47651007
 161	25.132	74.856	50.616	26.17449664	40.93959732	31.54362416
 162	0	13.769	100	2.684563758	19.46308725	65.10067114
 163	87.181	0	0	56.37583893	6.040268456	8.724832215
 164	0	100	39.19	43.62416107	75.16778523	41.61073826
 165	78.047	65.914	19.865	61.74496644	32.88590604	21.47651007
 166	100	63.961	15.865	95.97315436	34.22818792	25.5033557
 167	100	45.955	36.032	85.90604027	22.81879195	24.83221477
 168	15.926	100	16.89	45.63758389	73.15436242	34.89932886
 169	41.459	100	0	53.69127517	73.82550336	35.5704698
 170	48.707	37.288	48.139	20.80536913	13.42281879	18.12080537
 171	83.381	100	13.285	96.6442953	77.85234899	42.28187919
 172	78.129	25.303	75.621	46.30872483	17.44966443	41.61073826
 173	12.396	0	0	1.342281879	0	0
 174	37.607	48.336	83.346	18.12080537	26.17449664	50.33557047
 175	35.588	15.356	0	8.724832215	2.013422819	2.684563758
 176	61.245	100	100	71.1409396	91.94630872	103.3557047
 177	100	67.29	87.195	97.98657718	50.33557047	72.48322148
 178	0	0	30.615	0	1.342281879	4.697986577
 179	35.187	81.789	83.323	35.5704698	56.37583893	64.4295302
 180	39.525	80.194	22.879	35.5704698	44.96644295	24.16107383
 181	50.634	34.593	0	21.47651007	8.724832215	6.040268456
 182	14.175	100	63.146	44.96644295	78.52348993	56.37583893
 183	83.493	17.728	34.574	51.00671141	8.724832215	14.76510067
 184	23.463	22.014	79.943	6.040268456	13.42281879	40.26845638
 185	18.066	31.847	0	6.040268456	6.040268456	3.355704698
 186	87.201	100	81.361	103.3557047	89.93288591	80.53691275
 187	0	100	87.95	44.96644295	85.90604027	81.87919463
 188	34.476	17.888	46.22	8.724832215	6.040268456	12.75167785
 189	18.277	0	67.39	2.684563758	7.382550336	25.5033557
 190	100	87.972	0	111.409396	62.41610738	36.91275168
 191	82.925	34.85	100	57.04697987	30.20134228	75.83892617
 192	0	88.016	100	33.55704698	71.81208054	90.60402685
 193	36.104	85.655	100	40.26845638	69.79865772	88.59060403
 194	60.981	0	0	25.5033557	2.684563758	4.026845638
 195	51.466	61.826	78.106	32.88590604	35.5704698	50.33557047
 196	78.427	31.983	22.175	47.65100671	11.40939597	12.08053691
 197	66.017	44.321	0	36.91275168	14.76510067	10.06711409
 198	83.941	0	84.177	53.02013423	17.44966443	50.33557047
 199	20.158	46.612	23.269	10.73825503	14.09395973	8.724832215
 200	0	100	62.618	43.62416107	79.19463087	55.03355705
 201	33.832	0	13.933	7.382550336	1.342281879	2.013422819
 202	100	17.286	16.322	79.19463087	10.73825503	14.09395973
 203	0	42.204	83.926	7.382550336	22.81879195	47.65100671
 204	0	87.774	0	31.54362416	53.02013423	24.16107383
 205	64.988	0	59.017	29.53020134	8.724832215	22.81879195
 206	14.677	0	100	3.355704698	18.12080537	65.77181208
 207	88.934	82.673	35.021	88.59060403	53.69127517	36.24161074
 208	0	63.778	100	17.44966443	44.29530201	77.18120805
 209	83.429	17.674	100	53.69127517	25.5033557	73.15436242
 210	30.899	100	85.668	49.66442953	85.90604027	79.19463087
 211	83.68	0	41.016	51.67785235	8.053691275	16.77852349
 212	100	63.515	0	95.30201342	32.88590604	23.48993289
 213	85.074	69.987	0	72.48322148	37.58389262	22.81879195
 214	20.801	45.524	69.018	11.40939597	20.13422819	32.88590604
 215	21.382	82.482	73.017	31.54362416	54.36241611	52.34899329
 216	100	15.128	64.249	78.52348993	16.10738255	36.24161074
 217	36.522	0	58.427	9.395973154	6.040268456	19.46308725
 218	22.466	81.296	33.007	30.20134228	45.63758389	26.84563758
 219	62.531	87.152	0	59.06040268	55.03355705	28.18791946
 220	84.12	85.397	67.886	83.89261745	62.41610738	57.04697987
 221	18.87	27.336	45.389	5.369127517	7.382550336	13.42281879
 222	66.439	100	14.444	75.16778523	77.18120805	38.25503356
 223	41.636	22.147	19.003	13.42281879	4.697986577	4.697986577
 224	61.271	100	81.94	46.97986577	87.24832215	77.18120805
 225	86.013	100	0	100	79.19463087	42.28187919
 226	37.57	0	0	8.724832215	1.342281879	1.342281879
 227	100	16.132	84.102	79.86577181	21.47651007	56.37583893
 228	0	100	13.619	45.63758389	73.82550336	33.55704698
 229	38.905	100	56.471	53.02013423	78.52348993	52.34899329
 230	100	15.382	34.563	79.19463087	11.40939597	18.79194631
 231	36.656	14.908	100	11.40939597	20.80536913	66.44295302
 232	0	62.593	66.608	15.43624161	30.87248322	36.24161074
 233	66.347	12.528	100	32.2147651	22.14765101	71.1409396
 234	100	43.375	69.233	86.57718121	26.84563758	44.29530201
 235	100	56.36	61.236	91.27516779	33.55704698	42.28187919
 236	0	86.194	44.955	31.54362416	53.02013423	34.22818792
 237	64.527	87.262	100	61.0738255	73.82550336	94.63087248
 238	34.411	0	42.471	7.382550336	4.026845638	10.06711409
 239	80.23	59.707	85.12	61.74496644	38.9261745	61.74496644
 240	20.625	19.056	14.791	4.026845638	2.684563758	2.684563758
 241	15.341	34.221	100	8.053691275	24.83221477	67.7852349
 242	36.777	0	87.905	9.395973154	14.09395973	48.99328859
 243	34.598	56.247	100	21.47651007	38.25503356	74.4966443
 244	20.86	67.629	17.418	20.80536913	29.53020134	15.43624161
 245	44.958	60.843	18.054	26.84563758	24.83221477	14.76510067
 246	37.421	60.193	0	22.81879195	23.48993289	12.08053691
 247	84.011	33.849	42.612	55.70469799	14.76510067	20.80536913
 248	17.241	60.339	37.743	16.10738255	24.83221477	18.12080537
 249	50.65	17.261	53.278	18.79194631	7.382550336	18.79194631
 250	45.505	48.926	65.152	22.81879195	22.81879195	32.2147651
 251	44.567	84.081	39.649	42.28187919	51.00671141	32.2147651
 252	100	86.339	72.054	111.409396	67.7852349	66.44295302
 253	68.14	61.135	0	46.30872483	26.84563758	15.43624161
 254	17.93	66.986	81.403	20.80536913	38.9261745	53.69127517
 255	39.242	60.215	48.926	23.48993289	26.84563758	24.83221477
 256	20.099	18.77	62.967	4.697986577	8.053691275	23.48993289
 257	34.553	100	14.582	50.33557047	73.82550336	35.5704698
 258	87.345	0	66.694	56.37583893	12.75167785	34.22818792
 259	0	43.714	39.842	8.053691275	13.42281879	13.42281879
 260	100	37.705	13.955	82.55033557	16.77852349	17.44966443
 261	31.265	86.993	0	37.58389262	53.02013423	24.16107383
 262	51.402	82.661	81.338	45.63758389	58.38926174	63.75838926
 263	100	100	12.984	124.1610738	81.87919463	46.97986577
 264	0	37.859	0	5.369127517	8.053691275	4.026845638
 265	62.092	58.215	100	40.26845638	41.61073826	79.86577181
 266	86.186	100	64.1	98.65771812	85.23489933	65.77181208
 267	100	35.251	85.898	84.56375839	28.18791946	60.40268456
 268	63.182	89.992	41.974	61.0738255	62.41610738	39.59731544
 269	13.504	100	0	44.96644295	73.82550336	32.88590604
 270	100	0	13.228	78.52348993	9.395973154	12.75167785
 271	63.881	40.826	100	34.89932886	30.87248322	74.4966443
 272	69.387	84.838	20.792	63.75838926	53.02013423	29.53020134
 273	0	70.279	45.136	20.13422819	34.89932886	25.5033557
 274	79.094	64.754	40.908	61.74496644	33.55704698	28.18791946
 275	62.385	54.099	17.396	37.58389262	20.80536913	13.42281879
 276	64.408	14.621	0	29.53020134	4.697986577	4.697986577
 277	70.028	15.606	44.651	34.89932886	8.724832215	16.10738255
 278	0	63.544	0	15.43624161	25.5033557	11.40939597
 279	83.475	47.274	20.502	59.06040268	19.46308725	16.10738255
 280	55.866	0	32.671	20.80536913	4.026845638	8.724832215
 281	58.007	0	100	24.16107383	20.80536913	68.45637584
 282	100	0	87.698	79.86577181	20.80536913	58.38926174
 283	0	13.792	67.215	1.342281879	8.053691275	26.17449664
 284	84.123	17.001	58.549	53.02013423	12.75167785	27.51677852
 285	59.579	32.873	15.966	27.51677852	9.395973154	7.382550336
 286	10.41	32.998	28.659	5.369127517	7.382550336	7.382550336
 287	17.231	40.031	85.65	8.724832215	22.14765101	48.99328859
 288	37.568	41.561	10.108	14.76510067	11.40939597	6.711409396
 289	0	69.015	85.092	19.46308725	42.95302013	58.38926174
 290	14.442	100	36.187	45.63758389	73.82550336	40.26845638
 291	100	40.549	0	83.89261745	18.12080537	16.77852349
 292	82.143	45.435	78.429	57.04697987	27.51677852	49.66442953
 293	52.674	0	67.3	19.46308725	9.395973154	27.51677852
 294	0	87.868	66.793	32.88590604	59.73154362	50.33557047
 295	86.53	100	40.524	101.3422819	81.87919463	49.66442953
 296	71.777	85.586	67.232	67.7852349	60.40268456	54.36241611
 297	43.216	100	31.671	55.03355705	75.83892617	40.26845638
 298	39.245	32.908	85.845	20.80536913	20.13422819	48.99328859
 299	0	45.662	67.543	8.724832215	19.46308725	31.54362416
 300	12.161	100	100	45.63758389	91.94630872	97.98657718
 301	67.049	0	85.516	32.2147651	15.43624161	49.66442953
 302	100	89.041	100	114.7651007	81.20805369	104.0268456
 303	20.246	60.698	56.526	17.44966443	27.51677852	28.8590604
 304	52.177	55.457	40.416	30.20134228	22.81879195	19.46308725
 305	72.617	87.018	83.932	69.12751678	67.7852349	73.15436242
 306	40.512	16.723	66.475	12.08053691	10.06711409	26.84563758
 307	68.507	49.232	50.605	41.61073826	21.47651007	25.5033557
 308	65.622	100	54.525	74.4966443	80.53691275	53.69127517
 309	54.115	37.24	66.394	24.83221477	16.77852349	31.54362416
 310	100	76.138	31.267	102.6845638	48.32214765	34.89932886
 311	54.728	65.623	0	36.24161074	30.20134228	15.43624161
 312	63.126	12.526	64.37	27.51677852	10.73825503	27.51677852
 313	72.827	18.08	23.704	38.25503356	6.711409396	9.395973154
 314	23.268	15.278	34.947	4.697986577	4.026845638	6.711409396
 315	87.648	68.954	59.645	76.51006711	41.61073826	42.28187919
 316	0	85.595	85.198	31.54362416	62.41610738	67.7852349
 317	35.798	84.371	69.21	38.25503356	57.71812081	50.33557047
 318	36.062	47.494	35.919	16.77852349	16.10738255	14.09395973
 319	86.083	36.277	59.152	59.06040268	19.46308725	30.87248322
 320	58.21	100	30.361	66.44295302	75.83892617	41.61073826
 321	46.745	14.614	32.317	15.43624161	4.697986577	8.053691275
 322	81.573	73.869	86.954	72.48322148	53.69127517	69.12751678
 323	85.991	49.387	48.206	63.75838926	23.48993289	28.18791946
 324	28.062	87.906	19.654	36.91275168	55.03355705	26.84563758
 325	68.992	17.993	85.124	34.89932886	17.44966443	50.33557047
 326	100	66.147	100	95.97315436	54.36241611	91.27516779
 327	33.358	64.806	84.517	24.16107383	39.59731544	55.70469799
 328	41.351	17.736	80.522	13.42281879	13.42281879	41.61073826
 329	100	100	88.719	126.1744966	95.30201342	93.95973154
 330	66.336	0	44.32	30.87248322	6.040268456	15.43624161
 331	64.85	67.09	12.293	45.63758389	32.2147651	18.79194631
 332	15.262	31.268	63.277	5.369127517	12.08053691	24.83221477
 333	15.008	43.663	37.3	8.724832215	13.42281879	12.75167785
 334	0	57.895	38.078	12.75167785	22.14765101	17.44966443
 335	66.599	58.458	67.871	44.29530201	32.2147651	40.26845638
 336	59.191	18.651	15.215	24.16107383	5.369127517	6.040268456
 337	66.781	31.14	84.629	34.89932886	21.47651007	50.33557047
 338	88.033	85.158	52.14	89.26174497	59.06040268	46.30872483
 339	36.882	100	100	53.02013423	91.27516779	100.6711409
 340	26.102	33.094	17.006	8.053691275	7.382550336	5.369127517
 341	56.309	36.861	35.862	25.5033557	12.08053691	13.42281879
 342	45.839	65.587	67.033	30.20134228	36.24161074	40.26845638
 343	83.709	81.172	16.406	79.19463087	48.99328859	29.53020134
 344	0	48.132	13.005	8.724832215	14.09395973	7.382550336
 345	87.176	50.021	100	67.7852349	38.9261745	80.53691275
 346	51.219	84.244	13.73	46.30872483	49.66442953	25.5033557
 347	60.606	71.415	48.406	44.96644295	38.9261745	32.2147651
 348	0	11.359	12.718	1.342281879	0.6711409396	2.013422819
 349	86.429	49.705	33.145	63.08724832	22.81879195	20.80536913
 350	34.056	40.958	100	14.76510067	29.53020134	71.1409396
 351	100	30.557	59.628	82.55033557	18.79194631	34.22818792
 352	88.497	26.902	13.449	59.73154362	10.73825503	12.08053691
 353	14.167	51.98	88.218	12.75167785	29.53020134	55.70469799
 354	13.784	12.983	49.37	2.013422819	5.369127517	13.42281879
 355	15.018	88.441	48.062	34.22818792	57.04697987	37.58389262
 356	87.79	25.769	89.215	59.73154362	22.81879195	60.40268456
 357	0	33.206	55.865	4.026845638	11.40939597	19.46308725
 358	74.324	76.029	35.536	61.74496644	44.29530201	30.20134228
 359	65.863	57.223	42.324	42.28187919	25.5033557	22.81879195
 360	30.893	54.646	13.136	17.44966443	18.79194631	10.73825503
 361	0	34.36	28.321	4.697986577	8.053691275	6.711409396
 362	15.443	77.087	85.116	26.17449664	51.67785235	63.08724832
 363	63.381	68.947	68.521	46.30872483	40.26845638	44.96644295
 364	69.733	27.566	42.917	36.91275168	10.73825503	16.77852349
 365	32.754	100	42.76	49.66442953	76.51006711	44.29530201
 366	47.096	29.481	34.829	17.44966443	8.724832215	10.73825503
 367	8.5451	71.948	62.695	21.47651007	38.9261745	37.58389262
 368	0	86.048	29.3	30.87248322	51.67785235	27.51677852
 369	53.697	51.572	85.367	30.20134228	30.87248322	53.69127517
 370	17.608	56.69	12.515	13.42281879	20.13422819	10.73825503
 371	90.638	14.414	49.227	61.74496644	11.40939597	23.48993289
 372	63.248	63.64	89.55	44.29530201	42.28187919	65.10067114
 373	100	85.976	58.455	111.409396	63.75838926	55.03355705
 374	9.8311	28.027	7.5567	4.026845638	4.697986577	2.684563758
 375	89.831	64.313	69.506	75.83892617	40.26845638	49.66442953
 376	31.754	12.995	25.543	7.382550336	2.684563758	4.697986577
 377	75.914	45.966	64.957	49.66442953	23.48993289	35.5704698
 378	7.5735	50.695	58.941	10.73825503	20.80536913	26.84563758
 379	100	69.835	58.912	98.65771812	45.63758389	45.63758389
 380	32.211	34.376	48.339	10.73825503	11.40939597	16.10738255
 381	13.901	12.159	73.555	3.355704698	9.395973154	32.2147651
 382	87.071	9.028	77.653	57.71812081	16.77852349	44.29530201
 383	23.272	85.409	84.29	34.22818792	62.41610738	66.44295302
 384	93.289	39.48	26.145	71.81208054	17.44966443	17.44966443
 385	65.769	59.63	30.967	42.95302013	26.84563758	19.46308725
 386	100	32.265	41.803	81.20805369	16.77852349	24.16107383
 387	86.568	85.281	86.961	86.57718121	67.7852349	78.52348993
 388	52.577	86.83	30.016	48.99328859	55.70469799	30.87248322
 389	47.921	40.199	76.902	22.14765101	20.80536913	40.93959732
 390	22.36	86.619	61.58	34.89932886	56.37583893	45.63758389
 391	52.232	33.601	88.787	23.48993289	22.14765101	54.36241611
 392	0	28.523	86.267	4.697986577	16.77852349	46.97986577
 393	43.497	67.879	39.551	29.53020134	32.88590604	24.16107383
 394	39.877	45.261	0	17.44966443	13.42281879	7.382550336
 395	86.94	12.43	24.699	56.37583893	8.053691275	12.08053691
 396	28.363	55.339	90.398	18.12080537	33.55704698	60.40268456
 397	39.018	70.534	57.879	28.8590604	38.25503356	34.22818792
 398	12.833	28.519	78.828	4.697986577	14.76510067	39.59731544
 399	68.35	31.815	69.975	36.24161074	17.44966443	35.5704698
 400	56.52	26.226	41.626	24.16107383	8.724832215	14.09395973
 401	12.938	46.218	0	8.724832215	13.42281879	6.040268456
 402	8.6938	60.179	26.117	14.09395973	23.48993289	13.42281879
 403	51.995	89.429	96.608	53.02013423	73.15436242	88.59060403
 404	46.905	47.746	48.909	22.14765101	18.79194631	21.47651007
 405	14.352	81.814	19.479	28.8590604	45.63758389	22.81879195
 406	71.482	38.117	12.273	40.26845638	12.75167785	10.73825503
 407	86.616	60.785	10.012	70.46979866	29.53020134	19.46308725
 408	71.811	88.979	52.186	69.79865772	61.74496644	45.63758389
 409	43.213	100	72.083	55.70469799	82.55033557	65.77181208
 410	73.92	23.444	8.2853	40.26845638	7.382550336	7.382550336
