data/calibration-000961.ti3
CTI3   
ORIGINATOR	"ColorHug Factory"
DESCRIPTOR	"Calibration Target chart information 3"
DEVICE_CLASS	"DISPLAY"
COLOR_REP	"RGB_XYZ"
TARGET_INSTRUMENT	"Hughski ColorHug"
INSTRUMENT_TYPE_SPECTRAL	"NO"
NORMALIZED_TO_Y_100	"NO"
NUMBER_OF_FIELDS	7
NUMBER_OF_SETS	15
BEGIN_DATA_FORMAT
 SAMPLE_ID	RGB_R	RGB_G	RGB_B	XYZ_X	XYZ_Y	XYZ_Z
END_DATA_FORMAT
BEGIN_DATA
 1	0	0	0	0	0	0.04577636719
 2	1	1	1	58.8684082	38.45214844	46.55456543
 3	1	0	0	36.98730469	3.524780273	5.676269531
 4	0	1	0	19.04296875	27.14538574	12.81738281
 5	0	0	1	0.9155273438	7.461547852	27.64892578
 6	0	0	0	0	0	0.04577636719
 7	1	1	1	58.91418457	38.45214844	46.50878906
 8	1	0	0	36.71264648	3.479003906	5.676269531
 9	0	1	0	18.99719238	27.19116211	12.81738281
 10	0	0	1	0.8697509766	7.461547852	27.60314941
 11	0	0	0	0	0	0.04577636719
 12	1	1	1	58.8684082	38.3605957	45.95947266
 13	1	0	0	36.98730469	3.479003906	5.630493164
 14	0	1	0	19.04296875	26.96228027	12.81738281
 15	0	0	1	0.8697509766	7.507324219	27.55737305
END_DATA
