data/calibration-000119.ti3
CTI3
DESCRIPTOR	"Calibration Target chart information 3"
ORIGINATOR	"ColorHug Factory"
DEVICE_CLASS	"DISPLAY"
COLOR_REP	"RGB_XYZ"
TARGET_INSTRUMENT	"ColorHug"
INSTRUMENT_TYPE_SPECTRAL	"NO"
LUMINANCE_XYZ_CDM2	"56.316376 42.320251 47.481537"
NORMALIZED_TO_Y_100	"YES"
NUMBER_OF_FIELDS	7
NUMBER_OF_SETS	836
BEGIN_DATA_FORMAT
 SAMPLE_ID	RGB_R	RGB_G	RGB_B	XYZ_X	XYZ_Y	XYZ_Z
END_DATA_FORMAT
BEGIN_DATA
 1	100	100	100	129.1711518	99.03121636	111.4101184
 2	100	100	100	134.3379978	99.67707212	111.7330463
 3	100	100	100	133.7997847	100	111.9483315
 4	100	100	100	132.4004306	99.35414424	111.517761
 5	33.33	32.622	30.968	11.51776103	7.96555436	8.396124865
 6	100	0	100	83.10010764	26.04951561	77.28740581
 7	100	100	0	132.9386437	81.91603875	46.71689989
 8	0	100	100	46.71689989	90.85037675	97.9547901
 9	0	100	0	44.56404736	72.55113025	32.83100108
 10	0	0	100	2.691065662	17.65339074	64.58557589
 11	100	0	0	82.45425188	8.503767492	12.70182992
 12	0	0	0	0	0	1.184068891
 13	0	52.455	100	11.73304629	33.90742734	72.44348762
 14	100	0	50.3	82.66953714	12.05597417	25.72658773
 15	100	54.739	100	96.87836383	44.02583423	85.03767492
 16	100	52.128	0	94.40258342	24.21959096	20.12917115
 17	0	0	46.181	1.184068891	2.906350915	10.44133477
 18	0	51.141	0	9.687836383	15.28525296	7.104413348
 19	0	100	51.348	44.02583423	76.53390743	46.71689989
 20	100	100	52.037	130.7857912	85.14531755	60.27987083
 21	49.216	0	0	16.6846071	1.82992465	2.691065662
 22	56.159	100	0	66.09257266	75.13455328	36.49085038
 23	49.226	100	100	62.97093649	92.89558665	101.2917115
 24	44.487	0	100	15.50053821	19.05274489	67.27664155
 25	100	44.498	52.029	91.38858988	23.68137783	31.96986006
 26	48.926	48.544	100	26.91065662	33.15392896	73.73519914
 27	51.368	100	47.25	63.07857912	78.0409042	46.93218515
 28	49.893	0	49.033	17.22282024	5.166846071	14.85468245
 29	53.109	51.372	0	28.95586652	17.33046286	10.11840689
 30	0	58.587	53.943	13.67061356	24.65016146	24.21959096
 31	100	28.065	100	86.86759957	30.67814855	79.87082885
 32	0	0	72.874	1.82992465	7.96555436	29.17115178
 33	0	26.758	100	4.090419806	21.63616792	66.73842842
 34	0	25.426	0	2.368137783	3.552206674	1.82992465
 35	72.508	0	100	39.07427341	21.63616792	69.96770721
 36	100	27.395	0	85.3606028	12.5941873	14.53175457
 37	74.47	100	100	89.0204521	95.15608181	104.7362756
 38	100	0	25.728	83.20775027	9.364908504	15.82346609
 39	73.862	0	0	40.15069968	4.305705059	6.243272336
 40	100	100	25.402	129.2787944	82.45425188	49.40796555
 41	0	75.751	100	25.51130248	54.8977395	82.23896663
 42	0	75.172	0	22.82023681	36.1679225	16.57696448
 43	0	100	25.864	44.67168999	73.62755651	36.1679225
 44	100	0	74.801	82.88482239	17.11517761	44.56404736
 45	0	100	75.421	47.1474704	81.91603875	65.4467169
 46	24.577	0	0	7.104413348	0.5382131324	0.7534983854
 47	26.321	100	0	48.54682454	73.19698601	33.47685684
 48	100	75.835	0	109.0419806	45.64047363	30.13993541
 49	100	100	77.061	130.247578	90.6350915	80.30139935
 50	71.263	100	0	83.63832078	76.85683531	38.85898816
 51	0	0	15.614	0	0.4305705059	1.291711518
 52	0	30.049	70.936	3.875134553	12.48654467	29.81700753
 53	100	77.691	100	110.3336921	66.52314316	96.55543595
 54	24.486	100	100	50.59203445	90.6350915	98.49300323
 55	100	62.784	31.909	100	34.23035522	29.06350915
 56	29.552	0	100	8.073196986	18.2992465	65.98493003
 57	32.98	70.921	100	28.63293864	50.26910657	80.40904198
 58	0	27.681	40.241	3.229278794	6.350914962	9.79547901
 59	67.901	71.021	100	55.43595264	53.49838536	85.03767492
 60	28.154	100	67.829	50.16146394	79.6555436	58.77287406
 61	71.637	100	70.001	84.17653391	84.60710441	66.20021529
 62	58.822	58.763	53.586	37.99784715	27.2335845	27.87944026
 63	33.466	30.48	0	10.44133477	5.81270183	3.552206674
 64	100	73.795	71.277	106.350915	51.56081808	57.48116254
 65	68.394	29.692	0	38.42841765	8.288482239	7.427341227
 66	70.399	0	29.039	35.95263724	4.951560818	9.580193757
 67	28.078	0	26.956	5.274488698	1.614639397	4.305705059
 68	28.532	72.339	0	26.04951561	33.47685684	16.03875135
 69	100	30.941	26.496	86.22174381	14.6393972	18.51453175
 70	34.597	0	73.611	11.84068891	9.041980624	31.21636168
 71	71.573	0	72.408	37.56727664	11.84068891	34.66092573
 72	0	71.029	29.412	22.06673843	32.83100108	18.72981701
 73	68.386	75.008	0	55.32831001	39.61248654	21.9590958
 74	68.088	27.309	100	37.56727664	25.40365985	72.01291712
 75	100	26.457	73.749	85.3606028	20.77502691	45.31754575
 76	74.344	100	27.392	87.08288482	78.4714747	43.05705059
 77	27.558	100	28.197	50.69967707	74.27341227	37.56727664
 78	31.196	27.465	100	10.9795479	22.49730893	68.03013994
 79	0	75.521	72.824	23.68137783	44.88697524	46.07104413
 80	0	50.93	25.553	10.5489774	15.93110872	10.11840689
 81	32.06	33.584	64.033	10.9795479	12.91711518	25.83423036
 82	81.666	55.38	0	61.7868676	23.35844995	16.2540366
 83	68.257	32.751	58.286	38.2131324	14.31646932	25.6189451
 84	0	55.248	81.585	12.37890205	28.8482239	47.36275565
 85	73.781	52.099	100	51.34553283	38.10548977	78.57911733
 86	100	50.537	82.952	92.78794403	34.33799785	59.7416577
 87	23.55	0	50.439	4.090419806	3.98277718	13.34768568
 88	31.335	62.746	31.114	21.63616792	26.04951561	16.6846071
 89	100	18.31	49.418	83.3153929	13.77825619	26.04951561
 90	26.498	48.404	0	13.56297094	13.99354144	6.996770721
 91	47.91	100	85.744	60.06458558	86.32938644	79.87082885
 92	71.829	47.313	31.811	48.7621098	18.2992465	16.6846071
 93	31.304	64.132	69.316	23.03552207	33.15392896	38.75134553
 94	80.403	0	54.321	48.86975242	9.364908504	22.82023681
 95	18.455	50.036	100	15.17761033	32.72335845	72.12055974
 96	50.653	100	16.345	61.57158235	74.3810549	37.13670614
 97	80.121	100	52.261	95.90958019	81.80839612	54.8977395
 98	0	22.54	19.289	2.475780409	3.336921421	3.229278794
 99	100	75.273	46.886	106.350915	48.33153929	40.79655544
 100	0	78.618	56.625	35.73735199	44.67168999	35.19913886
 101	51.137	80.627	100	46.28632939	62.86329386	87.29817008
 102	48.446	0	17.864	16.03875135	2.15285253	4.090419806
 103	100	50.023	21.211	88.91280947	23.68137783	21.74381055
 104	50.115	20.118	0	19.05274489	4.090419806	3.767491927
 105	58.099	72.426	33.158	43.4876211	37.24434876	24.11194833
 106	19.364	100	50.197	47.03982777	76.10333692	46.07104413
 107	50.683	19.177	100	20.77502691	21.5285253	68.78363832
 108	53.37	0	81.576	20.45209903	12.70182992	42.08826695
 109	47.768	76.245	0	38.75134553	38.75134553	19.48331539
 110	0	18.927	55.503	1.82992465	6.458557589	16.6846071
 111	0	13.277	0	0.7534983854	1.184068891	0.6458557589
 112	72.862	72.473	75.625	60.49515608	46.60925727	53.71367061
 113	100	13.904	0	83.10010764	9.580193757	13.24004306
 114	86.349	0	100	61.24865447	23.78902045	73.73519914
 115	100	41.941	100	89.66630786	36.1679225	82.02368138
 116	100	81.785	16.464	113.7782562	53.92895587	34.76856835
 117	0	44.063	52.596	8.073196986	15.06996771	19.37567277
 118	0	0	58.917	0.6458557589	4.951560818	17.97631862
 119	59.25	24.551	29.789	26.58772874	6.996770721	9.47255113
 120	82.73	82.874	100	81.05489774	69.21420883	94.2949408
 121	80.039	0	12.618	49.1926803	5.382131324	8.396124865
 122	60.957	47.729	77.817	35.30678149	25.51130248	44.67168999
 123	100	0	38.618	81.05489774	10.44133477	20.02152853
 124	0	40.09	100	7.750269107	27.12594187	69.32185145
 125	0	15.283	82.322	1.82992465	12.05597417	40.04305705
 126	17.592	81.726	100	30.8934338	62.64800861	85.7911733
 127	100	14.13	100	83.85360603	27.44886975	78.4714747
 128	15.261	100	82.059	47.25511302	83.96124865	73.41227126
 129	47.77	79.418	60.389	41.65769645	48.00861141	40.58127018
 130	18.768	16.429	0	6.566200215	1.82992465	1.291711518
 131	55.634	100	65.763	65.76964478	81.05489774	59.7416577
 132	100	100	38.541	132.4004306	83.85360603	54.03659849
 133	17.421	0	83.497	14.31646932	11.30247578	41.22712594
 134	17.237	16.758	100	4.628632939	19.48331539	65.66200215
 135	0	15.067	30.039	1.076426265	2.583423036	4.951560818
 136	0	0	86.505	1.506996771	12.16361679	44.88697524
 137	75.736	72.799	50.02	62.10979548	41.8729817	34.66092573
 138	100	83.323	85.529	115.5005382	67.27664155	78.79440258
 139	100	100	64.894	131.5392896	87.72874058	69.53713671
 140	81.98	84.914	0	83.53067815	53.82131324	30.13993541
 141	0	63.757	15.49	17.868676	25.08073197	12.70182992
 142	49.514	66.135	100	34.98385361	46.50161464	80.40904198
 143	100	0	61.862	77.71797632	13.99354144	33.04628633
 144	24.308	45.41	49.831	11.51776103	15.71582347	18.72981701
 145	15.963	0	17.047	1.82992465	0.6458557589	1.82992465
 146	87.497	100	100	108.8266954	96.77072121	107.6426265
 147	52.099	25.003	75.752	21.74381055	14.2088267	37.02906351
 148	14.909	81.162	0	28.41765339	43.4876211	20.02152853
 149	0	34.792	14.626	4.413347686	6.996770721	4.305705059
 150	48.39	45.075	22.552	23.14316469	13.88589882	10.22604952
 151	83.545	65.965	100	72.98170075	50.59203445	86.22174381
 152	16.226	62.345	0	16.6846071	23.46609257	11.08719053
 153	63.222	0	14.914	27.98708288	3.336921421	5.597416577
 154	80.449	13.446	0	48.43918192	6.243272336	8.073196986
 155	83.917	41.562	0	59.31108719	15.28525296	12.80947255
 156	100	60.448	46.3	96.12486545	33.79978471	34.12271259
 157	15.584	0	34.795	5.059203445	1.82992465	6.027987083
 158	17.144	65.121	100	20.12917115	44.56404736	77.50269107
 159	83.602	55.334	62.667	66.30785791	29.70936491	37.67491927
 160	0	82.19	14.22	29.38643703	44.67168999	21.31324004
 161	25.132	74.856	50.616	26.91065662	39.8277718	30.13993541
 162	0	13.769	100	2.260495156	18.83745963	65.23143165
 163	87.181	0	0	58.23466093	6.243272336	9.149623251
 164	0	100	39.19	44.88697524	74.3810549	40.36598493
 165	78.047	65.914	19.865	63.18622174	32.40043057	21.42088267
 166	100	63.961	15.865	99.78471475	34.01506997	25.83423036
 167	100	45.955	36.032	92.03444564	22.49730893	24.65016146
 168	15.926	100	16.89	47.47039828	72.87405813	34.5532831
 169	41.459	100	0	54.25188375	72.65877287	34.87621098
 170	48.707	37.288	48.139	23.35844995	12.80947255	17.868676
 171	83.381	100	13.285	100.2152853	78.4714747	42.51883746
 172	78.129	25.303	75.621	48.86975242	17.22282024	41.22712594
 173	12.396	0	0	1.291711518	0.215285253	0.3229278794
 174	37.607	48.336	83.346	18.83745963	25.83423036	48.97739505
 175	35.588	15.356	0	8.934337998	2.368137783	2.045209903
 176	61.245	100	100	71.68998924	92.89558665	102.2604952
 177	100	67.29	87.195	102.3681378	49.40796555	72.01291712
 178	0	0	30.615	17.33046286	1.291711518	4.520990312
 179	35.187	81.789	83.323	36.598493	56.62002153	62.86329386
 180	39.525	80.194	22.879	36.598493	44.13347686	23.35844995
 181	50.634	34.593	0	21.9590958	8.503767492	5.81270183
 182	14.175	100	63.146	44.88697524	79.00968784	54.8977395
 183	83.493	17.728	34.574	53.82131324	8.934337998	14.85468245
 184	23.463	22.014	79.943	7.212055974	13.13240043	38.85898816
 185	18.066	31.847	0	5.81270183	5.81270183	3.013993541
 186	87.201	100	81.361	107.1044133	90.20452099	81.7007535
 187	0	100	87.95	45.42518837	84.60710441	79.87082885
 188	34.476	17.888	46.22	9.149623251	5.597416577	12.5941873
 189	18.277	0	67.39	2.906350915	6.889128095	24.75780409
 190	100	87.972	0	118.0839612	61.35629709	37.45963402
 191	82.925	34.85	100	58.44994618	29.92465016	76.4262648
 192	0	88.016	100	35.19913886	70.61356297	89.55866523
 193	36.104	85.655	100	40.68891281	68.24542519	89.23573735
 194	60.981	0	0	26.58772874	2.798708288	4.090419806
 195	51.466	61.826	78.106	33.58449946	34.98385361	48.86975242
 196	78.427	31.983	22.175	48.65446717	10.9795479	12.05597417
 197	66.017	44.321	0	38.75134553	14.53175457	10.01076426
 198	83.941	0	84.177	54.03659849	17.11517761	50.8073197
 199	20.158	46.612	23.269	11.08719053	13.45532831	8.826695371
 200	0	100	62.618	44.99461787	78.4714747	54.35952637
 201	33.832	0	13.933	7.750269107	1.184068891	2.260495156
 202	100	17.286	16.322	81.16254037	10.44133477	14.85468245
 203	0	42.204	83.926	7.534983854	21.74381055	46.50161464
 204	0	87.774	0	32.29278794	51.99138859	23.78902045
 205	64.988	0	59.017	30.13993541	8.180839612	22.92787944
 206	14.677	0	100	3.121636168	17.868676	65.23143165
 207	88.934	82.673	35.021	89.34337998	53.82131324	36.38320775
 208	0	63.778	100	17.97631862	42.62648009	76.53390743
 209	83.429	17.674	100	54.03659849	24.97308934	74.16576964
 210	30.899	100	85.668	51.56081808	85.25296017	78.14854682
 211	83.68	0	41.016	53.28310011	7.857911733	16.57696448
 212	100	63.515	0	99.13885899	33.26157158	24.11194833
 213	85.074	69.987	0	78.90204521	36.49085038	22.82023681
 214	20.801	45.524	69.018	12.16361679	19.37567277	31.96986006
 215	21.382	82.482	73.017	31.96986006	54.35952637	51.56081808
 216	100	15.128	64.249	79.87082885	15.82346609	35.41442411
 217	36.522	0	58.427	9.687836383	5.81270183	19.05274489
 218	22.466	81.296	33.007	30.57050592	45.20990312	25.72658773
 219	62.531	87.152	0	59.52637244	54.03659849	27.87944026
 220	84.12	85.397	67.886	84.28417653	61.7868676	56.62002153
 221	18.87	27.336	45.389	6.135629709	7.104413348	12.5941873
 222	66.439	100	14.444	74.48869752	75.34983854	39.18191604
 223	41.636	22.147	19.003	13.24004306	4.520990312	4.951560818
 224	61.271	100	81.94	72.55113025	86.22174381	76.85683531
 225	86.013	100	0	104.4133477	78.57911733	42.19590958
 226	37.57	0	0	12.48654467	1.076426265	1.506996771
 227	100	16.132	84.102	82.23896663	21.42088267	55.75888052
 228	0	100	13.619	44.77933262	72.65877287	33.79978471
 229	38.905	100	56.471	54.79009688	78.25618945	51.45317546
 230	100	15.382	34.563	81.05489774	11.41011841	19.16038751
 231	36.656	14.908	100	18.40688913	19.9138859	67.38428418
 232	0	62.593	66.608	15.60818084	30.46286329	34.98385361
 233	66.347	12.528	100	33.36921421	21.9590958	70.18299247
 234	100	43.375	69.233	89.12809473	26.69537137	44.24111948
 235	100	56.36	61.236	95.37136706	32.9386437	41.8729817
 236	0	86.194	44.955	31.32400431	52.63724435	33.04628633
 237	64.527	87.262	100	63.8320775	72.87405813	93.54144241
 238	34.411	0	42.471	7.64262648	3.336921421	10.11840689
 239	80.23	59.707	85.12	62.54036598	38.85898816	61.14101184
 240	20.625	19.056	14.791	8.611410118	2.691065662	2.691065662
 241	15.341	34.221	100	7.427341227	24.43487621	68.56835307
 242	36.777	0	87.905	9.687836383	13.67061356	48.43918192
 243	34.598	56.247	100	21.31324004	37.56727664	75.02691066
 244	20.86	67.629	17.418	20.88266954	29.06350915	15.06996771
 245	44.958	60.843	18.054	27.44886975	24.32723358	14.10118407
 246	37.421	60.193	0	23.03552207	22.71259419	11.51776103
 247	84.011	33.849	42.612	57.69644779	14.53175457	20.3444564
 248	17.241	60.339	37.743	16.14639397	24.00430571	17.43810549
 249	50.65	17.261	53.278	18.83745963	7.64262648	18.08396125
 250	45.505	48.926	65.152	23.25080732	21.74381055	31.75457481
 251	44.567	84.081	39.649	42.84176534	50.91496233	31.43164693
 252	100	86.339	72.054	117.6533907	67.59956943	65.55435953
 253	68.14	61.135	0	47.47039828	25.94187298	15.50053821
 254	17.93	66.986	81.403	20.66738428	38.64370291	52.09903122
 255	39.242	60.215	48.926	24.11194833	26.26480086	23.68137783
 256	20.099	18.77	62.967	4.628632939	8.073196986	22.38966631
 257	34.553	100	14.582	51.99138859	73.73519914	35.30678149
 258	87.345	0	66.694	59.41872982	12.80947255	33.47685684
 259	0	43.714	39.842	14.53175457	13.13240043	12.80947255
 260	100	37.705	13.955	86.00645856	16.79224973	17.54574812
 261	31.265	86.993	0	38.2131324	51.56081808	24.21959096
 262	51.402	82.661	81.338	46.60925727	58.01937567	62.75565124
 263	100	100	12.984	128.3100108	81.16254037	47.03982777
 264	0	37.859	0	5.81270183	7.96555436	3.767491927
 265	62.092	58.215	100	40.90419806	41.01184069	79.00968784
 266	86.186	100	64.1	104.4133477	85.03767492	64.90850377
 267	100	35.251	85.898	87.72874058	27.77179763	60.60279871
 268	63.182	89.992	41.974	63.61679225	60.92572659	38.75134553
 269	13.504	100	0	45.64047363	72.65877287	33.15392896
 270	100	0	13.228	81.80839612	8.719052745	13.56297094
 271	63.881	40.826	100	38.53606028	30.46286329	74.16576964
 272	69.387	84.838	20.792	64.80086114	52.63724435	29.60172228
 273	0	70.279	45.136	20.45209903	34.12271259	24.54251884
 274	79.094	64.754	40.908	63.18622174	33.15392896	27.55651238
 275	62.385	54.099	17.396	40.58127018	20.45209903	13.67061356
 276	64.408	14.621	0	29.81700753	4.413347686	5.274488698
 277	70.028	15.606	44.651	35.95263724	7.857911733	16.03875135
 278	0	63.544	0	15.71582347	24.65016146	11.41011841
 279	83.475	47.274	20.502	60.71044133	19.05274489	16.2540366
 280	55.866	0	32.671	21.74381055	3.767491927	8.503767492
 281	58.007	0	100	24.54251884	20.12917115	68.78363832
 282	100	0	87.698	82.34660926	21.09795479	59.20344456
 283	0	13.792	67.215	2.691065662	7.857911733	24.97308934
 284	84.123	17.001	58.549	55.32831001	12.16361679	27.2335845
 285	59.579	32.873	15.966	29.38643703	8.826695371	7.857911733
 286	10.41	32.998	28.659	4.951560818	7.212055974	6.996770721
 287	17.231	40.031	85.65	8.826695371	21.42088267	48.43918192
 288	37.568	41.561	10.108	15.06996771	10.76426265	6.566200215
 289	0	69.015	85.092	19.80624327	41.55005382	56.83530678
 290	14.442	100	36.187	45.532831	73.95048439	39.61248654
 291	100	40.549	0	88.26695371	17.868676	17.00753498
 292	82.143	45.435	78.429	59.31108719	26.91065662	48.7621098
 293	52.674	0	67.3	24.21959096	8.826695371	27.77179763
 294	0	87.868	66.793	33.26157158	59.31108719	48.54682454
 295	86.53	100	40.524	104.8439182	80.83961249	50.8073197
 296	71.777	85.586	67.232	69.96770721	60.27987083	53.92895587
 297	43.216	100	31.671	57.69644779	75.24219591	39.8277718
 298	39.245	32.908	85.845	15.17761033	19.05274489	48.54682454
 299	0	45.662	67.543	8.396124865	18.94510226	30.67814855
 300	12.161	100	100	47.1474704	90.52744887	98.60064586
 301	67.049	0	85.516	32.9386437	15.39289559	48.97739505
 302	100	89.041	100	121.4208827	81.37782562	103.444564
 303	20.246	60.698	56.526	17.33046286	26.91065662	27.34122713
 304	52.177	55.457	40.416	30.35522067	22.49730893	19.48331539
 305	72.617	87.018	83.932	71.47470398	66.41550054	71.68998924
 306	40.512	16.723	66.475	15.60818084	9.364908504	26.48008611
 307	68.507	49.232	50.605	42.84176534	21.31324004	25.08073197
 308	65.622	100	54.525	76.21097955	79.87082885	53.92895587
 309	54.115	37.24	66.394	26.48008611	16.46932185	30.78579117
 310	100	76.138	31.267	108.3961249	47.47039828	35.19913886
 311	54.728	65.623	0	37.45963402	28.74058127	15.39289559
 312	63.126	12.526	64.37	28.95586652	10.01076426	27.2335845
 313	72.827	18.08	23.704	39.61248654	6.673842842	9.580193757
 314	23.268	15.278	34.947	7.427341227	3.444564047	7.104413348
 315	87.648	68.954	59.645	77.61033369	41.22712594	42.08826695
 316	0	85.595	85.198	32.83100108	61.35629709	66.52314316
 317	35.798	84.371	69.21	38.42841765	56.29709365	49.94617869
 318	36.062	47.494	35.919	17.76103337	15.82346609	13.67061356
 319	86.083	36.277	59.152	61.89451023	18.40688913	30.57050592
 320	58.21	100	30.361	68.35306781	76.31862217	41.22712594
 321	46.745	14.614	32.317	16.14639397	4.198062433	7.96555436
 322	81.573	73.869	86.954	72.65877287	52.74488698	70.07534984
 323	85.991	49.387	48.206	66.20021529	23.35844995	27.2335845
 324	28.062	87.906	19.654	38.2131324	53.39074273	26.80301399
 325	68.992	17.993	85.124	35.84499462	17.22282024	49.83853606
 326	100	66.147	100	100.7534984	54.03659849	90.95801938
 327	33.358	64.806	84.517	25.29601722	38.53606028	55.86652314
 328	41.351	17.736	80.522	13.24004306	13.34768568	40.47362756
 329	100	100	88.719	131.5392896	94.40258342	94.83315393
 330	66.336	0	44.32	31.96986006	6.027987083	14.85468245
 331	64.85	67.09	12.293	46.93218515	31.43164693	18.40688913
 332	15.262	31.268	63.277	11.62540366	11.41011841	24.32723358
 333	15.008	43.663	37.3	8.611410118	12.91711518	12.16361679
 334	0	57.895	38.078	12.80947255	21.9590958	16.46932185
 335	66.599	58.458	67.871	44.99461787	31.10871905	39.93541442
 336	59.191	18.651	15.215	25.40365985	4.843918192	5.920344456
 337	66.781	31.14	84.629	35.52206674	20.3444564	50.16146394
 338	88.033	85.158	52.14	88.26695371	59.09580194	45.74811625
 339	36.882	100	100	55.54359526	91.065662	99.78471475
 340	26.102	33.094	17.006	8.719052745	6.889128095	5.059203445
 341	56.309	36.861	35.862	26.37244349	11.51776103	13.13240043
 342	45.839	65.587	67.033	31.21636168	34.66092573	39.07427341
 343	83.709	81.172	16.406	81.37782562	49.62325081	29.49407966
 344	0	48.132	13.005	10.33369214	13.67061356	7.212055974
 345	87.176	50.021	100	68.67599569	38.64370291	81.16254037
 346	51.219	84.244	13.73	47.5780409	49.08503767	25.29601722
 347	60.606	71.415	48.406	46.50161464	38.53606028	30.78579117
 348	0	11.359	12.718	0.6458557589	1.076426265	1.399354144
 349	86.429	49.705	33.145	66.09257266	21.85145318	20.99031216
 350	34.056	40.958	100	15.17761033	28.41765339	70.93649085
 351	100	30.557	59.628	85.03767492	18.83745963	34.23035522
 352	88.497	26.902	13.449	62.97093649	10.5489774	12.27125942
 353	14.167	51.98	88.218	12.80947255	28.8482239	54.79009688
 354	13.784	12.983	49.37	2.475780409	4.628632939	13.0247578
 355	15.018	88.441	48.062	34.44564047	56.72766416	36.27556512
 356	87.79	25.769	89.215	62.97093649	23.14316469	59.84930032
 357	0	33.206	55.865	5.059203445	10.44133477	19.05274489
 358	74.324	76.029	35.536	63.18622174	43.05705059	29.70936491
 359	65.863	57.223	42.324	43.27233584	24.97308934	22.71259419
 360	30.893	54.646	13.136	17.43810549	18.51453175	10.11840689
 361	0	34.36	28.321	4.305705059	7.64262648	6.889128095
 362	15.443	77.087	85.116	26.58772874	50.8073197	61.7868676
 363	63.381	68.947	68.521	47.25511302	39.8277718	43.70290635
 364	69.733	27.566	42.917	37.45963402	10.33369214	16.6846071
 365	32.754	100	42.76	51.34553283	75.45748116	43.16469322
 366	47.096	29.481	34.829	19.05274489	7.96555436	10.44133477
 367	8.5451	71.948	62.695	21.74381055	38.85898816	36.1679225
 368	0	86.048	29.3	30.67814855	51.34553283	26.91065662
 369	53.697	51.572	85.367	30.46286329	29.70936491	54.35952637
 370	17.608	56.69	12.515	13.99354144	19.48331539	10.01076426
 371	90.638	14.414	49.227	63.18622174	11.30247578	23.03552207
 372	63.248	63.64	89.55	45.31754575	41.33476857	65.33907427
 373	100	85.976	58.455	116.7922497	64.15500538	54.35952637
 374	9.8311	28.027	7.5567	4.090419806	4.520990312	2.691065662
 375	89.831	64.313	69.506	77.61033369	39.28955867	48.65446717
 376	31.754	12.995	25.543	14.85468245	2.691065662	4.736275565
 377	75.914	45.966	64.957	49.94617869	22.92787944	35.30678149
 378	7.5735	50.695	58.941	11.41011841	20.3444564	25.40365985
 379	100	69.835	58.912	102.0452099	44.24111948	45.64047363
 380	32.211	34.376	48.339	15.71582347	10.5489774	15.93110872
 381	13.901	12.159	73.555	2.691065662	9.364908504	30.8934338
 382	87.071	9.028	77.653	58.66523143	16.2540366	44.67168999
 383	23.272	85.409	84.29	34.87621098	61.14101184	65.55435953
 384	93.289	39.48	26.145	74.3810549	16.89989236	17.97631862
 385	65.769	59.63	30.967	45.532831	26.04951561	19.26803014
 386	100	32.265	41.803	85.57588805	16.79224973	24.11194833
 387	86.568	85.281	86.961	89.98923574	67.59956943	77.50269107
 388	52.577	86.83	30.016	50.59203445	54.03659849	30.67814855
 389	47.921	40.199	76.902	22.28202368	20.23681378	41.11948332
 390	22.36	86.619	61.58	34.87621098	55.97416577	44.02583423
 391	52.232	33.601	88.787	23.89666308	21.42088267	54.14424112
 392	0	28.523	86.267	4.305705059	16.57696448	46.50161464
 393	43.497	67.879	39.551	30.13993541	32.18514532	22.92787944
 394	39.877	45.261	0	17.76103337	12.80947255	7.104413348
 395	86.94	12.43	24.699	57.69644779	7.750269107	12.37890205
 396	28.363	55.339	90.398	19.05274489	32.83100108	59.63401507
 397	39.018	70.534	57.879	29.81700753	37.13670614	33.69214209
 398	12.833	28.519	78.828	4.951560818	14.42411195	38.53606028
 399	68.35	31.815	69.975	37.35199139	16.6846071	35.30678149
 400	56.52	26.226	41.626	24.54251884	8.396124865	13.88589882
 401	12.938	46.218	0	10.01076426	12.27125942	5.920344456
 402	8.6938	60.179	26.117	14.53175457	22.71259419	13.34768568
 403	51.995	89.429	96.608	53.92895587	73.62755651	88.15931109
 404	46.905	47.746	48.909	23.68137783	18.08396125	20.55974166
 405	14.352	81.814	19.479	29.17115178	44.67168999	22.28202368
 406	71.482	38.117	12.273	42.08826695	12.27125942	10.44133477
 407	86.616	60.785	10.012	72.7664155	28.63293864	19.9138859
 408	71.811	88.979	52.186	72.22820237	61.46393972	44.67168999
 409	43.213	100	72.083	57.91173305	81.91603875	64.04736276
 410	73.92	23.444	8.2853	41.65769645	7.212055974	8.073196986
