data/calibration-000405.ti3
CTI3
ORIGINATOR	"ColorHug Factory"
DESCRIPTOR	"Calibration Target chart information 3"
DEVICE_CLASS	"DISPLAY"
COLOR_REP	"RGB_XYZ"
TARGET_INSTRUMENT	"Hughski ColorHug"
INSTRUMENT_TYPE_SPECTRAL	"NO"
NORMALIZED_TO_Y_100	"NO"
NUMBER_OF_FIELDS	7
NUMBER_OF_SETS	15
BEGIN_DATA_FORMAT
 SAMPLE_ID	RGB_R	RGB_G	RGB_B	XYZ_X	XYZ_Y	XYZ_Z
END_DATA_FORMAT
BEGIN_DATA
 1	0	0	0	0.04577636719	0.04577636719	0.09155273438
 2	1	1	1	53.42102051	35.20202637	41.56494141
 3	1	0	0	33.46252441	3.204345703	4.898071289
 4	0	1	0	17.76123047	25.26855469	11.71875
 5	0	0	1	0.8239746094	6.591796875	24.76501465
 6	0	0	0	0.04577636719	0.04577636719	0.09155273438
 7	1	1	1	53.42102051	35.0189209	41.4276123
 8	1	0	0	33.73718262	3.204345703	4.898071289
 9	0	1	0	17.7154541	24.99389648	11.71875
 10	0	0	1	0.8239746094	6.591796875	24.76501465
 11	0	0	0	0.04577636719	0.04577636719	0.09155273438
 12	1	1	1	53.60412598	35.24780273	41.56494141
 13	1	0	0	33.41674805	3.204345703	4.898071289
 14	0	1	0	17.7154541	25.08544922	11.67297363
 15	0	0	1	0.8239746094	6.591796875	24.76501465
END_DATA
