data/calibration-000956.ti3
CTI3   
ORIGINATOR	"ColorHug Factory"
DESCRIPTOR	"Calibration Target chart information 3"
DEVICE_CLASS	"DISPLAY"
COLOR_REP	"RGB_XYZ"
TARGET_INSTRUMENT	"Hughski ColorHug"
INSTRUMENT_TYPE_SPECTRAL	"NO"
NORMALIZED_TO_Y_100	"NO"
NUMBER_OF_FIELDS	7
NUMBER_OF_SETS	15
BEGIN_DATA_FORMAT
 SAMPLE_ID	RGB_R	RGB_G	RGB_B	XYZ_X	XYZ_Y	XYZ_Z
END_DATA_FORMAT
BEGIN_DATA
 1	0	0	0	0.04577636719	0	0.04577636719
 2	1	1	1	53.51257324	35.65979004	42.52624512
 3	1	0	0	33.05053711	3.25012207	4.943847656
 4	0	1	0	17.34924316	25.08544922	11.71875
 5	0	0	1	0.7781982422	6.958007812	25.31433105
 6	0	0	0	0.04577636719	0	0.04577636719
 7	1	1	1	53.1463623	35.61401367	42.43469238
 8	1	0	0	33.18786621	3.25012207	4.943847656
 9	0	1	0	17.25769043	25.03967285	11.71875
 10	0	0	1	0.7781982422	6.912231445	25.36010742
 11	0	0	0	0.04577636719	0	0.04577636719
 12	1	1	1	53.23791504	35.5682373	42.43469238
 13	1	0	0	33.14208984	3.25012207	4.898071289
 14	0	1	0	17.3034668	24.85656738	11.62719727
 15	0	0	1	0.7781982422	6.912231445	25.36010742
END_DATA
