data/calibration-000229.ti3
CTI3
DESCRIPTOR	"Calibration Target chart information 3"
ORIGINATOR	"ColorHug Factory"
DEVICE_CLASS	"DISPLAY"
COLOR_REP	"RGB_XYZ"
TARGET_INSTRUMENT	"ColorHug"
INSTRUMENT_TYPE_SPECTRAL	"NO"
LUMINANCE_XYZ_CDM2	"52.391052 38.818359 44.815063"
NORMALIZED_TO_Y_100	"YES"
NUMBER_OF_FIELDS	7
NUMBER_OF_SETS	836
BEGIN_DATA_FORMAT
 SAMPLE_ID	RGB_R	RGB_G	RGB_B	XYZ_X	XYZ_Y	XYZ_Z
END_DATA_FORMAT
BEGIN_DATA
 1	100	100	100	131.1032864	99.29577465	115.0234742
 2	100	100	100	136.1502347	100	114.7887324
 3	100	100	100	134.3896714	99.41314554	114.9061033
 4	100	100	100	135.6807512	99.41314554	114.9061033
 5	33.33	32.622	30.968	11.50234742	8.450704225	9.154929577
 6	100	0	100	86.38497653	28.05164319	81.45539906
 7	100	100	0	133.685446	81.22065728	46.71361502
 8	0	100	100	47.41784038	91.07981221	101.6431925
 9	0	100	0	45.77464789	71.83098592	33.09859155
 10	0	0	100	2.34741784	19.01408451	68.30985915
 11	100	0	0	84.74178404	9.037558685	13.2629108
 12	0	0	0	0.234741784	0.234741784	0.3521126761
 13	0	52.455	100	12.32394366	35.68075117	76.5258216
 14	100	0	50.3	84.74178404	13.02816901	27.34741784
 15	100	54.739	100	97.76995305	46.36150235	90.37558685
 16	100	52.128	0	95.89201878	25.11737089	20.77464789
 17	0	0	46.181	0.5868544601	3.286384977	11.61971831
 18	0	51.141	0	10.09389671	15.72769953	7.394366197
 19	0	100	51.348	45.77464789	75.35211268	47.76995305
 20	100	100	52.037	134.741784	85.21126761	62.08920188
 21	49.216	0	0	16.90140845	1.995305164	2.9342723
 22	56.159	100	0	68.66197183	74.53051643	36.61971831
 23	49.226	100	100	64.55399061	92.84037559	104.2253521
 24	44.487	0	100	15.49295775	20.42253521	70.89201878
 25	100	44.498	52.029	92.95774648	24.88262911	33.68544601
 26	48.926	48.544	100	27.69953052	34.97652582	77.58215962
 27	51.368	100	47.25	64.31924883	77.11267606	48.23943662
 28	49.893	0	49.033	17.95774648	5.751173709	16.31455399
 29	53.109	51.372	0	30.28169014	17.95774648	10.56338028
 30	0	58.587	53.943	14.08450704	25.58685446	26.17370892
 31	100	28.065	100	88.84976526	32.74647887	83.8028169
 32	0	0	72.874	1.17370892	8.802816901	31.80751174
 33	0	26.758	100	4.460093897	23.12206573	70.18779343
 34	0	25.426	0	2.464788732	3.755868545	1.995305164
 35	72.508	0	100	41.54929577	23.35680751	75.11737089
 36	100	27.395	0	87.91079812	13.2629108	15.14084507
 37	74.47	100	100	90.96244131	95.657277	108.2159624
 38	100	0	25.728	84.74178404	10.09389671	16.78403756
 39	73.862	0	0	41.66666667	4.577464789	6.690140845
 40	100	100	25.402	134.1549296	82.15962441	50.11737089
 41	0	75.751	100	26.17370892	56.92488263	86.26760563
 42	0	75.172	0	23.82629108	36.26760563	17.01877934
 43	0	100	25.864	45.657277	72.88732394	36.61971831
 44	100	0	74.801	85.68075117	18.54460094	47.65258216
 45	0	100	75.421	46.36150235	81.92488263	68.54460094
 46	24.577	0	0	4.107981221	0.5868544601	0.9389671362
 47	26.321	100	0	49.88262911	72.18309859	33.68544601
 48	100	75.835	0	110.5633803	46.71361502	30.75117371
 49	100	100	77.061	135.2112676	91.1971831	83.8028169
 50	71.263	100	0	84.85915493	76.29107981	39.31924883
 51	0	0	15.614	0.234741784	0.5868544601	1.643192488
 52	0	30.049	70.936	4.225352113	13.49765258	32.3943662
 53	100	77.691	100	113.4976526	67.72300469	100.1173709
 54	24.486	100	100	51.5258216	91.31455399	102.2300469
 55	100	62.784	31.909	100.9389671	35.3286385	30.04694836
 56	29.552	0	100	7.746478873	19.60093897	69.48356808
 57	32.98	70.921	100	29.92957746	51.64319249	84.85915493
 58	0	27.681	40.241	3.169014085	6.807511737	10.79812207
 59	67.901	71.021	100	57.51173709	55.16431925	88.84976526
 60	28.154	100	67.829	51.64319249	79.69483568	61.15023474
 61	71.637	100	70.001	86.15023474	84.27230047	68.77934272
 62	58.822	58.763	53.586	38.73239437	28.28638498	29.92957746
 63	33.466	30.48	0	10.79812207	6.103286385	3.873239437
 64	100	73.795	71.277	109.9765258	52.69953052	60.21126761
 65	68.394	29.692	0	38.14553991	8.685446009	7.863849765
 66	70.399	0	29.039	37.08920188	5.399061033	10.3286385
 67	28.078	0	26.956	5.399061033	1.76056338	4.812206573
 68	28.532	72.339	0	27.11267606	33.92018779	16.43192488
 69	100	30.941	26.496	88.2629108	15.49295775	19.36619718
 70	34.597	0	73.611	8.920187793	9.976525822	33.92018779
 71	71.573	0	72.408	38.96713615	13.02816901	37.67605634
 72	0	71.029	29.412	21.00938967	33.45070423	19.60093897
 73	68.386	75.008	0	58.45070423	40.25821596	22.41784038
 74	68.088	27.309	100	39.31924883	26.87793427	75.58685446
 75	100	26.457	73.749	87.20657277	22.30046948	48.23943662
 76	74.344	100	27.392	88.84976526	77.69953052	43.66197183
 77	27.558	100	28.197	50.35211268	73.35680751	37.79342723
 78	31.196	27.465	100	11.03286385	24.17840376	71.71361502
 79	0	75.521	72.824	24.88262911	46.00938967	49.06103286
 80	0	50.93	25.553	10.09389671	16.54929577	10.79812207
 81	32.06	33.584	64.033	11.50234742	13.96713615	28.05164319
 82	81.666	55.38	0	64.31924883	24.17840376	16.78403756
 83	68.257	32.751	58.286	39.43661972	15.37558685	27.81690141
 84	0	55.248	81.585	12.91079812	30.28169014	51.05633803
 85	73.781	52.099	100	53.75586854	39.90610329	82.62910798
 86	100	50.537	82.952	96.12676056	36.38497653	63.96713615
 87	23.55	0	50.439	4.225352113	4.460093897	14.90610329
 88	31.335	62.746	31.114	22.65258216	26.87793427	17.72300469
 89	100	18.31	49.418	86.26760563	14.78873239	27.81690141
 90	26.498	48.404	0	13.73239437	14.55399061	7.394366197
 91	47.91	100	85.744	63.02816901	87.20657277	82.98122066
 92	71.829	47.313	31.811	47.65258216	19.1314554	17.72300469
 93	31.304	64.132	69.316	24.06103286	34.38967136	41.66666667
 94	80.403	0	54.321	50.82159624	10.21126761	24.76525822
 95	18.455	50.036	100	13.73239437	34.50704225	76.05633803
 96	50.653	100	16.345	64.20187793	74.53051643	37.44131455
 97	80.121	100	52.261	98.00469484	82.04225352	56.92488263
 98	0	22.54	19.289	2.112676056	3.638497653	3.638497653
 99	100	75.273	46.886	110.2112676	48.82629108	42.72300469
 100	0	78.618	56.625	26.76056338	45.657277	36.97183099
 101	51.137	80.627	100	47.76995305	64.31924883	91.31455399
 102	48.446	0	17.864	16.43192488	2.464788732	4.577464789
 103	100	50.023	21.211	94.48356808	24.64788732	22.53521127
 104	50.115	20.118	0	19.01408451	4.342723005	4.107981221
 105	58.099	72.426	33.158	46.12676056	37.44131455	25.11737089
 106	19.364	100	50.197	48.23943662	75.93896714	47.88732394
 107	50.683	19.177	100	21.24413146	23.00469484	71.94835681
 108	53.37	0	81.576	21.47887324	13.96713615	45.657277
 109	47.768	76.245	0	40.02347418	39.08450704	19.83568075
 110	0	18.927	55.503	1.877934272	7.042253521	18.42723005
 111	0	13.277	0	0.8215962441	1.291079812	0.8215962441
 112	72.862	72.473	75.625	62.91079812	47.41784038	56.92488263
 113	100	13.904	0	85.21126761	10.09389671	13.73239437
 114	86.349	0	100	61.26760563	25.35211268	77.9342723
 115	100	41.941	100	92.13615023	38.2629108	86.38497653
 116	100	81.785	16.464	115.7276995	53.99061033	35.44600939
 117	0	44.063	52.596	7.863849765	15.84507042	21.00938967
 118	0	0	58.917	0.8215962441	5.516431925	19.83568075
 119	59.25	24.551	29.789	27.81690141	7.511737089	10.21126761
 120	82.73	82.874	100	85.79812207	70.89201878	97.18309859
 121	80.039	0	12.618	49.88262911	5.751173709	8.920187793
 122	60.957	47.729	77.817	36.7370892	26.99530516	47.88732394
 123	100	0	38.618	84.74178404	11.26760563	21.24413146
 124	0	40.09	100	7.981220657	28.63849765	73.00469484
 125	0	15.283	82.322	2.112676056	13.2629108	43.30985915
 126	17.592	81.726	100	32.51173709	63.73239437	89.78873239
 127	100	14.13	100	87.08920188	29.342723	82.62910798
 128	15.261	100	82.059	48.00469484	84.27230047	76.5258216
 129	47.77	79.418	60.389	43.19248826	49.06103286	42.72300469
 130	18.768	16.429	0	3.521126761	1.995305164	1.408450704
 131	55.634	100	65.763	67.95774648	81.22065728	62.32394366
 132	100	100	38.541	133.9201878	83.09859155	55.04694836
 133	17.421	0	83.497	3.286384977	12.55868545	44.60093897
 134	17.237	16.758	100	4.929577465	21.00938967	70.18779343
 135	0	15.067	30.039	1.17370892	2.816901408	5.516431925
 136	0	0	86.505	1.643192488	13.38028169	48.00469484
 137	75.736	72.799	50.02	66.66666667	42.6056338	36.7370892
 138	100	83.323	85.529	117.8403756	69.1314554	82.51173709
 139	100	100	64.894	134.3896714	87.79342723	71.71361502
 140	81.98	84.914	0	84.85915493	54.10798122	30.8685446
 141	0	63.757	15.49	16.43192488	25.70422535	13.2629108
 142	49.514	66.135	100	36.7370892	48.4741784	84.03755869
 143	100	0	61.862	85.09389671	15.14084507	35.56338028
 144	24.308	45.41	49.831	12.08920188	16.54929577	20.30516432
 145	15.963	0	17.047	1.995305164	0.8215962441	2.112676056
 146	87.497	100	100	111.0328638	97.65258216	111.5023474
 147	52.099	25.003	75.752	22.41784038	15.49295775	40.25821596
 148	14.909	81.162	0	29.4600939	43.30985915	20.30516432
 149	0	34.792	14.626	4.577464789	7.276995305	4.694835681
 150	48.39	45.075	22.552	24.06103286	14.43661972	10.91549296
 151	83.545	65.965	100	75	52.46478873	90.02347418
 152	16.226	62.345	0	17.25352113	23.94366197	11.50234742
 153	63.222	0	14.914	29.342723	3.638497653	5.985915493
 154	80.449	13.446	0	51.05633803	6.690140845	8.450704225
 155	83.917	41.562	0	61.61971831	15.84507042	13.2629108
 156	100	60.448	46.3	100.1173709	35.09389671	35.91549296
 157	15.584	0	34.795	1.995305164	2.112676056	6.807511737
 158	17.144	65.121	100	21.00938967	46.00938967	81.57276995
 159	83.602	55.334	62.667	68.07511737	30.98591549	40.14084507
 160	0	82.19	14.22	28.87323944	45.30516432	21.94835681
 161	25.132	74.856	50.616	27.9342723	40.37558685	31.80751174
 162	0	13.769	100	2.582159624	20.18779343	69.01408451
 163	87.181	0	0	60.56338028	6.572769953	9.507042254
 164	0	100	39.19	45.30516432	73.70892019	41.07981221
 165	78.047	65.914	19.865	64.78873239	32.98122066	22.18309859
 166	100	63.961	15.865	101.6431925	34.85915493	26.5258216
 167	100	45.955	36.032	92.84037559	23.5915493	25.93896714
 168	15.926	100	16.89	47.18309859	72.53521127	34.97652582
 169	41.459	100	0	57.3943662	73.35680751	35.09389671
 170	48.707	37.288	48.139	22.18309859	13.61502347	19.36619718
 171	83.381	100	13.285	101.8779343	78.28638498	42.84037559
 172	78.129	25.303	75.621	50.11737089	18.54460094	44.36619718
 173	12.396	0	0	1.291079812	0.3521126761	0.5868544601
 174	37.607	48.336	83.346	19.71830986	27.46478873	52.58215962
 175	35.588	15.356	0	9.389671362	2.582159624	2.34741784
 176	61.245	100	100	75.35211268	94.01408451	105.9859155
 177	100	67.29	87.195	105.1643192	51.29107981	75.58685446
 178	0	0	30.615	0.3521126761	1.525821596	5.164319249
 179	35.187	81.789	83.323	38.14553991	58.09859155	66.31455399
 180	39.525	80.194	22.879	38.02816901	44.48356808	24.17840376
 181	50.634	34.593	0	22.65258216	8.920187793	6.220657277
 182	14.175	100	63.146	47.30046948	78.87323944	57.27699531
 183	83.493	17.728	34.574	56.10328638	9.624413146	15.84507042
 184	23.463	22.014	79.943	6.690140845	14.31924883	41.90140845
 185	18.066	31.847	0	6.103286385	6.103286385	3.286384977
 186	87.201	100	81.361	109.1549296	90.02347418	84.74178404
 187	0	100	87.95	46.83098592	85.91549296	83.33333333
 188	34.476	17.888	46.22	9.389671362	6.103286385	13.96713615
 189	18.277	0	67.39	3.051643192	7.746478873	27.23004695
 190	100	87.972	0	120.0704225	61.85446009	37.91079812
 191	82.925	34.85	100	59.85915493	31.80751174	80.51643192
 192	0	88.016	100	35.68075117	72.0657277	93.07511737
 193	36.104	85.655	100	42.13615023	68.89671362	92.6056338
 194	60.981	0	0	26.76056338	3.051643192	4.460093897
 195	51.466	61.826	78.106	34.97652582	36.26760563	51.99530516
 196	78.427	31.983	22.175	50.46948357	11.61971831	12.79342723
 197	66.017	44.321	0	39.55399061	15.14084507	10.56338028
 198	83.941	0	84.177	56.80751174	18.54460094	53.99061033
 199	20.158	46.612	23.269	10.91549296	13.96713615	9.389671362
 200	0	100	62.618	46.00938967	78.28638498	55.8685446
 201	33.832	0	13.933	7.629107981	1.291079812	2.582159624
 202	100	17.286	16.322	85.21126761	11.15023474	15.37558685
 203	0	42.204	83.926	7.863849765	23.00469484	50.23474178
 204	0	87.774	0	33.45070423	52.23004695	24.17840376
 205	64.988	0	59.017	31.22065728	9.037558685	24.88262911
 206	14.677	0	100	3.286384977	19.24882629	68.89671362
 207	88.934	82.673	35.021	93.19248826	54.10798122	37.44131455
 208	0	63.778	100	18.07511737	44.24882629	80.28169014
 209	83.429	17.674	100	57.27699531	26.76056338	78.16901408
 210	30.899	100	85.668	52.46478873	85.44600939	81.45539906
 211	83.68	0	41.016	55.16431925	8.568075117	17.84037559
 212	100	63.515	0	101.2910798	33.92018779	24.88262911
 213	85.074	69.987	0	77.69953052	37.08920188	23.35680751
 214	20.801	45.524	69.018	11.61971831	20.657277	34.62441315
 215	21.382	82.482	73.017	33.21596244	55.04694836	54.22535211
 216	100	15.128	64.249	85.68075117	17.01877934	38.14553991
 217	36.522	0	58.427	9.507042254	6.455399061	21.00938967
 218	22.466	81.296	33.007	31.69014085	45.89201878	26.76056338
 219	62.531	87.152	0	61.7370892	54.69483568	28.28638498
 220	84.12	85.397	67.886	89.08450704	63.14553991	59.38967136
 221	18.87	27.336	45.389	5.633802817	7.746478873	13.84976526
 222	66.439	100	14.444	78.87323944	75.93896714	39.43661972
 223	41.636	22.147	19.003	13.84976526	4.812206573	5.399061033
 224	61.271	100	81.94	74.17840376	86.85446009	79.92957746
 225	86.013	100	0	106.3380282	78.28638498	42.48826291
 226	37.57	0	0	9.389671362	1.17370892	1.76056338
 227	100	16.132	84.102	86.26760563	23.23943662	59.15492958
 228	0	100	13.619	45.5399061	72.30046948	34.15492958
 229	38.905	100	56.471	56.33802817	78.40375587	53.16901408
 230	100	15.382	34.563	85.56338028	12.32394366	20.30516432
 231	36.656	14.908	100	11.7370892	21.47887324	71.24413146
 232	0	62.593	66.608	16.31455399	31.69014085	37.44131455
 233	66.347	12.528	100	34.85915493	23.5915493	74.53051643
 234	100	43.375	69.233	92.37089202	28.05164319	47.18309859
 235	100	56.36	61.236	98.00469484	34.27230047	44.24882629
 236	0	86.194	44.955	32.51173709	53.05164319	34.50704225
 237	64.527	87.262	100	65.61032864	74.06103286	97.41784038
 238	34.411	0	42.471	8.098591549	3.755868545	11.15023474
 239	80.23	59.707	85.12	65.49295775	40.49295775	64.6713615
 240	20.625	19.056	14.791	4.342723005	2.9342723	2.9342723
 241	15.341	34.221	100	7.863849765	26.05633803	72.0657277
 242	36.777	0	87.905	10.3286385	14.90610329	51.4084507
 243	34.598	56.247	100	22.30046948	39.20187793	78.63849765
 244	20.86	67.629	17.418	21.47887324	29.4600939	15.49295775
 245	44.958	60.843	18.054	28.63849765	24.88262911	14.6713615
 246	37.421	60.193	0	23.82629108	23.23943662	11.97183099
 247	84.011	33.849	42.612	59.74178404	15.37558685	21.71361502
 248	17.241	60.339	37.743	16.54929577	24.53051643	18.42723005
 249	50.65	17.261	53.278	19.71830986	8.215962441	19.71830986
 250	45.505	48.926	65.152	24.41314554	22.88732394	34.03755869
 251	44.567	84.081	39.649	43.77934272	50.93896714	32.74647887
 252	100	86.339	72.054	119.9530516	68.66197183	68.54460094
 253	68.14	61.135	0	48.82629108	26.5258216	15.96244131
 254	17.93	66.986	81.403	21.36150235	40.02347418	55.28169014
 255	39.242	60.215	48.926	25.35211268	27.11267606	25.35211268
 256	20.099	18.77	62.967	4.694835681	8.802816901	24.53051643
 257	34.553	100	14.582	53.16901408	73.00469484	35.3286385
 258	87.345	0	66.694	61.15023474	13.96713615	36.15023474
 259	0	43.714	39.842	7.511737089	13.73239437	13.96713615
 260	100	37.705	13.955	89.55399061	17.72300469	18.19248826
 261	31.265	86.993	0	39.08450704	51.76056338	24.76525822
 262	51.402	82.661	81.338	48.70892019	59.62441315	66.07981221
 263	100	100	12.984	132.9812207	80.98591549	47.30046948
 264	0	37.859	0	5.399061033	8.333333333	4.107981221
 265	62.092	58.215	100	43.30985915	43.19248826	82.98122066
 266	86.186	100	64.1	106.6901408	85.09389671	67.01877934
 267	100	35.251	85.898	89.78873239	29.57746479	64.20187793
 268	63.182	89.992	41.974	65.25821596	61.61971831	40.14084507
 269	13.504	100	0	46.59624413	71.83098592	33.33333333
 270	100	0	13.228	84.15492958	9.389671362	14.08450704
 271	63.881	40.826	100	37.67605634	32.15962441	78.28638498
 272	69.387	84.838	20.792	67.13615023	53.05164319	30.39906103
 273	0	70.279	45.136	20.77464789	34.85915493	26.05633803
 274	79.094	64.754	40.908	65.96244131	34.27230047	29.22535211
 275	62.385	54.099	17.396	39.78873239	21.24413146	14.43661972
 276	64.408	14.621	0	31.33802817	4.694835681	5.516431925
 277	70.028	15.606	44.651	37.79342723	8.568075117	17.48826291
 278	0	63.544	0	16.1971831	25.35211268	11.85446009
 279	83.475	47.274	20.502	63.02816901	19.83568075	16.90140845
 280	55.866	0	32.671	22.41784038	4.107981221	9.272300469
 281	58.007	0	100	25.82159624	21.71361502	72.65258216
 282	100	0	87.698	84.85915493	22.76995305	62.91079812
 283	0	13.792	67.215	1.525821596	8.685446009	27.34741784
 284	84.123	17.001	58.549	57.04225352	13.2629108	29.342723
 285	59.579	32.873	15.966	29.4600939	9.272300469	8.333333333
 286	10.41	32.998	28.659	5.164319249	7.629107981	7.511737089
 287	17.231	40.031	85.65	9.272300469	22.76995305	51.5258216
 288	37.568	41.561	10.108	15.84507042	11.26760563	6.924882629
 289	0	69.015	85.092	20.5399061	42.84037559	60.09389671
 290	14.442	100	36.187	46.71361502	74.17840376	40.37558685
 291	100	40.549	0	89.90610329	18.54460094	17.48826291
 292	82.143	45.435	78.429	61.38497653	28.40375587	52.23004695
 293	52.674	0	67.3	20.42253521	9.624413146	29.92957746
 294	0	87.868	66.793	34.38967136	59.97652582	50.82159624
 295	86.53	100	40.524	106.6901408	80.8685446	51.4084507
 296	71.777	85.586	67.232	71.71361502	61.50234742	56.22065728
 297	43.216	100	31.671	58.56807512	74.76525822	40.37558685
 298	39.245	32.908	85.845	15.61032864	20.42253521	51.76056338
 299	0	45.662	67.543	8.685446009	20.07042254	32.98122066
 300	12.161	100	100	48.12206573	91.31455399	101.8779343
 301	67.049	0	85.516	34.03755869	16.78403756	52.46478873
 302	100	89.041	100	123.5915493	82.3943662	107.2769953
 303	20.246	60.698	56.526	17.84037559	28.05164319	29.342723
 304	52.177	55.457	40.416	31.57276995	23.35680751	20.77464789
 305	72.617	87.018	83.932	74.17840376	68.19248826	75.58685446
 306	40.512	16.723	66.475	12.91079812	10.21126761	28.75586854
 307	68.507	49.232	50.605	44.36619718	22.41784038	26.87793427
 308	65.622	100	54.525	78.52112676	80.39906103	55.39906103
 309	54.115	37.24	66.394	26.4084507	17.6056338	33.21596244
 310	100	76.138	31.267	110.7981221	48.23943662	36.15023474
 311	54.728	65.623	0	38.61502347	29.342723	15.96244131
 312	63.126	12.526	64.37	30.28169014	11.03286385	29.69483568
 313	72.827	18.08	23.704	40.84507042	7.159624413	10.21126761
 314	23.268	15.278	34.947	4.812206573	3.755868545	7.863849765
 315	87.648	68.954	59.645	81.33802817	42.48826291	44.48356808
 316	0	85.595	85.198	33.09859155	62.79342723	70.18779343
 317	35.798	84.371	69.21	40.14084507	57.04225352	52.46478873
 318	36.062	47.494	35.919	17.6056338	16.54929577	14.6713615
 319	86.083	36.277	59.152	64.08450704	19.71830986	32.86384977
 320	58.21	100	30.361	69.48356808	75.70422535	41.90140845
 321	46.745	14.614	32.317	16.1971831	4.694835681	8.685446009
 322	81.573	73.869	86.954	76.05633803	54.22535211	73.35680751
 323	85.991	49.387	48.206	68.66197183	24.41314554	28.75586854
 324	28.062	87.906	19.654	38.61502347	53.99061033	27.34741784
 325	68.992	17.993	85.124	37.44131455	18.66197183	53.40375587
 326	100	66.147	100	104.2253521	55.75117371	94.71830986
 327	33.358	64.806	84.517	25.70422535	39.90610329	59.03755869
 328	41.351	17.736	80.522	13.84976526	14.55399061	43.66197183
 329	100	100	88.719	134.0375587	94.83568075	98.00469484
 330	66.336	0	44.32	32.74647887	6.690140845	16.07981221
 331	64.85	67.09	12.293	48.82629108	32.04225352	18.89671362
 332	15.262	31.268	63.277	5.868544601	12.20657277	26.29107981
 333	15.008	43.663	37.3	8.920187793	13.49765258	13.02816901
 334	0	57.895	38.078	13.2629108	22.65258216	17.37089202
 335	66.599	58.458	67.871	46.83098592	32.27699531	42.72300469
 336	59.191	18.651	15.215	26.29107981	5.164319249	6.338028169
 337	66.781	31.14	84.629	37.55868545	21.71361502	53.52112676
 338	88.033	85.158	52.14	94.36619718	59.85915493	47.41784038
 339	36.882	100	100	56.22065728	91.78403756	103.286385
 340	26.102	33.094	17.006	8.568075117	7.276995305	5.399061033
 341	56.309	36.861	35.862	27.69953052	12.20657277	14.08450704
 342	45.839	65.587	67.033	32.3943662	36.15023474	41.43192488
 343	83.709	81.172	16.406	83.56807512	50	30.28169014
 344	0	48.132	13.005	8.920187793	14.08450704	7.629107981
 345	87.176	50.021	100	71.83098592	40.72769953	85.56338028
 346	51.219	84.244	13.73	48.35680751	49.88262911	25.93896714
 347	60.606	71.415	48.406	47.76995305	39.43661972	32.51173709
 348	0	11.359	12.718	0.7042253521	1.291079812	1.643192488
 349	86.429	49.705	33.145	68.89671362	22.76995305	21.94835681
 350	34.056	40.958	100	15.72769953	29.92957746	74.41314554
 351	100	30.557	59.628	88.02816901	20.18779343	36.50234742
 352	88.497	26.902	13.449	64.90610329	11.15023474	12.79342723
 353	14.167	51.98	88.218	13.14553991	30.63380282	58.21596244
 354	13.784	12.983	49.37	2.582159624	5.164319249	14.31924883
 355	15.018	88.441	48.062	36.03286385	57.3943662	37.79342723
 356	87.79	25.769	89.215	64.6713615	24.88262911	63.49765258
 357	0	33.206	55.865	4.577464789	11.26760563	20.77464789
 358	74.324	76.029	35.536	66.31455399	44.01408451	30.75117371
 359	65.863	57.223	42.324	44.71830986	26.05633803	24.06103286
 360	30.893	54.646	13.136	18.07511737	19.1314554	10.56338028
 361	0	34.36	28.321	4.577464789	7.981220657	7.511737089
 362	15.443	77.087	85.116	27.9342723	51.5258216	64.78873239
 363	63.381	68.947	68.521	49.29577465	40.96244131	46.94835681
 364	69.733	27.566	42.917	38.96713615	11.03286385	17.95774648
 365	32.754	100	42.76	52.46478873	75.11737089	44.24882629
 366	47.096	29.481	34.829	18.89671362	8.568075117	11.26760563
 367	8.5451	71.948	62.695	22.53521127	39.55399061	38.49765258
 368	0	86.048	29.3	32.04225352	50.93896714	27.69953052
 369	53.697	51.572	85.367	31.69014085	31.10328638	57.51173709
 370	17.608	56.69	12.515	14.55399061	19.95305164	10.44600939
 371	90.638	14.414	49.227	67.13615023	12.20657277	24.53051643
 372	63.248	63.64	89.55	46.83098592	43.07511737	68.77934272
 373	100	85.976	58.455	118.3098592	64.6713615	56.45539906
 374	9.8311	28.027	7.5567	3.755868545	4.694835681	2.9342723
 375	89.831	64.313	69.506	82.27699531	40.61032864	50.93896714
 376	31.754	12.995	25.543	7.394366197	2.9342723	5.281690141
 377	75.914	45.966	64.957	52.23004695	24.41314554	37.44131455
 378	7.5735	50.695	58.941	10.91549296	21.12676056	27.23004695
 379	100	69.835	58.912	105.6338028	45.5399061	47.76995305
 380	32.211	34.376	48.339	11.61971831	11.26760563	17.25352113
 381	13.901	12.159	73.555	2.9342723	10.3286385	33.56807512
 382	87.071	9.028	77.653	61.50234742	17.6056338	47.88732394
 383	23.272	85.409	84.29	36.03286385	61.7370892	68.66197183
 384	93.289	39.48	26.145	76.05633803	17.6056338	18.77934272
 385	65.769	59.63	30.967	45.657277	26.64319249	20.07042254
 386	100	32.265	41.803	87.67605634	17.72300469	25.46948357
 387	86.568	85.281	86.961	92.72300469	69.1314554	80.98591549
 388	52.577	86.83	30.016	52.34741784	54.22535211	31.45539906
 389	47.921	40.199	76.902	23.00469484	21.47887324	44.01408451
 390	22.36	86.619	61.58	36.15023474	57.04225352	46.36150235
 391	52.232	33.601	88.787	24.88262911	22.88732394	57.98122066
 392	0	28.523	86.267	4.225352113	17.84037559	49.76525822
 393	43.497	67.879	39.551	31.80751174	32.98122066	24.17840376
 394	39.877	45.261	0	18.54460094	13.38028169	7.511737089
 395	86.94	12.43	24.699	60.3286385	8.450704225	13.02816901
 396	28.363	55.339	90.398	18.77934272	34.27230047	63.61502347
 397	39.018	70.534	57.879	31.10328638	38.14553991	35.68075117
 398	12.833	28.519	78.828	5.281690141	15.61032864	41.54929577
 399	68.35	31.815	69.975	39.31924883	17.95774648	37.79342723
 400	56.52	26.226	41.626	25.70422535	9.037558685	15.14084507
 401	12.938	46.218	0	9.272300469	12.79342723	6.220657277
 402	8.6938	60.179	26.117	15.02347418	23.35680751	14.08450704
 403	51.995	89.429	96.608	55.75117371	74.53051643	91.66666667
 404	46.905	47.746	48.909	24.41314554	19.1314554	22.18309859
 405	14.352	81.814	19.479	29.92957746	44.95305164	22.76995305
 406	71.482	38.117	12.273	43.77934272	12.91079812	10.91549296
 407	86.616	60.785	10.012	74.41314554	29.57746479	20.657277
 408	71.811	88.979	52.186	74.06103286	62.32394366	46.71361502
 409	43.213	100	72.083	58.92018779	82.15962441	66.66666667
