data/calibration-000951.ti3
CTI3   
ORIGINATOR	"ColorHug Factory"
DESCRIPTOR	"Calibration Target chart information 3"
DEVICE_CLASS	"DISPLAY"
COLOR_REP	"RGB_XYZ"
TARGET_INSTRUMENT	"Hughski ColorHug"
INSTRUMENT_TYPE_SPECTRAL	"NO"
NORMALIZED_TO_Y_100	"NO"
NUMBER_OF_FIELDS	7
NUMBER_OF_SETS	15
BEGIN_DATA_FORMAT
 SAMPLE_ID	RGB_R	RGB_G	RGB_B	XYZ_X	XYZ_Y	XYZ_Z
END_DATA_FORMAT
BEGIN_DATA
 1	0	0	0	0.04577636719	0.04577636719	0
 2	1	1	1	63.94958496	42.29736328	49.30114746
 3	1	0	0	40.69519043	4.119873047	6.134033203
 4	0	1	0	21.14868164	29.84619141	13.82446289
 5	0	0	1	0.9613037109	8.285522461	29.0222168
 6	0	0	0	0.04577636719	0.04577636719	0
 7	1	1	1	63.30871582	41.97692871	48.88916016
 8	1	0	0	40.64941406	4.07409668	6.134033203
 9	0	1	0	21.24023438	29.80041504	13.91601562
 10	0	0	1	0.9613037109	8.285522461	29.11376953
 11	0	0	0	0.04577636719	0.04577636719	0
 12	1	1	1	64.1784668	42.52624512	49.5300293
 13	1	0	0	40.55786133	4.07409668	6.134033203
 14	0	1	0	21.14868164	29.89196777	13.82446289
 15	0	0	1	0.9613037109	8.285522461	28.97644043
END_DATA
