data/calibration-001887.ti3
CTI3   
ORIGINATOR	"ColorHug Factory"
CREATED	"Sat May 25 13:30:01 2013"
DESCRIPTOR	"Calibration Target chart information 3"
DEVICE_CLASS	"DISPLAY"
COLOR_REP	"RGB_XYZ"
TARGET_INSTRUMENT	"Hughski ColorHug"
INSTRUMENT_TYPE_SPECTRAL	"NO"
NORMALIZED_TO_Y_100	"NO"
NUMBER_OF_FIELDS	7
NUMBER_OF_SETS	15
BEGIN_DATA_FORMAT
 SAMPLE_ID	RGB_R	RGB_G	RGB_B	XYZ_X	XYZ_Y	XYZ_Z
END_DATA_FORMAT
BEGIN_DATA
 1	0	0	0	0	0.0457763671875	0.091552734375
 2	1	1	1	41.8853759765625	39.9169921875	53.1005859375
 3	1	0	0	25.08544921875	3.021240234375	4.1656494140625
 4	0	1	0	14.6484375	27.557373046875	13.18359375
 5	0	0	1	0.9613037109375	9.246826171875	35.614013671875
 6	0	0	0	0	0.0457763671875	0.1373291015625
 7	1	1	1	41.8853759765625	39.9627685546875	53.1005859375
 8	1	0	0	24.8565673828125	3.021240234375	4.1656494140625
 9	0	1	0	14.6026611328125	27.374267578125	13.18359375
 10	0	0	1	0.9613037109375	9.246826171875	35.6597900390625
 11	0	0	0	0	0.0457763671875	0.1373291015625
 12	1	1	1	41.8853759765625	39.9627685546875	53.0548095703125
 13	1	0	0	25.08544921875	3.021240234375	4.1656494140625
 14	0	1	0	14.6026611328125	27.374267578125	13.2293701171875
 15	0	0	1	0.9613037109375	9.2926025390625	35.5682373046875
END_DATA
