data/calibration-000780.ti3
CTI3   
ORIGINATOR	"ColorHug Factory"
DESCRIPTOR	"Calibration Target chart information 3"
DEVICE_CLASS	"DISPLAY"
COLOR_REP	"RGB_XYZ"
TARGET_INSTRUMENT	"Hughski ColorHug"
INSTRUMENT_TYPE_SPECTRAL	"NO"
NORMALIZED_TO_Y_100	"NO"
NUMBER_OF_FIELDS	7
NUMBER_OF_SETS	15
BEGIN_DATA_FORMAT
 SAMPLE_ID	RGB_R	RGB_G	RGB_B	XYZ_X	XYZ_Y	XYZ_Z
END_DATA_FORMAT
BEGIN_DATA
 1	0	0	0	0.09155273438	0.09155273438	0.09155273438
 2	1	1	1	61.20300293	39.82543945	45.73059082
 3	1	0	0	38.90991211	3.799438477	5.722045898
 4	0	1	0	20.27893066	28.38134766	12.95471191
 5	0	0	1	0.9613037109	7.598876953	26.87072754
 6	0	0	0	0.09155273438	0.09155273438	0.09155273438
 7	1	1	1	61.1114502	39.82543945	45.50170898
 8	1	0	0	38.58947754	3.799438477	5.722045898
 9	0	1	0	20.32470703	28.38134766	12.95471191
 10	0	0	1	0.9613037109	7.598876953	26.91650391
 11	0	0	0	0.09155273438	0.09155273438	0.09155273438
 12	1	1	1	61.20300293	39.77966309	45.73059082
 13	1	0	0	38.77258301	3.799438477	5.722045898
 14	0	1	0	20.27893066	28.38134766	12.95471191
 15	0	0	1	0.9613037109	7.598876953	26.87072754
END_DATA
