data/calibration-001920.ti3
CTI3   
ORIGINATOR	"ColorHug Factory"
CREATED	"Sat May 25 21:40:05 2013"
DESCRIPTOR	"Calibration Target chart information 3"
DEVICE_CLASS	"DISPLAY"
COLOR_REP	"RGB_XYZ"
TARGET_INSTRUMENT	"Hughski ColorHug"
INSTRUMENT_TYPE_SPECTRAL	"NO"
NORMALIZED_TO_Y_100	"NO"
NUMBER_OF_FIELDS	7
NUMBER_OF_SETS	15
BEGIN_DATA_FORMAT
 SAMPLE_ID	RGB_R	RGB_G	RGB_B	XYZ_X	XYZ_Y	XYZ_Z
END_DATA_FORMAT
BEGIN_DATA
 1	0	0	0	0.0457763671875	0.0457763671875	0.091552734375
 2	1	1	1	39.55078125	40.557861328125	54.1534423828125
 3	1	0	0	23.529052734375	2.8839111328125	3.7994384765625
 4	0	1	0	13.916015625	27.83203125	12.7716064453125
 5	0	0	1	0.9613037109375	9.613037109375	37.17041015625
 6	0	0	0	0.0457763671875	0.0457763671875	0.091552734375
 7	1	1	1	39.6881103515625	40.6036376953125	54.19921875
 8	1	0	0	23.5748291015625	2.8839111328125	3.7994384765625
 9	0	1	0	13.7786865234375	27.923583984375	12.8173828125
 10	0	0	1	0.9613037109375	9.5672607421875	37.2161865234375
 11	0	0	0	0.0457763671875	0.0457763671875	0.091552734375
 12	1	1	1	39.55078125	40.557861328125	54.1534423828125
 13	1	0	0	23.529052734375	2.8839111328125	3.7994384765625
 14	0	1	0	13.824462890625	27.9693603515625	12.8173828125
 15	0	0	1	0.9613037109375	9.613037109375	37.3077392578125
END_DATA
