data/calibration-001033.ti3
CTI3   
ORIGINATOR	"ColorHug Factory"
DESCRIPTOR	"Calibration Target chart information 3"
DEVICE_CLASS	"DISPLAY"
COLOR_REP	"RGB_XYZ"
TARGET_INSTRUMENT	"Hughski ColorHug"
INSTRUMENT_TYPE_SPECTRAL	"NO"
NORMALIZED_TO_Y_100	"NO"
NUMBER_OF_FIELDS	7
NUMBER_OF_SETS	15
BEGIN_DATA_FORMAT
 SAMPLE_ID	RGB_R	RGB_G	RGB_B	XYZ_X	XYZ_Y	XYZ_Z
END_DATA_FORMAT
BEGIN_DATA
 1	0	0	0	0	0.04577636719	0.04577636719
 2	1	1	1	34.24072266	40.37475586	44.63195801
 3	1	0	0	19.91271973	2.883911133	3.25012207
 4	0	1	0	12.63427734	29.296875	12.49694824
 5	0	0	1	0.7781982422	7.919311523	28.74755859
 6	0	0	0	0	0.04577636719	0.04577636719
 7	1	1	1	34.28649902	40.14587402	44.49462891
 8	1	0	0	20.00427246	2.883911133	3.25012207
 9	0	1	0	12.68005371	29.52575684	12.58850098
 10	0	0	1	0.7781982422	7.919311523	28.70178223
 11	0	0	0	0	0.04577636719	0.04577636719
 12	1	1	1	33.96606445	40.14587402	44.63195801
 13	1	0	0	20.05004883	2.883911133	3.25012207
 14	0	1	0	12.68005371	29.20532227	12.63427734
 15	0	0	1	0.7781982422	7.919311523	28.51867676
END_DATA
