data/calibration-002681.ti3
CTI3   
ORIGINATOR	"ColorHug Factory"
CREATED	"Thu Mar 26 20:03:04 2015"
DESCRIPTOR	"Calibration Target chart information 3"
DEVICE_CLASS	"DISPLAY"
COLOR_REP	"RGB_XYZ"
TARGET_INSTRUMENT	"Hughski ColorHug"
INSTRUMENT_TYPE_SPECTRAL	"NO"
NORMALIZED_TO_Y_100	"NO"
NUMBER_OF_FIELDS	7
NUMBER_OF_SETS	15
BEGIN_DATA_FORMAT
 SAMPLE_ID	RGB_R	RGB_G	RGB_B	XYZ_X	XYZ_Y	XYZ_Z
END_DATA_FORMAT
BEGIN_DATA
 1.0	0.0	0.0	0.0	0.378067016602	0.373931884766	0.433227539062
 2.0	1.0	1.0	1.0	58.935241699219	53.194793701172	55.351348876953
 3.0	1.0	0.0	0.0	42.666656494141	4.106262207031	6.66015625
 4.0	0.0	1.0	0.0	14.075592041016	38.641494750977	14.576507568359
 5.0	0.0	0.0	1.0	2.080764770508	10.516036987305	34.276138305664
 6.0	0.0	0.0	0.0	0.379547119141	0.373733520508	0.431335449219
 7.0	1.0	1.0	1.0	58.514282226562	53.194793701172	55.727890014648
 8.0	1.0	0.0	0.0	42.445587158203	4.106262207031	6.654739379883
 9.0	0.0	1.0	0.0	14.222213745117	38.102325439453	14.787002563477
 10.0	0.0	0.0	1.0	2.079711914062	10.516036987305	34.276138305664
 11.0	0.0	0.0	0.0	0.37873840332	0.37614440918	0.434371948242
 12.0	1.0	1.0	1.0	58.514282226562	53.194793701172	55.727890014648
 13.0	1.0	0.0	0.0	42.445587158203	4.106262207031	6.654739379883
 14.0	0.0	1.0	0.0	14.148529052734	38.102325439453	14.628570556641
 15.0	0.0	0.0	1.0	2.091384887695	10.5703125	34.711853027344
END_DATA
