data/calibration-002360.ti3
CTI3   
ORIGINATOR	"ColorHug Factory"
CREATED	"Tue Jan 21 20:51:44 2014"
DESCRIPTOR	"Calibration Target chart information 3"
DEVICE_CLASS	"DISPLAY"
COLOR_REP	"RGB_XYZ"
TARGET_INSTRUMENT	"Hughski ColorHug"
INSTRUMENT_TYPE_SPECTRAL	"NO"
NORMALIZED_TO_Y_100	"NO"
NUMBER_OF_FIELDS	7
NUMBER_OF_SETS	15
BEGIN_DATA_FORMAT
 SAMPLE_ID	RGB_R	RGB_G	RGB_B	XYZ_X	XYZ_Y	XYZ_Z
END_DATA_FORMAT
BEGIN_DATA
 1.0	0.0	0.0	0.0	0.19255065918	0.149230957031	0.221572875977
 2.0	1.0	1.0	1.0	74.472717285156	33.165985107422	53.54248046875
 3.0	1.0	0.0	0.0	46.811416625977	3.645736694336	6.00146484375
 4.0	0.0	1.0	0.0	22.882675170898	21.113388061523	10.835968017578
 5.0	0.0	0.0	1.0	1.418029785156	8.175643920898	36.247787475586
 6.0	0.0	0.0	0.0	0.193771362305	0.151336669922	0.221343994141
 7.0	1.0	1.0	1.0	74.472717285156	32.899597167969	53.194793701172
 8.0	1.0	0.0	0.0	47.080459594727	3.640884399414	6.019088745117
 9.0	0.0	1.0	0.0	22.94677734375	21.33332824707	10.966522216797
 10.0	0.0	0.0	1.0	1.42024230957	8.249740600586	35.929809570312
 11.0	0.0	0.0	0.0	0.194030761719	0.151031494141	0.222503662109
 12.0	1.0	1.0	1.0	74.472717285156	33.032257080078	53.54248046875
 13.0	1.0	0.0	0.0	46.811416625977	3.652236938477	6.00146484375
 14.0	0.0	1.0	0.0	22.818939208984	21.222793579102	10.835968017578
 15.0	0.0	0.0	1.0	1.417053222656	8.291488647461	36.088104248047
END_DATA
