data/calibration-000732.ti3
CTI3
ORIGINATOR	"ColorHug Factory"
DESCRIPTOR	"Calibration Target chart information 3"
DEVICE_CLASS	"DISPLAY"
COLOR_REP	"RGB_XYZ"
TARGET_INSTRUMENT	"Hughski ColorHug"
INSTRUMENT_TYPE_SPECTRAL	"NO"
NORMALIZED_TO_Y_100	"NO"
NUMBER_OF_FIELDS	7
NUMBER_OF_SETS	15
BEGIN_DATA_FORMAT
 SAMPLE_ID	RGB_R	RGB_G	RGB_B	XYZ_X	XYZ_Y	XYZ_Z
END_DATA_FORMAT
BEGIN_DATA
 1	0	0	0	0.04577636719	0	0
 2	1	1	1	55.5267334	36.80419922	43.6706543
 3	1	0	0	34.24072266	3.158569336	4.989624023
 4	0	1	0	17.62390137	26.3671875	11.9934082
 5	0	0	1	0.8239746094	6.866455078	26.3671875
 6	0	0	0	0.04577636719	0	0
 7	1	1	1	55.43518066	36.80419922	43.85375977
 8	1	0	0	34.24072266	3.158569336	4.989624023
 9	0	1	0	17.62390137	26.2298584	11.9934082
 10	0	0	1	0.8239746094	6.912231445	26.27563477
 11	0	0	0	0.04577636719	0	0
 12	1	1	1	55.34362793	36.75842285	43.89953613
 13	1	0	0	34.33227539	3.158569336	4.989624023
 14	0	1	0	17.7154541	26.3671875	11.9934082
 15	0	0	1	0.8239746094	6.912231445	26.2298584
END_DATA
