data/calibration-001114.ti3
CTI3   
ORIGINATOR	"ColorHug Factory"
DESCRIPTOR	"Calibration Target chart information 3"
DEVICE_CLASS	"DISPLAY"
COLOR_REP	"RGB_XYZ"
TARGET_INSTRUMENT	"Hughski ColorHug"
INSTRUMENT_TYPE_SPECTRAL	"NO"
NORMALIZED_TO_Y_100	"NO"
NUMBER_OF_FIELDS	7
NUMBER_OF_SETS	15
BEGIN_DATA_FORMAT
 SAMPLE_ID	RGB_R	RGB_G	RGB_B	XYZ_X	XYZ_Y	XYZ_Z
END_DATA_FORMAT
BEGIN_DATA
 1	0	0	0	0.04577636719	0	0.04577636719
 2	1	1	1	58.8684082	38.2232666	44.90661621
 3	1	0	0	36.94152832	3.616333008	5.493164062
 4	0	1	0	19.08874512	26.91650391	12.40539551
 5	0	0	1	0.9155273438	7.278442383	26.87072754
 6	0	0	0	0.04577636719	0	0.04577636719
 7	1	1	1	58.82263184	38.31481934	44.99816895
 8	1	0	0	36.66687012	3.616333008	5.493164062
 9	0	1	0	19.04296875	27.32849121	12.40539551
 10	0	0	1	0.8697509766	7.278442383	26.82495117
 11	0	0	0	0.04577636719	0	0.04577636719
 12	1	1	1	58.7310791	38.26904297	44.95239258
 13	1	0	0	36.98730469	3.616333008	5.447387695
 14	0	1	0	19.04296875	27.14538574	12.49694824
 15	0	0	1	0.8697509766	7.278442383	26.91650391
END_DATA
