data/calibration-000237.ti3
CTI3
DESCRIPTOR	"Calibration Target chart information 3"
ORIGINATOR	"ColorHug Factory"
DEVICE_CLASS	"DISPLAY"
COLOR_REP	"RGB_XYZ"
TARGET_INSTRUMENT	"ColorHug"
INSTRUMENT_TYPE_SPECTRAL	"NO"
LUMINANCE_XYZ_CDM2	"49.701691 32.981873 37.937164"
NORMALIZED_TO_Y_100	"YES"
NUMBER_OF_FIELDS	7
NUMBER_OF_SETS	836
BEGIN_DATA_FORMAT
 SAMPLE_ID	RGB_R	RGB_G	RGB_B	XYZ_X	XYZ_Y	XYZ_Z
END_DATA_FORMAT
BEGIN_DATA
 1	100	100	100	144.6601942	100	114.8404993
 2	100	100	100	152.8432732	100	115.1178918
 3	100	100	100	152.5658807	99.86130374	114.8404993
 4	100	100	100	152.2884882	99.86130374	114.9791956
 5	33.33	32.622	30.968	12.20527046	7.766990291	8.460471567
 6	100	0	100	96.39389736	27.04576976	81.13730929
 7	100	100	0	150.9015257	81.55339806	47.15672677
 8	0	100	100	51.59500693	90.29126214	100.9708738
 9	0	100	0	49.51456311	72.1220527	32.87101248
 10	0	0	100	2.219140083	17.89181692	67.54507628
 11	100	0	0	94.31345354	8.876560333	13.03744799
 12	0	0	0	0	0	0
 13	0	52.455	100	13.03744799	33.98058252	74.75728155
 14	100	0	50.3	95.00693481	12.48266297	26.76837725
 15	100	54.739	100	110.5409154	44.66019417	89.18169209
 16	100	52.128	0	106.9348128	24.68793343	20.38834951
 17	0	0	46.181	0.2773925104	2.773925104	10.81830791
 18	0	51.141	0	10.67961165	14.97919556	6.93481276
 19	0	100	51.348	50.06934813	75.72815534	47.15672677
 20	100	100	52.037	150.7628294	85.57558946	62.13592233
 21	49.216	0	0	18.16920943	1.664355062	2.496532594
 22	56.159	100	0	75.31206657	74.6185853	36.61581137
 23	49.226	100	100	70.73509015	92.23300971	104.0221914
 24	44.487	0	100	16.36615811	19.41747573	69.90291262
 25	100	44.498	52.029	103.8834951	24.1331484	33.14840499
 26	48.926	48.544	100	29.68099861	33.28710125	76.97642164
 27	51.368	100	47.25	70.87378641	77.3925104	47.9889043
 28	49.893	0	49.033	19.14008322	5.270457698	15.39528433
 29	53.109	51.372	0	32.45492372	17.05963939	9.986130374
 30	0	58.587	53.943	14.84049931	24.54923717	25.10402219
 31	100	28.065	100	99.58391123	31.48404993	82.94036061
 32	0	0	72.874	0.9708737864	8.044382802	30.6518724
 33	0	26.758	100	4.438280166	21.91400832	69.48682386
 34	0	25.426	0	2.496532594	3.328710125	1.525658807
 35	72.508	0	100	44.38280166	22.19140083	74.06380028
 36	100	27.395	0	96.94868239	12.89875173	14.97919556
 37	74.47	100	100	99.72260749	95.14563107	108.0443828
 38	100	0	25.728	94.03606103	9.708737864	16.36615811
 39	73.862	0	0	44.93758669	4.299583911	6.241331484
 40	100	100	25.402	150.6241331	82.52427184	50.20804438
 41	0	75.751	100	27.8779473	55.06241331	85.29819695
 42	0	75.172	0	25.24271845	35.50624133	16.36615811
 43	0	100	25.864	49.37586685	72.53814147	36.06102635
 44	100	0	74.801	94.7295423	17.75312067	46.46324549
 45	0	100	75.421	50.34674064	81.27600555	67.68377254
 46	24.577	0	0	4.160887656	0.2773925104	0.5547850208
 47	26.321	100	0	54.64632455	72.26074896	33.56449376
 48	100	75.835	0	124.1331484	45.76976422	30.51317614
 49	100	100	77.061	150.0693481	90.56865465	83.49514563
 50	71.263	100	0	94.17475728	76.69902913	39.25104022
 51	0	0	15.614	0	0.2773925104	1.109570042
 52	0	30.049	70.936	4.160887656	12.48266297	31.34535368
 53	100	77.691	100	127.184466	66.99029126	99.72260749
 54	24.486	100	100	55.47850208	90.01386963	100.9708738
 55	100	62.784	31.909	113.592233	34.53536755	29.68099861
 56	29.552	0	100	8.044382802	18.5852982	68.79334258
 57	32.98	70.921	100	32.03883495	50.34674064	83.63384189
 58	0	27.681	40.241	3.19001387	6.241331484	10.12482663
 59	67.901	71.021	100	62.13592233	53.67545076	88.21081831
 60	28.154	100	67.829	55.75589459	79.889043	60.19417476
 61	71.637	100	70.001	95.14563107	84.04993065	68.37725381
 62	58.822	58.763	53.586	41.74757282	27.04576976	28.71012483
 63	33.466	30.48	0	11.37309293	5.547850208	3.328710125
 64	100	73.795	71.277	122.3300971	51.73370319	59.50069348
 65	68.394	29.692	0	41.05409154	8.321775312	7.350901526
 66	70.399	0	29.039	40.22191401	4.993065187	9.847434119
 67	28.078	0	26.956	5.686546463	1.386962552	4.299583911
 68	28.532	72.339	0	28.98751734	33.14840499	15.81137309
 69	100	30.941	26.496	98.19694868	14.97919556	19.00138696
 70	34.597	0	73.611	9.292649098	9.153952843	33.00970874
 71	71.573	0	72.408	42.44105409	12.20527046	36.61581137
 72	0	71.029	29.412	22.46879334	32.73231623	18.72399445
 73	68.386	75.008	0	63.93897365	39.25104022	21.91400832
 74	68.088	27.309	100	41.88626907	25.65880721	74.47988904
 75	100	26.457	73.749	97.08737864	21.49791956	47.43411928
 76	74.344	100	27.392	98.33564494	77.25381415	43.55062413
 77	27.558	100	28.197	55.20110957	73.50901526	37.58668516
 78	31.196	27.465	100	11.51178918	22.88488211	70.5963939
 79	0	75.521	72.824	26.35228849	44.66019417	48.26629681
 80	0	50.93	25.553	10.5409154	15.53398058	10.12482663
 81	32.06	33.584	64.033	12.20527046	12.89875173	26.90707351
 82	81.666	55.38	0	71.28987517	23.43966713	16.36615811
 83	68.257	32.751	58.286	42.30235784	14.42441054	26.629681
 84	0	55.248	81.585	13.59223301	28.71012483	49.51456311
 85	73.781	52.099	100	58.25242718	38.41886269	82.24687933
 86	100	50.537	82.952	106.2413315	35.22884882	63.38418863
 87	23.55	0	50.439	4.299583911	3.883495146	14.00832178
 88	31.335	62.746	31.114	24.1331484	25.79750347	16.78224688
 89	100	18.31	49.418	95.70041609	14.28571429	27.18446602
 90	26.498	48.404	0	14.42441054	13.73092926	6.796116505
 91	47.91	100	85.744	68.37725381	86.13037448	82.38557559
 92	71.829	47.313	31.811	51.87239945	18.16920943	16.92094313
 93	31.304	64.132	69.316	25.3814147	33.00970874	40.36061026
 94	80.403	0	54.321	55.47850208	9.570041609	23.71705964
 95	18.455	50.036	100	14.42441054	32.87101248	74.75728155
 96	50.653	100	16.345	69.48682386	74.34119279	37.17059639
 97	80.121	100	52.261	108.1830791	81.83079057	55.89459085
 98	0	22.54	19.289	1.941747573	3.19001387	3.19001387
 99	100	75.273	46.886	122.6074896	48.54368932	41.88626907
 100	0	78.618	56.625	28.43273232	44.66019417	36.06102635
 101	51.137	80.627	100	51.59500693	62.5520111	90.42995839
 102	48.446	0	17.864	17.47572816	2.080443828	4.022191401
 103	100	50.023	21.211	104.7156727	23.99445215	22.19140083
 104	50.115	20.118	0	20.38834951	4.022191401	3.606102635
 105	58.099	72.426	33.158	50.06934813	36.89320388	24.41054092
 106	19.364	100	50.197	52.28848821	76.00554785	47.01803051
 107	50.683	19.177	100	22.74618585	21.91400832	71.70596394
 108	53.37	0	81.576	22.88488211	13.03744799	44.24410541
 109	47.768	76.245	0	43.27323162	38.6962552	19.41747573
 110	0	18.927	55.503	1.803051318	6.380027739	17.47572816
 111	0	13.277	0	0.693481276	0.9708737864	0.4160887656
 112	72.862	72.473	75.625	68.65464632	46.60194175	55.75589459
 113	100	13.904	0	94.59084605	9.847434119	13.45353675
 114	86.349	0	100	67.12898752	24.41054092	76.83772538
 115	100	41.941	100	102.4965326	37.17059639	86.40776699
 116	100	81.785	16.464	128.7101248	53.67545076	35.36754508
 117	0	44.063	52.596	8.183079057	14.97919556	19.97226075
 118	0	0	58.917	0.5547850208	4.993065187	18.86269071
 119	59.25	24.551	29.789	29.95839112	6.93481276	9.708737864
 120	82.73	82.874	100	94.45214979	69.62552011	98.05825243
 121	80.039	0	12.618	54.50762829	5.409153953	8.460471567
 122	60.957	47.729	77.817	39.25104022	25.79750347	46.740638
 123	100	0	38.618	93.75866852	10.95700416	20.66574202
 124	0	40.09	100	8.183079057	27.18446602	72.1220527
 125	0	15.283	82.322	1.941747573	12.20527046	42.16366158
 126	17.592	81.726	100	34.6740638	62.41331484	89.18169209
 127	100	14.13	100	96.25520111	28.29403606	82.10818308
 128	15.261	100	82.059	52.14979196	83.63384189	75.58945908
 129	47.77	79.418	60.389	46.46324549	47.9889043	41.47018031
 130	18.768	16.429	0	3.46740638	1.664355062	0.9708737864
 131	55.634	100	65.763	74.47988904	80.72122053	61.02635229
 132	100	100	38.541	148.4049931	83.07905687	54.64632455
 133	17.421	0	83.497	3.328710125	11.51178918	43.27323162
 134	17.237	16.758	100	4.993065187	19.69486824	69.07073509
 135	0	15.067	30.039	0.9708737864	2.357836338	4.993065187
 136	0	0	86.505	1.525658807	12.34396671	47.01803051
 137	75.736	72.799	50.02	72.95423024	41.47018031	35.78363384
 138	100	83.323	85.529	131.2066574	67.82246879	81.83079057
 139	100	100	64.894	149.6532594	87.65603329	71.15117892
 140	81.98	84.914	0	93.61997226	53.53675451	30.37447989
 141	0	63.757	15.49	17.19833564	24.54923717	12.48266297
 142	49.514	66.135	100	39.11234397	46.60194175	83.07905687
 143	100	0	61.862	93.89736477	14.5631068	34.53536755
 144	24.308	45.41	49.831	12.62135922	15.53398058	19.14008322
 145	15.963	0	17.047	1.803051318	0.5547850208	1.664355062
 146	87.497	100	100	122.0527046	96.94868239	111.2343967
 147	52.099	25.003	75.752	23.71705964	14.42441054	38.97364771
 148	14.909	81.162	0	31.48404993	42.44105409	19.83356449
 149	0	34.792	14.626	4.715672677	6.796116505	4.160887656
 150	48.39	45.075	22.552	25.65880721	13.73092926	10.26352288
 151	83.545	65.965	100	81.55339806	50.62413315	88.62690707
 152	16.226	62.345	0	18.16920943	23.16227462	10.81830791
 153	63.222	0	14.914	31.48404993	3.328710125	5.547850208
 154	80.449	13.446	0	55.75589459	6.241331484	8.183079057
 155	83.917	41.562	0	67.40638003	15.25658807	12.76005548
 156	100	60.448	46.3	111.3730929	34.11927878	35.09015257
 157	15.584	0	34.795	1.941747573	1.664355062	6.102635229
 158	17.144	65.121	100	22.33009709	44.52149792	80.99861304
 159	83.602	55.334	62.667	74.75728155	29.81969487	38.97364771
 160	0	82.19	14.22	30.79056865	44.24410541	21.3592233
 161	25.132	74.856	50.616	29.81969487	39.38973648	30.92926491
 162	0	13.769	100	2.357836338	19.14008322	68.93203883
 163	87.181	0	0	66.15811373	6.241331484	9.292649098
 164	0	100	39.19	49.2371706	73.64771151	40.77669903
 165	78.047	65.914	19.865	71.42857143	32.03883495	21.63661581
 166	100	63.961	15.865	113.3148405	34.25797503	26.21359223
 167	100	45.955	36.032	103.0513176	22.74618585	25.3814147
 168	15.926	100	16.89	51.04022191	72.1220527	34.6740638
 169	41.459	100	0	61.99722607	72.95423024	34.6740638
 170	48.707	37.288	48.139	23.71705964	12.76005548	18.30790569
 171	83.381	100	13.285	112.7600555	78.36338419	42.7184466
 172	78.129	25.303	75.621	54.50762829	17.47572816	42.99583911
 173	12.396	0	0	1.109570042	0.1386962552	0.1386962552
 174	37.607	48.336	83.346	20.94313454	25.93619972	51.31761442
 175	35.588	15.356	0	9.847434119	2.080443828	1.803051318
 176	61.245	100	100	81.96948682	93.34257975	105.6865465
 177	100	67.29	87.195	116.2274619	49.93065187	75.03467406
 178	0	0	30.615	0.1386962552	1.109570042	4.576976422
 179	35.187	81.789	83.323	40.63800277	55.89459085	64.77115118
 180	39.525	80.194	22.879	40.77669903	43.55062413	23.43966713
 181	50.634	34.593	0	24.1331484	8.321775312	5.686546463
 182	14.175	100	63.146	51.04022191	78.22468793	55.89459085
 183	83.493	17.728	34.574	60.88765603	9.015256588	15.25658807
 184	23.463	22.014	79.943	6.796116505	13.3148405	40.77669903
 185	18.066	31.847	0	6.241331484	5.547850208	2.773925104
 186	87.201	100	81.361	121.3592233	89.73647712	85.02080444
 187	0	100	87.95	50.48543689	85.15950069	82.80166436
 188	34.476	17.888	46.22	9.847434119	5.547850208	13.17614424
 189	18.277	0	67.39	3.051317614	7.073509015	26.07489598
 190	100	87.972	0	135.0901526	61.58113731	37.72538141
 191	82.925	34.85	100	65.46463245	30.6518724	80.02773925
 192	0	88.016	100	38.14147018	70.18030513	92.51040222
 193	36.104	85.655	100	45.2149792	68.23855756	92.78779473
 194	60.981	0	0	28.84882108	2.773925104	4.022191401
 195	51.466	61.826	78.106	37.30929265	34.95145631	51.04022191
 196	78.427	31.983	22.175	55.20110957	11.09570042	12.20527046
 197	66.017	44.321	0	42.7184466	14.42441054	9.986130374
 198	83.941	0	84.177	61.58113731	17.61442441	53.259362
 199	20.158	46.612	23.269	11.51178918	13.17614424	8.737864078
 200	0	100	62.618	49.51456311	77.3925104	55.06241331
 201	33.832	0	13.933	7.905686546	0.9708737864	2.219140083
 202	100	17.286	16.322	94.17475728	10.81830791	15.25658807
 203	0	42.204	83.926	8.183079057	21.91400832	49.2371706
 204	0	87.774	0	35.9223301	51.31761442	23.57836338
 205	64.988	0	59.017	33.70319001	8.321775312	23.99445215
 206	14.677	0	100	3.328710125	18.16920943	69.07073509
 207	88.934	82.673	35.021	103.6061026	53.259362	37.03190014
 208	0	63.778	100	19.00138696	42.85714286	79.47295423
 209	83.429	17.674	100	62.5520111	25.65880721	77.66990291
 210	30.899	100	85.668	57.14285714	85.29819695	80.85991678
 211	83.68	0	41.016	59.63938974	8.044382802	17.05963939
 212	100	63.515	0	112.7600555	33.00970874	24.54923717
 213	85.074	69.987	0	85.02080444	36.06102635	22.88488211
 214	20.801	45.524	69.018	12.0665742	19.41747573	33.28710125
 215	21.382	82.482	73.017	35.22884882	53.39805825	53.12066574
 216	100	15.128	64.249	94.7295423	16.36615811	37.17059639
 217	36.522	0	58.427	9.986130374	5.825242718	19.83356449
 218	22.466	81.296	33.007	33.84188627	44.79889043	25.93619972
 219	62.531	87.152	0	66.85159501	53.39805825	27.8779473
 220	84.12	85.397	67.886	97.50346741	61.71983356	58.25242718
 221	18.87	27.336	45.389	5.686546463	7.073509015	12.89875173
 222	66.439	100	14.444	86.54646325	75.8668516	38.97364771
 223	41.636	22.147	19.003	14.42441054	4.299583911	4.854368932
 224	61.271	100	81.94	80.85991678	85.71428571	79.19556172
 225	86.013	100	0	117.7531207	78.50208044	42.30235784
 226	37.57	0	0	9.708737864	0.8321775312	1.386962552
 227	100	16.132	84.102	95.14563107	22.19140083	58.25242718
 228	0	100	13.619	48.95977809	71.56726768	33.70319001
 229	38.905	100	56.471	60.47156727	77.66990291	52.42718447
 230	100	15.382	34.563	94.17475728	11.78918169	19.69486824
 231	36.656	14.908	100	12.20527046	20.24965326	70.31900139
 232	0	62.593	66.608	17.19833564	30.09708738	36.33841886
 233	66.347	12.528	100	37.58668516	22.46879334	73.78640777
 234	100	43.375	69.233	101.2482663	27.04576976	46.18585298
 235	100	56.36	61.236	108.0443828	33.14840499	43.27323162
 236	0	86.194	44.955	34.6740638	52.0110957	33.28710125
 237	64.527	87.262	100	71.28987517	72.81553398	96.80998613
 238	34.411	0	42.471	8.460471567	3.19001387	10.40221914
 239	80.23	59.707	85.12	71.42857143	38.83495146	63.93897365
 240	20.625	19.056	14.791	4.438280166	2.496532594	2.496532594
 241	15.341	34.221	100	8.044382802	24.82662968	71.56726768
 242	36.777	0	87.905	10.81830791	14.00832178	50.90152566
 243	34.598	56.247	100	23.71705964	37.86407767	78.50208044
 244	20.86	67.629	17.418	22.88488211	28.57142857	14.97919556
 245	44.958	60.843	18.054	30.6518724	23.99445215	14.00832178
 246	37.421	60.193	0	25.3814147	22.33009709	11.37309293
 247	84.011	33.849	42.612	65.88072122	14.70180305	21.08183079
 248	17.241	60.339	37.743	17.47572816	23.57836338	17.61442441
 249	50.65	17.261	53.278	20.94313454	7.628294036	18.72399445
 250	45.505	48.926	65.152	25.79750347	21.77531207	32.87101248
 251	44.567	84.081	39.649	47.29542302	50.34674064	31.9001387
 252	100	86.339	72.054	133.5644938	67.82246879	67.96116505
 253	68.14	61.135	0	52.84327323	25.65880721	15.53398058
 254	17.93	66.986	81.403	22.6074896	38.41886269	54.23023578
 255	39.242	60.215	48.926	26.90707351	26.07489598	24.41054092
 256	20.099	18.77	62.967	4.854368932	8.044382802	23.57836338
 257	34.553	100	14.582	57.69764216	72.81553398	35.22884882
 258	87.345	0	66.694	66.99029126	13.17614424	35.22884882
 259	0	43.714	39.842	7.766990291	12.89875173	13.03744799
 260	100	37.705	13.955	99.16782247	17.05963939	17.89181692
 261	31.265	86.993	0	41.74757282	51.04022191	24.1331484
 262	51.402	82.661	81.338	52.84327323	57.55894591	65.18723994
 263	100	100	12.984	147.1567268	81.4147018	47.9889043
 264	0	37.859	0	5.547850208	7.766990291	3.606102635
 265	62.092	58.215	100	46.46324549	41.60887656	82.10818308
 266	86.186	100	64.1	117.7531207	84.74341193	66.5742025
 267	100	35.251	85.898	99.44521498	28.43273232	63.38418863
 268	63.182	89.992	41.974	70.87378641	60.19417476	39.25104022
 269	13.504	100	0	50.20804438	71.56726768	32.87101248
 270	100	0	13.228	93.2038835	9.015256588	14.00832178
 271	63.881	40.826	100	40.77669903	30.92926491	77.3925104
 272	69.387	84.838	20.792	73.370319	52.14979196	29.81969487
 273	0	70.279	45.136	21.91400832	33.56449376	25.10402219
 274	79.094	64.754	40.908	71.98335645	32.87101248	28.15533981
 275	62.385	54.099	17.396	42.99583911	20.24965326	13.73092926
 276	64.408	14.621	0	33.4257975	4.299583911	5.131761442
 277	70.028	15.606	44.651	40.49930652	7.905686546	16.64355062
 278	0	63.544	0	17.19833564	24.27184466	11.23439667
 279	83.475	47.274	20.502	68.93203883	19.00138696	16.50485437
 280	55.866	0	32.671	23.99445215	3.74479889	8.737864078
 281	58.007	0	100	27.73925104	20.66574202	72.53814147
 282	100	0	87.698	94.31345354	21.91400832	62.69070735
 283	0	13.792	67.215	1.386962552	8.044382802	26.35228849
 284	84.123	17.001	58.549	62.5520111	12.48266297	28.57142857
 285	59.579	32.873	15.966	31.48404993	8.737864078	7.905686546
 286	10.41	32.998	28.659	5.270457698	7.073509015	6.93481276
 287	17.231	40.031	85.65	9.708737864	21.77531207	51.04022191
 288	37.568	41.561	10.108	16.78224688	10.5409154	6.380027739
 289	0	69.015	85.092	21.91400832	41.47018031	58.94590846
 290	14.442	100	36.187	50.62413315	73.64771151	39.9445215
 291	100	40.549	0	99.86130374	18.03051318	17.3370319
 292	82.143	45.435	78.429	67.12898752	27.32316227	51.17891817
 293	52.674	0	67.3	21.77531207	9.015256588	29.12621359
 294	0	87.868	66.793	36.89320388	59.08460472	50.20804438
 295	86.53	100	40.524	117.8918169	80.58252427	51.17891817
 296	71.777	85.586	67.232	78.08599168	60.19417476	55.06241331
 297	43.216	100	31.671	63.52288488	74.6185853	40.08321775
 298	39.245	32.908	85.845	16.64355062	19.27877947	51.04022191
 299	0	45.662	67.543	9.015256588	18.86269071	31.9001387
 300	12.161	100	100	51.73370319	90.01386963	102.3578363
 301	67.049	0	85.516	36.75450763	15.81137309	51.59500693
 302	100	89.041	100	136.1997226	80.85991678	107.073509
 303	20.246	60.698	56.526	18.72399445	26.76837725	28.43273232
 304	52.177	55.457	40.416	33.84188627	22.33009709	19.83356449
 305	72.617	87.018	83.932	81.4147018	67.12898752	74.89597781
 306	40.512	16.723	66.475	13.59223301	9.431345354	27.8779473
 307	68.507	49.232	50.605	47.9889043	21.3592233	25.79750347
 308	65.622	100	54.525	85.99167822	79.889043	54.7850208
 309	54.115	37.24	66.394	28.29403606	16.50485437	32.17753121
 310	100	76.138	31.267	122.3300971	47.15672677	35.78363384
 311	54.728	65.623	0	41.33148405	28.43273232	15.25658807
 312	63.126	12.526	64.37	32.17753121	10.26352288	28.71012483
 313	72.827	18.08	23.704	44.52149792	6.65742025	9.708737864
 314	23.268	15.278	34.947	4.854368932	3.328710125	7.350901526
 315	87.648	68.954	59.645	90.15256588	41.47018031	43.68932039
 316	0	85.595	85.198	35.22884882	61.3037448	68.79334258
 317	35.798	84.371	69.21	43.13453537	55.75589459	51.31761442
 318	36.062	47.494	35.919	18.5852982	15.53398058	13.86962552
 319	86.083	36.277	59.152	70.45769764	18.72399445	31.9001387
 320	58.21	100	30.361	76.69902913	75.45076283	41.60887656
 321	46.745	14.614	32.317	17.19833564	4.160887656	8.044382802
 322	81.573	73.869	86.954	84.18862691	53.259362	73.370319
 323	85.991	49.387	48.206	75.31206657	23.43966713	28.15533981
 324	28.062	87.906	19.654	41.74757282	53.12066574	26.76837725
 325	68.992	17.993	85.124	40.22191401	17.61442441	52.28848821
 326	100	66.147	100	114.9791956	54.09153953	94.59084605
 327	33.358	64.806	84.517	27.46185853	38.6962552	58.25242718
 328	41.351	17.736	80.522	14.70180305	13.59223301	42.85714286
 329	100	100	88.719	149.7919556	94.86823856	98.05825243
 330	66.336	0	44.32	35.09015257	6.102635229	15.39528433
 331	64.85	67.09	12.293	53.39805825	31.06796117	18.30790569
 332	15.262	31.268	63.277	5.963938974	11.37309293	25.3814147
 333	15.008	43.663	37.3	9.292649098	12.76005548	12.34396671
 334	0	57.895	38.078	14.00832178	21.63661581	16.64355062
 335	66.599	58.458	67.871	50.34674064	31.06796117	41.47018031
 336	59.191	18.651	15.215	28.29403606	4.715672677	5.825242718
 337	66.781	31.14	84.629	40.36061026	20.80443828	52.84327323
 338	88.033	85.158	52.14	103.7447989	58.80721221	47.15672677
 339	36.882	100	100	60.61026352	91.26213592	103.3287101
 340	26.102	33.094	17.006	8.876560333	6.65742025	4.854368932
 341	56.309	36.861	35.862	29.54230236	11.51178918	13.3148405
 342	45.839	65.587	67.033	34.81276006	34.53536755	40.22191401
 343	83.709	81.172	16.406	91.53952843	49.09847434	29.95839112
 344	0	48.132	13.005	9.153952843	13.3148405	6.93481276
 345	87.176	50.021	100	78.6407767	39.25104022	84.88210818
 346	51.219	84.244	13.73	52.42718447	48.82108183	25.3814147
 347	60.606	71.415	48.406	51.87239945	38.14147018	31.62274619
 348	0	11.359	12.718	0.5547850208	0.9708737864	1.248266297
 349	86.429	49.705	33.145	75.8668516	21.91400832	21.3592233
 350	34.056	40.958	100	16.64355062	28.57142857	74.6185853
 351	100	30.557	59.628	97.2260749	19.27877947	35.50624133
 352	88.497	26.902	13.449	71.42857143	10.67961165	12.34396671
 353	14.167	51.98	88.218	13.73092926	28.98751734	57.42024965
 354	13.784	12.983	49.37	2.496532594	4.576976422	13.45353675
 355	15.018	88.441	48.062	38.41886269	55.75589459	36.89320388
 356	87.79	25.769	89.215	71.01248266	23.71705964	62.27461859
 357	0	33.206	55.865	4.715672677	10.40221914	19.69486824
 358	74.324	76.029	35.536	72.53814147	42.99583911	29.95839112
 359	65.863	57.223	42.324	48.40499307	24.96532594	23.16227462
 360	30.893	54.646	13.136	19.00138696	18.16920943	9.986130374
 361	0	34.36	28.321	4.576976422	7.350901526	6.93481276
 362	15.443	77.087	85.116	29.54230236	50.48543689	64.0776699
 363	63.381	68.947	68.521	52.84327323	39.52843273	45.49237171
 364	69.733	27.566	42.917	42.16366158	10.40221914	17.05963939
 365	32.754	100	42.76	57.00416089	75.17337032	43.68932039
 366	47.096	29.481	34.829	20.110957	7.905686546	10.67961165
 367	8.5451	71.948	62.695	23.99445215	38.28016644	37.30929265
 368	0	86.048	29.3	34.39667129	50.06934813	26.90707351
 369	53.697	51.572	85.367	33.84188627	29.95839112	56.44937587
 370	17.608	56.69	12.515	15.39528433	19.14008322	9.847434119
 371	90.638	14.414	49.227	74.06380028	11.65048544	23.85575589
 372	63.248	63.64	89.55	50.34674064	41.74757282	68.37725381
 373	100	85.976	58.455	131.3453537	64.21636616	55.75589459
 374	9.8311	28.027	7.5567	3.883495146	4.299583911	2.496532594
 375	89.831	64.313	69.506	90.56865465	39.38973648	50.48543689
 376	31.754	12.995	25.543	7.628294036	2.496532594	4.715672677
 377	75.914	45.966	64.957	56.86546463	23.30097087	36.75450763
 378	7.5735	50.695	58.941	11.37309293	20.110957	26.35228849
 379	100	69.835	58.912	116.3661581	44.79889043	47.15672677
 380	32.211	34.376	48.339	12.20527046	10.40221914	16.50485437
 381	13.901	12.159	73.555	2.912621359	9.570041609	32.73231623
 382	87.071	9.028	77.653	66.99029126	16.78224688	46.87933426
 383	23.272	85.409	84.29	38.55755895	60.88765603	67.96116505
 384	93.289	39.48	26.145	83.63384189	16.92094313	18.30790569
 385	65.769	59.63	30.967	49.51456311	25.79750347	19.41747573
 386	100	32.265	41.803	96.94868239	17.05963939	24.96532594
 387	86.568	85.281	86.961	102.0804438	67.96116505	80.85991678
 388	52.577	86.83	30.016	56.58807212	53.53675451	30.79056865
 389	47.921	40.199	76.902	24.54923717	20.38834951	43.13453537
 390	22.36	86.619	61.58	38.83495146	55.75589459	45.2149792
 391	52.232	33.601	88.787	26.35228849	21.77531207	56.86546463
 392	0	28.523	86.267	4.299583911	16.78224688	49.2371706
 393	43.497	67.879	39.551	33.98058252	31.9001387	23.16227462
 394	39.877	45.261	0	19.55617198	12.62135922	6.93481276
 395	86.94	12.43	24.699	65.88072122	7.905686546	12.62135922
 396	28.363	55.339	90.398	19.83356449	32.87101248	62.27461859
 397	39.018	70.534	57.879	33.28710125	36.75450763	34.39667129
 398	12.833	28.519	78.828	5.270457698	14.5631068	40.49930652
 399	68.35	31.815	69.975	42.02496533	16.92094313	36.75450763
 400	56.52	26.226	41.626	27.46185853	8.460471567	14.28571429
 401	12.938	46.218	0	9.570041609	11.92787795	5.686546463
 402	8.6938	60.179	26.117	15.95006935	22.46879334	13.3148405
 403	51.995	89.429	96.608	60.19417476	73.09292649	91.53952843
 404	46.905	47.746	48.909	25.79750347	18.03051318	21.22052705
 405	14.352	81.814	19.479	32.03883495	44.10540915	22.19140083
 406	71.482	38.117	12.273	47.15672677	12.20527046	10.5409154
 407	86.616	60.785	10.012	81.83079057	28.57142857	20.110957
 408	71.811	88.979	52.186	81.13730929	61.58113731	46.04715673
 409	43.213	100	72.083	63.93897365	81.55339806	66.01941748
 410	73.92	23.444	8.2853	46.60194175	7.21220527	8.044382802
