data/calibration-000451.ti3
CTI3
ORIGINATOR	"ColorHug Factory"
DESCRIPTOR	"Calibration Target chart information 3"
DEVICE_CLASS	"DISPLAY"
COLOR_REP	"RGB_XYZ"
TARGET_INSTRUMENT	"Hughski ColorHug"
INSTRUMENT_TYPE_SPECTRAL	"NO"
NORMALIZED_TO_Y_100	"NO"
NUMBER_OF_FIELDS	7
NUMBER_OF_SETS	15
BEGIN_DATA_FORMAT
 SAMPLE_ID	RGB_R	RGB_G	RGB_B	XYZ_X	XYZ_Y	XYZ_Z
END_DATA_FORMAT
BEGIN_DATA
 1	0	0	0	0	0	0.04577636719
 2	1	1	1	55.02319336	36.98730469	43.57910156
 3	1	0	0	34.46960449	3.341674805	5.035400391
 4	0	1	0	18.31054688	26.55029297	12.22229004
 5	0	0	1	0.7781982422	7.00378418	26.18408203
 6	0	0	0	0	0	0.04577636719
 7	1	1	1	54.88586426	37.17041016	43.6706543
 8	1	0	0	34.7442627	3.341674805	5.035400391
 9	0	1	0	18.21899414	26.5045166	12.22229004
 10	0	0	1	0.7781982422	7.049560547	25.9552002
 11	0	0	0	0	0	0.04577636719
 12	1	1	1	54.61120605	37.07885742	43.35021973
 13	1	0	0	34.69848633	3.341674805	5.035400391
 14	0	1	0	17.9901123	26.41296387	12.1307373
 15	0	0	1	0.7781982422	7.049560547	26.18408203
END_DATA
