data/calibration-000658.ti3
CTI3
ORIGINATOR	"ColorHug Factory"
DESCRIPTOR	"Calibration Target chart information 3"
DEVICE_CLASS	"DISPLAY"
COLOR_REP	"RGB_XYZ"
TARGET_INSTRUMENT	"Hughski ColorHug"
INSTRUMENT_TYPE_SPECTRAL	"NO"
NORMALIZED_TO_Y_100	"NO"
NUMBER_OF_FIELDS	7
NUMBER_OF_SETS	15
BEGIN_DATA_FORMAT
 SAMPLE_ID	RGB_R	RGB_G	RGB_B	XYZ_X	XYZ_Y	XYZ_Z
END_DATA_FORMAT
BEGIN_DATA
 1	0	0	0	0	0.04577636719	0
 2	1	1	1	54.79431152	35.33935547	41.1529541
 3	1	0	0	34.83581543	3.25012207	5.035400391
 4	0	1	0	18.12744141	25.36010742	11.53564453
 5	0	0	1	0.8239746094	6.637573242	24.44458008
 6	0	0	0	0	0.04577636719	0
 7	1	1	1	54.84008789	35.33935547	41.10717773
 8	1	0	0	34.79003906	3.25012207	5.035400391
 9	0	1	0	18.03588867	25.31433105	11.48986816
 10	0	0	1	0.8239746094	6.637573242	24.49035645
 11	0	0	0	0	0.04577636719	0
 12	1	1	1	55.11474609	35.4309082	41.19873047
 13	1	0	0	34.83581543	3.25012207	5.035400391
 14	0	1	0	18.03588867	25.40588379	11.48986816
 15	0	0	1	0.8239746094	6.637573242	24.49035645
END_DATA
