data/calibration-002045.ti3
CTI3   
ORIGINATOR	"ColorHug Factory"
CREATED	"Sun Sep 15 19:58:15 2013"
DESCRIPTOR	"Calibration Target chart information 3"
DEVICE_CLASS	"DISPLAY"
COLOR_REP	"RGB_XYZ"
TARGET_INSTRUMENT	"Hughski ColorHug"
INSTRUMENT_TYPE_SPECTRAL	"NO"
NORMALIZED_TO_Y_100	"NO"
NUMBER_OF_FIELDS	7
NUMBER_OF_SETS	15
BEGIN_DATA_FORMAT
 SAMPLE_ID	RGB_R	RGB_G	RGB_B	XYZ_X	XYZ_Y	XYZ_Z
END_DATA_FORMAT
BEGIN_DATA
 1	0	0	0	0.1373291015625	0.091552734375	0.1373291015625
 2	1	1	1	79.3304443359375	38.2232666015625	55.2520751953125
 3	1	0	0	50.9490966796875	4.302978515625	7.3699951171875
 4	0	1	0	25.3143310546875	25.0396728515625	12.908935546875
 5	0	0	1	1.46484375	8.7432861328125	35.064697265625
 6	0	0	0	0.1373291015625	0.091552734375	0.1373291015625
 7	1	1	1	79.0557861328125	38.1317138671875	55.2520751953125
 8	1	0	0	51.1322021484375	4.302978515625	7.3699951171875
 9	0	1	0	25.3143310546875	25.0396728515625	12.908935546875
 10	0	0	1	1.46484375	8.7890625	35.1104736328125
 11	0	0	0	0.1373291015625	0.091552734375	0.1373291015625
 12	1	1	1	79.8797607421875	38.3148193359375	55.11474609375
 13	1	0	0	50.9033203125	4.302978515625	7.3699951171875
 14	0	1	0	25.2685546875	25.0396728515625	12.908935546875
 15	0	0	1	1.46484375	8.7432861328125	34.9273681640625
END_DATA
