data/calibration-001896.ti3
CTI3   
ORIGINATOR	"ColorHug Factory"
CREATED	"Sat May 25 16:56:50 2013"
DESCRIPTOR	"Calibration Target chart information 3"
DEVICE_CLASS	"DISPLAY"
COLOR_REP	"RGB_XYZ"
TARGET_INSTRUMENT	"Hughski ColorHug"
INSTRUMENT_TYPE_SPECTRAL	"NO"
NORMALIZED_TO_Y_100	"NO"
NUMBER_OF_FIELDS	7
NUMBER_OF_SETS	15
BEGIN_DATA_FORMAT
 SAMPLE_ID	RGB_R	RGB_G	RGB_B	XYZ_X	XYZ_Y	XYZ_Z
END_DATA_FORMAT
BEGIN_DATA
 1	0	0	0	0.0457763671875	0	0.0457763671875
 2	1	1	1	31.0821533203125	35.8428955078125	47.2412109375
 3	1	0	0	18.218994140625	2.471923828125	2.9754638671875
 4	0	1	0	11.16943359375	24.810791015625	11.3067626953125
 5	0	0	1	0.823974609375	8.4228515625	32.8216552734375
 6	0	0	0	0.0457763671875	0	0.0457763671875
 7	1	1	1	31.1279296875	36.07177734375	47.332763671875
 8	1	0	0	18.0816650390625	2.5177001953125	2.9754638671875
 9	0	1	0	11.1236572265625	24.810791015625	11.3983154296875
 10	0	0	1	0.823974609375	8.3770751953125	32.684326171875
 11	0	0	0	0.0457763671875	0	0.0457763671875
 12	1	1	1	31.1737060546875	36.2548828125	47.515869140625
 13	1	0	0	18.0816650390625	2.471923828125	2.9754638671875
 14	0	1	0	11.16943359375	24.7650146484375	11.2152099609375
 15	0	0	1	0.823974609375	8.4228515625	32.77587890625
END_DATA
