data/calibration-000350.ti3
CTI3
ORIGINATOR	"ColorHug Factory"
DESCRIPTOR	"Calibration Target chart information 3"
DEVICE_CLASS	"DISPLAY"
COLOR_REP	"RGB_XYZ"
TARGET_INSTRUMENT	"Hughski ColorHug"
INSTRUMENT_TYPE_SPECTRAL	"NO"
NORMALIZED_TO_Y_100	"NO"
NUMBER_OF_FIELDS	7
NUMBER_OF_SETS	15
BEGIN_DATA_FORMAT
 SAMPLE_ID	RGB_R	RGB_G	RGB_B	XYZ_X	XYZ_Y	XYZ_Z
END_DATA_FORMAT
BEGIN_DATA
 1	0	0	0	0.04577636719	0.04577636719	0.04577636719
 2	1	1	1	54.61120605	36.11755371	41.10717773
 3	1	0	0	34.65270996	3.387451172	4.898071289
 4	0	1	0	18.21899414	26.00097656	11.62719727
 5	0	0	1	0.8697509766	6.820678711	24.49035645
 6	0	0	0	0.04577636719	0.04577636719	0.04577636719
 7	1	1	1	55.29785156	36.43798828	40.92407227
 8	1	0	0	34.56115723	3.387451172	4.898071289
 9	0	1	0	18.08166504	26.00097656	11.62719727
 10	0	0	1	0.8697509766	6.820678711	24.49035645
 11	0	0	0	0.04577636719	0.04577636719	0.04577636719
 12	1	1	1	55.11474609	36.30065918	41.1529541
 13	1	0	0	34.79003906	3.387451172	4.898071289
 14	0	1	0	18.17321777	26.04675293	11.5814209
 15	0	0	1	0.8697509766	6.820678711	24.39880371
END_DATA
