data/calibration-001265.ti3
CTI3   
ORIGINATOR	"ColorHug Factory"
DESCRIPTOR	"Calibration Target chart information 3"
DEVICE_CLASS	"DISPLAY"
COLOR_REP	"RGB_XYZ"
TARGET_INSTRUMENT	"Hughski ColorHug"
INSTRUMENT_TYPE_SPECTRAL	"NO"
NORMALIZED_TO_Y_100	"NO"
NUMBER_OF_FIELDS	7
NUMBER_OF_SETS	15
BEGIN_DATA_FORMAT
 SAMPLE_ID	RGB_R	RGB_G	RGB_B	XYZ_X	XYZ_Y	XYZ_Z
END_DATA_FORMAT
BEGIN_DATA
 1	0	0	0	0.09155273438	0.09155273438	0.1831054688
 2	1	1	1	32.68432617	33.41674805	41.2902832
 3	1	0	0	19.22607422	2.471923828	3.204345703
 4	0	1	0	11.4440918	23.5748291	10.84899902
 5	0	0	1	0.8239746094	7.095336914	27.00805664
 6	0	0	0	0.1373291016	0.09155273438	0.1831054688
 7	1	1	1	32.59277344	33.27941895	41.24450684
 8	1	0	0	19.04296875	2.471923828	3.204345703
 9	0	1	0	11.39831543	23.75793457	10.84899902
 10	0	0	1	0.8239746094	7.095336914	27.09960938
 11	0	0	0	0.1373291016	0.09155273438	0.1831054688
 12	1	1	1	32.45544434	33.27941895	41.38183594
 13	1	0	0	19.04296875	2.471923828	3.204345703
 14	0	1	0	11.4440918	23.62060547	10.84899902
 15	0	0	1	0.8239746094	7.141113281	27.05383301
END_DATA
