data/calibration-001110.ti3
CTI3   
ORIGINATOR	"ColorHug Factory"
DESCRIPTOR	"Calibration Target chart information 3"
DEVICE_CLASS	"DISPLAY"
COLOR_REP	"RGB_XYZ"
TARGET_INSTRUMENT	"Hughski ColorHug"
INSTRUMENT_TYPE_SPECTRAL	"NO"
NORMALIZED_TO_Y_100	"NO"
NUMBER_OF_FIELDS	7
NUMBER_OF_SETS	15
BEGIN_DATA_FORMAT
 SAMPLE_ID	RGB_R	RGB_G	RGB_B	XYZ_X	XYZ_Y	XYZ_Z
END_DATA_FORMAT
BEGIN_DATA
 1	0	0	0	0	0	0.04577636719
 2	1	1	1	60.19592285	40.64941406	46.875
 3	1	0	0	38.26904297	3.707885742	5.493164062
 4	0	1	0	19.91271973	28.83911133	13.04626465
 5	0	0	1	0.8697509766	7.827758789	28.33557129
 6	0	0	0	0	0	0.04577636719
 7	1	1	1	59.92126465	40.64941406	46.96655273
 8	1	0	0	38.3605957	3.707885742	5.447387695
 9	0	1	0	19.95849609	29.0222168	13.09204102
 10	0	0	1	0.8697509766	7.873535156	28.19824219
 11	0	0	0	0	0	0.04577636719
 12	1	1	1	59.69238281	40.19165039	46.64611816
 13	1	0	0	38.2232666	3.707885742	5.447387695
 14	0	1	0	20.14160156	28.70178223	12.95471191
 15	0	0	1	0.8697509766	7.827758789	28.24401855
END_DATA
