data/calibration-000118.ti3
CTI3
DESCRIPTOR	"Calibration Target chart information 3"
ORIGINATOR	"ColorHug Factory"
DEVICE_CLASS	"DISPLAY"
COLOR_REP	"RGB_XYZ"
TARGET_INSTRUMENT	"ColorHug"
INSTRUMENT_TYPE_SPECTRAL	"NO"
LUMINANCE_XYZ_CDM2	"55.515289 38.898468 44.048309"
NORMALIZED_TO_Y_100	"YES"
NUMBER_OF_FIELDS	7
NUMBER_OF_SETS	836
BEGIN_DATA_FORMAT
 SAMPLE_ID	RGB_R	RGB_G	RGB_B	XYZ_X	XYZ_Y	XYZ_Z
END_DATA_FORMAT
BEGIN_DATA
 1	100	100	100	135.2112676	99.76525822	112.6760563
 2	100	100	100	143.8967136	99.29577465	112.6760563
 3	100	100	100	145.5399061	99.88262911	113.3802817
 4	100	100	100	144.7183099	100	113.028169
 5	33.33	32.622	30.968	13.84976526	8.450704225	9.154929577
 6	100	0	100	90.14084507	27.69953052	78.40375587
 7	100	100	0	142.7230047	82.3943662	49.06103286
 8	0	100	100	50.70422535	89.90610329	98.23943662
 9	0	100	0	47.53521127	71.83098592	34.27230047
 10	0	0	100	4.460093897	18.07511737	64.08450704
 11	100	0	0	89.20187793	9.976525822	14.6713615
 12	0	0	0	2.34741784	0.5868544601	0.7042253521
 13	0	52.455	100	12.79342723	34.03755869	72.18309859
 14	100	0	50.3	89.08450704	13.61502347	27.58215962
 15	100	54.739	100	104.6948357	45.42253521	87.20657277
 16	100	52.128	0	102.3474178	25.70422535	22.18309859
 17	0	0	46.181	4.929577465	3.403755869	10.91549296
 18	0	51.141	0	10.68075117	15.61032864	7.746478873
 19	0	100	51.348	46.83098592	76.05633803	47.65258216
 20	100	100	52.037	141.0798122	86.03286385	63.2629108
 21	49.216	0	0	18.89671362	2.464788732	3.403755869
 22	56.159	100	0	69.60093897	74.41314554	38.02816901
 23	49.226	100	100	67.6056338	91.90140845	101.1737089
 24	44.487	0	100	17.6056338	19.71830986	66.43192488
 25	100	44.498	52.029	97.65258216	25.23474178	33.92018779
 26	48.926	48.544	100	29.4600939	33.56807512	73.70892019
 27	51.368	100	47.25	67.13615023	77.46478873	48.5915493
 28	49.893	0	49.033	19.24882629	5.868544601	15.72769953
 29	53.109	51.372	0	31.45539906	17.95774648	11.03286385
 30	0	58.587	53.943	15.02347418	25.11737089	25.11737089
 31	100	28.065	100	93.30985915	32.15962441	80.98591549
 32	0	0	72.874	2.699530516	8.568075117	29.69483568
 33	0	26.758	100	4.694835681	22.0657277	66.31455399
 34	0	25.426	0	2.9342723	3.990610329	2.34741784
 35	72.508	0	100	41.90140845	22.53521127	70.42253521
 36	100	27.395	0	93.07511737	13.96713615	16.54929577
 37	74.47	100	100	94.83568075	94.71830986	105.1643192
 38	100	0	25.728	90.02347418	10.91549296	17.84037559
 39	73.862	0	0	44.24882629	5.164319249	7.394366197
 40	100	100	25.402	138.028169	82.74647887	52.34741784
 41	0	75.751	100	27.81690141	54.81220657	81.92488263
 42	0	75.172	0	24.76525822	35.79812207	17.37089202
 43	0	100	25.864	47.30046948	72.65258216	37.08920188
 44	100	0	74.801	89.31924883	18.66197183	45.89201878
 45	0	100	75.421	51.64319249	80.8685446	66.31455399
 46	24.577	0	0	9.037558685	1.056338028	1.291079812
 47	26.321	100	0	51.76056338	72.53521127	34.85915493
 48	100	75.835	0	118.42723	46.94835681	32.3943662
 49	100	100	77.061	141.9014085	91.43192488	83.33333333
 50	71.263	100	0	89.20187793	76.17370892	40.96244131
 51	0	0	15.614	0.9389671362	0.9389671362	1.877934272
 52	0	30.049	70.936	4.577464789	13.02816901	30.28169014
 53	100	77.691	100	120.3051643	67.25352113	97.65258216
 54	24.486	100	100	56.57276995	90.37558685	98.94366197
 55	100	62.784	31.909	107.3943662	35.3286385	31.10328638
 56	29.552	0	100	9.85915493	18.77934272	65.37558685
 57	32.98	70.921	100	30.8685446	50.35211268	80.28169014
 58	0	27.681	40.241	4.225352113	6.807511737	10.3286385
 59	67.901	71.021	100	59.62441315	53.75586854	85.09389671
 60	28.154	100	67.829	54.10798122	79.57746479	60.21126761
 61	71.637	100	70.001	90.14084507	84.15492958	67.95774648
 62	58.822	58.763	53.586	41.66666667	27.69953052	28.99061033
 63	33.466	30.48	0	11.85446009	6.338028169	4.225352113
 64	100	73.795	71.277	115.1408451	52.46478873	59.50704225
 65	68.394	29.692	0	45.30516432	9.154929577	8.568075117
 66	70.399	0	29.039	39.20187793	5.868544601	10.68075117
 67	28.078	0	26.956	6.338028169	2.112676056	4.929577465
 68	28.532	72.339	0	27.9342723	33.45070423	16.90140845
 69	100	30.941	26.496	93.77934272	16.1971831	20.42253521
 70	34.597	0	73.611	15.49295775	9.624413146	31.80751174
 71	71.573	0	72.408	40.96244131	12.91079812	35.91549296
 72	0	71.029	29.412	24.29577465	32.86384977	19.60093897
 73	68.386	75.008	0	58.92018779	40.14084507	23.23943662
 74	68.088	27.309	100	41.1971831	26.05633803	71.59624413
 75	100	26.457	73.749	92.37089202	22.41784038	47.18309859
 76	74.344	100	27.392	94.1314554	78.16901408	45.07042254
 77	27.558	100	28.197	54.57746479	73.23943662	38.61502347
 78	31.196	27.465	100	13.2629108	23.00469484	67.13615023
 79	0	75.521	72.824	25.58685446	44.60093897	47.30046948
 80	0	50.93	25.553	11.97183099	16.1971831	10.79812207
 81	32.06	33.584	64.033	12.20657277	13.49765258	26.5258216
 82	81.666	55.38	0	67.13615023	24.29577465	17.84037559
 83	68.257	32.751	58.286	41.66666667	15.25821596	26.87793427
 84	0	55.248	81.585	13.73239437	28.99061033	47.88732394
 85	73.781	52.099	100	55.63380282	38.61502347	78.99061033
 86	100	50.537	82.952	100.3521127	35.79812207	61.61971831
 87	23.55	0	50.439	5.164319249	4.577464789	13.96713615
 88	31.335	62.746	31.114	23.4741784	26.29107981	17.6056338
 89	100	18.31	49.418	90.37558685	15.37558685	28.05164319
 90	26.498	48.404	0	15.49295775	14.43661972	7.746478873
 91	47.91	100	85.744	63.49765258	85.91549296	80.75117371
 92	71.829	47.313	31.811	53.52112676	19.1314554	18.07511737
 93	31.304	64.132	69.316	25.11737089	33.45070423	39.6713615
 94	80.403	0	54.321	53.16901408	10.44600939	24.17840376
 95	18.455	50.036	100	18.30985915	32.98122066	71.59624413
 96	50.653	100	16.345	65.84507042	74.41314554	38.61502347
 97	80.121	100	52.261	102.2300469	82.15962441	57.27699531
 98	0	22.54	19.289	3.990610329	3.873239437	3.873239437
 99	100	75.273	46.886	115.8450704	48.82629108	43.19248826
 100	0	78.618	56.625	41.43192488	44.83568075	36.15023474
 101	51.137	80.627	100	49.76525822	62.67605634	87.67605634
 102	48.446	0	17.864	18.30985915	2.816901408	4.929577465
 103	100	50.023	21.211	96.83098592	25.11737089	23.94366197
 104	50.115	20.118	0	21.83098592	4.812206573	4.577464789
 105	58.099	72.426	33.158	46.94835681	37.20657277	25.46948357
 106	19.364	100	50.197	50.23474178	75.46948357	47.88732394
 107	50.683	19.177	100	23.4741784	22.18309859	68.54460094
 108	53.37	0	81.576	22.53521127	13.49765258	42.84037559
 109	47.768	76.245	0	41.43192488	39.08450704	20.657277
 110	0	18.927	55.503	2.464788732	6.924882629	17.25352113
 111	0	13.277	0	1.291079812	1.525821596	1.17370892
 112	72.862	72.473	75.625	65.37558685	47.0657277	55.16431925
 113	100	13.904	0	90.02347418	11.03286385	15.14084507
 114	86.349	0	100	67.48826291	25	74.41314554
 115	100	41.941	100	98.23943662	37.91079812	83.45070423
 116	100	81.785	16.464	122.7699531	54.342723	37.32394366
 117	0	44.063	52.596	9.507042254	15.49295775	20.07042254
 118	0	0	58.917	1.17370892	5.516431925	18.54460094
 119	59.25	24.551	29.789	29.342723	7.863849765	10.44600939
 120	82.73	82.874	100	86.97183099	69.95305164	94.71830986
 121	80.039	0	12.618	55.04694836	6.455399061	9.741784038
 122	60.957	47.729	77.817	38.49765258	26.29107981	45.657277
 123	100	0	38.618	87.67605634	12.08920188	21.94835681
 124	0	40.09	100	9.037558685	27.23004695	68.89671362
 125	0	15.283	82.322	2.34741784	12.67605634	40.25821596
 126	17.592	81.726	100	32.51173709	62.32394366	85.68075117
 127	100	14.13	100	90.14084507	28.99061033	79.22535211
 128	15.261	100	82.059	51.87793427	83.21596244	74.29577465
 129	47.77	79.418	60.389	45.18779343	48.12206573	41.90140845
 130	18.768	16.429	0	8.802816901	2.34741784	1.76056338
 131	55.634	100	65.763	70.77464789	80.8685446	61.38497653
 132	100	100	38.541	142.8403756	84.27230047	56.80751174
 133	17.421	0	83.497	21.12676056	11.97183099	41.54929577
 134	17.237	16.758	100	5.281690141	20.07042254	65.37558685
 135	0	15.067	30.039	1.643192488	3.051643192	5.516431925
 136	0	0	86.505	1.995305164	12.67605634	44.83568075
 137	75.736	72.799	50.02	69.48356808	42.25352113	36.50234742
 138	100	83.323	85.529	125.2347418	68.42723005	80.98591549
 139	100	100	64.894	143.7793427	88.61502347	72.18309859
 140	81.98	84.914	0	90.37558685	54.342723	32.15962441
 141	0	63.757	15.49	21.71361502	25.23474178	13.49765258
 142	49.514	66.135	100	38.02816901	46.94835681	80.16431925
 143	100	0	61.862	83.8028169	15.72769953	34.97652582
 144	24.308	45.41	49.831	13.02816901	16.1971831	19.48356808
 145	15.963	0	17.047	2.464788732	1.17370892	2.34741784
 146	87.497	100	100	115.8450704	97.0657277	108.2159624
 147	52.099	25.003	75.752	24.29577465	15.02347418	37.79342723
 148	14.909	81.162	0	30.63380282	43.07511737	21.00938967
 149	0	34.792	14.626	5.164319249	7.511737089	4.929577465
 150	48.39	45.075	22.552	25.35211268	14.55399061	11.15023474
 151	83.545	65.965	100	78.40375587	51.17370892	86.38497653
 152	16.226	62.345	0	18.30985915	23.70892019	11.97183099
 153	63.222	0	14.914	30.75117371	4.225352113	6.690140845
 154	80.449	13.446	0	52.81690141	7.276995305	9.507042254
 155	83.917	41.562	0	64.90610329	16.31455399	14.43661972
 156	100	60.448	46.3	102.4647887	35.3286385	36.38497653
 157	15.584	0	34.795	10.09389671	2.34741784	6.690140845
 158	17.144	65.121	100	21.83098592	44.60093897	77.46478873
 159	83.602	55.334	62.667	71.59624413	30.75117371	39.55399061
 160	0	82.19	14.22	32.62910798	44.95305164	22.53521127
 161	25.132	74.856	50.616	29.342723	39.90610329	31.22065728
 162	0	13.769	100	2.9342723	19.24882629	64.55399061
 163	87.181	0	0	63.84976526	7.394366197	10.68075117
 164	0	100	39.19	48.23943662	73.94366197	41.90140845
 165	78.047	65.914	19.865	68.77934272	32.98122066	23.12206573
 166	100	63.961	15.865	108.3333333	35.56338028	28.16901408
 167	100	45.955	36.032	99.76525822	24.06103286	26.87793427
 168	15.926	100	16.89	53.75586854	72.65258216	35.79812207
 169	41.459	100	0	58.09859155	72.18309859	36.26760563
 170	48.707	37.288	48.139	27.23004695	13.61502347	18.77934272
 171	83.381	100	13.285	107.2769953	78.52112676	44.83568075
 172	78.129	25.303	75.621	53.75586854	18.42723005	42.37089202
 173	12.396	0	0	2.112676056	0.7042253521	0.9389671362
 174	37.607	48.336	83.346	20.5399061	26.5258216	49.29577465
 175	35.588	15.356	0	10.21126761	2.9342723	2.699530516
 176	61.245	100	100	76.64319249	92.95774648	103.4037559
 177	100	67.29	87.195	111.8544601	50.58685446	73.82629108
 178	0	0	30.615	50.23474178	1.877934272	5.046948357
 179	35.187	81.789	83.323	39.20187793	56.57276995	63.73239437
 180	39.525	80.194	22.879	39.6713615	43.66197183	24.64788732
 181	50.634	34.593	0	24.29577465	9.154929577	6.807511737
 182	14.175	100	63.146	47.88732394	78.28638498	56.57276995
 183	83.493	17.728	34.574	58.68544601	10.09389671	16.43192488
 184	23.463	22.014	79.943	10.44600939	13.84976526	39.43661972
 185	18.066	31.847	0	6.690140845	6.338028169	3.755868545
 186	87.201	100	81.361	116.7840376	90.14084507	83.92018779
 187	0	100	87.95	48.94366197	84.62441315	81.22065728
 188	34.476	17.888	46.22	11.03286385	6.220657277	13.49765258
 189	18.277	0	67.39	3.521126761	7.511737089	25.46948357
 190	100	87.972	0	128.286385	62.32394366	40.25821596
 191	82.925	34.85	100	63.96713615	31.22065728	77.11267606
 192	0	88.016	100	38.2629108	70.18779343	89.31924883
 193	36.104	85.655	100	43.89671362	68.07511737	89.31924883
 194	60.981	0	0	29.81220657	3.638497653	5.164319249
 195	51.466	61.826	78.106	36.7370892	35.56338028	50.23474178
 196	78.427	31.983	22.175	53.16901408	12.08920188	13.49765258
 197	66.017	44.321	0	43.54460094	15.49295775	11.26760563
 198	83.941	0	84.177	58.92018779	18.54460094	51.76056338
 199	20.158	46.612	23.269	13.38028169	13.96713615	9.624413146
 200	0	100	62.618	48.35680751	77.9342723	55.51643192
 201	33.832	0	13.933	9.389671362	1.76056338	2.9342723
 202	100	17.286	16.322	88.02816901	12.08920188	16.90140845
 203	0	42.204	83.926	8.568075117	22.30046948	47.18309859
 204	0	87.774	0	34.85915493	51.76056338	24.88262911
 205	64.988	0	59.017	33.45070423	9.154929577	24.17840376
 206	14.677	0	100	3.638497653	18.42723005	64.90610329
 207	88.934	82.673	35.021	96.59624413	54.342723	38.61502347
 208	0	63.778	100	20.5399061	43.07511737	76.4084507
 209	83.429	17.674	100	59.03755869	26.29107981	74.64788732
 210	30.899	100	85.668	55.63380282	84.97652582	79.4600939
 211	83.68	0	41.016	58.21596244	9.154929577	18.07511737
 212	100	63.515	0	108.2159624	34.38967136	26.5258216
 213	85.074	69.987	0	86.97183099	37.44131455	24.88262911
 214	20.801	45.524	69.018	15.25821596	19.95305164	32.86384977
 215	21.382	82.482	73.017	34.62441315	53.99061033	52.81690141
 216	100	15.128	64.249	86.03286385	17.48826291	37.67605634
 217	36.522	0	58.427	11.50234742	6.455399061	19.83568075
 218	22.466	81.296	33.007	32.98122066	45.42253521	26.99530516
 219	62.531	87.152	0	64.90610329	54.57746479	29.57746479
 220	84.12	85.397	67.886	90.02347418	62.55868545	58.8028169
 221	18.87	27.336	45.389	8.920187793	7.746478873	13.2629108
 222	66.439	100	14.444	82.15962441	76.05633803	41.07981221
 223	41.636	22.147	19.003	15.02347418	5.164319249	5.751173709
 224	61.271	100	81.94	77.81690141	86.26760563	78.52112676
 225	86.013	100	0	112.4413146	78.87323944	44.60093897
 226	37.57	0	0	18.19248826	1.643192488	2.230046948
 227	100	16.132	84.102	89.31924883	23.23943662	57.74647887
 228	0	100	13.619	48.70892019	72.30046948	35.3286385
 229	38.905	100	56.471	59.38967136	77.9342723	53.05164319
 230	100	15.382	34.563	87.08920188	13.02816901	21.24413146
 231	36.656	14.908	100	23.00469484	20.657277	67.13615023
 232	0	62.593	66.608	17.13615023	30.98591549	35.79812207
 233	66.347	12.528	100	36.85446009	22.88732394	70.42253521
 234	100	43.375	69.233	96.83098592	28.16901408	46.47887324
 235	100	56.36	61.236	103.6384977	34.50704225	44.01408451
 236	0	86.194	44.955	34.15492958	52.46478873	34.27230047
 237	64.527	87.262	100	68.42723005	72.88732394	94.1314554
 238	34.411	0	42.471	8.920187793	3.990610329	10.91549296
 239	80.23	59.707	85.12	68.42723005	39.90610329	62.67605634
 240	20.625	19.056	14.791	11.85446009	3.286384977	3.286384977
 241	15.341	34.221	100	8.333333333	25	67.95774648
 242	36.777	0	87.905	10.91549296	14.43661972	48.82629108
 243	34.598	56.247	100	23.35680751	37.91079812	75.11737089
 244	20.86	67.629	17.418	22.88732394	29.342723	15.96244131
 245	44.958	60.843	18.054	30.16431925	24.76525822	15.14084507
 246	37.421	60.193	0	25.35211268	23.12206573	12.55868545
 247	84.011	33.849	42.612	63.49765258	15.84507042	22.0657277
 248	17.241	60.339	37.743	17.95774648	24.29577465	18.30985915
 249	50.65	17.261	53.278	21.00938967	8.450704225	19.01408451
 250	45.505	48.926	65.152	25.70422535	22.41784038	32.74647887
 251	44.567	84.081	39.649	46.24413146	51.29107981	32.86384977
 252	100	86.339	72.054	128.286385	68.66197183	68.30985915
 253	68.14	61.135	0	52.11267606	26.64319249	16.90140845
 254	17.93	66.986	81.403	22.88732394	39.20187793	52.9342723
 255	39.242	60.215	48.926	26.4084507	26.76056338	24.88262911
 256	20.099	18.77	62.967	5.868544601	8.685446009	23.12206573
 257	34.553	100	14.582	55.8685446	73.23943662	36.61971831
 258	87.345	0	66.694	64.90610329	14.20187793	35.09389671
 259	0	43.714	39.842	19.1314554	13.61502347	13.61502347
 260	100	37.705	13.955	94.48356808	18.42723005	19.71830986
 261	31.265	86.993	0	41.66666667	51.76056338	25.70422535
 262	51.402	82.661	81.338	50.58685446	58.33333333	63.49765258
 263	100	100	12.984	138.2629108	81.69014085	50.11737089
 264	0	37.859	0	7.863849765	8.450704225	4.460093897
 265	62.092	58.215	100	44.83568075	42.01877934	79.22535211
 266	86.186	100	64.1	112.7934272	85.21126761	67.13615023
 267	100	35.251	85.898	96.47887324	29.4600939	62.55868545
 268	63.182	89.992	41.974	69.60093897	61.38497653	40.61032864
 269	13.504	100	0	49.41314554	72.0657277	34.62441315
 270	100	0	13.228	89.20187793	10.3286385	15.72769953
 271	63.881	40.826	100	44.48356808	31.33802817	74.41314554
 272	69.387	84.838	20.792	70.89201878	52.9342723	31.45539906
 273	0	70.279	45.136	22.88732394	34.15492958	25.70422535
 274	79.094	64.754	40.908	68.54460094	34.03755869	29.57746479
 275	62.385	54.099	17.396	45.5399061	21.24413146	15.02347418
 276	64.408	14.621	0	33.33333333	5.281690141	6.338028169
 277	70.028	15.606	44.651	39.55399061	8.920187793	17.37089202
 278	0	63.544	0	17.25352113	25	12.32394366
 279	83.475	47.274	20.502	66.1971831	20.18779343	18.07511737
 280	55.866	0	32.671	24.88262911	4.577464789	9.507042254
 281	58.007	0	100	27.23004695	21.00938967	69.01408451
 282	100	0	87.698	90.25821596	22.76995305	61.15023474
 283	0	13.792	67.215	4.107981221	8.568075117	25.70422535
 284	84.123	17.001	58.549	60.44600939	13.49765258	28.87323944
 285	59.579	32.873	15.966	33.68544601	9.741784038	9.037558685
 286	10.41	32.998	28.659	6.103286385	7.746478873	7.629107981
 287	17.231	40.031	85.65	9.85915493	22.0657277	49.29577465
 288	37.568	41.561	10.108	16.78403756	11.38497653	7.394366197
 289	0	69.015	85.092	21.59624413	41.90140845	57.74647887
 290	14.442	100	36.187	48.82629108	74.17840376	41.31455399
 291	100	40.549	0	96.12676056	19.48356808	19.24882629
 292	82.143	45.435	78.429	65.72769953	28.16901408	50.35211268
 293	52.674	0	67.3	29.4600939	9.624413146	28.63849765
 294	0	87.868	66.793	36.03286385	59.38967136	50.11737089
 295	86.53	100	40.524	114.4366197	81.57276995	53.16901408
 296	71.777	85.586	67.232	76.17370892	61.03286385	55.39906103
 297	43.216	100	31.671	63.49765258	75	41.31455399
 298	39.245	32.908	85.845	17.72300469	19.83568075	48.70892019
 299	0	45.662	67.543	9.624413146	19.48356808	31.22065728
 300	12.161	100	100	50.35211268	89.90610329	99.06103286
 301	67.049	0	85.516	37.08920188	16.43192488	49.76525822
 302	100	89.041	100	131.1032864	82.3943662	105.399061
 303	20.246	60.698	56.526	19.36619718	27.46478873	28.28638498
 304	52.177	55.457	40.416	33.21596244	23.12206573	20.657277
 305	72.617	87.018	83.932	77.23004695	67.37089202	73.35680751
 306	40.512	16.723	66.475	19.1314554	10.09389671	27.23004695
 307	68.507	49.232	50.605	47.0657277	22.30046948	26.5258216
 308	65.622	100	54.525	82.51173709	80.28169014	55.8685446
 309	54.115	37.24	66.394	31.80751174	17.25352113	31.80751174
 310	100	76.138	31.267	116.4319249	48.82629108	37.67605634
 311	54.728	65.623	0	41.66666667	29.22535211	16.66666667
 312	63.126	12.526	64.37	32.27699531	11.03286385	28.40375587
 313	72.827	18.08	23.704	43.66197183	7.746478873	10.91549296
 314	23.268	15.278	34.947	9.741784038	3.990610329	7.863849765
 315	87.648	68.954	59.645	84.38967136	42.25352113	44.24882629
 316	0	85.595	85.198	36.7370892	61.38497653	67.25352113
 317	35.798	84.371	69.21	42.01877934	56.10328638	50.82159624
 318	36.062	47.494	35.919	20.5399061	16.43192488	14.55399061
 319	86.083	36.277	59.152	67.72300469	19.71830986	32.51173709
 320	58.21	100	30.361	74.29577465	76.29107981	43.07511737
 321	46.745	14.614	32.317	18.89671362	4.929577465	8.802816901
 322	81.573	73.869	86.954	78.87323944	53.63849765	71.12676056
 323	85.991	49.387	48.206	73.4741784	24.53051643	28.99061033
 324	28.062	87.906	19.654	41.31455399	53.40375587	28.05164319
 325	68.992	17.993	85.124	39.78873239	18.30985915	50.35211268
 326	100	66.147	100	108.8028169	55.04694836	92.13615023
 327	33.358	64.806	84.517	27.69953052	38.61502347	56.45539906
 328	41.351	17.736	80.522	14.90610329	14.08450704	40.96244131
 329	100	100	88.719	142.6056338	95.07042254	97.41784038
 330	66.336	0	44.32	35.79812207	7.042253521	15.96244131
 331	64.85	67.09	12.293	51.17370892	31.92488263	19.83568075
 332	15.262	31.268	63.277	14.31924883	11.97183099	24.88262911
 333	15.008	43.663	37.3	9.741784038	13.49765258	12.91079812
 334	0	57.895	38.078	14.08450704	22.30046948	17.25352113
 335	66.599	58.458	67.871	49.17840376	31.92488263	41.43192488
 336	59.191	18.651	15.215	28.52112676	5.751173709	6.924882629
 337	66.781	31.14	84.629	38.96713615	21.36150235	50.82159624
 338	88.033	85.158	52.14	95.07042254	59.97652582	48.12206573
 339	36.882	100	100	61.50234742	91.1971831	100.4694836
 340	26.102	33.094	17.006	10.56338028	7.511737089	5.751173709
 341	56.309	36.861	35.862	29.22535211	12.44131455	14.20187793
 342	45.839	65.587	67.033	34.27230047	35.56338028	40.14084507
 343	83.709	81.172	16.406	88.84976526	49.76525822	31.80751174
 344	0	48.132	13.005	15.84507042	14.08450704	7.863849765
 345	87.176	50.021	100	74.88262911	40.02347418	81.80751174
 346	51.219	84.244	13.73	52.46478873	49.64788732	26.76056338
 347	60.606	71.415	48.406	50.70422535	38.84976526	32.3943662
 348	0	11.359	12.718	1.17370892	1.643192488	1.995305164
 349	86.429	49.705	33.145	72.53521127	23.00469484	22.76995305
 350	34.056	40.958	100	17.37089202	28.87323944	70.5399061
 351	100	30.557	59.628	93.42723005	20.5399061	36.26760563
 352	88.497	26.902	13.449	70.07042254	11.85446009	13.96713615
 353	14.167	51.98	88.218	14.6713615	29.4600939	55.28169014
 354	13.784	12.983	49.37	3.286384977	5.164319249	13.61502347
 355	15.018	88.441	48.062	36.7370892	56.57276995	37.44131455
 356	87.79	25.769	89.215	68.77934272	24.53051643	60.91549296
 357	0	33.206	55.865	7.629107981	11.15023474	19.83568075
 358	74.324	76.029	35.536	68.07511737	43.89671362	31.33802817
 359	65.863	57.223	42.324	47.53521127	25.82159624	24.06103286
 360	30.893	54.646	13.136	19.71830986	19.1314554	11.03286385
 361	0	34.36	28.321	5.164319249	8.098591549	7.629107981
 362	15.443	77.087	85.116	28.99061033	50.70422535	62.32394366
 363	63.381	68.947	68.521	51.5258216	40.25821596	45.30516432
 364	69.733	27.566	42.917	41.43192488	11.38497653	17.95774648
 365	32.754	100	42.76	55.16431925	75.11737089	44.95305164
 366	47.096	29.481	34.829	22.76995305	8.802816901	11.38497653
 367	8.5451	71.948	62.695	23.70892019	38.96713615	37.08920188
 368	0	86.048	29.3	33.33333333	50.70422535	28.05164319
 369	53.697	51.572	85.367	33.45070423	30.39906103	54.92957746
 370	17.608	56.69	12.515	15.72769953	19.95305164	10.79812207
 371	90.638	14.414	49.227	69.1314554	12.79342723	24.88262911
 372	63.248	63.64	89.55	49.88262911	42.13615023	66.1971831
 373	100	85.976	58.455	126.6431925	64.78873239	57.27699531
 374	9.8311	28.027	7.5567	5.633802817	5.046948357	3.286384977
 375	89.831	64.313	69.506	85.09389671	40.61032864	50.82159624
 376	31.754	12.995	25.543	20.18779343	3.286384977	5.399061033
 377	75.914	45.966	64.957	54.4600939	24.17840376	36.85446009
 378	7.5735	50.695	58.941	14.20187793	20.77464789	26.29107981
 379	100	69.835	58.912	111.1502347	45.77464789	48.12206573
 380	32.211	34.376	48.339	21.12676056	11.15023474	16.78403756
 381	13.901	12.159	73.555	3.403755869	9.976525822	31.57276995
 382	87.071	9.028	77.653	64.55399061	17.72300469	46.12676056
 383	23.272	85.409	84.29	38.2629108	60.79812207	66.31455399
 384	93.289	39.48	26.145	81.33802817	18.30985915	19.95305164
 385	65.769	59.63	30.967	50.82159624	26.76056338	20.657277
 386	100	32.265	41.803	93.66197183	18.42723005	26.4084507
 387	86.568	85.281	86.961	97.53521127	68.19248826	79.22535211
 388	52.577	86.83	30.016	56.10328638	54.342723	32.15962441
 389	47.921	40.199	76.902	25	21.00938967	41.90140845
 390	22.36	86.619	61.58	37.67605634	56.10328638	45.30516432
 391	52.232	33.601	88.787	26.64319249	22.30046948	54.81220657
 392	0	28.523	86.267	5.516431925	17.13615023	46.71361502
 393	43.497	67.879	39.551	33.09859155	32.62910798	24.17840376
 394	39.877	45.261	0	19.95305164	13.38028169	8.098591549
 395	86.94	12.43	24.699	63.2629108	9.037558685	14.08450704
 396	28.363	55.339	90.398	22.88732394	33.21596244	60.21126761
 397	39.018	70.534	57.879	32.86384977	37.44131455	34.62441315
 398	12.833	28.519	78.828	5.868544601	15.02347418	38.73239437
 399	68.35	31.815	69.975	40.84507042	17.84037559	36.50234742
 400	56.52	26.226	41.626	27.46478873	9.272300469	14.90610329
 401	12.938	46.218	0	11.50234742	12.79342723	6.690140845
 402	8.6938	60.179	26.117	15.96244131	23.00469484	14.31924883
 403	51.995	89.429	96.608	57.86384977	72.76995305	88.14553991
 404	46.905	47.746	48.909	26.64319249	18.77934272	21.59624413
 405	14.352	81.814	19.479	31.69014085	44.83568075	23.4741784
 406	71.482	38.117	12.273	46.47887324	13.2629108	11.85446009
 407	86.616	60.785	10.012	79.342723	29.69483568	21.83098592
 408	71.811	88.979	52.186	78.75586854	62.08920188	46.71361502
 409	43.213	100	72.083	62.79342723	82.04225352	66.07981221
 410	73.92	23.444	8.2853	46.36150235	8.333333333	9.389671362
