data/calibration-000591.ti3
CTI3
ORIGINATOR	"ColorHug Factory"
DESCRIPTOR	"Calibration Target chart information 3"
DEVICE_CLASS	"DISPLAY"
COLOR_REP	"RGB_XYZ"
TARGET_INSTRUMENT	"Hughski ColorHug"
INSTRUMENT_TYPE_SPECTRAL	"NO"
NORMALIZED_TO_Y_100	"NO"
NUMBER_OF_FIELDS	7
NUMBER_OF_SETS	15
BEGIN_DATA_FORMAT
 SAMPLE_ID	RGB_R	RGB_G	RGB_B	XYZ_X	XYZ_Y	XYZ_Z
END_DATA_FORMAT
BEGIN_DATA
 1	0	0	0	0.04577636719	0.04577636719	0
 2	1	1	1	54.42810059	34.7442627	41.10717773
 3	1	0	0	34.65270996	3.25012207	5.081176758
 4	0	1	0	18.12744141	24.90234375	11.62719727
 5	0	0	1	0.8239746094	6.546020508	24.26147461
 6	0	0	0	0.04577636719	0.04577636719	0
 7	1	1	1	54.15344238	34.65270996	41.19873047
 8	1	0	0	34.60693359	3.25012207	5.081176758
 9	0	1	0	18.08166504	24.85656738	11.5814209
 10	0	0	1	0.8239746094	6.546020508	24.26147461
 11	0	0	0	0.04577636719	0.04577636719	0
 12	1	1	1	54.74853516	34.65270996	41.10717773
 13	1	0	0	34.46960449	3.25012207	5.035400391
 14	0	1	0	18.08166504	24.76501465	11.53564453
 15	0	0	1	0.8239746094	6.546020508	24.16992188
END_DATA
