data/calibration-001930.ti3
CTI3   
ORIGINATOR	"ColorHug Factory"
CREATED	"Sat May 25 21:48:46 2013"
DESCRIPTOR	"Calibration Target chart information 3"
DEVICE_CLASS	"DISPLAY"
COLOR_REP	"RGB_XYZ"
TARGET_INSTRUMENT	"Hughski ColorHug"
INSTRUMENT_TYPE_SPECTRAL	"NO"
NORMALIZED_TO_Y_100	"NO"
NUMBER_OF_FIELDS	7
NUMBER_OF_SETS	15
BEGIN_DATA_FORMAT
 SAMPLE_ID	RGB_R	RGB_G	RGB_B	XYZ_X	XYZ_Y	XYZ_Z
END_DATA_FORMAT
BEGIN_DATA
 1	0	0	0	0.1373291015625	0.1373291015625	0.18310546875
 2	1	1	1	35.5224609375	36.4837646484375	50.0335693359375
 3	1	0	0	21.4691162109375	2.655029296875	3.5247802734375
 4	0	1	0	12.5885009765625	25.4974365234375	11.993408203125
 5	0	0	1	0.91552734375	8.5601806640625	34.7442626953125
 6	0	0	0	0.1373291015625	0.1373291015625	0.18310546875
 7	1	1	1	35.6597900390625	36.80419921875	50.1251220703125
 8	1	0	0	21.3775634765625	2.655029296875	3.5247802734375
 9	0	1	0	12.63427734375	25.4974365234375	11.993408203125
 10	0	0	1	0.91552734375	8.5601806640625	34.423828125
 11	0	0	0	0.1373291015625	0.1373291015625	0.18310546875
 12	1	1	1	35.7513427734375	36.80419921875	49.7589111328125
 13	1	0	0	21.4691162109375	2.655029296875	3.5247802734375
 14	0	1	0	12.5885009765625	25.634765625	11.993408203125
 15	0	0	1	0.91552734375	8.5601806640625	34.5611572265625
END_DATA
