data/calibration-000234.ti3
CTI3
DESCRIPTOR	"Calibration Target chart information 3"
ORIGINATOR	"ColorHug Factory"
DEVICE_CLASS	"DISPLAY"
COLOR_REP	"RGB_XYZ"
TARGET_INSTRUMENT	"ColorHug"
INSTRUMENT_TYPE_SPECTRAL	"NO"
LUMINANCE_XYZ_CDM2	"56.888580 38.372040 43.945312"
NORMALIZED_TO_Y_100	"YES"
NUMBER_OF_FIELDS	7
NUMBER_OF_SETS	836
BEGIN_DATA_FORMAT
 SAMPLE_ID	RGB_R	RGB_G	RGB_B	XYZ_X	XYZ_Y	XYZ_Z
END_DATA_FORMAT
BEGIN_DATA
 1	100	100	100	145.3571429	99.88095238	114.5238095
 2	100	100	100	149.4047619	99.4047619	114.5238095
 3	100	100	100	147.7380952	99.88095238	114.5238095
 4	100	100	100	149.2857143	100	113.5714286
 5	33.33	32.622	30.968	12.85714286	8.571428571	9.166666667
 6	100	0	100	96.42857143	28.69047619	80.83333333
 7	100	100	0	148.2142857	81.30952381	48.45238095
 8	0	100	100	51.66666667	89.88095238	100
 9	0	100	0	50	71.66666667	33.69047619
 10	0	0	100	2.5	19.16666667	66.19047619
 11	100	0	0	95	9.880952381	14.64285714
 12	0	0	0	0.3571428571	0.3571428571	0.4761904762
 13	0	52.455	100	13.57142857	35.47619048	73.57142857
 14	100	0	50.3	94.4047619	13.80952381	28.45238095
 15	100	54.739	100	109.4047619	47.02380952	89.76190476
 16	100	52.128	0	107.1428571	25.83333333	22.38095238
 17	0	0	46.181	0.7142857143	3.452380952	11.30952381
 18	0	51.141	0	11.19047619	15.83333333	7.738095238
 19	0	100	51.348	50.23809524	75.23809524	47.85714286
 20	100	100	52.037	148.3333333	85.35714286	63.33333333
 21	49.216	0	0	19.16666667	2.261904762	3.333333333
 22	56.159	100	0	76.07142857	74.16666667	37.61904762
 23	49.226	100	100	70.71428571	92.14285714	102.7380952
 24	44.487	0	100	17.26190476	20.71428571	69.04761905
 25	100	44.498	52.029	102.9761905	25.71428571	35
 26	48.926	48.544	100	30.5952381	35.11904762	76.07142857
 27	51.368	100	47.25	71.42857143	76.66666667	48.92857143
 28	49.893	0	49.033	20.23809524	6.071428571	16.30952381
 29	53.109	51.372	0	33.69047619	18.0952381	11.19047619
 30	0	58.587	53.943	15.47619048	25.71428571	26.07142857
 31	100	28.065	100	99.16666667	33.21428571	82.73809524
 32	0	0	72.874	1.428571429	9.047619048	30.95238095
 33	0	26.758	100	4.761904762	23.21428571	68.57142857
 34	0	25.426	0	2.976190476	3.928571429	2.142857143
 35	72.508	0	100	46.42857143	23.69047619	73.0952381
 36	100	27.395	0	97.85714286	14.04761905	16.66666667
 37	74.47	100	100	100.3571429	95.23809524	106.3095238
 38	100	0	25.728	94.88095238	10.83333333	18.0952381
 39	73.862	0	0	46.42857143	5.119047619	7.380952381
 40	100	100	25.402	147.9761905	82.14285714	51.78571429
 41	0	75.751	100	28.69047619	56.66666667	84.4047619
 42	0	75.172	0	26.19047619	36.54761905	17.5
 43	0	100	25.864	50	72.14285714	37.14285714
 44	100	0	74.801	95.71428571	19.28571429	47.97619048
 45	0	100	75.421	50.83333333	80.83333333	67.85714286
 46	24.577	0	0	4.761904762	0.8333333333	1.071428571
 47	26.321	100	0	55.23809524	71.66666667	34.64285714
 48	100	75.835	0	122.1428571	47.02380952	32.61904762
 49	100	100	77.061	148.5714286	90.83333333	84.16666667
 50	71.263	100	0	93.57142857	76.07142857	40.47619048
 51	0	0	15.614	0.4761904762	0.7142857143	1.666666667
 52	0	30.049	70.936	4.642857143	13.57142857	31.66666667
 53	100	77.691	100	125.7142857	68.57142857	100
 54	24.486	100	100	56.19047619	90.71428571	100.8333333
 55	100	62.784	31.909	112.7380952	35.83333333	31.78571429
 56	29.552	0	100	8.571428571	19.88095238	67.73809524
 57	32.98	70.921	100	32.85714286	51.66666667	82.5
 58	0	27.681	40.241	3.69047619	6.904761905	10.5952381
 59	67.901	71.021	100	63.45238095	55.47619048	87.97619048
 60	28.154	100	67.829	56.54761905	79.4047619	60.95238095
 61	71.637	100	70.001	94.28571429	83.69047619	69.16666667
 62	58.822	58.763	53.586	43.33333333	28.45238095	30.11904762
 63	33.466	30.48	0	12.26190476	6.30952381	4.047619048
 64	100	73.795	71.277	122.1428571	53.80952381	61.30952381
 65	68.394	29.692	0	42.5	9.166666667	8.571428571
 66	70.399	0	29.039	42.02380952	5.833333333	10.95238095
 67	28.078	0	26.956	6.30952381	2.023809524	4.880952381
 68	28.532	72.339	0	30.11904762	34.04761905	17.02380952
 69	100	30.941	26.496	98.80952381	16.19047619	20.71428571
 70	34.597	0	73.611	10	10.23809524	33.21428571
 71	71.573	0	72.408	44.16666667	13.45238095	37.61904762
 72	0	71.029	29.412	23.33333333	33.57142857	19.88095238
 73	68.386	75.008	0	65.11904762	40.47619048	23.45238095
 74	68.088	27.309	100	43.69047619	27.26190476	74.16666667
 75	100	26.457	73.749	98.33333333	22.97619048	49.04761905
 76	74.344	100	27.392	98.57142857	77.14285714	45.11904762
 77	27.558	100	28.197	55.5952381	73.21428571	38.69047619
 78	31.196	27.465	100	12.14285714	24.28571429	69.88095238
 79	0	75.521	72.824	27.26190476	45.83333333	48.45238095
 80	0	50.93	25.553	11.19047619	16.54761905	10.95238095
 81	32.06	33.584	64.033	12.97619048	14.04761905	27.73809524
 82	81.666	55.38	0	72.38095238	24.64285714	18.0952381
 83	68.257	32.751	58.286	44.16666667	15.71428571	27.85714286
 84	0	55.248	81.585	14.16666667	30.11904762	49.64285714
 85	73.781	52.099	100	60.11904762	40.11904762	81.30952381
 86	100	50.537	82.952	107.0238095	37.14285714	64.28571429
 87	23.55	0	50.439	4.880952381	4.642857143	14.52380952
 88	31.335	62.746	31.114	25.11904762	26.9047619	17.97619048
 89	100	18.31	49.418	96.30952381	15.47619048	28.92857143
 90	26.498	48.404	0	15.23809524	14.64285714	7.738095238
 91	47.91	100	85.744	69.52380952	86.66666667	82.38095238
 92	71.829	47.313	31.811	53.45238095	19.4047619	18.45238095
 93	31.304	64.132	69.316	26.54761905	34.4047619	41.30952381
 94	80.403	0	54.321	57.38095238	10.71428571	25.11904762
 95	18.455	50.036	100	15	34.4047619	74.28571429
 96	50.653	100	16.345	70.71428571	73.92857143	38.33333333
 97	80.121	100	52.261	108.2142857	81.54761905	57.73809524
 98	0	22.54	19.289	2.5	3.80952381	3.69047619
 99	100	75.273	46.886	122.0238095	49.4047619	44.16666667
 100	0	78.618	56.625	29.4047619	45.5952381	37.26190476
 101	51.137	80.627	100	52.97619048	64.28571429	90
 102	48.446	0	17.864	18.57142857	2.738095238	4.880952381
 103	100	50.023	21.211	105.5952381	25.35714286	24.16666667
 104	50.115	20.118	0	21.54761905	4.642857143	4.523809524
 105	58.099	72.426	33.158	51.19047619	37.97619048	25.95238095
 106	19.364	100	50.197	53.0952381	75.71428571	47.85714286
 107	50.683	19.177	100	23.80952381	23.33333333	70.47619048
 108	53.37	0	81.576	24.16666667	14.28571429	44.64285714
 109	47.768	76.245	0	44.4047619	39.64285714	20.83333333
 110	0	18.927	55.503	2.261904762	7.142857143	17.97619048
 111	0	13.277	0	1.19047619	1.428571429	0.9523809524
 112	72.862	72.473	75.625	70.11904762	47.97619048	56.9047619
 113	100	13.904	0	95.5952381	10.95238095	15.11904762
 114	86.349	0	100	68.45238095	25.95238095	76.30952381
 115	100	41.941	100	103.3333333	39.16666667	85.83333333
 116	100	81.785	16.464	127.9761905	54.4047619	37.38095238
 117	0	44.063	52.596	8.80952381	15.95238095	20.71428571
 118	0	0	58.917	1.071428571	5.714285714	19.28571429
 119	59.25	24.551	29.789	31.30952381	7.857142857	10.71428571
 120	82.73	82.874	100	95.11904762	71.19047619	96.66666667
 121	80.039	0	12.618	56.30952381	6.30952381	9.761904762
 122	60.957	47.729	77.817	40.83333333	27.26190476	47.61904762
 123	100	0	38.618	94.28571429	12.02380952	22.38095238
 124	0	40.09	100	8.571428571	28.69047619	70.83333333
 125	0	15.283	82.322	2.380952381	13.33333333	42.14285714
 126	17.592	81.726	100	35.71428571	64.16666667	88.0952381
 127	100	14.13	100	96.9047619	30.11904762	81.9047619
 128	15.261	100	82.059	52.61904762	83.0952381	75.71428571
 129	47.77	79.418	60.389	47.61904762	49.04761905	42.97619048
 130	18.768	16.429	0	4.047619048	2.142857143	1.547619048
 131	55.634	100	65.763	75.11904762	81.07142857	62.5
 132	100	100	38.541	147.5	83.0952381	56.54761905
 133	17.421	0	83.497	3.80952381	12.61904762	43.21428571
 134	17.237	16.758	100	5.357142857	21.07142857	67.73809524
 135	0	15.067	30.039	1.547619048	2.976190476	5.476190476
 136	0	0	86.505	1.904761905	13.45238095	46.30952381
 137	75.736	72.799	50.02	74.04761905	42.97619048	37.38095238
 138	100	83.323	85.529	129.5238095	69.4047619	82.73809524
 139	100	100	64.894	147.9761905	87.97619048	72.73809524
 140	81.98	84.914	0	94.28571429	54.28571429	32.26190476
 141	0	63.757	15.49	18.21428571	25.71428571	13.45238095
 142	49.514	66.135	100	40.71428571	48.33333333	82.5
 143	100	0	61.862	93.80952381	15.95238095	35.95238095
 144	24.308	45.41	49.831	13.45238095	16.66666667	20.23809524
 145	15.963	0	17.047	2.380952381	1.071428571	2.261904762
 146	87.497	100	100	122.2619048	97.14285714	110.7142857
 147	52.099	25.003	75.752	25	15.5952381	39.52380952
 148	14.909	81.162	0	32.61904762	43.45238095	21.07142857
 149	0	34.792	14.626	5.238095238	7.5	4.761904762
 150	48.39	45.075	22.552	27.02380952	14.64285714	11.30952381
 151	83.545	65.965	100	83.57142857	53.21428571	88.92857143
 152	16.226	62.345	0	19.16666667	24.04761905	11.9047619
 153	63.222	0	14.914	32.97619048	4.047619048	6.666666667
 154	80.449	13.446	0	57.02380952	7.142857143	9.523809524
 155	83.917	41.562	0	68.69047619	16.42857143	14.4047619
 156	100	60.448	46.3	111.547619	35.71428571	37.02380952
 157	15.584	0	34.795	2.380952381	2.261904762	6.666666667
 158	17.144	65.121	100	22.97619048	46.30952381	79.52380952
 159	83.602	55.334	62.667	76.19047619	31.42857143	40.47619048
 160	0	82.19	14.22	31.9047619	45.11904762	22.5
 161	25.132	74.856	50.616	30.83333333	40.47619048	31.9047619
 162	0	13.769	100	2.738095238	20.35714286	66.54761905
 163	87.181	0	0	67.97619048	7.261904762	10.5952381
 164	0	100	39.19	50	73.33333333	41.54761905
 165	78.047	65.914	19.865	72.61904762	33.33333333	23.21428571
 166	100	63.961	15.865	113.2142857	35.83333333	28.21428571
 167	100	45.955	36.032	104.047619	24.28571429	27.26190476
 168	15.926	100	16.89	51.66666667	71.54761905	35.71428571
 169	41.459	100	0	63.0952381	72.73809524	35.5952381
 170	48.707	37.288	48.139	25.11904762	13.80952381	19.4047619
 171	83.381	100	13.285	113.0952381	78.0952381	44.28571429
 172	78.129	25.303	75.621	56.30952381	18.92857143	43.92857143
 173	12.396	0	0	1.666666667	0.5952380952	0.7142857143
 174	37.607	48.336	83.346	21.9047619	27.5	51.07142857
 175	35.588	15.356	0	10.5952381	2.738095238	2.5
 176	61.245	100	100	82.5	93.57142857	104.8809524
 177	100	67.29	87.195	115.2380952	51.66666667	75.23809524
 178	0	0	30.615	0.5952380952	1.785714286	5
 179	35.187	81.789	83.323	41.9047619	57.73809524	65.11904762
 180	39.525	80.194	22.879	42.14285714	44.4047619	24.64285714
 181	50.634	34.593	0	25.47619048	9.166666667	6.666666667
 182	14.175	100	63.146	51.66666667	77.26190476	56.78571429
 183	83.493	17.728	34.574	62.61904762	10.11904762	16.66666667
 184	23.463	22.014	79.943	7.380952381	14.4047619	40.83333333
 185	18.066	31.847	0	6.904761905	6.30952381	3.571428571
 186	87.201	100	81.361	120.4761905	89.64285714	84.88095238
 187	0	100	87.95	51.30952381	84.52380952	82.26190476
 188	34.476	17.888	46.22	10.5952381	6.30952381	13.80952381
 189	18.277	0	67.39	3.571428571	7.976190476	26.54761905
 190	100	87.972	0	133.3333333	62.14285714	39.76190476
 191	82.925	34.85	100	66.9047619	32.26190476	79.28571429
 192	0	88.016	100	39.16666667	71.54761905	91.30952381
 193	36.104	85.655	100	46.54761905	69.64285714	91.30952381
 194	60.981	0	0	30.11904762	3.452380952	5
 195	51.466	61.826	78.106	38.92857143	36.42857143	51.78571429
 196	78.427	31.983	22.175	57.14285714	12.14285714	13.57142857
 197	66.017	44.321	0	44.28571429	15.47619048	11.30952381
 198	83.941	0	84.177	63.69047619	19.16666667	53.57142857
 199	20.158	46.612	23.269	12.38095238	14.04761905	9.523809524
 200	0	100	62.618	50.5952381	77.26190476	55.95238095
 201	33.832	0	13.933	8.80952381	1.547619048	2.857142857
 202	100	17.286	16.322	95.71428571	12.02380952	16.9047619
 203	0	42.204	83.926	8.80952381	22.97619048	48.57142857
 204	0	87.774	0	36.66666667	52.14285714	24.88095238
 205	64.988	0	59.017	35.35714286	9.404761905	24.88095238
 206	14.677	0	100	3.69047619	19.4047619	66.66666667
 207	88.934	82.673	35.021	104.2857143	54.64285714	38.80952381
 208	0	63.778	100	19.76190476	44.4047619	78.69047619
 209	83.429	17.674	100	64.16666667	27.26190476	77.14285714
 210	30.899	100	85.668	58.21428571	85.11904762	80.5952381
 211	83.68	0	41.016	61.78571429	9.166666667	18.57142857
 212	100	63.515	0	112.9761905	34.52380952	26.42857143
 213	85.074	69.987	0	86.19047619	37.5	24.76190476
 214	20.801	45.524	69.018	12.85714286	20.71428571	33.92857143
 215	21.382	82.482	73.017	36.30952381	55	53.80952381
 216	100	15.128	64.249	95.83333333	17.85714286	38.45238095
 217	36.522	0	58.427	10.83333333	6.666666667	20.47619048
 218	22.466	81.296	33.007	35.11904762	45.83333333	27.14285714
 219	62.531	87.152	0	68.69047619	54.64285714	29.4047619
 220	84.12	85.397	67.886	98.57142857	63.33333333	59.88095238
 221	18.87	27.336	45.389	6.30952381	7.857142857	13.57142857
 222	66.439	100	14.444	86.66666667	75.5952381	40.47619048
 223	41.636	22.147	19.003	15.47619048	5	5.595238095
 224	61.271	100	81.94	82.02380952	86.30952381	79.76190476
 225	86.013	100	0	117.8571429	78.0952381	44.28571429
 226	37.57	0	0	10.5952381	1.428571429	2.023809524
 227	100	16.132	84.102	96.42857143	23.92857143	59.28571429
 228	0	100	13.619	49.52380952	71.78571429	34.76190476
 229	38.905	100	56.471	61.9047619	77.5	53.21428571
 230	100	15.382	34.563	95.11904762	12.97619048	21.54761905
 231	36.656	14.908	100	12.97619048	21.66666667	68.69047619
 232	0	62.593	66.608	18.0952381	31.78571429	37.02380952
 233	66.347	12.528	100	38.80952381	23.92857143	72.26190476
 234	100	43.375	69.233	102.8571429	28.80952381	47.97619048
 235	100	56.36	61.236	108.8095238	35	45.11904762
 236	0	86.194	44.955	35.47619048	53.33333333	34.64285714
 237	64.527	87.262	100	71.78571429	73.57142857	95.95238095
 238	34.411	0	42.471	9.166666667	4.047619048	11.07142857
 239	80.23	59.707	85.12	72.85714286	40.83333333	64.4047619
 240	20.625	19.056	14.791	5	3.095238095	3.095238095
 241	15.341	34.221	100	8.571428571	26.19047619	70.23809524
 242	36.777	0	87.905	11.54761905	15.11904762	50.47619048
 243	34.598	56.247	100	24.76190476	39.28571429	76.78571429
 244	20.86	67.629	17.418	23.92857143	29.64285714	16.07142857
 245	44.958	60.843	18.054	31.9047619	25	15.23809524
 246	37.421	60.193	0	26.54761905	23.21428571	12.5
 247	84.011	33.849	42.612	67.5	15.95238095	22.5
 248	17.241	60.339	37.743	18.45238095	24.64285714	18.57142857
 249	50.65	17.261	53.278	22.14285714	8.571428571	19.64285714
 250	45.505	48.926	65.152	27.02380952	22.97619048	33.92857143
 251	44.567	84.081	39.649	48.45238095	51.42857143	33.0952381
 252	100	86.339	72.054	132.6190476	69.04761905	69.52380952
 253	68.14	61.135	0	54.88095238	26.9047619	17.02380952
 254	17.93	66.986	81.403	23.69047619	40.11904762	54.28571429
 255	39.242	60.215	48.926	28.21428571	27.26190476	25.5952381
 256	20.099	18.77	62.967	5.357142857	9.047619048	23.92857143
 257	34.553	100	14.582	58.92857143	72.26190476	36.30952381
 258	87.345	0	66.694	68.21428571	14.64285714	36.30952381
 259	0	43.714	39.842	8.452380952	13.80952381	13.80952381
 260	100	37.705	13.955	99.52380952	18.33333333	19.64285714
 261	31.265	86.993	0	42.97619048	51.19047619	25.47619048
 262	51.402	82.661	81.338	54.04761905	59.4047619	65.71428571
 263	100	100	12.984	146.4285714	81.42857143	49.04761905
 264	0	37.859	0	6.19047619	8.452380952	4.285714286
 265	62.092	58.215	100	47.73809524	43.33333333	81.30952381
 266	86.186	100	64.1	117.2619048	84.76190476	67.73809524
 267	100	35.251	85.898	100	30.11904762	64.28571429
 268	63.182	89.992	41.974	72.14285714	61.42857143	40.83333333
 269	13.504	100	0	51.19047619	71.42857143	34.04761905
 270	100	0	13.228	93.92857143	10.11904762	15.5952381
 271	63.881	40.826	100	41.9047619	32.38095238	76.66666667
 272	69.387	84.838	20.792	74.88095238	52.73809524	31.54761905
 273	0	70.279	45.136	22.85714286	34.76190476	26.07142857
 274	79.094	64.754	40.908	72.61904762	34.4047619	30
 275	62.385	54.099	17.396	44.4047619	21.30952381	15.11904762
 276	64.408	14.621	0	35.11904762	5.119047619	6.19047619
 277	70.028	15.606	44.651	42.61904762	8.928571429	17.73809524
 278	0	63.544	0	18.0952381	25.23809524	12.26190476
 279	83.475	47.274	20.502	70.35714286	20.23809524	18.0952381
 280	55.866	0	32.671	25.23809524	4.523809524	9.642857143
 281	58.007	0	100	28.80952381	22.02380952	70.5952381
 282	100	0	87.698	94.76190476	23.57142857	62.61904762
 283	0	13.792	67.215	1.904761905	8.80952381	26.66666667
 284	84.123	17.001	58.549	63.92857143	13.80952381	29.64285714
 285	59.579	32.873	15.966	32.97619048	9.642857143	8.928571429
 286	10.41	32.998	28.659	5.833333333	7.738095238	7.619047619
 287	17.231	40.031	85.65	10.23809524	22.85714286	50.47619048
 288	37.568	41.561	10.108	17.73809524	11.42857143	7.261904762
 289	0	69.015	85.092	22.61904762	42.85714286	59.04761905
 290	14.442	100	36.187	51.30952381	73.45238095	40.95238095
 291	100	40.549	0	101.1904762	19.28571429	19.16666667
 292	82.143	45.435	78.429	68.57142857	28.92857143	51.66666667
 293	52.674	0	67.3	22.85714286	10	29.52380952
 294	0	87.868	66.793	37.61904762	59.88095238	50.95238095
 295	86.53	100	40.524	117.8571429	80.5952381	53.21428571
 296	71.777	85.586	67.232	79.76190476	61.30952381	56.54761905
 297	43.216	100	31.671	64.4047619	74.04761905	41.19047619
 298	39.245	32.908	85.845	17.38095238	20.71428571	50.47619048
 299	0	45.662	67.543	9.642857143	20.11904762	32.5
 300	12.161	100	100	52.85714286	90.11904762	100.4761905
 301	67.049	0	85.516	38.21428571	17.14285714	51.54761905
 302	100	89.041	100	136.4285714	83.21428571	107.0238095
 303	20.246	60.698	56.526	19.76190476	27.97619048	29.16666667
 304	52.177	55.457	40.416	35.35714286	23.57142857	21.19047619
 305	72.617	87.018	83.932	82.5	68.21428571	75.11904762
 306	40.512	16.723	66.475	14.52380952	10.47619048	28.21428571
 307	68.507	49.232	50.605	49.88095238	22.61904762	27.14285714
 308	65.622	100	54.525	85.5952381	79.52380952	55.83333333
 309	54.115	37.24	66.394	29.64285714	17.85714286	32.85714286
 310	100	76.138	31.267	122.8571429	48.92857143	37.85714286
 311	54.728	65.623	0	42.85714286	29.52380952	16.66666667
 312	63.126	12.526	64.37	33.80952381	11.30952381	29.4047619
 313	72.827	18.08	23.704	46.07142857	7.619047619	10.95238095
 314	23.268	15.278	34.947	5.595238095	3.928571429	7.857142857
 315	87.648	68.954	59.645	90.35714286	42.85714286	45.11904762
 316	0	85.595	85.198	36.30952381	62.5	69.04761905
 317	35.798	84.371	69.21	43.92857143	56.78571429	52.38095238
 318	36.062	47.494	35.919	19.64285714	16.54761905	14.76190476
 319	86.083	36.277	59.152	71.07142857	20.11904762	33.33333333
 320	58.21	100	30.361	77.02380952	75.71428571	42.85714286
 321	46.745	14.614	32.317	18.33333333	5	8.928571429
 322	81.573	73.869	86.954	84.76190476	54.88095238	73.33333333
 323	85.991	49.387	48.206	76.19047619	24.88095238	29.76190476
 324	28.062	87.906	19.654	42.85714286	53.33333333	27.85714286
 325	68.992	17.993	85.124	42.02380952	19.04761905	52.14285714
 326	100	66.147	100	115.8333333	56.19047619	93.80952381
 327	33.358	64.806	84.517	28.45238095	40	58.33333333
 328	41.351	17.736	80.522	15.5952381	14.76190476	42.5
 329	100	100	88.719	146.1904762	93.80952381	98.0952381
 330	66.336	0	44.32	36.78571429	7.142857143	16.42857143
 331	64.85	67.09	12.293	54.88095238	32.26190476	19.88095238
 332	15.262	31.268	63.277	6.547619048	12.38095238	25.71428571
 333	15.008	43.663	37.3	10.11904762	13.69047619	13.0952381
 334	0	57.895	38.078	14.76190476	22.61904762	17.5
 335	66.599	58.458	67.871	52.26190476	32.61904762	42.5
 336	59.191	18.651	15.215	29.64285714	5.595238095	6.904761905
 337	66.781	31.14	84.629	42.26190476	22.14285714	52.85714286
 338	88.033	85.158	52.14	105.2380952	60.23809524	48.45238095
 339	36.882	100	100	61.54761905	91.07142857	101.547619
 340	26.102	33.094	17.006	9.642857143	7.380952381	5.595238095
 341	56.309	36.861	35.862	30.95238095	12.5	14.4047619
 342	45.839	65.587	67.033	35.83333333	36.30952381	40.95238095
 343	83.709	81.172	16.406	92.02380952	50	31.54761905
 344	0	48.132	13.005	9.880952381	14.16666667	7.857142857
 345	87.176	50.021	100	80.35714286	41.19047619	84.16666667
 346	51.219	84.244	13.73	53.80952381	49.52380952	26.66666667
 347	60.606	71.415	48.406	53.33333333	39.52380952	32.97619048
 348	0	11.359	12.718	1.071428571	1.547619048	1.785714286
 349	86.429	49.705	33.145	77.02380952	23.21428571	22.97619048
 350	34.056	40.958	100	17.38095238	30.11904762	72.85714286
 351	100	30.557	59.628	98.21428571	20.95238095	37.14285714
 352	88.497	26.902	13.449	72.73809524	11.78571429	13.92857143
 353	14.167	51.98	88.218	14.4047619	30.47619048	57.02380952
 354	13.784	12.983	49.37	3.095238095	5.238095238	14.04761905
 355	15.018	88.441	48.062	39.64285714	56.66666667	37.97619048
 356	87.79	25.769	89.215	72.38095238	25.47619048	62.73809524
 357	0	33.206	55.865	5.238095238	11.42857143	20.35714286
 358	74.324	76.029	35.536	73.33333333	44.16666667	31.78571429
 359	65.863	57.223	42.324	49.64285714	26.30952381	24.52380952
 360	30.893	54.646	13.136	20.11904762	19.28571429	10.95238095
 361	0	34.36	28.321	5.238095238	8.095238095	7.619047619
 362	15.443	77.087	85.116	30.47619048	51.78571429	63.92857143
 363	63.381	68.947	68.521	55.23809524	41.54761905	46.78571429
 364	69.733	27.566	42.917	43.80952381	11.42857143	18.33333333
 365	32.754	100	42.76	58.21428571	75	45
 366	47.096	29.481	34.829	21.19047619	8.80952381	11.54761905
 367	8.5451	71.948	62.695	25	39.52380952	37.97619048
 368	0	86.048	29.3	35.47619048	51.30952381	28.0952381
 369	53.697	51.572	85.367	35.35714286	31.42857143	56.78571429
 370	17.608	56.69	12.515	16.30952381	20.11904762	10.83333333
 371	90.638	14.414	49.227	75.35714286	12.85714286	25.35714286
 372	63.248	63.64	89.55	51.78571429	43.0952381	67.97619048
 373	100	85.976	58.455	131.7857143	65	57.85714286
 374	9.8311	28.027	7.5567	4.404761905	4.880952381	3.095238095
 375	89.831	64.313	69.506	92.14285714	41.19047619	51.54761905
 376	31.754	12.995	25.543	8.452380952	3.214285714	5.357142857
 377	75.914	45.966	64.957	58.69047619	24.76190476	37.61904762
 378	7.5735	50.695	58.941	12.14285714	21.30952381	27.02380952
 379	100	69.835	58.912	117.5	46.30952381	48.57142857
 380	32.211	34.376	48.339	13.0952381	11.42857143	17.14285714
 381	13.901	12.159	73.555	3.452380952	10.47619048	32.73809524
 382	87.071	9.028	77.653	68.80952381	18.21428571	47.61904762
 383	23.272	85.409	84.29	39.88095238	61.9047619	67.85714286
 384	93.289	39.48	26.145	85.5952381	18.33333333	20
 385	65.769	59.63	30.967	51.07142857	27.02380952	20.83333333
 386	100	32.265	41.803	97.97619048	18.45238095	26.66666667
 387	86.568	85.281	86.961	101.547619	69.16666667	80.71428571
 388	52.577	86.83	30.016	57.85714286	54.52380952	32.26190476
 389	47.921	40.199	76.902	25.71428571	21.66666667	43.21428571
 390	22.36	86.619	61.58	39.64285714	56.78571429	46.19047619
 391	52.232	33.601	88.787	27.61904762	23.0952381	56.9047619
 392	0	28.523	86.267	4.761904762	17.97619048	48.33333333
 393	43.497	67.879	39.551	35.47619048	33.21428571	24.4047619
 394	39.877	45.261	0	20.71428571	13.45238095	7.857142857
 395	86.94	12.43	24.699	67.5	9.047619048	14.04761905
 396	28.363	55.339	90.398	20.71428571	34.4047619	62.26190476
 397	39.018	70.534	57.879	34.4047619	37.97619048	35.47619048
 398	12.833	28.519	78.828	5.833333333	15.71428571	40.11904762
 399	68.35	31.815	69.975	44.04761905	18.33333333	37.5
 400	56.52	26.226	41.626	28.92857143	9.404761905	15.35714286
 401	12.938	46.218	0	10.35714286	12.85714286	6.547619048
 402	8.6938	60.179	26.117	16.66666667	23.21428571	14.4047619
 403	51.995	89.429	96.608	61.54761905	74.16666667	90.23809524
 404	46.905	47.746	48.909	27.14285714	19.16666667	22.26190476
 405	14.352	81.814	19.479	32.97619048	44.88095238	23.33333333
 406	71.482	38.117	12.273	48.92857143	13.33333333	11.78571429
 407	86.616	60.785	10.012	83.57142857	30.11904762	21.9047619
 408	71.811	88.979	52.186	82.38095238	62.26190476	47.5
 409	43.213	100	72.083	65.23809524	81.78571429	66.54761905
 410	73.92	23.444	8.2853	47.97619048	8.214285714	9.404761905
 411	40.629	85.534	53.423	47.5	55	41.30952381
 412	38.955	52.128	22.885	23.33333333	18.45238095	12.5
 413	46.48	12.229	8.6707	17.5	3.214285714	3.928571429
 414	40.855	33.301	22.309	17.5	8.571428571	7.857142857
 415	76.365	66.787	61.06	70.5952381	39.28571429	42.26190476
 416	7.5076	12.025	20.59	1.785714286	2.023809524	3.095238095
 417	85.93	27.031	0	68.0952381	10.95238095	12.26190476
