data/calibration-002180.ti3
CTI3   
ORIGINATOR	"ColorHug Factory"
CREATED	"Wed Nov 20 20:45:12 2013"
DESCRIPTOR	"Calibration Target chart information 3"
DEVICE_CLASS	"DISPLAY"
COLOR_REP	"RGB_XYZ"
TARGET_INSTRUMENT	"Hughski ColorHug"
INSTRUMENT_TYPE_SPECTRAL	"NO"
NORMALIZED_TO_Y_100	"NO"
NUMBER_OF_FIELDS	7
NUMBER_OF_SETS	15
BEGIN_DATA_FORMAT
 SAMPLE_ID	RGB_R	RGB_G	RGB_B	XYZ_X	XYZ_Y	XYZ_Z
END_DATA_FORMAT
BEGIN_DATA
 1	0	0	0	0.0457763671875	0.0457763671875	0.091552734375
 2	1	1	1	69.7174072265625	33.50830078125	51.45263671875
 3	1	0	0	44.677734375	3.387451171875	5.6304931640625
 4	0	1	0	22.2015380859375	21.9268798828125	10.7574462890625
 5	0	0	1	1.190185546875	8.0108642578125	34.515380859375
 6	0	0	0	0.0457763671875	0.0457763671875	0.091552734375
 7	1	1	1	69.488525390625	33.50830078125	51.361083984375
 8	1	0	0	44.677734375	3.387451171875	5.6304931640625
 9	0	1	0	22.2015380859375	21.8353271484375	10.80322265625
 10	0	0	1	1.190185546875	8.0108642578125	34.7900390625
 11	0	0	0	0.0457763671875	0.0457763671875	0.091552734375
 12	1	1	1	69.9462890625	33.50830078125	51.361083984375
 13	1	0	0	44.6319580078125	3.387451171875	5.6304931640625
 14	0	1	0	22.2015380859375	21.97265625	10.80322265625
 15	0	0	1	1.190185546875	8.0108642578125	34.515380859375
END_DATA
