data/calibration-001452.ti3
CTI3   
ORIGINATOR	"ColorHug Factory"
DESCRIPTOR	"Calibration Target chart information 3"
DEVICE_CLASS	"DISPLAY"
COLOR_REP	"RGB_XYZ"
TARGET_INSTRUMENT	"Hughski ColorHug"
INSTRUMENT_TYPE_SPECTRAL	"NO"
NORMALIZED_TO_Y_100	"NO"
NUMBER_OF_FIELDS	7
NUMBER_OF_SETS	15
BEGIN_DATA_FORMAT
 SAMPLE_ID	RGB_R	RGB_G	RGB_B	XYZ_X	XYZ_Y	XYZ_Z
END_DATA_FORMAT
BEGIN_DATA
 1	0	0	0	0.09155273438	0.09155273438	0.1373291016
 2	1	1	1	35.0189209	36.02600098	42.38891602
 3	1	0	0	20.5078125	2.655029297	3.341674805
 4	0	1	0	12.31384277	25.90942383	11.4440918
 5	0	0	1	0.8239746094	7.32421875	27.42004395
 6	0	0	0	0.09155273438	0.09155273438	0.1373291016
 7	1	1	1	34.83581543	36.02600098	42.38891602
 8	1	0	0	20.46203613	2.655029297	3.341674805
 9	0	1	0	12.31384277	25.90942383	11.4440918
 10	0	0	1	0.8239746094	7.32421875	27.37426758
 11	0	0	0	0.09155273438	0.09155273438	0.1373291016
 12	1	1	1	35.0189209	36.11755371	42.43469238
 13	1	0	0	20.46203613	2.655029297	3.341674805
 14	0	1	0	12.31384277	25.90942383	11.48986816
 15	0	0	1	0.8239746094	7.369995117	27.37426758
END_DATA
