data/calibration-000246.ti3
CTI3
DESCRIPTOR	"Calibration Target chart information 3"
ORIGINATOR	"ColorHug Factory"
DEVICE_CLASS	"DISPLAY"
COLOR_REP	"RGB_XYZ"
TARGET_INSTRUMENT	"ColorHug"
INSTRUMENT_TYPE_SPECTRAL	"NO"
LUMINANCE_XYZ_CDM2	"49.381256 35.797119 39.871216"
NORMALIZED_TO_Y_100	"YES"
NUMBER_OF_FIELDS	7
NUMBER_OF_SETS	836
BEGIN_DATA_FORMAT
 SAMPLE_ID	RGB_R	RGB_G	RGB_B	XYZ_X	XYZ_Y	XYZ_Z
END_DATA_FORMAT
BEGIN_DATA
 1	100	100	100	132.5670498	99.87228608	111.1111111
 2	100	100	100	140.7407407	100	111.366539
 3	100	100	100	138.9527458	99.74457216	111.238825
 4	100	100	100	138.8250319	99.87228608	111.238825
 5	33.33	32.622	30.968	11.36653895	7.918263091	8.429118774
 6	100	0	100	87.86717752	27.33077905	77.52234994
 7	100	100	0	138.8250319	81.6091954	45.59386973
 8	0	100	100	48.14814815	90.42145594	97.5734355
 9	0	100	0	46.48786718	71.7752235	32.18390805
 10	0	0	100	2.298850575	18.26309068	65.13409962
 11	100	0	0	86.46232439	9.067688378	12.64367816
 12	0	0	0	0.1277139208	0	0.1277139208
 13	0	52.455	100	12.38825032	34.61047254	73.05236271
 14	100	0	50.3	87.100894	12.77139208	25.92592593
 15	100	54.739	100	101.660281	45.33844189	86.46232439
 16	100	52.128	0	98.72286079	24.64878672	19.92337165
 17	0	0	46.181	0.5108556833	3.0651341	10.60025543
 18	0	51.141	0	10.08939974	15.19795658	6.896551724
 19	0	100	51.348	46.87100894	75.60664112	45.97701149
 20	100	100	52.037	139.2081737	85.69604087	60.1532567
 21	49.216	0	0	16.85823755	1.787994891	2.554278416
 22	56.159	100	0	70.11494253	74.58492976	35.75989783
 23	49.226	100	100	65.90038314	92.33716475	100.5108557
 24	44.487	0	100	15.45338442	19.79565773	67.17752235
 25	100	44.498	52.029	95.40229885	24.39335888	32.18390805
 26	48.926	48.544	100	27.71392082	33.84418902	74.20178799
 27	51.368	100	47.25	66.02809706	77.52234994	46.6155811
 28	49.893	0	49.033	18.00766284	5.491698595	15.19795658
 29	53.109	51.372	0	30.39591315	17.24137931	9.961685824
 30	0	58.587	53.943	14.04853129	24.64878672	24.5210728
 31	100	28.065	100	91.57088123	31.9284802	80.07662835
 32	0	0	72.874	1.149425287	8.301404853	29.62962963
 33	0	26.758	100	4.342273308	22.22222222	66.66666667
 34	0	25.426	0	2.426564496	3.448275862	1.660280971
 35	72.508	0	100	41.50702427	22.60536398	71.00893997
 36	100	27.395	0	89.91060026	13.15453384	14.55938697
 37	74.47	100	100	93.35887612	94.89144317	104.2145594
 38	100	0	25.728	87.22860792	9.961685824	15.9642401
 39	73.862	0	0	41.89016603	4.469987229	6.130268199
 40	100	100	25.402	137.9310345	82.12005109	49.04214559
 41	0	75.751	100	26.30906769	55.04469987	81.48148148
 42	0	75.172	0	23.88250319	35.63218391	16.21966794
 43	0	100	25.864	46.6155811	72.79693487	35.37675607
 44	100	0	74.801	87.22860792	18.00766284	44.57215837
 45	0	100	75.421	47.38186462	81.22605364	65.51724138
 46	24.577	0	0	4.086845466	0.5108556833	0.6385696041
 47	26.321	100	0	51.34099617	72.4137931	32.82247765
 48	100	75.835	0	114.6871009	46.10472542	29.75734355
 49	100	100	77.061	139.5913155	90.93231162	80.58748404
 50	71.263	100	0	87.7394636	76.62835249	38.31417625
 51	0	0	15.614	0.2554278416	0.3831417625	1.277139208
 52	0	30.049	70.936	4.086845466	12.77139208	30.26819923
 53	100	77.691	100	117.3690932	67.17752235	96.16858238
 54	24.486	100	100	52.23499361	90.93231162	98.46743295
 55	100	62.784	31.909	104.9808429	34.73818646	28.99106003
 56	29.552	0	100	7.662835249	18.90166028	66.2835249
 57	32.98	70.921	100	30.26819923	50.95785441	81.09833972
 58	0	27.681	40.241	3.0651341	6.513409962	9.961685824
 59	67.901	71.021	100	58.36526181	53.63984674	84.92975734
 60	28.154	100	67.829	52.49042146	80.20434227	58.8761175
 61	71.637	100	70.001	88.25031928	83.78033206	66.02809706
 62	58.822	58.763	53.586	39.20817369	27.45849298	28.2247765
 63	33.466	30.48	0	10.85568327	5.874840358	3.448275862
 64	100	73.795	71.277	113.4099617	51.97956577	57.85440613
 65	68.394	29.692	0	38.56960409	8.556832695	7.407407407
 66	70.399	0	29.039	37.67560664	5.236270754	9.706257982
 67	28.078	0	26.956	5.363984674	1.660280971	4.342273308
 68	28.532	72.339	0	27.45849298	33.46104725	15.70881226
 69	100	30.941	26.496	91.06002554	15.3256705	18.51851852
 70	34.597	0	73.611	8.812260536	9.45083014	32.05619413
 71	71.573	0	72.408	39.59131545	12.51596424	35.50446999
 72	0	71.029	29.412	21.32822478	32.82247765	18.51851852
 73	68.386	75.008	0	60.28097063	39.46360153	21.58365262
 74	68.088	27.309	100	39.59131545	26.30906769	72.4137931
 75	100	26.457	73.749	90.67688378	21.83908046	45.97701149
 76	74.344	100	27.392	91.57088123	77.9054917	42.52873563
 77	27.558	100	28.197	51.72413793	73.81864623	36.90932312
 78	31.196	27.465	100	11.11111111	23.24393359	68.45466156
 79	0	75.521	72.824	25.1596424	45.08301405	46.99872286
 80	0	50.93	25.553	10.08939974	15.83652618	10.08939974
 81	32.06	33.584	64.033	11.62196679	13.28224777	26.30906769
 82	81.666	55.38	0	66.02809706	23.75478927	16.09195402
 83	68.257	32.751	58.286	39.97445722	14.81481481	26.18135377
 84	0	55.248	81.585	13.02681992	29.11877395	48.27586207
 85	73.781	52.099	100	54.53384419	38.95274585	79.31034483
 86	100	50.537	82.952	98.33971903	35.63218391	61.04725415
 87	23.55	0	50.439	4.214559387	4.086845466	13.79310345
 88	31.335	62.746	31.114	22.86079183	26.05363985	16.60280971
 89	100	18.31	49.418	88.50574713	14.55938697	26.69220945
 90	26.498	48.404	0	13.79310345	14.04853129	6.896551724
 91	47.91	100	85.744	64.36781609	86.46232439	79.82120051
 92	71.829	47.313	31.811	48.53128991	18.51851852	16.73052363
 93	31.304	64.132	69.316	24.13793103	33.46104725	39.33588761
 94	80.403	0	54.321	52.10727969	9.833971903	23.11621967
 95	18.455	50.036	100	13.79310345	33.46104725	72.79693487
 96	50.653	100	16.345	65.51724138	74.32950192	36.27075351
 97	80.121	100	52.261	100.8939974	81.99233716	54.53384419
 98	0	22.54	19.289	2.043422733	3.320561941	3.19284802
 99	100	75.273	46.886	114.0485313	48.78671775	40.74074074
 100	0	78.618	56.625	27.20306513	45.08301405	35.12132822
 101	51.137	80.627	100	48.65900383	62.83524904	87.7394636
 102	48.446	0	17.864	16.47509579	2.298850575	4.086845466
 103	100	50.023	21.211	97.82886335	24.26564496	21.83908046
 104	50.115	20.118	0	19.15708812	4.214559387	3.703703704
 105	58.099	72.426	33.158	46.99872286	37.16475096	24.01021711
 106	19.364	100	50.197	49.6807152	76.11749681	45.97701149
 107	50.683	19.177	100	21.4559387	22.34993614	68.83780332
 108	53.37	0	81.576	21.58365262	13.40996169	42.91187739
 109	47.768	76.245	0	40.74074074	38.95274585	19.28480204
 110	0	18.927	55.503	1.915708812	6.641123883	17.11366539
 111	0	13.277	0	0.7662835249	1.021711367	0.5108556833
 112	72.862	72.473	75.625	64.11238825	46.87100894	54.02298851
 113	100	13.904	0	87.100894	10.08939974	13.28224777
 114	86.349	0	100	62.5798212	24.77650064	74.32950192
 115	100	41.941	100	95.78544061	37.54789272	82.50319285
 116	100	81.785	16.464	119.6679438	53.76756066	34.48275862
 117	0	44.063	52.596	7.918263091	15.3256705	19.66794381
 118	0	0	58.917	0.7662835249	5.236270754	18.3908046
 119	59.25	24.551	29.789	28.09706258	7.279693487	9.578544061
 120	82.73	82.874	100	87.86717752	70.11494253	94.38058748
 121	80.039	0	12.618	50.83014049	5.619412516	8.429118774
 122	60.957	47.729	77.817	36.90932312	26.18135377	45.72158365
 123	100	0	38.618	86.97318008	11.11111111	20.30651341
 124	0	40.09	100	7.918263091	27.5862069	69.98722861
 125	0	15.283	82.322	2.043422733	12.64367816	40.86845466
 126	17.592	81.726	100	33.07790549	62.83524904	85.95146871
 127	100	14.13	100	89.14431673	28.73563218	78.67177522
 128	15.261	100	82.059	49.42528736	83.52490421	73.30779055
 129	47.77	79.418	60.389	43.42273308	48.27586207	40.4853129
 130	18.768	16.429	0	3.448275862	1.787994891	1.149425287
 131	55.634	100	65.763	70.24265645	81.48148148	60.02554278
 132	100	100	38.541	138.8250319	83.39719029	53.12899106
 133	17.421	0	83.497	3.19284802	11.87739464	42.01787995
 134	17.237	16.758	100	4.853128991	20.17879949	66.79438059
 135	0	15.067	30.039	1.149425287	2.554278416	4.980842912
 136	0	0	86.505	1.660280971	12.77139208	45.46615581
 137	75.736	72.799	50.02	68.32694764	42.01787995	34.9936143
 138	100	83.323	85.529	121.2005109	68.19923372	79.18263091
 139	100	100	64.894	138.697318	87.86717752	69.60408685
 140	81.98	84.914	0	87.22860792	53.63984674	29.88505747
 141	0	63.757	15.49	16.47509579	24.90421456	12.38825032
 142	49.514	66.135	100	37.16475096	47.50957854	80.71519796
 143	100	0	61.862	87.35632184	14.94252874	33.58876117
 144	24.308	45.41	49.831	12.13282248	15.9642401	19.15708812
 145	15.963	0	17.047	1.915708812	0.6385696041	1.787994891
 146	87.497	100	100	114.8148148	97.70114943	107.6628352
 147	52.099	25.003	75.752	22.47765006	14.81481481	37.93103448
 148	14.909	81.162	0	30.01277139	43.03959132	19.66794381
 149	0	34.792	14.626	4.597701149	7.024265645	4.214559387
 150	48.39	45.075	22.552	24.39335888	14.04853129	10.21711367
 151	83.545	65.965	100	77.01149425	51.72413793	86.33461047
 152	16.226	62.345	0	17.49680715	23.49936143	10.85568327
 153	63.222	0	14.914	29.62962963	3.575989783	5.619412516
 154	80.449	13.446	0	52.36270754	6.513409962	8.173690932
 155	83.917	41.562	0	62.96296296	15.70881226	12.77139208
 156	100	60.448	46.3	103.192848	34.61047254	34.3550447
 157	15.584	0	34.795	1.915708812	1.915708812	6.130268199
 158	17.144	65.121	100	21.32822478	45.21072797	78.03320562
 159	83.602	55.334	62.667	70.11494253	30.39591315	38.31417625
 160	0	82.19	14.22	29.37420179	44.44444444	21.20051086
 161	25.132	74.856	50.616	28.48020434	39.8467433	30.39591315
 162	0	13.769	100	2.554278416	19.54022989	66.2835249
 163	87.181	0	0	61.68582375	6.641123883	9.195402299
 164	0	100	39.19	46.6155811	73.81864623	40.10217114
 165	78.047	65.914	19.865	66.92209451	32.56704981	21.32822478
 166	100	63.961	15.865	104.4699872	34.73818646	25.67049808
 167	100	45.955	36.032	96.04086845	23.24393359	24.90421456
 168	15.926	100	16.89	48.40357599	72.79693487	33.97190294
 169	41.459	100	0	58.36526181	73.05236271	34.09961686
 170	48.707	37.288	48.139	22.47765006	13.15453384	18.13537676
 171	83.381	100	13.285	105.6194125	78.67177522	42.01787995
 172	78.129	25.303	75.621	51.34099617	18.00766284	41.63473819
 173	12.396	0	0	1.277139208	0.2554278416	0.2554278416
 174	37.607	48.336	83.346	19.79565773	26.56449553	49.55300128
 175	35.588	15.356	0	9.32311622	2.298850575	2.043422733
 176	61.245	100	100	76.37292465	93.48659004	102.6819923
 177	100	67.29	87.195	108.5568327	50.19157088	72.54150702
 178	0	0	30.615	0.2554278416	1.277139208	4.597701149
 179	35.187	81.789	83.323	38.56960409	56.83269476	62.96296296
 180	39.525	80.194	22.879	38.82503193	44.1890166	23.11621967
 181	50.634	34.593	0	22.86079183	8.684546616	5.747126437
 182	14.175	100	63.146	48.27586207	78.16091954	54.78927203
 183	83.493	17.728	34.574	57.21583653	9.32311622	14.94252874
 184	23.463	22.014	79.943	6.513409962	13.66538953	39.33588761
 185	18.066	31.847	0	6.130268199	5.874840358	2.937420179
 186	87.201	100	81.361	113.0268199	90.42145594	82.24776501
 187	0	100	87.95	47.89272031	85.56832695	80.58748404
 188	34.476	17.888	46.22	9.32311622	5.747126437	12.899106
 189	18.277	0	67.39	3.0651341	7.279693487	25.41507024
 190	100	87.972	0	124.5210728	61.81353768	37.03703704
 191	82.925	34.85	100	61.81353768	31.2899106	77.01149425
 192	0	88.016	100	36.27075351	70.75351213	89.39974457
 193	36.104	85.655	100	43.16730524	69.22094508	89.78288633
 194	60.981	0	0	27.07535121	2.937420179	4.086845466
 195	51.466	61.826	78.106	35.37675607	35.37675607	49.55300128
 196	78.427	31.983	22.175	51.46871009	11.36653895	12.13282248
 197	66.017	44.321	0	40.22988506	14.81481481	9.961685824
 198	83.941	0	84.177	57.72669221	18.00766284	51.34099617
 199	20.158	46.612	23.269	10.98339719	13.40996169	8.812260536
 200	0	100	62.618	47.12643678	77.9054917	53.76756066
 201	33.832	0	13.933	7.662835249	1.149425287	2.298850575
 202	100	17.286	16.322	88.12260536	11.11111111	14.94252874
 203	0	42.204	83.926	7.918263091	22.22222222	47.50957854
 204	0	87.774	0	34.09961686	51.97956577	23.37164751
 205	64.988	0	59.017	31.80076628	8.684546616	23.37164751
 206	14.677	0	100	3.320561941	18.51851852	66.15581098
 207	88.934	82.673	35.021	96.67943806	53.89527458	36.39846743
 208	0	63.778	100	18.26309068	43.550447	77.01149425
 209	83.429	17.674	100	58.23754789	26.18135377	75.09578544
 210	30.899	100	85.668	54.15070243	85.05747126	78.5440613
 211	83.68	0	41.016	55.93869732	8.429118774	16.85823755
 212	100	63.515	0	104.2145594	33.58876117	24.13793103
 213	85.074	69.987	0	79.94891443	36.52618135	22.60536398
 214	20.801	45.524	69.018	11.74968072	19.92337165	32.56704981
 215	21.382	82.482	73.017	33.58876117	53.89527458	52.10727969
 216	100	15.128	64.249	88.12260536	16.85823755	36.14303959
 217	36.522	0	58.427	9.578544061	6.130268199	19.54022989
 218	22.466	81.296	33.007	32.18390805	45.33844189	25.67049808
 219	62.531	87.152	0	63.2183908	53.76756066	27.33077905
 220	84.12	85.397	67.886	91.44316731	62.5798212	57.21583653
 221	18.87	27.336	45.389	5.619412516	7.279693487	12.77139208
 222	66.439	100	14.444	81.22605364	75.60664112	38.44189017
 223	41.636	22.147	19.003	13.92081737	4.597701149	4.980842912
 224	61.271	100	81.94	76.62835249	86.59003831	77.26692209
 225	86.013	100	0	110.6002554	78.92720307	41.63473819
 226	37.57	0	0	9.45083014	1.021711367	1.53256705
 227	100	16.132	84.102	88.50574713	22.73307791	56.70498084
 228	0	100	13.619	46.48786718	72.28607918	33.20561941
 229	38.905	100	56.471	57.34355045	78.41634738	51.34099617
 230	100	15.382	34.563	87.22860792	12.13282248	19.41251596
 231	36.656	14.908	100	11.74968072	20.81736909	67.30523627
 232	0	62.593	66.608	16.47509579	30.77905492	35.50446999
 233	66.347	12.528	100	35.37675607	22.98850575	71.51979566
 234	100	43.375	69.233	95.40229885	27.71392082	45.21072797
 235	100	56.36	61.236	100	33.84418902	42.01787995
 236	0	86.194	44.955	33.07790549	52.49042146	33.07790549
 237	64.527	87.262	100	67.30523627	73.56321839	94.12515964
 238	34.411	0	42.471	8.173690932	3.448275862	10.47254151
 239	80.23	59.707	85.12	67.04980843	39.46360153	62.06896552
 240	20.625	19.056	14.791	4.342273308	2.681992337	2.554278416
 241	15.341	34.221	100	7.918263091	25.41507024	69.22094508
 242	36.777	0	87.905	10.34482759	14.43167305	49.29757344
 243	34.598	56.247	100	22.73307791	38.44189017	75.60664112
 244	20.86	67.629	17.418	21.96679438	29.11877395	14.94252874
 245	44.958	60.843	18.054	28.99106003	24.39335888	14.04853129
 246	37.421	60.193	0	24.26564496	22.73307791	11.36653895
 247	84.011	33.849	42.612	61.81353768	15.19795658	20.81736909
 248	17.241	60.339	37.743	16.85823755	24.13793103	17.49680715
 249	50.65	17.261	53.278	20.05108557	8.045977011	18.51851852
 250	45.505	48.926	65.152	24.64878672	22.22222222	32.43933589
 251	44.567	84.081	39.649	45.33844189	50.83014049	31.54533844
 252	100	86.339	72.054	124.265645	68.7100894	66.2835249
 253	68.14	61.135	0	50.19157088	26.30906769	15.45338442
 254	17.93	66.986	81.403	21.83908046	39.33588761	52.61813538
 255	39.242	60.215	48.926	25.67049808	26.56449553	24.13793103
 256	20.099	18.77	62.967	4.72541507	8.429118774	22.98850575
 257	34.553	100	14.582	54.91698595	72.54150702	34.86590038
 258	87.345	0	66.694	62.96296296	13.66538953	34.22733078
 259	0	43.714	39.842	7.535121328	13.28224777	13.02681992
 260	100	37.705	13.955	91.82630907	17.49680715	17.49680715
 261	31.265	86.993	0	39.8467433	51.21328225	23.88250319
 262	51.402	82.661	81.338	50.06385696	58.62068966	62.96296296
 263	100	100	12.984	138.1864623	81.86462324	46.87100894
 264	0	37.859	0	5.491698595	8.045977011	3.703703704
 265	62.092	58.215	100	44.1890166	42.14559387	79.69348659
 266	86.186	100	64.1	109.5785441	85.18518519	65.0063857
 267	100	35.251	85.898	92.33716475	28.99106003	61.55810983
 268	63.182	89.992	41.974	66.79438059	61.30268199	38.82503193
 269	13.504	100	0	47.76500639	71.90293742	32.56704981
 270	100	0	13.228	86.71775223	9.32311622	13.66538953
 271	63.881	40.826	100	38.44189017	31.54533844	74.8403576
 272	69.387	84.838	20.792	68.96551724	52.49042146	29.50191571
 273	0	70.279	45.136	20.94508301	34.09961686	24.77650064
 274	79.094	64.754	40.908	67.43295019	33.46104725	27.71392082
 275	62.385	54.099	17.396	40.35759898	20.68965517	13.66538953
 276	64.408	14.621	0	31.67305236	4.597701149	5.236270754
 277	70.028	15.606	44.651	38.31417625	8.301404853	16.34738186
 278	0	63.544	0	16.47509579	24.64878672	11.23882503
 279	83.475	47.274	20.502	64.87867178	19.54022989	16.21966794
 280	55.866	0	32.671	22.60536398	3.959131545	8.684546616
 281	58.007	0	100	26.30906769	21.20051086	69.22094508
 282	100	0	87.698	87.86717752	22.47765006	60.28097063
 283	0	13.792	67.215	1.53256705	8.301404853	25.79821201
 284	84.123	17.001	58.549	58.36526181	13.02681992	27.84163474
 285	59.579	32.873	15.966	29.88505747	9.067688378	7.918263091
 286	10.41	32.998	28.659	5.108556833	7.279693487	7.024265645
 287	17.231	40.031	85.65	9.32311622	22.0945083	49.29757344
 288	37.568	41.561	10.108	15.9642401	10.85568327	6.513409962
 289	0	69.015	85.092	20.81736909	42.01787995	57.21583653
 290	14.442	100	36.187	48.02043423	73.94636015	39.33588761
 291	100	40.549	0	93.48659004	18.3908046	16.98595147
 292	82.143	45.435	78.429	62.5798212	27.84163474	49.80842912
 293	52.674	0	67.3	20.68965517	9.32311622	28.35249042
 294	0	87.868	66.793	35.24904215	59.5146871	49.04214559
 295	86.53	100	40.524	110.9833972	81.22605364	50.44699872
 296	71.777	85.586	67.232	73.94636015	60.66411239	53.63984674
 297	43.216	100	31.671	60.02554278	74.96807152	39.59131545
 298	39.245	32.908	85.845	15.83652618	19.79565773	49.16985951
 299	0	45.662	67.543	8.812260536	19.41251596	31.16219668
 300	12.161	100	100	49.55300128	91.06002554	98.97828863
 301	67.049	0	85.516	34.61047254	16.21966794	50.06385696
 302	100	89.041	100	127.9693487	82.24776501	104.0868455
 303	20.246	60.698	56.526	18.00766284	27.33077905	27.84163474
 304	52.177	55.457	40.416	32.05619413	22.73307791	19.66794381
 305	72.617	87.018	83.932	76.11749681	67.56066411	72.66922095
 306	40.512	16.723	66.475	13.02681992	9.833971903	27.20306513
 307	68.507	49.232	50.605	45.08301405	21.71136654	25.28735632
 308	65.622	100	54.525	80.58748404	80.45977011	53.63984674
 309	54.115	37.24	66.394	26.69220945	16.98595147	31.41762452
 310	100	76.138	31.267	113.4099617	48.02043423	34.9936143
 311	54.728	65.623	0	39.20817369	28.8633461	15.19795658
 312	63.126	12.526	64.37	30.52362708	10.60025543	28.09706258
 313	72.827	18.08	23.704	41.63473819	7.024265645	9.706257982
 314	23.268	15.278	34.947	4.72541507	3.448275862	7.279693487
 315	87.648	68.954	59.645	84.0357599	41.63473819	42.52873563
 316	0	85.595	85.198	33.58876117	61.81353768	67.04980843
 317	35.798	84.371	69.21	40.74074074	56.06641124	50.3192848
 318	36.062	47.494	35.919	17.75223499	15.9642401	13.79310345
 319	86.083	36.277	59.152	66.2835249	19.28480204	31.41762452
 320	58.21	100	30.361	72.4137931	75.98978289	40.74074074
 321	46.745	14.614	32.317	16.47509579	4.469987229	8.045977011
 322	81.573	73.869	86.954	78.79948914	53.89527458	70.62579821
 323	85.991	49.387	48.206	69.98722861	24.01021711	27.5862069
 324	28.062	87.906	19.654	39.59131545	53.51213282	26.43678161
 325	68.992	17.993	85.124	38.0587484	18.13537676	50.83014049
 326	100	66.147	100	108.3014049	54.78927203	91.18773946
 327	33.358	64.806	84.517	26.30906769	38.95274585	56.449553
 328	41.351	17.736	80.522	14.04853129	14.04853129	41.37931034
 329	100	100	88.719	138.8250319	95.01915709	95.53001277
 330	66.336	0	44.32	33.07790549	6.513409962	15.19795658
 331	64.85	67.09	12.293	50.3192848	31.54533844	18.26309068
 332	15.262	31.268	63.277	5.874840358	11.74968072	24.77650064
 333	15.008	43.663	37.3	9.067688378	13.15453384	12.2605364
 334	0	57.895	38.078	13.53767561	22.0945083	16.47509579
 335	66.599	58.458	67.871	47.63729246	31.54533844	40.74074074
 336	59.191	18.651	15.215	26.69220945	5.108556833	6.002554278
 337	66.781	31.14	84.629	38.44189017	21.32822478	50.95785441
 338	88.033	85.158	52.14	97.95657727	59.64240102	46.36015326
 339	36.882	100	100	57.85440613	91.06002554	99.87228608
 340	26.102	33.094	17.006	8.556832695	7.024265645	4.980842912
 341	56.309	36.861	35.862	28.09706258	11.87739464	13.40996169
 342	45.839	65.587	67.033	33.07790549	35.24904215	39.46360153
 343	83.709	81.172	16.406	86.46232439	49.6807152	29.62962963
 344	0	48.132	13.005	8.939974457	13.66538953	7.151979566
 345	87.176	50.021	100	74.07407407	39.97445722	81.86462324
 346	51.219	84.244	13.73	49.93614304	49.55300128	25.28735632
 347	60.606	71.415	48.406	49.04214559	38.56960409	31.03448276
 348	0	11.359	12.718	0.6385696041	1.149425287	1.404853129
 349	86.429	49.705	33.145	71.00893997	22.47765006	21.20051086
 350	34.056	40.958	100	15.9642401	28.99106003	71.7752235
 351	100	30.557	59.628	90.67688378	19.92337165	34.86590038
 352	88.497	26.902	13.449	67.04980843	10.98339719	12.38825032
 353	14.167	51.98	88.218	13.28224777	29.62962963	55.42784163
 354	13.784	12.983	49.37	2.554278416	4.853128991	13.40996169
 355	15.018	88.441	48.062	36.7816092	56.70498084	36.39846743
 356	87.79	25.769	89.215	66.53895275	24.39335888	61.04725415
 357	0	33.206	55.865	4.597701149	10.85568327	19.54022989
 358	74.324	76.029	35.536	68.19923372	43.550447	29.62962963
 359	65.863	57.223	42.324	45.84929757	25.67049808	22.98850575
 360	30.893	54.646	13.136	18.26309068	18.64623244	10.08939974
 361	0	34.36	28.321	4.597701149	7.662835249	7.024265645
 362	15.443	77.087	85.116	28.48020434	51.46871009	62.70753512
 363	63.381	68.947	68.521	50.19157088	40.61302682	44.69987229
 364	69.733	27.566	42.917	39.97445722	10.85568327	16.98595147
 365	32.754	100	42.76	54.27841635	75.22349936	43.03959132
 366	47.096	29.481	34.829	19.15708812	8.301404853	10.60025543
 367	8.5451	71.948	62.695	22.98850575	38.95274585	36.65389527
 368	0	86.048	29.3	32.82247765	51.21328225	26.94763729
 369	53.697	51.572	85.367	32.31162197	30.52362708	54.78927203
 370	17.608	56.69	12.515	14.94252874	19.66794381	9.961685824
 371	90.638	14.414	49.227	69.60408685	12.00510856	23.49936143
 372	63.248	63.64	89.55	48.02043423	42.52873563	66.41123883
 373	100	85.976	58.455	123.4993614	64.75095785	54.78927203
 374	9.8311	28.027	7.5567	3.831417625	4.597701149	2.554278416
 375	89.831	64.313	69.506	85.44061303	40.35759898	49.55300128
 376	31.754	12.995	25.543	7.407407407	2.809706258	4.853128991
 377	75.914	45.966	64.957	53.51213282	23.88250319	35.88761175
 378	7.5735	50.695	58.941	11.11111111	20.68965517	26.05363985
 379	100	69.835	58.912	109.3231162	45.46615581	46.23243934
 380	32.211	34.376	48.339	11.74968072	10.85568327	16.47509579
 381	13.901	12.159	73.555	2.937420179	9.961685824	31.9284802
 382	87.071	9.028	77.653	63.47381865	17.24137931	45.59386973
 383	23.272	85.409	84.29	36.90932312	61.43039591	66.2835249
 384	93.289	39.48	26.145	78.67177522	17.49680715	18.26309068
 385	65.769	59.63	30.967	47.12643678	26.43678161	19.41251596
 386	100	32.265	41.803	91.18773946	17.62452107	24.64878672
 387	86.568	85.281	86.961	95.40229885	68.96551724	78.5440613
 388	52.577	86.83	30.016	53.76756066	54.53384419	30.52362708
 389	47.921	40.199	76.902	23.37164751	20.94508301	42.01787995
 390	22.36	86.619	61.58	37.16475096	56.96040868	44.69987229
 391	52.232	33.601	88.787	25.1596424	22.34993614	55.42784163
 392	0	28.523	86.267	4.214559387	17.24137931	47.63729246
 393	43.497	67.879	39.551	32.56704981	32.56704981	23.11621967
 394	39.877	45.261	0	18.77394636	13.02681992	7.024265645
 395	86.94	12.43	24.699	62.06896552	8.301404853	12.64367816
 396	28.363	55.339	90.398	19.15708812	33.46104725	60.79182631
 397	39.018	70.534	57.879	31.54533844	37.4201788	33.97190294
 398	12.833	28.519	78.828	5.236270754	15.07024266	39.59131545
 399	68.35	31.815	69.975	39.8467433	17.49680715	36.14303959
 400	56.52	26.226	41.626	26.18135377	8.812260536	14.30395913
 401	12.938	46.218	0	9.32311622	12.38825032	5.874840358
 402	8.6938	60.179	26.117	15.3256705	22.86079183	13.40996169
 403	51.995	89.429	96.608	56.96040868	74.20178799	88.76117497
 404	46.905	47.746	48.909	24.64878672	18.51851852	21.07279693
 405	14.352	81.814	19.479	30.651341	44.82758621	22.0945083
 406	71.482	38.117	12.273	44.82758621	12.77139208	10.47254151
 407	86.616	60.785	10.012	76.50063857	29.24648787	20.05108557
 408	71.811	88.979	52.186	76.11749681	62.45210728	45.21072797
 409	43.213	100	72.083	60.79182631	82.24776501	65.0063857
