data/calibration-001004.ti3
CTI3   
ORIGINATOR	"ColorHug Factory"
DESCRIPTOR	"Calibration Target chart information 3"
DEVICE_CLASS	"DISPLAY"
COLOR_REP	"RGB_XYZ"
TARGET_INSTRUMENT	"Hughski ColorHug"
INSTRUMENT_TYPE_SPECTRAL	"NO"
NORMALIZED_TO_Y_100	"NO"
NUMBER_OF_FIELDS	7
NUMBER_OF_SETS	15
BEGIN_DATA_FORMAT
 SAMPLE_ID	RGB_R	RGB_G	RGB_B	XYZ_X	XYZ_Y	XYZ_Z
END_DATA_FORMAT
BEGIN_DATA
 1	0	0	0	0.09155273438	0.04577636719	0.09155273438
 2	1	1	1	62.07275391	40.6036377	47.05810547
 3	1	0	0	39.36767578	3.936767578	5.950927734
 4	0	1	0	20.5078125	29.0222168	13.36669922
 5	0	0	1	0.9613037109	7.690429688	27.55737305
 6	0	0	0	0.09155273438	0.04577636719	0.09155273438
 7	1	1	1	62.43896484	40.6036377	47.0123291
 8	1	0	0	39.50500488	3.936767578	5.950927734
 9	0	1	0	20.5078125	29.0222168	13.36669922
 10	0	0	1	0.9613037109	7.690429688	27.42004395
 11	0	0	0	0.09155273438	0.09155273438	0.09155273438
 12	1	1	1	62.43896484	40.6036377	47.0123291
 13	1	0	0	39.32189941	3.936767578	5.950927734
 14	0	1	0	20.41625977	29.0222168	13.36669922
 15	0	0	1	0.9613037109	7.690429688	27.69470215
END_DATA
