data/calibration-002779.ti3
CTI3   
ORIGINATOR	"ColorHug Factory"
CREATED	"Tue May 05 20:53:30 2015"
DESCRIPTOR	"Calibration Target chart information 3"
DEVICE_CLASS	"DISPLAY"
COLOR_REP	"RGB_XYZ"
TARGET_INSTRUMENT	"Hughski ColorHug"
INSTRUMENT_TYPE_SPECTRAL	"NO"
NORMALIZED_TO_Y_100	"NO"
NUMBER_OF_FIELDS	7
NUMBER_OF_SETS	15
BEGIN_DATA_FORMAT
 SAMPLE_ID	RGB_R	RGB_G	RGB_B	XYZ_X	XYZ_Y	XYZ_Z
END_DATA_FORMAT
BEGIN_DATA
 1.0	0.0	0.0	0.0	0.616760253906	0.609375	0.756683349609
 2.0	1.0	1.0	1.0	110.702697753906	101.135787963867	110.702697753906
 3.0	1.0	0.0	0.0	79.533966064453	7.353668212891	11.889694213867
 4.0	0.0	1.0	0.0	26.511322021484	71.859634399414	27.959030151367
 5.0	0.0	0.0	1.0	3.738922119141	20.479995727539	68.84033203125
 6.0	0.0	0.0	0.0	0.619430541992	0.613677978516	0.758377075195
 7.0	1.0	1.0	1.0	110.702697753906	101.135787963867	110.702697753906
 8.0	1.0	0.0	0.0	79.533966064453	7.353668212891	11.889694213867
 9.0	0.0	1.0	0.0	26.511322021484	71.859634399414	27.959030151367
 10.0	0.0	0.0	1.0	3.737213134766	20.479995727539	68.84033203125
 11.0	0.0	0.0	0.0	0.618255615234	0.613586425781	0.758438110352
 12.0	1.0	1.0	1.0	110.702697753906	101.135787963867	110.702697753906
 13.0	1.0	0.0	0.0	79.533966064453	7.353668212891	11.889694213867
 14.0	0.0	1.0	0.0	26.511322021484	71.859634399414	27.959030151367
 15.0	0.0	0.0	1.0	3.737213134766	20.479995727539	68.84033203125
END_DATA
