data/calibration-002637.ti3
CTI3   
ORIGINATOR	"ColorHug Factory"
CREATED	"Tue Jan 27 20:04:37 2015"
DESCRIPTOR	"Calibration Target chart information 3"
DEVICE_CLASS	"DISPLAY"
COLOR_REP	"RGB_XYZ"
TARGET_INSTRUMENT	"Hughski ColorHug"
INSTRUMENT_TYPE_SPECTRAL	"NO"
NORMALIZED_TO_Y_100	"NO"
NUMBER_OF_FIELDS	7
NUMBER_OF_SETS	15
BEGIN_DATA_FORMAT
 SAMPLE_ID	RGB_R	RGB_G	RGB_B	XYZ_X	XYZ_Y	XYZ_Z
END_DATA_FORMAT
BEGIN_DATA
 1.0	0.0	0.0	0.0	0.486129760742	0.45622253418	0.535522460938
 2.0	1.0	1.0	1.0	72.495574951172	71.234771728516	73.142852783203
 3.0	1.0	0.0	0.0	50.567886352539	5.371795654297	8.249740600586
 4.0	0.0	1.0	0.0	18.788986206055	50.881973266602	20.029327392578
 5.0	0.0	0.0	1.0	2.651977539062	14.397186279297	44.281066894531
 6.0	0.0	0.0	0.0	0.48974609375	0.462692260742	0.541534423828
 7.0	1.0	1.0	1.0	73.801788330078	72.495574951172	74.472717285156
 8.0	1.0	0.0	0.0	51.199996948242	5.468612670898	8.350662231445
 9.0	0.0	1.0	0.0	19.051162719727	51.848098754883	20.37809753418
 10.0	0.0	0.0	1.0	2.685012817383	14.70735168457	45.511108398438
 11.0	0.0	0.0	0.0	0.500854492188	0.471633911133	0.552352905273
 12.0	1.0	1.0	1.0	74.472717285156	73.801788330078	75.851837158203
 13.0	1.0	0.0	0.0	51.848098754883	5.542617797852	8.454071044922
 14.0	0.0	1.0	0.0	19.230041503906	52.178329467773	20.582901000977
 15.0	0.0	0.0	1.0	2.725204467773	14.94889831543	46.0224609375
END_DATA
