data/calibration-000134.ti3
CTI3
DESCRIPTOR	"Calibration Target chart information 3"
ORIGINATOR	"ColorHug Factory"
DEVICE_CLASS	"DISPLAY"
COLOR_REP	"RGB_XYZ"
TARGET_INSTRUMENT	"ColorHug"
INSTRUMENT_TYPE_SPECTRAL	"NO"
LUMINANCE_XYZ_CDM2	"52.837372 38.131714 43.773651"
NORMALIZED_TO_Y_100	"YES"
NUMBER_OF_FIELDS	7
NUMBER_OF_SETS	836
BEGIN_DATA_FORMAT
 SAMPLE_ID	RGB_R	RGB_G	RGB_B	XYZ_X	XYZ_Y	XYZ_Z
END_DATA_FORMAT
BEGIN_DATA
 1	100	100	100	136.1676647	99.76047904	114.491018
 2	100	100	100	139.2814371	100	114.6107784
 3	100	100	100	139.760479	99.88023952	114.491018
 4	100	100	100	137.7245509	99.4011976	114.491018
 5	33.33	32.622	30.968	12.5748503	8.143712575	8.74251497
 6	100	0	100	85.98802395	26.94610778	80.23952096
 7	100	100	0	138.4431138	81.79640719	46.70658683
 8	0	100	100	49.10179641	90.65868263	100.8383234
 9	0	100	0	46.82634731	72.69461078	33.17365269
 10	0	0	100	2.51497006	18.32335329	68.38323353
 11	100	0	0	86.34730539	8.502994012	12.93413174
 12	0	0	0	0	0	0
 13	0	52.455	100	12.5748503	34.8502994	75.68862275
 14	100	0	50.3	85.38922156	12.33532934	26.94610778
 15	100	54.739	100	102.0359281	45.26946108	89.34131737
 16	100	52.128	0	99.04191617	24.79041916	20.47904192
 17	0	0	46.181	0	3.113772455	11.13772455
 18	0	51.141	0	10.17964072	15.56886228	7.185628743
 19	0	100	51.348	46.94610778	76.04790419	47.18562874
 20	100	100	52.037	137.9640719	85.74850299	61.67664671
 21	49.216	0	0	25.38922156	1.796407186	2.634730539
 22	56.159	100	0	70.05988024	75.32934132	36.52694611
 23	49.226	100	100	66.58682635	92.45508982	103.7125749
 24	44.487	0	100	16.16766467	19.76047904	70.17964072
 25	100	44.498	52.029	95.20958084	24.43113772	33.41317365
 26	48.926	48.544	100	28.86227545	34.25149701	77.24550898
 27	51.368	100	47.25	66.46706587	78.44311377	48.0239521
 28	49.893	0	49.033	18.44311377	5.389221557	15.80838323
 29	53.109	51.372	0	30.89820359	17.60479042	10.2994012
 30	0	58.587	53.943	14.37125749	25.1497006	25.62874251
 31	100	28.065	100	90.53892216	31.61676647	83.35329341
 32	0	0	72.874	1.317365269	8.383233533	31.13772455
 33	0	26.758	100	4.311377246	22.39520958	70.05988024
 34	0	25.426	0	2.395209581	3.592814371	1.796407186
 35	72.508	0	100	42.15568862	22.39520958	74.01197605
 36	100	27.395	0	89.82035928	12.69461078	14.8502994
 37	74.47	100	100	93.53293413	95.80838323	107.9041916
 38	100	0	25.728	86.22754491	9.461077844	16.28742515
 39	73.862	0	0	42.51497006	4.191616766	6.347305389
 40	100	100	25.402	138.0838323	82.51497006	49.7005988
 41	0	75.751	100	26.82634731	56.40718563	85.50898204
 42	0	75.172	0	24.31137725	36.40718563	16.76646707
 43	0	100	25.864	45.74850299	73.41317365	36.64670659
 44	100	0	74.801	87.90419162	17.60479042	46.70658683
 45	0	100	75.421	48.14371257	82.2754491	68.0239521
 46	24.577	0	0	4.071856287	0.4790419162	0.7185628743
 47	26.321	100	0	51.49700599	72.69461078	33.65269461
 48	100	75.835	0	114.011976	46.34730539	30.41916168
 49	100	100	77.061	138.4431138	91.01796407	83.11377246
 50	71.263	100	0	87.66467066	76.40718563	39.04191617
 51	0	0	15.614	0	0.4790419162	1.317365269
 52	0	30.049	70.936	4.071856287	13.05389222	31.73652695
 53	100	77.691	100	114.9700599	67.06586826	99.88023952
 54	24.486	100	100	53.53293413	91.61676647	102.0359281
 55	100	62.784	31.909	104.1916168	34.61077844	29.58083832
 56	29.552	0	100	12.81437126	19.04191617	68.86227545
 57	32.98	70.921	100	30.2994012	50.89820359	84.19161677
 58	0	27.681	40.241	4.191616766	6.586826347	10.41916168
 59	67.901	71.021	100	58.44311377	54.49101796	88.74251497
 60	28.154	100	67.829	53.53293413	80.71856287	60.95808383
 61	71.637	100	70.001	86.22754491	84.79041916	68.50299401
 62	58.822	58.763	53.586	39.64071856	27.78443114	29.22155689
 63	33.466	30.48	0	11.85628743	5.868263473	3.592814371
 64	100	73.795	71.277	111.497006	52.33532934	59.52095808
 65	68.394	29.692	0	39.04191617	8.383233533	7.54491018
 66	70.399	0	29.039	38.20359281	5.02994012	9.94011976
 67	28.078	0	26.956	5.868263473	1.556886228	4.550898204
 68	28.532	72.339	0	27.54491018	33.89221557	16.16766467
 69	100	30.941	26.496	89.94011976	14.8502994	18.92215569
 70	34.597	0	73.611	8.982035928	9.461077844	33.41317365
 71	71.573	0	72.408	40	12.33532934	36.88622754
 72	0	71.029	29.412	21.79640719	33.53293413	19.28143713
 73	68.386	75.008	0	59.88023952	40	22.2754491
 74	68.088	27.309	100	40.47904192	26.22754491	75.32934132
 75	100	26.457	73.749	89.82035928	21.43712575	47.54491018
 76	74.344	100	27.392	91.61676647	78.20359281	43.59281437
 77	27.558	100	28.197	52.09580838	74.13173653	37.84431138
 78	31.196	27.465	100	11.37724551	23.23353293	71.13772455
 79	0	75.521	72.824	25.26946108	45.98802395	48.62275449
 80	0	50.93	25.553	10.2994012	16.16766467	10.41916168
 81	32.06	33.584	64.033	11.73652695	13.41317365	27.4251497
 82	81.666	55.38	0	66.22754491	23.83233533	16.64670659
 83	68.257	32.751	58.286	40.95808383	14.73053892	27.18562874
 84	0	55.248	81.585	13.17365269	29.82035928	50.05988024
 85	73.781	52.099	100	54.37125749	38.56287425	81.79640719
 86	100	50.537	82.952	97.48502994	35.4491018	63.35329341
 87	23.55	0	50.439	13.05389222	4.071856287	14.25149701
 88	31.335	62.746	31.114	22.99401198	26.58682635	17.24550898
 89	100	18.31	49.418	88.14371257	14.01197605	27.30538922
 90	26.498	48.404	0	14.49101796	14.25149701	7.065868263
 91	47.91	100	85.744	63.47305389	87.06586826	82.51497006
 92	71.829	47.313	31.811	48.98203593	18.68263473	17.24550898
 93	31.304	64.132	69.316	24.43113772	34.01197605	41.07784431
 94	80.403	0	54.321	51.85628743	9.580838323	23.95209581
 95	18.455	50.036	100	14.13173653	33.53293413	75.68862275
 96	50.653	100	16.345	63.71257485	74.73053892	37.24550898
 97	80.121	100	52.261	100	81.79640719	56.16766467
 98	0	22.54	19.289	3.353293413	3.353293413	3.353293413
 99	100	75.273	46.886	111.3772455	48.98203593	42.15568862
 100	0	78.618	56.625	29.10179641	45.86826347	36.40718563
 101	51.137	80.627	100	47.54491018	63.47305389	91.01796407
 102	48.446	0	17.864	16.76646707	2.155688623	4.191616766
 103	100	50.023	21.211	95.68862275	24.07185629	22.15568862
 104	50.115	20.118	0	20.11976048	4.071856287	3.71257485
 105	58.099	72.426	33.158	46.22754491	37.7245509	25.02994012
 106	19.364	100	50.197	49.7005988	76.40718563	47.30538922
 107	50.683	19.177	100	21.91616766	22.15568862	71.37724551
 108	53.37	0	81.576	21.91616766	13.29341317	44.67065868
 109	47.768	76.245	0	40.95808383	39.4011976	19.76047904
 110	0	18.927	55.503	2.035928144	6.706586826	17.7245509
 111	0	13.277	0	0.7185628743	1.077844311	0.5988023952
 112	72.862	72.473	75.625	63.47305389	47.30538922	56.52694611
 113	100	13.904	0	85.98802395	9.580838323	13.29341317
 114	86.349	0	100	62.63473054	24.43113772	77.00598802
 115	100	41.941	100	94.73053892	37.24550898	85.62874251
 116	100	81.785	16.464	118.3233533	53.89221557	34.97005988
 117	0	44.063	52.596	8.143712575	15.56886228	20.47904192
 118	0	0	58.917	0.7185628743	5.149700599	19.28143713
 119	59.25	24.551	29.789	28.0239521	7.065868263	9.820359281
 120	82.73	82.874	100	84.43113772	70.77844311	97.84431138
 121	80.039	0	12.618	51.13772455	5.389221557	8.502994012
 122	60.957	47.729	77.817	38.32335329	26.22754491	47.54491018
 123	100	0	38.618	81.67664671	10.65868263	20.5988024
 124	0	40.09	100	13.53293413	27.66467066	72.81437126
 125	0	15.283	82.322	1.916167665	12.5748503	42.39520958
 126	17.592	81.726	100	32.81437126	63.23353293	88.86227545
 127	100	14.13	100	88.98203593	28.14371257	80.95808383
 128	15.261	100	82.059	49.58083832	83.83233533	75.80838323
 129	47.77	79.418	60.389	43.83233533	49.10179641	42.2754491
 130	18.768	16.429	0	3.592814371	1.796407186	1.19760479
 131	55.634	100	65.763	69.46107784	81.43712575	61.67664671
 132	100	100	38.541	136.1676647	82.8742515	54.01197605
 133	17.421	0	83.497	10.41916168	11.85628743	43.59281437
 134	17.237	16.758	100	4.790419162	20.11976048	69.46107784
 135	0	15.067	30.039	1.077844311	2.634730539	5.149700599
 136	0	0	86.505	1.556886228	12.69461078	47.30538922
 137	75.736	72.799	50.02	67.4251497	42.39520958	36.28742515
 138	100	83.323	85.529	119.5209581	68.14371257	81.43712575
 139	100	100	64.894	136.7664671	87.78443114	71.01796407
 140	81.98	84.914	0	87.66467066	54.01197605	30.41916168
 141	0	63.757	15.49	17.48502994	25.38922156	12.93413174
 142	49.514	66.135	100	37.00598802	47.54491018	82.8742515
 143	100	0	61.862	84.31137725	14.37125749	34.37125749
 144	24.308	45.41	49.831	12.69461078	16.04790419	19.64071856
 145	15.963	0	17.047	1.796407186	0.5988023952	1.796407186
 146	87.497	100	100	111.9760479	97.00598802	110.8982036
 147	52.099	25.003	75.752	24.43113772	14.73053892	39.04191617
 148	14.909	81.162	0	30.05988024	43.71257485	20.23952096
 149	0	34.792	14.626	4.790419162	7.065868263	4.311377246
 150	48.39	45.075	22.552	24.43113772	14.13173653	10.53892216
 151	83.545	65.965	100	76.16766467	51.37724551	88.98203593
 152	16.226	62.345	0	20.23952096	23.83233533	11.25748503
 153	63.222	0	14.914	29.7005988	3.353293413	5.748502994
 154	80.449	13.446	0	51.85628743	6.22754491	8.143712575
 155	83.917	41.562	0	61.91616766	15.4491018	12.93413174
 156	100	60.448	46.3	101.3173653	34.25149701	35.20958084
 157	15.584	0	34.795	1.916167665	1.796407186	6.347305389
 158	17.144	65.121	100	21.19760479	45.38922156	80.95808383
 159	83.602	55.334	62.667	69.10179641	30.2994012	39.64071856
 160	0	82.19	14.22	33.17365269	45.38922156	21.79640719
 161	25.132	74.856	50.616	28.38323353	40.47904192	31.49700599
 162	0	13.769	100	2.395209581	19.52095808	68.86227545
 163	87.181	0	0	61.79640719	6.107784431	9.221556886
 164	0	100	39.19	46.82634731	74.61077844	41.07784431
 165	78.047	65.914	19.865	66.58682635	32.5748503	21.79640719
 166	100	63.961	15.865	104.4311377	34.61077844	26.22754491
 167	100	45.955	36.032	94.25149701	22.8742515	25.38922156
 168	15.926	100	16.89	48.0239521	73.17365269	34.73053892
 169	41.459	100	0	58.32335329	73.29341317	34.8502994
 170	48.707	37.288	48.139	22.51497006	13.05389222	18.80239521
 171	83.381	100	13.285	97.84431138	78.68263473	42.63473054
 172	78.129	25.303	75.621	51.13772455	17.60479042	43.47305389
 173	12.396	0	0	1.19760479	0	0.119760479
 174	37.607	48.336	83.346	19.88023952	26.58682635	51.85628743
 175	35.588	15.356	0	9.341317365	2.275449102	2.035928144
 176	61.245	100	100	76.04790419	93.41317365	105.6287425
 177	100	67.29	87.195	98.92215569	50.17964072	74.97005988
 178	0	0	30.615	0	1.317365269	4.670658683
 179	35.187	81.789	83.323	38.80239521	57.36526946	65.62874251
 180	39.525	80.194	22.879	38.56287425	44.07185629	23.83233533
 181	50.634	34.593	0	22.8742515	8.622754491	5.868263473
 182	14.175	100	63.146	48.50299401	78.56287425	56.52694611
 183	83.493	17.728	34.574	55.80838323	8.982035928	15.32934132
 184	23.463	22.014	79.943	6.467065868	13.77245509	41.07784431
 185	18.066	31.847	0	6.107784431	5.868263473	2.994011976
 186	87.201	100	81.361	111.6167665	90.05988024	84.31137725
 187	0	100	87.95	47.54491018	86.22754491	83.11377246
 188	34.476	17.888	46.22	9.341317365	5.748502994	13.29341317
 189	18.277	0	67.39	2.994011976	7.305389222	26.34730539
 190	100	87.972	0	122.1556886	61.67664671	37.48502994
 191	82.925	34.85	100	61.07784431	30.89820359	79.88023952
 192	0	88.016	100	36.04790419	71.85628743	92.69461078
 193	36.104	85.655	100	43.11377246	69.34131737	92.5748503
 194	60.981	0	0	27.4251497	2.754491018	4.071856287
 195	51.466	61.826	78.106	35.4491018	35.68862275	51.37724551
 196	78.427	31.983	22.175	51.73652695	11.13772455	12.33532934
 197	66.017	44.321	0	40.47904192	14.73053892	10.17964072
 198	83.941	0	84.177	57.7245509	17.60479042	52.81437126
 199	20.158	46.612	23.269	11.01796407	13.65269461	8.982035928
 200	0	100	62.618	46.94610778	78.32335329	55.56886228
 201	33.832	0	13.933	7.664670659	1.077844311	2.275449102
 202	100	17.286	16.322	86.34730539	10.53892216	14.97005988
 203	0	42.204	83.926	7.904191617	22.2754491	49.34131737
 204	0	87.774	0	34.13173653	51.9760479	23.95209581
 205	64.988	0	59.017	31.85628743	8.383233533	24.31137725
 206	14.677	0	100	3.233532934	18.44311377	68.62275449
 207	88.934	82.673	35.021	95.92814371	54.13173653	37.24550898
 208	0	63.778	100	18.32335329	43.59281437	80.11976048
 209	83.429	17.674	100	58.08383234	25.74850299	77.00598802
 210	30.899	100	85.668	54.01197605	85.62874251	81.07784431
 211	83.68	0	41.016	56.28742515	8.023952096	17.24550898
 212	100	63.515	0	102.5149701	33.41317365	24.43113772
 213	85.074	69.987	0	79.52095808	36.76646707	22.99401198
 214	20.801	45.524	69.018	11.73652695	20	33.89221557
 215	21.382	82.482	73.017	33.77245509	54.49101796	53.41317365
 216	100	15.128	64.249	87.4251497	16.16766467	37.1257485
 217	36.522	0	58.427	9.580838323	5.988023952	20.23952096
 218	22.466	81.296	33.007	32.45508982	45.86826347	26.46706587
 219	62.531	87.152	0	63.11377246	54.61077844	28.14371257
 220	84.12	85.397	67.886	90.53892216	62.39520958	58.56287425
 221	18.87	27.336	45.389	5.508982036	7.305389222	13.29341317
 222	66.439	100	14.444	80.11976048	75.92814371	39.04191617
 223	41.636	22.147	19.003	15.08982036	4.550898204	5.02994012
 224	61.271	100	81.94	75.68862275	86.34730539	79.16167665
 225	86.013	100	0	109.1017964	78.20359281	42.39520958
 226	37.57	0	0	9.341317365	0.9580838323	1.437125749
 227	100	16.132	84.102	87.66467066	22.03592814	58.20359281
 228	0	100	13.619	46.82634731	72.21556886	33.89221557
 229	38.905	100	56.471	57.60479042	77.96407186	52.93413174
 230	100	15.382	34.563	86.82634731	11.49700599	19.64071856
 231	36.656	14.908	100	11.73652695	20.5988024	70.65868263
 232	0	62.593	66.608	16.52694611	31.01796407	36.88622754
 233	66.347	12.528	100	35.32934132	22.51497006	73.89221557
 234	100	43.375	69.233	94.49101796	27.18562874	45.98802395
 235	100	56.36	61.236	100.239521	33.53293413	43.59281437
 236	0	86.194	44.955	33.05389222	52.93413174	33.89221557
 237	64.527	87.262	100	67.06586826	73.53293413	96.88622754
 238	34.411	0	42.471	8.263473054	3.353293413	10.65868263
 239	80.23	59.707	85.12	66.94610778	39.76047904	64.07185629
 240	20.625	19.056	14.791	4.311377246	2.634730539	2.634730539
 241	15.341	34.221	100	7.784431138	25.26946108	71.37724551
 242	36.777	0	87.905	10.2994012	14.25149701	50.65868263
 243	34.598	56.247	100	22.51497006	38.56287425	78.32335329
 244	20.86	67.629	17.418	21.91616766	29.34131737	15.32934132
 245	44.958	60.843	18.054	29.22155689	24.5508982	14.37125749
 246	37.421	60.193	0	24.31137725	22.99401198	11.61676647
 247	84.011	33.849	42.612	61.55688623	14.8502994	21.19760479
 248	17.241	60.339	37.743	16.76646707	24.43113772	17.96407186
 249	50.65	17.261	53.278	20	7.784431138	19.16167665
 250	45.505	48.926	65.152	24.5508982	22.2754491	33.29341317
 251	44.567	84.081	39.649	44.91017964	51.49700599	32.21556886
 252	100	86.339	72.054	122.6347305	68.0239521	67.66467066
 253	68.14	61.135	0	50.05988024	26.22754491	15.68862275
 254	17.93	66.986	81.403	21.67664671	39.4011976	54.49101796
 255	39.242	60.215	48.926	25.74850299	26.82634731	24.79041916
 256	20.099	18.77	62.967	4.670658683	8.383233533	23.83233533
 257	34.553	100	14.582	54.37125749	73.65269461	35.32934132
 258	87.345	0	66.694	62.2754491	13.17365269	35.20958084
 259	0	43.714	39.842	8.023952096	13.41317365	13.41317365
 260	100	37.705	13.955	89.82035928	17.00598802	17.60479042
 261	31.265	86.993	0	40	51.73652695	24.43113772
 262	51.402	82.661	81.338	49.7005988	59.04191617	65.50898204
 263	100	100	12.984	135.9281437	81.19760479	47.18562874
 264	0	37.859	0	5.389221557	8.023952096	3.71257485
 265	62.092	58.215	100	42.2754491	42.2754491	82.2754491
 266	86.186	100	64.1	103.9520958	84.79041916	65.98802395
 267	100	35.251	85.898	91.73652695	28.38323353	63.59281437
 268	63.182	89.992	41.974	66.10778443	61.19760479	39.64071856
 269	13.504	100	0	47.66467066	71.9760479	33.17365269
 270	100	0	13.228	85.86826347	8.74251497	13.65269461
 271	63.881	40.826	100	38.80239521	31.13772455	77.60479042
 272	69.387	84.838	20.792	68.74251497	52.81437126	30.05988024
 273	0	70.279	45.136	20.95808383	34.37125749	25.62874251
 274	79.094	64.754	40.908	67.30538922	33.53293413	28.38323353
 275	62.385	54.099	17.396	40.5988024	20.71856287	14.01197605
 276	64.408	14.621	0	31.73652695	4.311377246	5.269461078
 277	70.028	15.606	44.651	38.20359281	8.023952096	16.88622754
 278	0	63.544	0	16.40718563	25.02994012	11.49700599
 279	83.475	47.274	20.502	64.67065868	19.28143713	16.52694611
 280	55.866	0	32.671	22.63473054	3.71257485	8.862275449
 281	58.007	0	100	26.22754491	20.83832335	72.09580838
 282	100	0	87.698	87.06586826	21.67664671	62.39520958
 283	0	13.792	67.215	1.437125749	8.263473054	26.70658683
 284	84.123	17.001	58.549	58.32335329	12.45508982	28.50299401
 285	59.579	32.873	15.966	29.7005988	8.982035928	8.023952096
 286	10.41	32.998	28.659	5.02994012	7.305389222	7.185628743
 287	17.231	40.031	85.65	9.221556886	22.03592814	51.49700599
 288	37.568	41.561	10.108	15.92814371	10.89820359	6.586826347
 289	0	69.015	85.092	20.83832335	42.15568862	59.64071856
 290	14.442	100	36.187	47.90419162	74.13173653	40.11976048
 291	100	40.549	0	92.33532934	17.96407186	17.1257485
 292	82.143	45.435	78.429	62.99401198	27.54491018	51.13772455
 293	52.674	0	67.3	20.5988024	9.101796407	29.10179641
 294	0	87.868	66.793	35.08982036	59.88023952	50.17964072
 295	86.53	100	40.524	109.5808383	80.83832335	51.37724551
 296	71.777	85.586	67.232	72.5748503	60.71856287	55.56886228
 297	43.216	100	31.671	59.64071856	74.61077844	40.11976048
 298	39.245	32.908	85.845	15.80838323	19.76047904	50.77844311
 299	0	45.662	67.543	8.622754491	19.52095808	32.45508982
 300	12.161	100	100	49.10179641	90.77844311	101.4371257
 301	67.049	0	85.516	34.49101796	15.92814371	51.9760479
 302	100	89.041	100	125.988024	82.03592814	106.9461078
 303	20.246	60.698	56.526	18.08383234	27.66467066	28.74251497
 304	52.177	55.457	40.416	32.09580838	22.75449102	20.23952096
 305	72.617	87.018	83.932	71.85628743	67.66467066	74.97005988
 306	40.512	16.723	66.475	13.89221557	9.700598802	28.0239521
 307	68.507	49.232	50.605	44.19161677	21.79640719	26.22754491
 308	65.622	100	54.525	79.76047904	79.76047904	54.61077844
 309	54.115	37.24	66.394	26.70658683	16.88622754	32.45508982
 310	100	76.138	31.267	112.8143713	48.0239521	35.56886228
 311	54.728	65.623	0	39.4011976	28.98203593	15.56886228
 312	63.126	12.526	64.37	30.53892216	10.41916168	28.86227545
 313	72.827	18.08	23.704	41.55688623	6.706586826	9.820359281
 314	23.268	15.278	34.947	4.670658683	3.473053892	7.54491018
 315	87.648	68.954	59.645	83.59281437	41.79640719	43.59281437
 316	0	85.595	85.198	33.53293413	62.15568862	69.34131737
 317	35.798	84.371	69.21	40.95808383	56.76646707	51.73652695
 318	36.062	47.494	35.919	17.7245509	16.04790419	14.13173653
 319	86.083	36.277	59.152	65.26946108	18.92215569	32.09580838
 320	58.21	100	30.361	71.9760479	76.04790419	41.79640719
 321	46.745	14.614	32.317	16.40718563	4.311377246	8.263473054
 322	81.573	73.869	86.954	78.20359281	53.77245509	72.69461078
 323	85.991	49.387	48.206	69.94011976	23.71257485	28.14371257
 324	28.062	87.906	19.654	41.07784431	54.13173653	26.94610778
 325	68.992	17.993	85.124	37.84431138	17.84431138	52.21556886
 326	100	66.147	100	106.4670659	54.49101796	94.25149701
 327	33.358	64.806	84.517	26.58682635	39.28143713	58.56287425
 328	41.351	17.736	80.522	14.13173653	13.89221557	43.23353293
 329	100	100	88.719	134.9700599	94.13173653	97.24550898
 330	66.336	0	44.32	33.17365269	6.22754491	15.56886228
 331	64.85	67.09	12.293	50.17964072	31.73652695	18.68263473
 332	15.262	31.268	63.277	5.748502994	11.73652695	25.62874251
 333	15.008	43.663	37.3	8.982035928	13.29341317	12.69461078
 334	0	57.895	38.078	13.41317365	22.39520958	17.00598802
 335	66.599	58.458	67.871	47.4251497	31.61676647	42.03592814
 336	59.191	18.651	15.215	26.58682635	4.910179641	5.988023952
 337	66.781	31.14	84.629	38.32335329	21.07784431	53.05389222
 338	88.033	85.158	52.14	95.80838323	59.64071856	47.30538922
 339	36.882	100	100	57.1257485	91.13772455	102.6347305
 340	26.102	33.094	17.006	8.502994012	6.946107784	5.02994012
 341	56.309	36.861	35.862	28.0239521	11.73652695	13.65269461
 342	45.839	65.587	67.033	32.93413174	35.56886228	40.83832335
 343	83.709	81.172	16.406	85.02994012	49.22155689	29.94011976
 344	0	48.132	13.005	8.862275449	13.77245509	7.185628743
 345	87.176	50.021	100	73.17365269	39.4011976	84.19161677
 346	51.219	84.244	13.73	49.82035928	49.94011976	25.74850299
 347	60.606	71.415	48.406	49.10179641	38.56287425	31.9760479
 348	0	11.359	12.718	0.5988023952	1.077844311	1.317365269
 349	86.429	49.705	33.145	70.53892216	22.15568862	21.43712575
 350	34.056	40.958	100	20.35928144	28.98203593	73.77245509
 351	100	30.557	59.628	89.58083832	19.28143713	35.4491018
 352	88.497	26.902	13.449	66.10778443	10.53892216	12.33532934
 353	14.167	51.98	88.218	16.04790419	29.82035928	57.7245509
 354	13.784	12.983	49.37	2.395209581	4.670658683	13.77245509
 355	15.018	88.441	48.062	36.76646707	56.88622754	37.36526946
 356	87.79	25.769	89.215	65.62874251	23.83233533	62.39520958
 357	0	33.206	55.865	4.550898204	10.77844311	20.11976048
 358	74.324	76.029	35.536	66.82634731	43.59281437	30.2994012
 359	65.863	57.223	42.324	51.49700599	25.50898204	23.47305389
 360	30.893	54.646	13.136	18.20359281	18.80239521	10.17964072
 361	0	34.36	28.321	4.431137725	7.664670659	7.185628743
 362	15.443	77.087	85.116	28.14371257	51.85628743	64.91017964
 363	63.381	68.947	68.521	50.05988024	40.23952096	45.74850299
 364	69.733	27.566	42.917	39.76047904	10.53892216	17.24550898
 365	32.754	100	42.76	53.53293413	75.20958084	43.71257485
 366	47.096	29.481	34.829	19.04191617	8.143712575	10.77844311
 367	8.5451	71.948	62.695	22.75449102	39.4011976	37.7245509
 368	0	86.048	29.3	32.69461078	51.25748503	27.18562874
 369	53.697	51.572	85.367	32.09580838	30.41916168	56.76646707
 370	17.608	56.69	12.515	14.73053892	19.64071856	10.05988024
 371	90.638	14.414	49.227	68.86227545	11.49700599	23.95209581
 372	63.248	63.64	89.55	47.66467066	41.91616766	68.14371257
 373	100	85.976	58.455	121.4371257	64.43113772	56.04790419
 374	9.8311	28.027	7.5567	3.71257485	4.550898204	2.634730539
 375	89.831	64.313	69.506	84.43113772	39.76047904	50.77844311
 376	31.754	12.995	25.543	7.305389222	2.634730539	4.910179641
 377	75.914	45.966	64.957	53.41317365	23.47305389	36.88622754
 378	7.5735	50.695	58.941	14.73053892	20.5988024	26.82634731
 379	100	69.835	58.912	107.4251497	45.02994012	47.30538922
 380	32.211	34.376	48.339	11.61676647	10.77844311	16.76646707
 381	13.901	12.159	73.555	2.754491018	9.820359281	32.93413174
 382	87.071	9.028	77.653	62.39520958	16.64670659	46.46706587
 383	23.272	85.409	84.29	36.88622754	61.67664671	68.14371257
 384	93.289	39.48	26.145	78.20359281	17.00598802	18.32335329
 385	65.769	59.63	30.967	46.94610778	26.34730539	19.76047904
 386	100	32.265	41.803	89.34131737	17.00598802	24.91017964
 387	86.568	85.281	86.961	93.41317365	68.14371257	80.23952096
 388	52.577	86.83	30.016	53.53293413	54.49101796	31.13772455
 389	47.921	40.199	76.902	23.59281437	20.83832335	43.35329341
 390	22.36	86.619	61.58	37.00598802	57.1257485	45.62874251
 391	52.232	33.601	88.787	25.02994012	22.15568862	56.88622754
 392	0	28.523	86.267	4.071856287	17.1257485	49.46107784
 393	43.497	67.879	39.551	32.45508982	32.5748503	23.59281437
 394	39.877	45.261	0	18.68263473	12.93413174	7.185628743
 395	86.94	12.43	24.699	61.07784431	7.784431138	12.5748503
 396	28.363	55.339	90.398	18.92215569	33.53293413	62.63473054
 397	39.018	70.534	57.879	31.49700599	37.60479042	34.97005988
 398	12.833	28.519	78.828	5.149700599	14.8502994	40.5988024
 399	68.35	31.815	69.975	39.76047904	17.1257485	36.88622754
 400	56.52	26.226	41.626	25.74850299	8.502994012	14.49101796
 401	12.938	46.218	0	9.221556886	12.45508982	5.868263473
 402	8.6938	60.179	26.117	15.20958084	22.99401198	13.77245509
 403	51.995	89.429	96.608	56.40718563	74.25149701	91.25748503
 404	46.905	47.746	48.909	26.94610778	18.44311377	21.55688623
 405	14.352	81.814	19.479	30.65868263	45.02994012	22.63473054
 406	71.482	38.117	12.273	44.43113772	12.45508982	10.53892216
 407	86.616	60.785	10.012	71.73652695	28.74251497	20.11976048
 408	71.811	88.979	52.186	75.80838323	62.15568862	46.22754491
 409	43.213	100	72.083	64.79041916	81.55688623	65.86826347
 410	73.92	23.444	8.2853	44.19161677	7.305389222	8.143712575
 411	40.629	85.534	53.423	43.59281437	54.73053892	40.23952096
