data/calibration-001061.ti3
CTI3   
ORIGINATOR	"ColorHug Factory"
DESCRIPTOR	"Calibration Target chart information 3"
DEVICE_CLASS	"DISPLAY"
COLOR_REP	"RGB_XYZ"
TARGET_INSTRUMENT	"Hughski ColorHug"
INSTRUMENT_TYPE_SPECTRAL	"NO"
NORMALIZED_TO_Y_100	"NO"
NUMBER_OF_FIELDS	7
NUMBER_OF_SETS	15
BEGIN_DATA_FORMAT
 SAMPLE_ID	RGB_R	RGB_G	RGB_B	XYZ_X	XYZ_Y	XYZ_Z
END_DATA_FORMAT
BEGIN_DATA
 1	0	0	0	0	0	0.04577636719
 2	1	1	1	58.1817627	38.26904297	46.00524902
 3	1	0	0	36.57531738	3.341674805	5.264282227
 4	0	1	0	18.85986328	27.05383301	12.63427734
 5	0	0	1	0.8239746094	7.186889648	27.37426758
 6	0	0	0	0	0	0.04577636719
 7	1	1	1	57.76977539	38.13171387	45.77636719
 8	1	0	0	36.75842285	3.341674805	5.264282227
 9	0	1	0	18.90563965	27.37426758	12.63427734
 10	0	0	1	0.8239746094	7.186889648	27.42004395
 11	0	0	0	0	0	0.04577636719
 12	1	1	1	58.27331543	37.99438477	45.68481445
 13	1	0	0	36.52954102	3.341674805	5.264282227
 14	0	1	0	18.81408691	27.14538574	12.58850098
 15	0	0	1	0.8239746094	7.186889648	27.42004395
END_DATA
