data/calibration-001981.ti3
CTI3   
ORIGINATOR	"ColorHug Factory"
CREATED	"Sun May 26 09:37:35 2013"
DESCRIPTOR	"Calibration Target chart information 3"
DEVICE_CLASS	"DISPLAY"
COLOR_REP	"RGB_XYZ"
TARGET_INSTRUMENT	"Hughski ColorHug"
INSTRUMENT_TYPE_SPECTRAL	"NO"
NORMALIZED_TO_Y_100	"NO"
NUMBER_OF_FIELDS	7
NUMBER_OF_SETS	15
BEGIN_DATA_FORMAT
 SAMPLE_ID	RGB_R	RGB_G	RGB_B	XYZ_X	XYZ_Y	XYZ_Z
END_DATA_FORMAT
BEGIN_DATA
 1	0	0	0	0.1373291015625	0.1373291015625	0.18310546875
 2	1	1	1	39.825439453125	37.8570556640625	50.5828857421875
 3	1	0	0	23.98681640625	2.9754638671875	4.0283203125
 4	0	1	0	14.1448974609375	25.8636474609375	12.3138427734375
 5	0	0	1	1.007080078125	8.9263916015625	34.1949462890625
 6	0	0	0	0.1373291015625	0.1373291015625	0.18310546875
 7	1	1	1	39.5965576171875	37.628173828125	50.3082275390625
 8	1	0	0	24.078369140625	2.9754638671875	4.0283203125
 9	0	1	0	14.09912109375	26.2298583984375	12.4053955078125
 10	0	0	1	1.007080078125	8.97216796875	34.149169921875
 11	0	0	0	0.1373291015625	0.1373291015625	0.18310546875
 12	1	1	1	39.7796630859375	37.7197265625	50.4913330078125
 13	1	0	0	24.078369140625	2.9754638671875	4.0283203125
 14	0	1	0	14.2364501953125	26.092529296875	12.359619140625
 15	0	0	1	1.0528564453125	8.97216796875	34.2864990234375
END_DATA
