data/calibration-000294.ti3
CTI3
DESCRIPTOR	"Calibration Target chart information 3"
ORIGINATOR	"ColorHug Factory"
DEVICE_CLASS	"DISPLAY"
COLOR_REP	"RGB_XYZ"
TARGET_INSTRUMENT	"ColorHug"
INSTRUMENT_TYPE_SPECTRAL	"NO"
LUMINANCE_XYZ_CDM2	"44.940948 33.393860 39.058685"
NORMALIZED_TO_Y_100	"YES"
NUMBER_OF_FIELDS	7
NUMBER_OF_SETS	836
BEGIN_DATA_FORMAT
 SAMPLE_ID	RGB_R	RGB_G	RGB_B	XYZ_X	XYZ_Y	XYZ_Z
END_DATA_FORMAT
BEGIN_DATA
 1	100	100	100	133.8356164	99.8630137	116.9863014
 2	100	100	100	134.3835616	100	116.9863014
 3	100	100	100	134.5205479	100	116.8493151
 4	100	100	100	135.2054795	99.8630137	116.7123288
 5	33.33	32.622	30.968	11.36986301	8.219178082	9.04109589
 6	100	0	100	76.02739726	27.80821918	82.87671233
 7	100	100	0	133.2876712	80.95890411	46.84931507
 8	0	100	100	47.67123288	90.95890411	103.5616438
 9	0	100	0	45.61643836	71.50684932	33.28767123
 10	0	0	100	2.191780822	18.90410959	70
 11	100	0	0	83.56164384	8.630136986	12.73972603
 12	0	0	0	0.1369863014	0	0.2739726027
 13	0	52.455	100	12.32876712	35.61643836	78.08219178
 14	100	0	50.3	84.24657534	12.60273973	27.53424658
 15	100	54.739	100	97.80821918	46.02739726	91.64383562
 16	100	52.128	0	94.52054795	24.79452055	20.4109589
 17	0	0	46.181	0.4109589041	3.150684932	11.78082192
 18	0	51.141	0	10	15.75342466	7.397260274
 19	0	100	51.348	46.16438356	75.61643836	48.63013699
 20	100	100	52.037	133.8356164	85.47945205	62.46575342
 21	49.216	0	0	16.71232877	1.780821918	2.739726027
 22	56.159	100	0	68.63013699	74.24657534	36.84931507
 23	49.226	100	100	64.93150685	92.73972603	106.3013699
 24	44.487	0	100	15.34246575	20.54794521	72.60273973
 25	100	44.498	52.029	92.46575342	24.79452055	33.97260274
 26	48.926	48.544	100	27.53424658	34.93150685	79.17808219
 27	51.368	100	47.25	64.65753425	77.53424658	49.17808219
 28	49.893	0	49.033	17.67123288	5.616438356	16.57534247
 29	53.109	51.372	0	30	17.80821918	10.54794521
 30	0	58.587	53.943	13.97260274	25.61643836	26.84931507
 31	100	28.065	100	88.76712329	32.46575342	85.20547945
 32	0	0	72.874	1.095890411	8.767123288	32.60273973
 33	0	26.758	100	4.383561644	23.15068493	72.46575342
 34	0	25.426	0	2.328767123	3.698630137	1.917808219
 35	72.508	0	100	41.09589041	23.28767123	76.43835616
 36	100	27.395	0	86.98630137	12.87671233	14.79452055
 37	74.47	100	100	91.23287671	96.16438356	110.6849315
 38	100	0	25.728	83.28767123	9.726027397	16.30136986
 39	73.862	0	0	40.82191781	4.383561644	6.301369863
 40	100	100	25.402	133.6986301	81.91780822	50.2739726
 41	0	75.751	100	26.16438356	56.43835616	87.53424658
 42	0	75.172	0	23.69863014	36.30136986	17.12328767
 43	0	100	25.864	46.02739726	73.28767123	37.12328767
 44	100	0	74.801	84.10958904	18.08219178	47.80821918
 45	0	100	75.421	46.57534247	81.50684932	69.45205479
 46	24.577	0	0	3.97260274	0.4109589041	0.8219178082
 47	26.321	100	0	50.1369863	72.19178082	34.10958904
 48	100	75.835	0	110.2739726	46.30136986	30.54794521
 49	100	100	77.061	134.3835616	91.23287671	84.79452055
 50	71.263	100	0	84.52054795	75.75342466	39.45205479
 51	0	0	15.614	0.1369863014	0.4109589041	1.506849315
 52	0	30.049	70.936	4.109589041	13.42465753	33.15068493
 53	100	77.691	100	113.6986301	68.21917808	102.0547945
 54	24.486	100	100	51.50684932	91.23287671	104.2465753
 55	100	62.784	31.909	100.8219178	34.93150685	30
 56	29.552	0	100	7.534246575	19.5890411	70.95890411
 57	32.98	70.921	100	30	52.05479452	86.57534247
 58	0	27.681	40.241	3.01369863	6.712328767	10.95890411
 59	67.901	71.021	100	56.57534247	54.79452055	90.82191781
 60	28.154	100	67.829	51.36986301	79.5890411	62.32876712
 61	71.637	100	70.001	85.89041096	84.52054795	69.8630137
 62	58.822	58.763	53.586	38.35616438	28.21917808	30.2739726
 63	33.466	30.48	0	10.68493151	5.890410959	3.698630137
 64	100	73.795	71.277	109.0410959	52.60273973	60.82191781
 65	68.394	29.692	0	40.68493151	8.493150685	7.671232877
 66	70.399	0	29.039	36.71232877	5.068493151	10.1369863
 67	28.078	0	26.956	5.205479452	1.643835616	4.794520548
 68	28.532	72.339	0	26.30136986	33.83561644	16.57534247
 69	100	30.941	26.496	86.30136986	15.06849315	19.04109589
 70	34.597	0	73.611	8.767123288	9.863013699	34.93150685
 71	71.573	0	72.408	38.76712329	12.73972603	38.35616438
 72	0	71.029	29.412	20.95890411	33.56164384	19.7260274
 73	68.386	75.008	0	58.08219178	40	22.46575342
 74	68.088	27.309	100	38.49315068	26.84931507	77.53424658
 75	100	26.457	73.749	87.53424658	22.05479452	48.90410959
 76	74.344	100	27.392	88.35616438	77.26027397	44.10958904
 77	27.558	100	28.197	50.82191781	73.83561644	38.49315068
 78	31.196	27.465	100	10.95890411	24.10958904	73.15068493
 79	0	75.521	72.824	24.38356164	46.02739726	50.4109589
 80	0	50.93	25.553	10	16.43835616	10.82191781
 81	32.06	33.584	64.033	11.36986301	13.83561644	28.90410959
 82	81.666	55.38	0	64.38356164	23.97260274	16.71232877
 83	68.257	32.751	58.286	39.04109589	15.20547945	28.21917808
 84	0	55.248	81.585	12.87671233	30.2739726	52.19178082
 85	73.781	52.099	100	53.56164384	39.7260274	84.38356164
 86	100	50.537	82.952	95.20547945	36.16438356	65.06849315
 87	23.55	0	50.439	4.109589041	4.383561644	15.20547945
 88	31.335	62.746	31.114	22.60273973	26.71232877	17.80821918
 89	100	18.31	49.418	84.79452055	14.52054795	27.94520548
 90	26.498	48.404	0	13.56164384	14.38356164	7.397260274
 91	47.91	100	85.744	62.87671233	86.57534247	84.38356164
 92	71.829	47.313	31.811	47.12328767	18.90410959	17.67123288
 93	31.304	64.132	69.316	23.97260274	34.24657534	42.46575342
 94	80.403	0	54.321	50.4109589	10	24.93150685
 95	18.455	50.036	100	18.21917808	34.24657534	77.26027397
 96	50.653	100	16.345	63.15068493	73.69863014	37.80821918
 97	80.121	100	52.261	97.39726027	81.64383562	56.98630137
 98	0	22.54	19.289	1.917808219	3.561643836	3.561643836
 99	100	75.273	46.886	109.3150685	48.76712329	42.73972603
 100	0	78.618	56.625	54.65753425	45.61643836	37.80821918
 101	51.137	80.627	100	47.94520548	64.79452055	93.56164384
 102	48.446	0	17.864	16.16438356	2.191780822	4.383561644
 103	100	50.023	21.211	93.97260274	24.24657534	22.32876712
 104	50.115	20.118	0	18.76712329	4.246575342	3.835616438
 105	58.099	72.426	33.158	46.02739726	37.53424658	25.47945205
 106	19.364	100	50.197	48.35616438	75.89041096	48.35616438
 107	50.683	19.177	100	21.09589041	23.01369863	74.10958904
 108	53.37	0	81.576	21.23287671	13.83561644	46.43835616
 109	47.768	76.245	0	39.7260274	39.17808219	20.1369863
 110	0	18.927	55.503	1.780821918	6.98630137	18.90410959
 111	0	13.277	0	0.6849315068	1.095890411	0.6849315068
 112	72.862	72.473	75.625	61.09589041	47.53424658	57.94520548
 113	100	13.904	0	84.24657534	9.726027397	13.15068493
 114	86.349	0	100	60.2739726	25.20547945	79.45205479
 115	100	41.941	100	92.46575342	38.21917808	87.94520548
 116	100	81.785	16.464	114.6575342	53.69863014	35.34246575
 117	0	44.063	52.596	7.808219178	15.75342466	21.50684932
 118	0	0	58.917	0.6849315068	5.479452055	20.1369863
 119	59.25	24.551	29.789	27.53424658	7.260273973	10.1369863
 120	82.73	82.874	100	84.65753425	70.2739726	99.31506849
 121	80.039	0	12.618	48.90410959	5.479452055	8.493150685
 122	60.957	47.729	77.817	36.30136986	26.71232877	49.17808219
 123	100	0	38.618	83.15068493	10.95890411	20.95890411
 124	0	40.09	100	7.808219178	28.76712329	74.79452055
 125	0	15.283	82.322	1.917808219	13.15068493	44.24657534
 126	17.592	81.726	100	32.46575342	64.24657534	91.78082192
 127	100	14.13	100	86.02739726	29.04109589	83.42465753
 128	15.261	100	82.059	48.21917808	83.97260274	78.08219178
 129	47.77	79.418	60.389	42.87671233	49.04109589	43.56164384
 130	18.768	16.429	0	3.287671233	1.917808219	1.232876712
 131	55.634	100	65.763	68.21917808	81.09589041	63.15068493
 132	100	100	38.541	131.7808219	82.73972603	55.47945205
 133	17.421	0	83.497	3.150684932	12.46575342	45.47945205
 134	17.237	16.758	100	4.794520548	21.09589041	71.23287671
 135	0	15.067	30.039	1.095890411	2.739726027	5.479452055
 136	0	0	86.505	1.643835616	13.28767123	49.5890411
 137	75.736	72.799	50.02	66.43835616	42.32876712	37.12328767
 138	100	83.323	85.529	116.0273973	68.76712329	83.56164384
 139	100	100	64.894	133.6986301	88.08219178	72.73972603
 140	81.98	84.914	0	84.52054795	53.97260274	30.68493151
 141	0	63.757	15.49	16.30136986	25.61643836	13.28767123
 142	49.514	66.135	100	36.57534247	48.49315068	86.16438356
 143	100	0	61.862	83.83561644	14.93150685	35.75342466
 144	24.308	45.41	49.831	11.91780822	16.43835616	20.68493151
 145	15.963	0	17.047	1.780821918	0.6849315068	2.054794521
 146	87.497	100	100	110.4109589	97.53424658	113.6986301
 147	52.099	25.003	75.752	22.05479452	15.34246575	40.95890411
 148	14.909	81.162	0	29.5890411	43.56164384	20.68493151
 149	0	34.792	14.626	4.520547945	7.260273973	4.657534247
 150	48.39	45.075	22.552	23.83561644	14.38356164	10.95890411
 151	83.545	65.965	100	75.06849315	52.60273973	91.78082192
 152	16.226	62.345	0	17.12328767	23.83561644	11.50684932
 153	63.222	0	14.914	28.90410959	3.424657534	5.890410959
 154	80.449	13.446	0	50	6.301369863	8.219178082
 155	83.917	41.562	0	61.36986301	15.61643836	13.01369863
 156	100	60.448	46.3	98.49315068	34.65753425	35.89041096
 157	15.584	0	34.795	1.780821918	1.917808219	6.849315068
 158	17.144	65.121	100	21.09589041	46.16438356	83.42465753
 159	83.602	55.334	62.667	67.39726027	30.68493151	40.68493151
 160	0	82.19	14.22	28.90410959	44.79452055	22.19178082
 161	25.132	74.856	50.616	27.80821918	40.4109589	32.32876712
 162	0	13.769	100	2.465753425	20.1369863	70.82191781
 163	87.181	0	0	60	6.301369863	9.178082192
 164	0	100	39.19	45.47945205	73.69863014	41.91780822
 165	78.047	65.914	19.865	64.52054795	32.73972603	22.19178082
 166	100	63.961	15.865	100.9589041	34.52054795	26.16438356
 167	100	45.955	36.032	92.19178082	23.15068493	25.61643836
 168	15.926	100	16.89	47.26027397	72.19178082	35.06849315
 169	41.459	100	0	57.12328767	72.46575342	35.20547945
 170	48.707	37.288	48.139	22.05479452	13.42465753	19.45205479
 171	83.381	100	13.285	101.2328767	78.08219178	42.73972603
 172	78.129	25.303	75.621	49.45205479	18.21917808	44.65753425
 173	12.396	0	0	1.095890411	0.2739726027	0.4109589041
 174	37.607	48.336	83.346	19.31506849	27.26027397	53.28767123
 175	35.588	15.356	0	9.04109589	2.328767123	2.054794521
 176	61.245	100	100	74.52054795	93.83561644	108.0821918
 177	100	67.29	87.195	103.8356164	50.95890411	76.84931507
 178	0	0	30.615	0.2739726027	1.369863014	5.068493151
 179	35.187	81.789	83.323	37.80821918	57.53424658	67.53424658
 180	39.525	80.194	22.879	37.53424658	44.24657534	24.24657534
 181	50.634	34.593	0	22.19178082	8.767123288	6.02739726
 182	14.175	100	63.146	47.53424658	78.76712329	58.21917808
 183	83.493	17.728	34.574	55.06849315	9.315068493	15.75342466
 184	23.463	22.014	79.943	6.438356164	14.24657534	42.73972603
 185	18.066	31.847	0	5.890410959	6.02739726	3.150684932
 186	87.201	100	81.361	108.630137	89.5890411	85.34246575
 187	0	100	87.95	46.98630137	86.02739726	85.61643836
 188	34.476	17.888	46.22	9.178082192	6.02739726	14.24657534
 189	18.277	0	67.39	2.876712329	7.671232877	27.94520548
 190	100	87.972	0	120.5479452	61.23287671	37.53424658
 191	82.925	34.85	100	59.31506849	31.78082192	82.05479452
 192	0	88.016	100	35.75342466	71.91780822	95.06849315
 193	36.104	85.655	100	42.32876712	69.5890411	95.20547945
 194	60.981	0	0	26.57534247	2.876712329	4.246575342
 195	51.466	61.826	78.106	34.79452055	36.16438356	53.42465753
 196	78.427	31.983	22.175	50.2739726	11.50684932	12.60273973
 197	66.017	44.321	0	39.04109589	14.93150685	10.4109589
 198	83.941	0	84.177	55.89041096	18.35616438	55.06849315
 199	20.158	46.612	23.269	10.82191781	13.97260274	9.452054795
 200	0	100	62.618	46.16438356	77.80821918	56.98630137
 201	33.832	0	13.933	7.397260274	1.232876712	2.465753425
 202	100	17.286	16.322	83.83561644	10.82191781	14.93150685
 203	0	42.204	83.926	7.945205479	23.15068493	51.36986301
 204	0	87.774	0	33.28767123	51.64383562	24.24657534
 205	64.988	0	59.017	30.95890411	8.767123288	25.20547945
 206	14.677	0	100	3.287671233	19.17808219	70.54794521
 207	88.934	82.673	35.021	92.73972603	53.97260274	37.80821918
 208	0	63.778	100	18.08219178	44.24657534	82.60273973
 209	83.429	17.674	100	56.30136986	26.43835616	79.8630137
 210	30.899	100	85.668	53.01369863	85.75342466	83.15068493
 211	83.68	0	41.016	53.97260274	8.219178082	17.67123288
 212	100	63.515	0	100.1369863	33.28767123	24.38356164
 213	85.074	69.987	0	76.71232877	36.98630137	23.28767123
 214	20.801	45.524	69.018	11.50684932	20.68493151	35.47945205
 215	21.382	82.482	73.017	33.01369863	54.79452055	55.06849315
 216	100	15.128	64.249	84.38356164	16.71232877	38.08219178
 217	36.522	0	58.427	9.315068493	6.301369863	21.23287671
 218	22.466	81.296	33.007	31.64383562	45.61643836	26.84931507
 219	62.531	87.152	0	60.68493151	53.83561644	28.35616438
 220	84.12	85.397	67.886	88.35616438	62.60273973	59.5890411
 221	18.87	27.336	45.389	5.342465753	7.534246575	13.97260274
 222	66.439	100	14.444	78.08219178	75.06849315	39.45205479
 223	41.636	22.147	19.003	13.42465753	4.657534247	5.205479452
 224	61.271	100	81.94	73.69863014	86.02739726	81.23287671
 225	86.013	100	0	105.2054795	78.08219178	42.46575342
 226	37.57	0	0	9.04109589	1.095890411	1.506849315
 227	100	16.132	84.102	85.06849315	22.87671233	59.5890411
 228	0	100	13.619	45.34246575	71.36986301	34.52054795
 229	38.905	100	56.471	56.16438356	77.67123288	54.10958904
 230	100	15.382	34.563	83.56164384	11.78082192	19.8630137
 231	36.656	14.908	100	11.78082192	21.36986301	72.46575342
 232	0	62.593	66.608	16.16438356	31.64383562	38.35616438
 233	66.347	12.528	100	34.24657534	23.42465753	75.61643836
 234	100	43.375	69.233	91.09589041	27.94520548	47.67123288
 235	100	56.36	61.236	96.30136986	33.83561644	44.52054795
 236	0	86.194	44.955	32.32876712	53.15068493	35.06849315
 237	64.527	87.262	100	65.20547945	74.38356164	99.31506849
 238	34.411	0	42.471	7.808219178	3.561643836	11.36986301
 239	80.23	59.707	85.12	64.52054795	40.1369863	66.16438356
 240	20.625	19.056	14.791	4.246575342	2.739726027	2.876712329
 241	15.341	34.221	100	7.808219178	26.02739726	74.24657534
 242	36.777	0	87.905	10.1369863	14.79452055	53.01369863
 243	34.598	56.247	100	22.32876712	39.45205479	80.95890411
 244	20.86	67.629	17.418	21.50684932	29.45205479	15.75342466
 245	44.958	60.843	18.054	28.49315068	24.79452055	14.79452055
 246	37.421	60.193	0	23.69863014	23.28767123	11.91780822
 247	84.011	33.849	42.612	59.04109589	15.20547945	21.91780822
 248	17.241	60.339	37.743	16.57534247	24.52054795	18.76712329
 249	50.65	17.261	53.278	19.45205479	8.219178082	20
 250	45.505	48.926	65.152	23.97260274	22.87671233	34.79452055
 251	44.567	84.081	39.649	43.97260274	51.09589041	33.28767123
 252	100	86.339	72.054	118.7671233	68.08219178	69.31506849
 253	68.14	61.135	0	48.35616438	26.30136986	16.02739726
 254	17.93	66.986	81.403	21.50684932	40	56.43835616
 255	39.242	60.215	48.926	25.20547945	27.12328767	25.89041096
 256	20.099	18.77	62.967	4.657534247	8.767123288	25.06849315
 257	34.553	100	14.582	53.42465753	72.87671233	35.89041096
 258	87.345	0	66.694	60	13.69863014	36.57534247
 259	0	43.714	39.842	7.397260274	13.69863014	14.10958904
 260	100	37.705	13.955	87.94520548	17.26027397	17.67123288
 261	31.265	86.993	0	38.76712329	51.50684932	24.79452055
 262	51.402	82.661	81.338	48.63013699	58.76712329	67.12328767
 263	100	100	12.984	131.5068493	80.82191781	47.67123288
 264	0	37.859	0	5.342465753	8.219178082	3.97260274
 265	62.092	58.215	100	43.01369863	42.73972603	83.97260274
 266	86.186	100	64.1	105.0684932	84.24657534	67.67123288
 267	100	35.251	85.898	88.90410959	29.17808219	65.20547945
 268	63.182	89.992	41.974	64.52054795	61.36986301	40.4109589
 269	13.504	100	0	46.43835616	71.50684932	33.42465753
 270	100	0	13.228	82.60273973	8.904109589	13.69863014
 271	63.881	40.826	100	36.98630137	32.05479452	79.5890411
 272	69.387	84.838	20.792	66.71232877	52.60273973	30.2739726
 273	0	70.279	45.136	20.54794521	34.38356164	26.30136986
 274	79.094	64.754	40.908	64.93150685	33.83561644	29.04109589
 275	62.385	54.099	17.396	39.04109589	20.68493151	14.24657534
 276	64.408	14.621	0	30.4109589	4.520547945	5.342465753
 277	70.028	15.606	44.651	36.84931507	8.219178082	17.39726027
 278	0	63.544	0	16.02739726	24.93150685	11.78082192
 279	83.475	47.274	20.502	62.05479452	19.45205479	16.71232877
 280	55.866	0	32.671	21.91780822	3.97260274	9.178082192
 281	58.007	0	100	25.34246575	21.64383562	73.69863014
 282	100	0	87.698	83.56164384	22.46575342	64.10958904
 283	0	13.792	67.215	1.506849315	8.630136986	28.08219178
 284	84.123	17.001	58.549	55.75342466	12.87671233	29.45205479
 285	59.579	32.873	15.966	28.90410959	9.178082192	8.219178082
 286	10.41	32.998	28.659	4.931506849	7.534246575	7.671232877
 287	17.231	40.031	85.65	9.178082192	22.87671233	53.28767123
 288	37.568	41.561	10.108	15.61643836	11.09589041	6.849315068
 289	0	69.015	85.092	20.54794521	43.01369863	61.23287671
 290	14.442	100	36.187	46.57534247	73.83561644	40.95890411
 291	100	40.549	0	88.90410959	18.08219178	17.12328767
 292	82.143	45.435	78.429	60.68493151	28.35616438	52.73972603
 293	52.674	0	67.3	20	9.589041096	30.68493151
 294	0	87.868	66.793	34.52054795	60	52.32876712
 295	86.53	100	40.524	106.1643836	80.4109589	51.64383562
 296	71.777	85.586	67.232	70.95890411	60.95890411	56.84931507
 297	43.216	100	31.671	58.21917808	74.93150685	40.95890411
 298	39.245	32.908	85.845	15.47945205	20.54794521	52.87671233
 299	0	45.662	67.543	8.630136986	20	33.97260274
 300	12.161	100	100	48.08219178	90.68493151	103.6986301
 301	67.049	0	85.516	33.42465753	16.57534247	53.69863014
 302	100	89.041	100	122.0547945	82.46575342	108.7671233
 303	20.246	60.698	56.526	17.67123288	28.21917808	30.1369863
 304	52.177	55.457	40.416	31.23287671	23.15068493	20.95890411
 305	72.617	87.018	83.932	73.97260274	68.35616438	76.84931507
 306	40.512	16.723	66.475	12.60273973	10.1369863	29.45205479
 307	68.507	49.232	50.605	43.83561644	22.19178082	27.12328767
 308	65.622	100	54.525	77.67123288	80.1369863	55.75342466
 309	54.115	37.24	66.394	26.02739726	17.53424658	34.10958904
 310	100	76.138	31.267	108.3561644	48.08219178	35.89041096
 311	54.728	65.623	0	38.08219178	29.04109589	15.89041096
 312	63.126	12.526	64.37	29.45205479	10.82191781	30
 313	72.827	18.08	23.704	40.2739726	6.849315068	10
 314	23.268	15.278	34.947	4.657534247	3.561643836	7.945205479
 315	87.648	68.954	59.645	80.82191781	42.46575342	44.65753425
 316	0	85.595	85.198	32.73972603	62.60273973	71.50684932
 317	35.798	84.371	69.21	39.5890411	56.98630137	53.28767123
 318	36.062	47.494	35.919	17.26027397	16.30136986	14.79452055
 319	86.083	36.277	59.152	62.73972603	19.31506849	33.01369863
 320	58.21	100	30.361	69.45205479	75.20547945	42.19178082
 321	46.745	14.614	32.317	15.75342466	4.520547945	8.630136986
 322	81.573	73.869	86.954	75.20547945	54.24657534	74.52054795
 323	85.991	49.387	48.206	67.26027397	24.10958904	29.04109589
 324	28.062	87.906	19.654	38.49315068	53.56164384	27.39726027
 325	68.992	17.993	85.124	36.71232877	18.35616438	53.83561644
 326	100	66.147	100	102.1917808	55.20547945	95.61643836
 327	33.358	64.806	84.517	25.47945205	39.7260274	60.68493151
 328	41.351	17.736	80.522	13.56164384	14.38356164	44.24657534
 329	100	100	88.719	132.1917808	94.52054795	99.31506849
 330	66.336	0	44.32	32.05479452	6.438356164	16.16438356
 331	64.85	67.09	12.293	48.35616438	31.64383562	18.90410959
 332	15.262	31.268	63.277	5.753424658	12.19178082	26.84931507
 333	15.008	43.663	37.3	8.767123288	13.42465753	13.28767123
 334	0	57.895	38.078	13.15068493	22.60273973	17.67123288
 335	66.599	58.458	67.871	46.02739726	32.05479452	43.42465753
 336	59.191	18.651	15.215	25.75342466	5.068493151	6.164383562
 337	66.781	31.14	84.629	36.84931507	21.64383562	54.38356164
 338	88.033	85.158	52.14	93.83561644	59.45205479	48.35616438
 339	36.882	100	100	55.75342466	91.09589041	104.7945205
 340	26.102	33.094	17.006	8.356164384	7.123287671	5.342465753
 341	56.309	36.861	35.862	27.26027397	12.05479452	14.24657534
 342	45.839	65.587	67.033	32.32876712	36.16438356	42.46575342
 343	83.709	81.172	16.406	82.19178082	49.45205479	30.1369863
 344	0	48.132	13.005	8.767123288	14.10958904	7.534246575
 345	87.176	50.021	100	71.09589041	40.54794521	86.71232877
 346	51.219	84.244	13.73	48.21917808	49.45205479	25.89041096
 347	60.606	71.415	48.406	47.39726027	39.17808219	33.01369863
 348	0	11.359	12.718	0.5479452055	1.095890411	1.506849315
 349	86.429	49.705	33.145	67.67123288	22.46575342	21.91780822
 350	34.056	40.958	100	15.61643836	29.8630137	76.30136986
 351	100	30.557	59.628	86.30136986	19.8630137	36.71232877
 352	88.497	26.902	13.449	63.97260274	10.82191781	12.46575342
 353	14.167	51.98	88.218	13.01369863	30.68493151	59.5890411
 354	13.784	12.983	49.37	2.465753425	5.068493151	14.65753425
 355	15.018	88.441	48.062	35.89041096	56.84931507	38.63013699
 356	87.79	25.769	89.215	63.28767123	24.52054795	64.79452055
 357	0	33.206	55.865	4.520547945	11.23287671	21.23287671
 358	74.324	76.029	35.536	65.61643836	43.42465753	30.95890411
 359	65.863	57.223	42.324	44.10958904	25.75342466	24.24657534
 360	30.893	54.646	13.136	17.80821918	18.90410959	10.54794521
 361	0	34.36	28.321	4.520547945	7.945205479	7.534246575
 362	15.443	77.087	85.116	27.67123288	52.05479452	66.98630137
 363	63.381	68.947	68.521	48.90410959	41.09589041	47.53424658
 364	69.733	27.566	42.917	38.21917808	10.95890411	17.94520548
 365	32.754	100	42.76	52.19178082	75.34246575	45.06849315
 366	47.096	29.481	34.829	18.49315068	8.356164384	11.36986301
 367	8.5451	71.948	62.695	22.46575342	39.5890411	39.31506849
 368	0	86.048	29.3	32.05479452	50.82191781	27.94520548
 369	53.697	51.572	85.367	31.36986301	31.09589041	58.76712329
 370	17.608	56.69	12.515	14.52054795	19.7260274	10.4109589
 371	90.638	14.414	49.227	66.16438356	11.91780822	24.52054795
 372	63.248	63.64	89.55	46.30136986	43.01369863	70.54794521
 373	100	85.976	58.455	117.3972603	64.38356164	56.57534247
 374	9.8311	28.027	7.5567	3.698630137	4.657534247	2.876712329
 375	89.831	64.313	69.506	81.50684932	40.1369863	51.64383562
 376	31.754	12.995	25.543	7.123287671	2.739726027	5.205479452
 377	75.914	45.966	64.957	51.23287671	24.10958904	38.21917808
 378	7.5735	50.695	58.941	10.82191781	21.09589041	27.94520548
 379	100	69.835	58.912	103.4246575	45.20547945	48.08219178
 380	32.211	34.376	48.339	11.36986301	11.09589041	17.67123288
 381	13.901	12.159	73.555	2.876712329	10.2739726	34.38356164
 382	87.071	9.028	77.653	60	17.39726027	48.21917808
 383	23.272	85.409	84.29	35.75342466	61.50684932	69.8630137
 384	93.289	39.48	26.145	74.52054795	17.26027397	18.49315068
 385	65.769	59.63	30.967	44.79452055	26.43835616	20.2739726
 386	100	32.265	41.803	86.02739726	17.26027397	25.20547945
 387	86.568	85.281	86.961	91.36986301	68.63013699	81.91780822
 388	52.577	86.83	30.016	51.78082192	54.10958904	31.78082192
 389	47.921	40.199	76.902	22.73972603	21.36986301	44.79452055
 390	22.36	86.619	61.58	35.89041096	56.84931507	47.26027397
 391	52.232	33.601	88.787	24.38356164	22.73972603	58.90410959
 392	0	28.523	86.267	4.109589041	17.80821918	51.36986301
 393	43.497	67.879	39.551	31.50684932	32.87671233	24.38356164
 394	39.877	45.261	0	18.08219178	13.15068493	7.397260274
 395	86.94	12.43	24.699	59.17808219	8.082191781	12.73972603
 396	28.363	55.339	90.398	18.63013699	34.24657534	65.06849315
 397	39.018	70.534	57.879	30.68493151	37.94520548	36.02739726
 398	12.833	28.519	78.828	5.068493151	15.61643836	42.60273973
 399	68.35	31.815	69.975	38.35616438	17.67123288	38.63013699
 400	56.52	26.226	41.626	25.20547945	8.904109589	15.20547945
 401	12.938	46.218	0	9.04109589	12.60273973	6.164383562
 402	8.6938	60.179	26.117	15.06849315	23.42465753	14.24657534
 403	51.995	89.429	96.608	55.06849315	74.38356164	93.56164384
 404	46.905	47.746	48.909	23.97260274	19.04109589	22.60273973
 405	14.352	81.814	19.479	29.7260274	44.93150685	23.15068493
 406	71.482	38.117	12.273	43.15068493	12.73972603	10.68493151
 407	86.616	60.785	10.012	73.42465753	29.17808219	20.2739726
 408	71.811	88.979	52.186	72.87671233	61.91780822	47.26027397
 409	43.213	100	72.083	59.04109589	81.36986301	67.39726027
 410	73.92	23.444	8.2853	42.32876712	7.534246575	8.219178082
 411	40.629	85.534	53.423	42.87671233	55.06849315	41.78082192
