data/calibration-000039.ti3
CTI3
DESCRIPTOR	"Calibration Target chart information 3"
ORIGINATOR	"ColorHug Factory"
DEVICE_CLASS	"DISPLAY"
COLOR_REP	"RGB_XYZ"
TARGET_INSTRUMENT	"ColorHug"
INSTRUMENT_TYPE_SPECTRAL	"NO"
LUMINANCE_XYZ_CDM2	"50.010681 41.084290 44.059753"
NORMALIZED_TO_Y_100	"YES"
NUMBER_OF_FIELDS	7
NUMBER_OF_SETS	836
BEGIN_DATA_FORMAT
 SAMPLE_ID	RGB_R	RGB_G	RGB_B	XYZ_X	XYZ_Y	XYZ_Z
END_DATA_FORMAT
BEGIN_DATA
 1	100	100	100	118.2320442	100	106.0773481
 2	100	100	100	120.441989	99.44751381	106.6298343
 3	100	100	100	122.0994475	97.79005525	106.6298343
 4	100	100	100	122.0994475	99.44751381	106.0773481
 5	33.33	32.622	30.968	12.15469613	9.392265193	9.392265193
 6	100	0	100	73.48066298	28.17679558	75.13812155
 7	100	100	0	117.679558	82.32044199	44.19889503
 8	0	100	100	45.85635359	90.05524862	95.02762431
 9	0	100	0	43.09392265	73.48066298	33.14917127
 10	0	0	100	3.314917127	18.78453039	62.43093923
 11	100	0	0	76.24309392	9.944751381	12.15469613
 12	0	0	0	1.104972376	1.104972376	1.104972376
 13	0	52.455	100	12.70718232	35.91160221	69.61325967
 14	100	0	50.3	75.13812155	13.8121547	25.41436464
 15	100	54.739	100	90.05524862	46.40883978	81.7679558
 16	100	52.128	0	86.1878453	25.96685083	19.88950276
 17	0	0	46.181	1.104972376	3.867403315	11.60220994
 18	0	51.141	0	10.49723757	17.12707182	8.287292818
 19	0	100	51.348	44.19889503	76.79558011	46.40883978
 20	100	100	52.037	120.441989	86.1878453	58.56353591
 21	49.216	0	0	17.12707182	2.762430939	3.314917127
 22	56.159	100	0	62.98342541	75.69060773	36.4640884
 23	49.226	100	100	60.22099448	93.37016575	96.68508287
 24	44.487	0	100	15.46961326	20.44198895	65.74585635
 25	100	44.498	52.029	83.97790055	25.96685083	31.49171271
 26	48.926	48.544	100	26.51933702	34.25414365	71.82320442
 27	51.368	100	47.25	59.66850829	79.00552486	47.51381215
 28	49.893	0	49.033	17.67955801	6.629834254	16.02209945
 29	53.109	51.372	0	28.72928177	19.33701657	11.04972376
 30	0	58.587	53.943	14.36464088	27.0718232	25.96685083
 31	100	28.065	100	81.21546961	32.0441989	76.24309392
 32	0	0	72.874	2.762430939	9.392265193	30.38674033
 33	0	26.758	100	5.524861878	23.20441989	64.64088398
 34	0	25.426	0	3.314917127	4.419889503	2.762430939
 35	72.508	0	100	37.56906077	23.20441989	67.9558011
 36	100	27.395	0	78.45303867	14.36464088	14.36464088
 37	74.47	100	100	82.87292818	95.02762431	101.1049724
 38	100	0	25.728	76.24309392	10.49723757	15.46961326
 39	73.862	0	0	38.67403315	5.524861878	6.629834254
 40	100	100	25.402	118.7845304	82.32044199	48.06629834
 41	0	75.751	100	25.96685083	57.45856354	79.00552486
 42	0	75.172	0	23.75690608	37.56906077	17.12707182
 43	0	100	25.864	28.72928177	74.58563536	35.91160221
 44	100	0	74.801	71.27071823	18.78453039	43.64640884
 45	0	100	75.421	45.3038674	82.87292818	64.08839779
 46	24.577	0	0	4.419889503	1.657458564	1.657458564
 47	26.321	100	0	46.96132597	74.03314917	33.70165746
 48	100	75.835	0	98.34254144	47.51381215	29.83425414
 49	100	100	77.061	120.441989	90.05524862	79.00552486
 50	71.263	100	0	77.90055249	77.90055249	38.67403315
 51	0	0	15.614	1.104972376	1.104972376	2.762430939
 52	0	30.049	70.936	4.972375691	14.36464088	30.38674033
 53	100	77.691	100	102.2099448	67.9558011	91.71270718
 54	24.486	100	100	49.17127072	90.60773481	95.5801105
 55	100	62.784	31.909	91.16022099	36.4640884	28.72928177
 56	29.552	0	100	8.287292818	19.33701657	63.5359116
 57	32.98	70.921	100	28.72928177	53.03867403	79.00552486
 58	0	27.681	40.241	3.867403315	7.73480663	11.04972376
 59	67.901	71.021	100	53.03867403	55.80110497	81.7679558
 60	28.154	100	67.829	48.06629834	81.21546961	59.1160221
 61	71.637	100	70.001	80.11049724	84.53038674	65.19337017
 62	58.822	58.763	53.586	36.4640884	29.83425414	29.28176796
 63	33.466	30.48	0	11.04972376	7.182320442	4.419889503
 64	100	73.795	71.277	99.44751381	53.03867403	56.90607735
 65	68.394	29.692	0	37.56906077	9.944751381	8.287292818
 66	70.399	0	29.039	34.25414365	6.077348066	9.944751381
 67	28.078	0	26.956	6.077348066	2.762430939	5.524861878
 68	28.532	72.339	0	25.96685083	35.91160221	17.12707182
 69	100	30.941	26.496	78.45303867	16.57458564	18.2320442
 70	34.597	0	73.611	9.392265193	10.49723757	32.59668508
 71	71.573	0	72.408	35.91160221	13.25966851	35.91160221
 72	0	71.029	29.412	21.54696133	34.80662983	20.44198895
 73	68.386	75.008	0	53.59116022	40.8839779	22.09944751
 74	68.088	27.309	100	36.4640884	26.51933702	68.50828729
 75	100	26.457	73.749	79.55801105	22.6519337	44.75138122
 76	74.344	100	27.392	82.87292818	79.55801105	41.98895028
 77	27.558	100	28.197	48.61878453	75.69060773	37.01657459
 78	31.196	27.465	100	11.04972376	23.75690608	66.29834254
 79	0	75.521	72.824	24.30939227	47.51381215	46.96132597
 80	0	50.93	25.553	10.49723757	17.67955801	11.60220994
 81	32.06	33.584	64.033	11.60220994	14.91712707	27.0718232
 82	81.666	55.38	0	59.66850829	25.96685083	16.57458564
 83	68.257	32.751	58.286	36.4640884	16.02209945	26.51933702
 84	0	55.248	81.585	13.8121547	31.49171271	48.06629834
 85	73.781	52.099	100	49.72375691	39.77900552	75.13812155
 86	100	50.537	82.952	86.1878453	36.4640884	59.66850829
 87	23.55	0	50.439	4.972375691	4.972375691	14.36464088
 88	31.335	62.746	31.114	12.15469613	28.72928177	17.67955801
 89	100	18.31	49.418	76.24309392	15.46961326	25.96685083
 90	26.498	48.404	0	13.8121547	16.02209945	8.287292818
 91	47.91	100	85.744	58.56353591	86.74033149	78.45303867
 92	71.829	47.313	31.811	44.19889503	20.44198895	17.12707182
 93	31.304	64.132	69.316	23.75690608	35.91160221	39.22651934
 94	80.403	0	54.321	46.40883978	10.49723757	23.20441989
 95	18.455	50.036	100	14.36464088	34.80662983	70.71823204
 96	50.653	100	16.345	59.66850829	74.58563536	36.4640884
 97	80.121	100	52.261	90.05524862	81.7679558	53.59116022
 98	0	22.54	19.289	3.314917127	4.972375691	4.419889503
 99	100	75.273	46.886	100	49.72375691	40.33149171
 100	0	78.618	56.625	43.64640884	46.40883978	36.4640884
 101	51.137	80.627	100	31.49171271	65.19337017	85.08287293
 102	48.446	0	17.864	16.02209945	3.314917127	4.972375691
 103	100	50.023	21.211	83.42541436	25.41436464	21.54696133
 104	50.115	20.118	0	18.78453039	5.524861878	4.419889503
 105	58.099	72.426	33.158	43.09392265	39.77900552	24.86187845
 106	19.364	100	50.197	46.96132597	77.3480663	45.85635359
 107	50.683	19.177	100	20.99447514	22.6519337	66.29834254
 108	53.37	0	81.576	20.44198895	14.36464088	42.54143646
 109	47.768	76.245	0	38.67403315	41.43646409	20.44198895
 110	0	18.927	55.503	3.314917127	8.287292818	18.2320442
 111	0	13.277	0	2.209944751	2.209944751	1.657458564
 112	72.862	72.473	75.625	54.6961326	48.61878453	53.59116022
 113	100	13.904	0	77.3480663	11.04972376	12.70718232
 114	86.349	0	100	56.35359116	24.86187845	71.27071823
 115	100	41.941	100	82.32044199	38.12154696	79.55801105
 116	100	81.785	16.464	104.9723757	55.80110497	33.70165746
 117	0	44.063	52.596	9.392265193	17.12707182	20.99447514
 118	0	0	58.917	1.657458564	6.629834254	19.33701657
 119	59.25	24.551	29.789	26.51933702	8.287292818	9.944751381
 120	82.73	82.874	100	79.00552486	69.61325967	91.16022099
 121	80.039	0	12.618	45.3038674	6.629834254	8.839779006
 122	60.957	47.729	77.817	34.80662983	28.17679558	44.75138122
 123	100	0	38.618	75.13812155	12.15469613	19.88950276
 124	0	40.09	100	9.392265193	28.72928177	66.85082873
 125	0	15.283	82.322	3.314917127	13.8121547	40.33149171
 126	17.592	81.726	100	30.38674033	64.64088398	83.97790055
 127	100	14.13	100	79.00552486	29.28176796	74.03314917
 128	15.261	100	82.059	46.40883978	83.97790055	72.9281768
 129	47.77	79.418	60.389	40.8839779	50.82872928	40.8839779
 130	18.768	16.429	0	4.419889503	3.314917127	2.209944751
 131	55.634	100	65.763	62.43093923	82.32044199	59.66850829
 132	100	100	38.541	120.441989	84.53038674	51.38121547
 133	17.421	0	83.497	4.419889503	13.25966851	41.43646409
 134	17.237	16.758	100	5.524861878	20.99447514	63.5359116
 135	0	15.067	30.039	2.209944751	3.867403315	5.524861878
 136	0	0	86.505	2.762430939	13.8121547	44.19889503
 137	75.736	72.799	50.02	28.72928177	43.64640884	35.35911602
 138	100	83.323	85.529	104.4198895	69.61325967	77.3480663
 139	100	100	64.894	121.5469613	88.95027624	66.29834254
 140	81.98	84.914	0	90.60773481	55.24861878	30.38674033
 141	0	63.757	15.49	17.12707182	27.0718232	13.8121547
 142	49.514	66.135	100	34.80662983	48.06629834	79.00552486
 143	100	0	61.862	76.24309392	15.46961326	33.14917127
 144	24.308	45.41	49.831	13.25966851	17.67955801	19.88950276
 145	15.963	0	17.047	2.762430939	1.657458564	2.762430939
 146	87.497	100	100	100.5524862	96.68508287	102.2099448
 147	52.099	25.003	75.752	22.6519337	16.02209945	37.56906077
 148	14.909	81.162	0	28.72928177	44.75138122	20.99447514
 149	0	34.792	14.626	6.077348066	8.287292818	4.972375691
 150	48.39	45.075	22.552	19.88950276	16.02209945	11.04972376
 151	83.545	65.965	100	69.06077348	51.93370166	83.42541436
 152	16.226	62.345	0	17.67955801	25.96685083	12.15469613
 153	63.222	0	14.914	27.62430939	4.419889503	6.077348066
 154	80.449	13.446	0	38.12154696	7.73480663	8.839779006
 155	83.917	41.562	0	55.80110497	17.12707182	13.25966851
 156	100	60.448	46.3	76.24309392	35.91160221	33.70165746
 157	15.584	0	34.795	2.762430939	2.762430939	7.182320442
 158	17.144	65.121	100	20.44198895	46.96132597	75.69060773
 159	83.602	55.334	62.667	58.01104972	32.59668508	38.12154696
 160	0	82.19	14.22	28.72928177	46.96132597	22.09944751
 161	25.132	74.856	50.616	27.62430939	41.98895028	31.49171271
 162	0	13.769	100	3.314917127	19.88950276	62.98342541
 163	87.181	0	0	45.85635359	7.182320442	9.392265193
 164	0	100	39.19	43.09392265	75.69060773	40.8839779
 165	78.047	65.914	19.865	59.1160221	34.80662983	22.09944751
 166	100	63.961	15.865	91.71270718	36.4640884	25.41436464
 167	100	45.955	36.032	86.1878453	24.86187845	24.30939227
 168	15.926	100	16.89	45.3038674	72.9281768	34.80662983
 169	41.459	100	0	53.59116022	73.48066298	35.35911602
 170	48.707	37.288	48.139	21.54696133	14.91712707	18.78453039
 171	83.381	100	13.285	91.71270718	79.55801105	41.98895028
 172	78.129	25.303	75.621	46.96132597	18.78453039	40.8839779
 173	12.396	0	0	2.762430939	1.104972376	1.104972376
 174	37.607	48.336	83.346	18.78453039	28.17679558	49.17127072
 175	35.588	15.356	0	9.392265193	3.314917127	3.314917127
 176	61.245	100	100	70.16574586	92.81767956	98.89502762
 177	100	67.29	87.195	94.47513812	51.93370166	70.71823204
 178	0	0	30.615	1.104972376	2.209944751	5.524861878
 179	35.187	81.789	83.323	35.35911602	59.1160221	62.98342541
 180	39.525	80.194	22.879	35.91160221	46.40883978	24.30939227
 181	50.634	34.593	0	21.54696133	9.944751381	6.629834254
 182	14.175	100	63.146	45.3038674	79.00552486	54.6961326
 183	83.493	17.728	34.574	50.82872928	10.49723757	14.91712707
 184	23.463	22.014	79.943	7.182320442	14.91712707	39.77900552
 185	18.066	31.847	0	6.629834254	7.182320442	4.419889503
 186	87.201	100	81.361	100	89.50276243	78.45303867
 187	0	100	87.95	45.85635359	86.1878453	78.45303867
 188	34.476	17.888	46.22	9.944751381	7.182320442	13.8121547
 189	18.277	0	67.39	3.867403315	8.287292818	25.96685083
 190	100	87.972	0	108.839779	61.87845304	36.4640884
 191	82.925	34.85	100	55.80110497	32.0441989	72.9281768
 192	0	88.016	100	37.01657459	71.27071823	87.29281768
 193	36.104	85.655	100	39.22651934	70.71823204	86.1878453
 194	60.981	0	0	25.41436464	3.867403315	4.419889503
 195	51.466	61.826	78.106	33.14917127	37.01657459	49.72375691
 196	78.427	31.983	22.175	46.40883978	12.15469613	12.70718232
 197	66.017	44.321	0	39.77900552	16.02209945	11.04972376
 198	83.941	0	84.177	51.93370166	18.78453039	50.27624309
 199	20.158	46.612	23.269	11.60220994	14.91712707	10.49723757
 200	0	100	62.618	37.56906077	80.11049724	54.14364641
 201	33.832	0	13.933	15.46961326	2.209944751	3.314917127
 202	100	17.286	16.322	76.79558011	12.15469613	14.36464088
 203	0	42.204	83.926	8.839779006	24.30939227	46.96132597
 204	0	87.774	0	32.59668508	54.6961326	24.30939227
 205	64.988	0	59.017	29.28176796	9.392265193	23.75690608
 206	14.677	0	100	22.09944751	19.33701657	63.5359116
 207	88.934	82.673	35.021	85.08287293	55.24861878	36.4640884
 208	0	63.778	100	18.78453039	45.3038674	74.58563536
 209	83.429	17.674	100	52.48618785	26.51933702	70.71823204
 210	30.899	100	85.668	51.38121547	86.1878453	75.69060773
 211	83.68	0	41.016	49.72375691	9.392265193	17.12707182
 212	100	63.515	0	90.60773481	35.35911602	24.30939227
 213	85.074	69.987	0	70.71823204	38.67403315	23.20441989
 214	20.801	45.524	69.018	12.70718232	20.99447514	33.14917127
 215	21.382	82.482	73.017	31.49171271	55.24861878	51.93370166
 216	100	15.128	64.249	77.90055249	17.67955801	35.35911602
 217	36.522	0	58.427	9.944751381	7.182320442	20.44198895
 218	22.466	81.296	33.007	30.93922652	48.06629834	26.51933702
 219	62.531	87.152	0	58.01104972	55.80110497	28.17679558
 220	84.12	85.397	67.886	81.7679558	62.98342541	56.35359116
 221	18.87	27.336	45.389	6.629834254	8.839779006	13.25966851
 222	66.439	100	14.444	72.9281768	75.69060773	38.12154696
 223	41.636	22.147	19.003	13.8121547	5.524861878	5.524861878
 224	61.271	100	81.94	69.06077348	87.84530387	75.69060773
 225	86.013	100	0	97.79005525	78.45303867	41.43646409
 226	37.57	0	0	9.944751381	2.209944751	2.209944751
 227	100	16.132	84.102	77.90055249	23.20441989	54.6961326
 228	0	100	13.619	44.19889503	74.03314917	33.70165746
 229	38.905	100	56.471	53.03867403	80.11049724	51.38121547
 230	100	15.382	34.563	76.79558011	12.70718232	19.33701657
 231	36.656	14.908	100	12.70718232	20.99447514	64.08839779
 232	0	62.593	66.608	17.12707182	32.59668508	36.4640884
 233	66.347	12.528	100	32.0441989	23.20441989	68.50828729
 234	100	43.375	69.233	83.97790055	28.72928177	43.09392265
 235	100	56.36	61.236	88.95027624	34.80662983	41.43646409
 236	0	86.194	44.955	32.0441989	55.24861878	33.70165746
 237	64.527	87.262	100	60.77348066	74.03314917	88.95027624
 238	34.411	0	42.471	8.839779006	4.972375691	11.04972376
 239	80.23	59.707	85.12	60.22099448	41.43646409	60.77348066
 240	20.625	19.056	14.791	5.524861878	4.419889503	3.314917127
 241	15.341	34.221	100	7.73480663	25.96685083	66.29834254
 242	36.777	0	87.905	9.944751381	15.46961326	47.51381215
 243	34.598	56.247	100	21.54696133	39.77900552	73.48066298
 244	20.86	67.629	17.418	21.54696133	31.49171271	16.02209945
 245	44.958	60.843	18.054	28.17679558	26.51933702	14.91712707
 246	37.421	60.193	0	23.75690608	24.30939227	12.15469613
 247	84.011	33.849	42.612	54.6961326	16.57458564	20.99447514
 248	17.241	60.339	37.743	17.12707182	26.51933702	18.78453039
 249	50.65	17.261	53.278	18.78453039	8.839779006	19.33701657
 250	45.505	48.926	65.152	23.20441989	24.30939227	32.59668508
 251	44.567	84.081	39.649	42.54143646	52.48618785	32.0441989
 252	100	86.339	72.054	109.3922652	69.06077348	63.5359116
 253	68.14	61.135	0	46.96132597	28.17679558	16.02209945
 254	17.93	66.986	81.403	21.54696133	41.43646409	51.93370166
 255	39.242	60.215	48.926	24.86187845	28.17679558	25.41436464
 256	20.099	18.77	62.967	5.524861878	9.944751381	23.75690608
 257	34.553	100	14.582	50.82872928	75.13812155	34.80662983
 258	87.345	0	66.694	56.35359116	14.36464088	33.70165746
 259	0	43.714	39.842	8.287292818	15.46961326	14.36464088
 260	100	37.705	13.955	81.7679558	18.2320442	17.67955801
 261	31.265	86.993	0	38.67403315	53.59116022	24.86187845
 262	51.402	82.661	81.338	46.40883978	60.77348066	61.87845304
 263	100	100	12.984	119.3370166	81.21546961	45.3038674
 264	0	37.859	0	6.629834254	9.944751381	4.972375691
 265	62.092	58.215	100	40.8839779	43.09392265	75.13812155
 266	86.186	100	64.1	97.23756906	84.53038674	64.08839779
 267	100	35.251	85.898	81.21546961	29.83425414	59.1160221
 268	63.182	89.992	41.974	61.87845304	62.43093923	38.67403315
 269	13.504	100	0	44.19889503	72.9281768	33.70165746
 270	100	0	13.228	74.58563536	10.49723757	13.25966851
 271	63.881	40.826	100	34.80662983	32.0441989	72.37569061
 272	69.387	84.838	20.792	61.32596685	54.6961326	29.83425414
 273	0	70.279	45.136	20.44198895	36.4640884	25.96685083
 274	79.094	64.754	40.908	60.22099448	35.35911602	27.62430939
 275	62.385	54.099	17.396	37.56906077	22.6519337	14.36464088
 276	64.408	14.621	0	29.28176796	6.077348066	6.077348066
 277	70.028	15.606	44.651	34.80662983	9.392265193	17.12707182
 278	0	63.544	0	16.57458564	26.51933702	12.70718232
 279	83.475	47.274	20.502	18.2320442	20.99447514	16.57458564
 280	55.866	0	32.671	21.54696133	4.972375691	9.392265193
 281	58.007	0	100	24.30939227	21.54696133	66.85082873
 282	100	0	87.698	76.79558011	22.6519337	56.90607735
 283	0	13.792	67.215	7.73480663	9.944751381	25.96685083
 284	84.123	17.001	58.549	44.75138122	13.8121547	27.62430939
 285	59.579	32.873	15.966	28.17679558	10.49723757	8.839779006
 286	10.41	32.998	28.659	16.57458564	8.839779006	8.287292818
 287	17.231	40.031	85.65	9.944751381	23.20441989	49.17127072
 288	37.568	41.561	10.108	16.02209945	12.70718232	7.73480663
 289	0	69.015	85.092	20.44198895	44.75138122	56.35359116
 290	14.442	100	36.187	45.3038674	74.58563536	40.33149171
 291	100	40.549	0	81.7679558	19.88950276	16.57458564
 292	82.143	45.435	78.429	57.45856354	29.28176796	48.06629834
 293	52.674	0	67.3	19.33701657	9.944751381	28.17679558
 294	0	87.868	66.793	33.14917127	61.87845304	49.17127072
 295	86.53	100	40.524	98.89502762	81.21546961	49.17127072
 296	71.777	85.586	67.232	67.40331492	61.87845304	53.59116022
 297	43.216	100	31.671	55.80110497	76.79558011	39.22651934
 298	39.245	32.908	85.845	16.02209945	20.44198895	48.61878453
 299	0	45.662	67.543	9.392265193	21.54696133	31.49171271
 300	12.161	100	100	46.40883978	91.71270718	93.92265193
 301	67.049	0	85.516	32.59668508	17.12707182	48.06629834
 302	100	89.041	100	109.9447514	82.32044199	100
 303	20.246	60.698	56.526	18.2320442	29.83425414	28.72928177
 304	52.177	55.457	40.416	30.38674033	24.30939227	20.44198895
 305	72.617	87.018	83.932	69.06077348	69.06077348	69.61325967
 306	40.512	16.723	66.475	13.25966851	11.04972376	27.62430939
 307	68.507	49.232	50.605	41.43646409	23.20441989	25.96685083
 308	65.622	100	54.525	73.48066298	80.66298343	52.48618785
 309	54.115	37.24	66.394	25.41436464	18.78453039	31.49171271
 310	100	76.138	31.267	97.79005525	49.72375691	34.80662983
 311	54.728	65.623	0	36.4640884	30.93922652	16.57458564
 312	63.126	12.526	64.37	27.62430939	11.60220994	28.17679558
 313	72.827	18.08	23.704	37.56906077	8.287292818	10.49723757
 314	23.268	15.278	34.947	7.182320442	4.972375691	8.287292818
 315	87.648	68.954	59.645	74.03314917	43.09392265	42.54143646
 316	0	85.595	85.198	32.59668508	63.5359116	65.19337017
 317	35.798	84.371	69.21	38.12154696	58.01104972	50.82872928
 318	36.062	47.494	35.919	17.12707182	17.67955801	14.91712707
 319	86.083	36.277	59.152	58.56353591	19.88950276	30.93922652
 320	58.21	100	30.361	64.64088398	77.3480663	40.8839779
 321	46.745	14.614	32.317	16.02209945	5.524861878	8.839779006
 322	81.573	73.869	86.954	70.16574586	55.80110497	68.50828729
 323	85.991	49.387	48.206	64.64088398	25.96685083	27.62430939
 324	28.062	87.906	19.654	38.12154696	56.35359116	27.0718232
 325	68.992	17.993	85.124	35.35911602	18.78453039	48.61878453
 326	100	66.147	100	95.5801105	55.80110497	86.1878453
 327	33.358	64.806	84.517	25.41436464	41.43646409	55.24861878
 328	41.351	17.736	80.522	13.8121547	14.91712707	40.8839779
 329	100	100	88.719	119.8895028	93.92265193	91.71270718
 330	66.336	0	44.32	30.93922652	7.73480663	15.46961326
 331	64.85	67.09	12.293	46.40883978	33.70165746	18.78453039
 332	15.262	31.268	63.277	6.629834254	13.25966851	25.41436464
 333	15.008	43.663	37.3	9.392265193	14.91712707	13.25966851
 334	0	57.895	38.078	13.8121547	24.30939227	17.67955801
 335	66.599	58.458	67.871	28.72928177	33.14917127	40.8839779
 336	59.191	18.651	15.215	25.41436464	6.077348066	6.629834254
 337	66.781	31.14	84.629	34.80662983	22.6519337	50.27624309
 338	88.033	85.158	52.14	86.1878453	60.22099448	46.40883978
 339	36.882	100	100	55.24861878	91.16022099	96.68508287
 340	26.102	33.094	17.006	8.839779006	8.287292818	6.077348066
 341	56.309	36.861	35.862	25.96685083	13.25966851	13.8121547
 342	45.839	65.587	67.033	30.93922652	37.56906077	39.77900552
 343	83.709	81.172	16.406	76.79558011	51.93370166	29.28176796
 344	0	48.132	13.005	10.49723757	15.46961326	8.839779006
 345	87.176	50.021	100	64.64088398	40.33149171	78.45303867
 346	51.219	84.244	13.73	46.40883978	50.82872928	25.96685083
 347	60.606	71.415	48.406	45.3038674	40.33149171	31.49171271
 348	0	11.359	12.718	1.657458564	2.209944751	2.762430939
 349	86.429	49.705	33.145	62.43093923	23.75690608	21.54696133
 350	34.056	40.958	100	16.02209945	30.38674033	69.06077348
 351	100	30.557	59.628	80.11049724	20.44198895	33.70165746
 352	88.497	26.902	13.449	59.66850829	12.15469613	12.15469613
 353	14.167	51.98	88.218	14.36464088	31.49171271	54.6961326
 354	13.784	12.983	49.37	3.314917127	6.077348066	13.8121547
 355	15.018	88.441	48.062	35.35911602	59.1160221	36.4640884
 356	87.79	25.769	89.215	59.1160221	24.86187845	58.01104972
 357	0	33.206	55.865	5.524861878	12.15469613	20.44198895
 358	74.324	76.029	35.536	55.80110497	44.75138122	29.83425414
 359	65.863	57.223	42.324	41.43646409	27.0718232	23.75690608
 360	30.893	54.646	13.136	20.44198895	20.44198895	11.04972376
 361	0	34.36	28.321	5.524861878	8.839779006	7.73480663
 362	15.443	77.087	85.116	26.51933702	53.59116022	61.32596685
 363	63.381	68.947	68.521	46.40883978	41.98895028	44.19889503
 364	69.733	27.566	42.917	35.91160221	12.15469613	17.12707182
 365	32.754	100	42.76	50.27624309	77.3480663	43.09392265
 366	47.096	29.481	34.829	18.78453039	9.944751381	11.60220994
 367	8.5451	71.948	62.695	22.09944751	41.43646409	37.56906077
 368	0	86.048	29.3	32.0441989	53.03867403	27.62430939
 369	53.697	51.572	85.367	30.38674033	32.0441989	53.59116022
 370	17.608	56.69	12.515	14.91712707	22.09944751	11.04972376
 371	90.638	14.414	49.227	61.32596685	12.70718232	23.20441989
 372	63.248	63.64	89.55	44.19889503	43.64640884	64.64088398
 373	100	85.976	58.455	107.7348066	66.29834254	53.03867403
 374	9.8311	28.027	7.5567	4.972375691	6.077348066	3.867403315
 375	89.831	64.313	69.506	74.03314917	41.98895028	48.61878453
 376	31.754	12.995	25.543	12.15469613	3.867403315	5.524861878
 377	75.914	45.966	64.957	48.06629834	25.41436464	35.91160221
 378	7.5735	50.695	58.941	11.60220994	22.6519337	27.0718232
 379	100	69.835	58.912	93.92265193	46.96132597	45.3038674
 380	32.211	34.376	48.339	12.15469613	12.15469613	17.12707182
 381	13.901	12.159	73.555	3.867403315	11.04972376	32.0441989
 382	87.071	9.028	77.653	50.27624309	18.2320442	44.75138122
 383	23.272	85.409	84.29	48.61878453	63.5359116	65.74585635
 384	93.289	39.48	26.145	68.50828729	18.78453039	18.2320442
 385	65.769	59.63	30.967	43.64640884	28.72928177	19.88950276
 386	100	32.265	41.803	80.11049724	18.78453039	23.75690608
 387	86.568	85.281	86.961	85.63535912	68.50828729	75.69060773
 388	52.577	86.83	30.016	49.72375691	56.90607735	31.49171271
 389	47.921	40.199	76.902	23.75690608	22.09944751	40.8839779
 390	22.36	86.619	61.58	34.80662983	59.1160221	45.3038674
 391	52.232	33.601	88.787	24.30939227	23.75690608	53.59116022
 392	0	28.523	86.267	4.972375691	18.2320442	46.96132597
 393	43.497	67.879	39.551	29.83425414	34.80662983	23.75690608
 394	39.877	45.261	0	18.2320442	14.91712707	8.287292818
 395	86.94	12.43	24.699	55.80110497	9.392265193	12.70718232
 396	28.363	55.339	90.398	18.78453039	35.35911602	59.1160221
 397	39.018	70.534	57.879	29.83425414	39.77900552	34.25414365
 398	12.833	28.519	78.828	6.077348066	16.02209945	39.22651934
 399	68.35	31.815	69.975	35.91160221	18.78453039	35.91160221
 400	56.52	26.226	41.626	24.86187845	9.944751381	14.91712707
 401	12.938	46.218	0	9.944751381	14.36464088	7.182320442
 402	8.6938	60.179	26.117	15.46961326	24.86187845	14.91712707
 403	51.995	89.429	96.608	52.48618785	74.03314917	85.63535912
 404	46.905	47.746	48.909	23.75690608	20.44198895	21.54696133
 405	14.352	81.814	19.479	29.28176796	47.51381215	23.20441989
 406	71.482	38.117	12.273	39.77900552	13.8121547	11.04972376
 407	86.616	60.785	10.012	68.50828729	30.93922652	19.88950276
 408	71.811	88.979	52.186	69.61325967	62.98342541	44.19889503
 409	43.213	100	72.083	56.35359116	82.32044199	63.5359116
 410	73.92	23.444	8.2853	40.33149171	8.839779006	8.839779006
