data/calibration-000728.ti3
CTI3
ORIGINATOR	"ColorHug Factory"
DESCRIPTOR	"Calibration Target chart information 3"
DEVICE_CLASS	"DISPLAY"
COLOR_REP	"RGB_XYZ"
TARGET_INSTRUMENT	"Hughski ColorHug"
INSTRUMENT_TYPE_SPECTRAL	"NO"
NORMALIZED_TO_Y_100	"NO"
NUMBER_OF_FIELDS	7
NUMBER_OF_SETS	15
BEGIN_DATA_FORMAT
 SAMPLE_ID	RGB_R	RGB_G	RGB_B	XYZ_X	XYZ_Y	XYZ_Z
END_DATA_FORMAT
BEGIN_DATA
 1	0	0	0	0.04577636719	0	0.09155273438
 2	1	1	1	50.30822754	37.8112793	43.30444336
 3	1	0	0	31.35681152	3.341674805	4.71496582
 4	0	1	0	17.1661377	27.19116211	12.17651367
 5	0	0	1	0.8239746094	7.232666016	25.9552002
 6	0	0	0	0.04577636719	0.04577636719	0.09155273438
 7	1	1	1	49.75891113	37.6739502	43.12133789
 8	1	0	0	31.58569336	3.341674805	4.760742188
 9	0	1	0	17.07458496	27.05383301	12.22229004
 10	0	0	1	0.8239746094	7.232666016	26.00097656
 11	0	0	0	0.04577636719	0.04577636719	0.09155273438
 12	1	1	1	50.12512207	37.8112793	43.25866699
 13	1	0	0	31.58569336	3.341674805	4.760742188
 14	0	1	0	17.02880859	27.19116211	12.17651367
 15	0	0	1	0.8239746094	7.232666016	26.00097656
END_DATA
