data/calibration-001526.ti3
CTI3   
ORIGINATOR	"ColorHug Factory"
DESCRIPTOR	"Calibration Target chart information 3"
DEVICE_CLASS	"DISPLAY"
COLOR_REP	"RGB_XYZ"
TARGET_INSTRUMENT	"Hughski ColorHug"
INSTRUMENT_TYPE_SPECTRAL	"NO"
NORMALIZED_TO_Y_100	"NO"
NUMBER_OF_FIELDS	7
NUMBER_OF_SETS	15
BEGIN_DATA_FORMAT
 SAMPLE_ID	RGB_R	RGB_G	RGB_B	XYZ_X	XYZ_Y	XYZ_Z
END_DATA_FORMAT
BEGIN_DATA
 1	0	0	0	0.04577636719	0.04577636719	0.09155273438
 2	1	1	1	36.48376465	34.46960449	42.52624512
 3	1	0	0	22.24731445	2.700805664	3.524780273
 4	0	1	0	13.09204102	24.81079102	11.4440918
 5	0	0	1	0.7781982422	7.095336914	27.42004395
 6	0	0	0	0.04577636719	0.04577636719	0.09155273438
 7	1	1	1	36.52954102	34.42382812	42.38891602
 8	1	0	0	22.33886719	2.700805664	3.524780273
 9	0	1	0	13.00048828	24.71923828	11.4440918
 10	0	0	1	0.7781982422	7.095336914	27.19116211
 11	0	0	0	0.04577636719	0.04577636719	0.09155273438
 12	1	1	1	36.25488281	34.33227539	42.38891602
 13	1	0	0	22.20153809	2.700805664	3.524780273
 14	0	1	0	13.04626465	24.67346191	11.4440918
 15	0	0	1	0.7781982422	7.095336914	27.46582031
END_DATA
