data/calibration-000979.ti3
CTI3   
ORIGINATOR	"ColorHug Factory"
DESCRIPTOR	"Calibration Target chart information 3"
DEVICE_CLASS	"DISPLAY"
COLOR_REP	"RGB_XYZ"
TARGET_INSTRUMENT	"Hughski ColorHug"
INSTRUMENT_TYPE_SPECTRAL	"NO"
NORMALIZED_TO_Y_100	"NO"
NUMBER_OF_FIELDS	7
NUMBER_OF_SETS	15
BEGIN_DATA_FORMAT
 SAMPLE_ID	RGB_R	RGB_G	RGB_B	XYZ_X	XYZ_Y	XYZ_Z
END_DATA_FORMAT
BEGIN_DATA
 1	0	0	0	0.04577636719	0	0.04577636719
 2	1	1	1	58.68530273	38.54370117	45.22705078
 3	1	0	0	37.58239746	3.707885742	5.630493164
 4	0	1	0	19.45495605	27.19116211	12.68005371
 5	0	0	1	0.8697509766	7.507324219	26.6418457
 6	0	0	0	0.04577636719	0	0.04577636719
 7	1	1	1	58.54797363	38.54370117	45.18127441
 8	1	0	0	37.58239746	3.707885742	5.630493164
 9	0	1	0	19.45495605	27.37426758	12.68005371
 10	0	0	1	0.8697509766	7.507324219	26.6418457
 11	0	0	0	0.04577636719	0	0.04577636719
 12	1	1	1	57.99865723	38.26904297	45.18127441
 13	1	0	0	37.58239746	3.707885742	5.630493164
 14	0	1	0	19.45495605	27.14538574	12.68005371
 15	0	0	1	0.8697509766	7.461547852	26.73339844
END_DATA
