data/calibration-000013.ti3
CTI3
DESCRIPTOR	"Calibration Target chart information 3"
ORIGINATOR	"ColorHug Factory"
DEVICE_CLASS	"DISPLAY"
COLOR_REP	"RGB_XYZ"
TARGET_INSTRUMENT	"ColorHug"
INSTRUMENT_TYPE_SPECTRAL	"NO"
LUMINANCE_XYZ_CDM2	"49.152374 41.484833 44.803619"
NORMALIZED_TO_Y_100	"YES"
NUMBER_OF_FIELDS	7
NUMBER_OF_SETS	836
BEGIN_DATA_FORMAT
 SAMPLE_ID	RGB_R	RGB_G	RGB_B	XYZ_X	XYZ_Y	XYZ_Z
END_DATA_FORMAT
BEGIN_DATA
 1	100	100	100	107.1038251	97.81420765	107.6502732
 2	100	100	100	121.3114754	98.36065574	106.010929
 3	100	100	100	120.2185792	100	107.1038251
 4	100	100	100	120.7650273	100	107.1038251
 5	33.33	32.622	30.968	10.92896175	8.743169399	9.289617486
 6	100	0	100	75.40983607	26.2295082	74.86338798
 7	100	100	0	119.6721311	82.5136612	43.71584699
 8	0	100	100	43.71584699	91.80327869	96.17486339
 9	0	100	0	41.53005464	73.7704918	33.33333333
 10	0	0	100	3.278688525	18.03278689	62.84153005
 11	100	0	0	74.31693989	8.743169399	12.02185792
 12	0	0	0	1.092896175	0.5464480874	1.092896175
 13	0	52.455	100	10.92896175	34.9726776	71.03825137
 14	100	0	50.3	73.7704918	12.56830601	25.13661202
 15	100	54.739	100	86.33879781	45.35519126	83.60655738
 16	100	52.128	0	85.24590164	25.13661202	19.12568306
 17	0	0	46.181	10.92896175	3.278688525	11.47540984
 18	0	51.141	0	9.836065574	16.39344262	7.650273224
 19	0	100	51.348	42.07650273	76.50273224	45.90163934
 20	100	100	52.037	119.1256831	84.15300546	58.46994536
 21	49.216	0	0	15.84699454	2.18579235	3.278688525
 22	56.159	100	0	62.29508197	75.95628415	35.51912568
 23	49.226	100	100	58.46994536	93.44262295	98.90710383
 24	44.487	0	100	14.20765027	19.67213115	65.57377049
 25	100	44.498	52.029	81.96721311	25.13661202	31.14754098
 26	48.926	48.544	100	25.68306011	33.87978142	71.58469945
 27	51.368	100	47.25	54.64480874	79.23497268	46.99453552
 28	49.893	0	49.033	16.39344262	6.010928962	15.30054645
 29	53.109	51.372	0	26.2295082	18.57923497	10.38251366
 30	0	58.587	53.943	13.66120219	26.2295082	25.13661202
 31	100	28.065	100	69.3989071	30.6010929	77.04918033
 32	0	0	72.874	7.650273224	8.743169399	30.05464481
 33	0	26.758	100	4.918032787	22.40437158	66.12021858
 34	0	25.426	0	2.732240437	4.371584699	2.18579235
 35	72.508	0	100	36.61202186	21.8579235	68.85245902
 36	100	27.395	0	76.50273224	13.1147541	13.66120219
 37	74.47	100	100	81.42076503	95.08196721	102.1857923
 38	100	0	25.728	75.40983607	9.836065574	14.75409836
 39	73.862	0	0	37.15846995	4.371584699	6.010928962
 40	100	100	25.402	120.2185792	81.42076503	47.54098361
 41	0	75.751	100	67.21311475	56.83060109	80.87431694
 42	0	75.172	0	22.40437158	37.70491803	16.93989071
 43	0	100	25.864	42.62295082	73.7704918	36.06557377
 44	100	0	74.801	74.31693989	17.4863388	43.71584699
 45	0	100	75.421	43.16939891	83.06010929	65.57377049
 46	24.577	0	0	4.371584699	1.092896175	1.092896175
 47	26.321	100	0	45.90163934	74.86338798	33.33333333
 48	100	75.835	0	97.26775956	47.54098361	28.96174863
 49	100	100	77.061	115.3005464	90.71038251	77.59562842
 50	71.263	100	0	77.59562842	78.1420765	38.25136612
 51	0	0	15.614	0.5464480874	1.092896175	1.639344262
 52	0	30.049	70.936	4.371584699	13.66120219	30.6010929
 53	100	77.691	100	101.0928962	66.12021858	92.89617486
 54	24.486	100	100	47.54098361	91.2568306	96.72131148
 55	100	62.784	31.909	89.61748634	36.06557377	27.86885246
 56	29.552	0	100	8.743169399	19.12568306	65.0273224
 57	32.98	70.921	100	27.32240437	51.36612022	79.78142077
 58	0	27.681	40.241	10.38251366	7.103825137	10.38251366
 59	67.901	71.021	100	28.41530055	54.09836066	83.60655738
 60	28.154	100	67.829	48.63387978	80.87431694	58.46994536
 61	71.637	100	70.001	53.00546448	85.24590164	66.12021858
 62	58.822	58.763	53.586	37.70491803	28.41530055	28.41530055
 63	33.466	30.48	0	10.38251366	7.103825137	3.825136612
 64	100	73.795	71.277	97.81420765	51.91256831	56.83060109
 65	68.394	29.692	0	34.42622951	9.289617486	7.650273224
 66	70.399	0	29.039	32.78688525	5.464480874	9.836065574
 67	28.078	0	26.956	9.289617486	2.18579235	4.918032787
 68	28.532	72.339	0	24.59016393	34.9726776	16.39344262
 69	100	30.941	26.496	78.1420765	15.30054645	18.03278689
 70	34.597	0	73.611	9.289617486	9.836065574	31.69398907
 71	71.573	0	72.408	20.76502732	13.1147541	34.9726776
 72	0	71.029	29.412	19.67213115	34.9726776	19.67213115
 73	68.386	75.008	0	37.15846995	40.98360656	21.8579235
 74	68.088	27.309	100	34.9726776	26.2295082	69.3989071
 75	100	26.457	73.749	78.1420765	21.31147541	44.26229508
 76	74.344	100	27.392	80.87431694	78.1420765	42.62295082
 77	27.558	100	28.197	47.54098361	75.95628415	37.70491803
 78	31.196	27.465	100	10.38251366	23.49726776	65.57377049
 79	0	75.521	72.824	18.57923497	46.99453552	46.44808743
 80	0	50.93	25.553	10.38251366	17.4863388	10.92896175
 81	32.06	33.584	64.033	10.92896175	14.20765027	26.77595628
 82	81.666	55.38	0	53.00546448	25.13661202	15.84699454
 83	68.257	32.751	58.286	34.9726776	15.30054645	26.2295082
 84	0	55.248	81.585	12.56830601	30.6010929	47.54098361
 85	73.781	52.099	100	48.63387978	38.25136612	77.04918033
 86	100	50.537	82.952	48.63387978	36.06557377	59.56284153
 87	23.55	0	50.439	4.371584699	4.918032787	14.20765027
 88	31.335	62.746	31.114	20.21857923	27.86885246	17.4863388
 89	100	18.31	49.418	75.40983607	14.20765027	25.68306011
 90	26.498	48.404	0	13.66120219	15.30054645	7.650273224
 91	47.91	100	85.744	57.92349727	86.33879781	78.68852459
 92	71.829	47.313	31.811	43.71584699	19.67213115	16.93989071
 93	31.304	64.132	69.316	22.40437158	34.9726776	39.89071038
 94	80.403	0	54.321	43.71584699	10.38251366	22.40437158
 95	18.455	50.036	100	13.1147541	33.33333333	71.58469945
 96	50.653	100	16.345	58.46994536	75.40983607	36.61202186
 97	80.121	100	52.261	88.52459016	83.60655738	53.55191257
 98	0	22.54	19.289	24.59016393	4.371584699	3.825136612
 99	100	75.273	46.886	97.26775956	49.18032787	39.89071038
 100	0	78.618	56.625	25.68306011	46.99453552	35.51912568
 101	51.137	80.627	100	36.06557377	64.48087432	85.24590164
 102	48.446	0	17.864	15.30054645	2.732240437	4.371584699
 103	100	50.023	21.211	83.60655738	25.13661202	21.31147541
 104	50.115	20.118	0	18.03278689	4.918032787	4.371584699
 105	58.099	72.426	33.158	42.07650273	39.3442623	24.04371585
 106	19.364	100	50.197	45.35519126	77.59562842	45.35519126
 107	50.683	19.177	100	20.21857923	22.40437158	66.66666667
 108	53.37	0	81.576	19.67213115	13.66120219	42.62295082
 109	47.768	76.245	0	36.61202186	40.43715847	19.67213115
 110	0	18.927	55.503	2.18579235	7.103825137	17.4863388
 111	0	13.277	0	1.092896175	1.639344262	1.092896175
 112	72.862	72.473	75.625	55.73770492	47.54098361	54.09836066
 113	100	13.904	0	75.95628415	9.836065574	12.02185792
 114	86.349	0	100	54.64480874	24.04371585	71.03825137
 115	100	41.941	100	81.42076503	36.61202186	80.32786885
 116	100	81.785	16.464	103.8251366	54.64480874	33.33333333
 117	0	44.063	52.596	9.289617486	16.39344262	20.76502732
 118	0	0	58.917	3.278688525	6.010928962	18.57923497
 119	59.25	24.551	29.789	24.04371585	8.196721311	9.836065574
 120	82.73	82.874	100	74.86338798	71.03825137	92.34972678
 121	80.039	0	12.618	44.80874317	6.010928962	8.196721311
 122	60.957	47.729	77.817	33.33333333	26.77595628	44.80874317
 123	100	0	38.618	74.86338798	10.92896175	19.12568306
 124	0	40.09	100	8.196721311	27.86885246	68.85245902
 125	0	15.283	82.322	2.18579235	12.56830601	40.43715847
 126	17.592	81.726	100	28.41530055	63.93442623	84.69945355
 127	100	14.13	100	75.40983607	27.32240437	75.95628415
 128	15.261	100	82.059	44.80874317	84.69945355	73.22404372
 129	47.77	79.418	60.389	39.89071038	49.72677596	40.43715847
 130	18.768	16.429	0	3.825136612	2.18579235	1.639344262
 131	55.634	100	65.763	61.20218579	82.5136612	58.46994536
 132	100	100	38.541	100	84.15300546	52.45901639
 133	17.421	0	83.497	3.825136612	12.56830601	41.53005464
 134	17.237	16.758	100	5.464480874	19.67213115	65.0273224
 135	0	15.067	30.039	1.639344262	3.278688525	5.464480874
 136	0	0	86.505	2.18579235	12.56830601	44.80874317
 137	75.736	72.799	50.02	57.92349727	43.16939891	35.51912568
 138	100	83.323	85.529	106.010929	67.75956284	76.50273224
 139	100	100	64.894	121.3114754	87.43169399	67.21311475
 140	81.98	84.914	0	100.5464481	55.73770492	30.05464481
 141	0	63.757	15.49	32.24043716	26.77595628	13.1147541
 142	49.514	66.135	100	32.24043716	48.08743169	79.23497268
 143	100	0	61.862	75.40983607	14.75409836	32.24043716
 144	24.308	45.41	49.831	12.56830601	16.93989071	19.67213115
 145	15.963	0	17.047	2.732240437	1.639344262	2.18579235
 146	87.497	100	100	97.81420765	96.72131148	104.9180328
 147	52.099	25.003	75.752	20.76502732	15.30054645	37.15846995
 148	14.909	81.162	0	27.86885246	44.80874317	20.76502732
 149	0	34.792	14.626	4.918032787	8.196721311	4.918032787
 150	48.39	45.075	22.552	21.31147541	14.75409836	10.92896175
 151	83.545	65.965	100	66.66666667	51.36612022	83.06010929
 152	16.226	62.345	0	16.93989071	25.13661202	11.47540984
 153	63.222	0	14.914	26.2295082	3.825136612	6.010928962
 154	80.449	13.446	0	45.35519126	6.557377049	8.196721311
 155	83.917	41.562	0	55.19125683	16.39344262	12.56830601
 156	100	60.448	46.3	88.52459016	35.51912568	33.33333333
 157	15.584	0	34.795	3.825136612	2.18579235	6.557377049
 158	17.144	65.121	100	20.21857923	45.90163934	75.40983607
 159	83.602	55.334	62.667	61.20218579	30.6010929	37.70491803
 160	0	82.19	14.22	27.32240437	46.99453552	22.40437158
 161	25.132	74.856	50.616	26.2295082	40.98360656	30.6010929
 162	0	13.769	100	3.278688525	19.67213115	63.38797814
 163	87.181	0	0	36.06557377	6.557377049	8.743169399
 164	0	100	39.19	42.07650273	75.40983607	40.98360656
 165	78.047	65.914	19.865	58.46994536	33.33333333	21.31147541
 166	100	63.961	15.865	91.2568306	35.51912568	24.59016393
 167	100	45.955	36.032	82.5136612	23.49726776	24.04371585
 168	15.926	100	16.89	45.35519126	74.31693989	34.9726776
 169	41.459	100	0	53.00546448	73.7704918	34.9726776
 170	48.707	37.288	48.139	20.76502732	13.66120219	18.03278689
 171	83.381	100	13.285	92.34972678	79.23497268	40.98360656
 172	78.129	25.303	75.621	44.80874317	18.03278689	40.98360656
 173	12.396	0	0	1.639344262	1.092896175	1.092896175
 174	37.607	48.336	83.346	15.30054645	27.32240437	48.08743169
 175	35.588	15.356	0	9.289617486	3.278688525	2.732240437
 176	61.245	100	100	68.85245902	93.98907104	98.36065574
 177	100	67.29	87.195	92.34972678	49.72677596	70.49180328
 178	0	0	30.615	1.092896175	2.18579235	5.464480874
 179	35.187	81.789	83.323	34.42622951	57.92349727	62.84153005
 180	39.525	80.194	22.879	35.51912568	45.35519126	23.49726776
 181	50.634	34.593	0	20.76502732	9.289617486	6.010928962
 182	14.175	100	63.146	43.71584699	79.78142077	53.55191257
 183	83.493	17.728	34.574	48.63387978	9.289617486	14.75409836
 184	23.463	22.014	79.943	6.557377049	14.20765027	38.79781421
 185	18.066	31.847	0	6.010928962	6.557377049	3.825136612
 186	87.201	100	81.361	97.81420765	89.61748634	80.32786885
 187	0	100	87.95	72.67759563	86.33879781	79.78142077
 188	34.476	17.888	46.22	8.743169399	6.010928962	13.1147541
 189	18.277	0	67.39	3.278688525	7.650273224	25.68306011
 190	100	87.972	0	74.31693989	63.38797814	35.51912568
 191	82.925	34.85	100	54.09836066	30.05464481	73.7704918
 192	0	88.016	100	33.87978142	71.03825137	87.43169399
 193	36.104	85.655	100	37.15846995	69.94535519	87.43169399
 194	60.981	0	0	24.59016393	3.825136612	4.371584699
 195	51.466	61.826	78.106	31.69398907	36.06557377	49.18032787
 196	78.427	31.983	22.175	45.90163934	12.02185792	12.02185792
 197	66.017	44.321	0	36.06557377	15.84699454	10.38251366
 198	83.941	0	84.177	49.72677596	17.4863388	49.18032787
 199	20.158	46.612	23.269	10.92896175	14.75409836	9.836065574
 200	0	100	62.618	42.62295082	79.78142077	54.09836066
 201	33.832	0	13.933	7.650273224	1.639344262	3.278688525
 202	100	17.286	16.322	75.95628415	10.92896175	14.20765027
 203	0	42.204	83.926	8.196721311	22.40437158	47.54098361
 204	0	87.774	0	31.14754098	53.55191257	24.59016393
 205	64.988	0	59.017	28.41530055	8.743169399	23.49726776
 206	14.677	0	100	4.371584699	18.03278689	63.38797814
 207	88.934	82.673	35.021	79.78142077	55.19125683	36.06557377
 208	0	63.778	100	36.06557377	44.26229508	74.31693989
 209	83.429	17.674	100	50.27322404	25.68306011	71.58469945
 210	30.899	100	85.668	49.18032787	85.79234973	78.1420765
 211	83.68	0	41.016	49.72677596	8.743169399	16.39344262
 212	100	63.515	0	91.2568306	34.42622951	22.95081967
 213	85.074	69.987	0	69.3989071	38.79781421	22.40437158
 214	20.801	45.524	69.018	12.02185792	20.21857923	32.78688525
 215	21.382	82.482	73.017	30.6010929	56.28415301	51.36612022
 216	100	15.128	64.249	74.31693989	16.39344262	34.9726776
 217	36.522	0	58.427	20.76502732	7.103825137	19.12568306
 218	22.466	81.296	33.007	10.92896175	46.99453552	25.68306011
 219	62.531	87.152	0	55.73770492	55.19125683	27.86885246
 220	84.12	85.397	67.886	79.78142077	63.93442623	55.73770492
 221	18.87	27.336	45.389	7.103825137	8.196721311	13.1147541
 222	66.439	100	14.444	71.03825137	76.50273224	38.79781421
 223	41.636	22.147	19.003	13.1147541	5.464480874	5.464480874
 224	61.271	100	81.94	60.6557377	87.43169399	76.50273224
 225	86.013	100	0	96.72131148	79.78142077	40.98360656
 226	37.57	0	0	8.743169399	1.639344262	2.18579235
 227	100	16.132	84.102	75.95628415	21.8579235	54.64480874
 228	0	100	13.619	42.62295082	73.22404372	34.42622951
 229	38.905	100	56.471	51.91256831	79.78142077	50.81967213
 230	100	15.382	34.563	70.49180328	12.02185792	18.57923497
 231	36.656	14.908	100	12.02185792	20.76502732	64.48087432
 232	0	62.593	66.608	15.30054645	32.24043716	35.51912568
 233	66.347	12.528	100	30.05464481	22.40437158	68.85245902
 234	100	43.375	69.233	80.32786885	27.86885246	43.16939891
 235	100	56.36	61.236	86.33879781	33.33333333	41.53005464
 236	0	86.194	44.955	38.79781421	54.64480874	33.87978142
 237	64.527	87.262	100	59.01639344	74.31693989	90.16393443
 238	34.411	0	42.471	8.196721311	3.825136612	10.92896175
 239	80.23	59.707	85.12	59.01639344	39.89071038	59.56284153
 240	20.625	19.056	14.791	4.371584699	3.278688525	3.278688525
 241	15.341	34.221	100	7.650273224	25.13661202	66.12021858
 242	36.777	0	87.905	9.289617486	14.20765027	48.63387978
 243	34.598	56.247	100	20.21857923	38.79781421	72.67759563
 244	20.86	67.629	17.418	20.21857923	31.14754098	15.84699454
 245	44.958	60.843	18.054	26.2295082	26.2295082	14.75409836
 246	37.421	60.193	0	22.40437158	24.59016393	12.02185792
 247	84.011	33.849	42.612	53.55191257	15.30054645	20.21857923
 248	17.241	60.339	37.743	16.39344262	25.68306011	18.57923497
 249	50.65	17.261	53.278	18.57923497	8.196721311	19.12568306
 250	45.505	48.926	65.152	22.95081967	22.95081967	32.24043716
 251	44.567	84.081	39.649	40.98360656	53.00546448	32.24043716
 252	100	86.339	72.054	106.557377	68.30601093	65.0273224
 253	68.14	61.135	0	45.35519126	27.32240437	15.30054645
 254	17.93	66.986	81.403	20.76502732	40.43715847	51.91256831
 255	39.242	60.215	48.926	24.04371585	27.86885246	24.59016393
 256	20.099	18.77	62.967	5.464480874	8.743169399	23.49726776
 257	34.553	100	14.582	44.26229508	73.7704918	35.51912568
 258	87.345	0	66.694	54.64480874	13.66120219	33.33333333
 259	0	43.714	39.842	7.650273224	14.20765027	13.66120219
 260	100	37.705	13.955	79.23497268	18.03278689	16.93989071
 261	31.265	86.993	0	36.61202186	53.00546448	24.59016393
 262	51.402	82.661	81.338	44.26229508	59.56284153	62.29508197
 263	100	100	12.984	119.6721311	82.5136612	44.80874317
 264	0	37.859	0	6.557377049	9.289617486	4.371584699
 265	62.092	58.215	100	38.79781421	41.53005464	77.04918033
 266	86.186	100	64.1	95.08196721	84.69945355	63.38797814
 267	100	35.251	85.898	79.23497268	28.41530055	59.56284153
 268	63.182	89.992	41.974	59.56284153	62.29508197	38.79781421
 269	13.504	100	0	44.26229508	74.31693989	32.78688525
 270	100	0	13.228	74.86338798	9.289617486	12.56830601
 271	63.881	40.826	100	34.9726776	31.14754098	71.58469945
 272	69.387	84.838	20.792	60.10928962	54.64480874	30.05464481
 273	0	70.279	45.136	19.67213115	34.9726776	25.68306011
 274	79.094	64.754	40.908	57.92349727	34.9726776	27.32240437
 275	62.385	54.099	17.396	35.51912568	21.8579235	14.20765027
 276	64.408	14.621	0	28.41530055	4.918032787	5.464480874
 277	70.028	15.606	44.651	33.87978142	8.743169399	16.39344262
 278	0	63.544	0	15.84699454	26.2295082	12.02185792
 279	83.475	47.274	20.502	56.28415301	20.21857923	15.84699454
 280	55.866	0	32.671	20.76502732	4.371584699	9.289617486
 281	58.007	0	100	23.49726776	20.76502732	66.66666667
 282	100	0	87.698	75.40983607	21.31147541	57.92349727
 283	0	13.792	67.215	2.18579235	9.289617486	25.68306011
 284	84.123	17.001	58.549	43.71584699	12.56830601	27.32240437
 285	59.579	32.873	15.966	26.77595628	9.836065574	8.196721311
 286	10.41	32.998	28.659	5.464480874	8.743169399	7.650273224
 287	17.231	40.031	85.65	9.289617486	22.40437158	48.63387978
 288	37.568	41.561	10.108	12.02185792	12.02185792	7.103825137
 289	0	69.015	85.092	17.4863388	42.62295082	57.37704918
 290	14.442	100	36.187	44.26229508	75.95628415	39.3442623
 291	100	40.549	0	79.78142077	18.57923497	16.93989071
 292	82.143	45.435	78.429	56.28415301	28.41530055	48.08743169
 293	52.674	0	67.3	18.57923497	9.289617486	27.86885246
 294	0	87.868	66.793	28.41530055	61.74863388	48.08743169
 295	86.53	100	40.524	60.6557377	81.42076503	49.72677596
 296	71.777	85.586	67.232	65.57377049	61.20218579	53.55191257
 297	43.216	100	31.671	53.55191257	77.04918033	39.89071038
 298	39.245	32.908	85.845	15.30054645	20.21857923	47.54098361
 299	0	45.662	67.543	10.38251366	20.76502732	31.14754098
 300	12.161	100	100	44.80874317	91.80327869	94.53551913
 301	67.049	0	85.516	30.6010929	15.84699454	49.18032787
 302	100	89.041	100	110.3825137	80.87431694	100
 303	20.246	60.698	56.526	17.4863388	28.96174863	27.86885246
 304	52.177	55.457	40.416	28.96174863	24.04371585	19.67213115
 305	72.617	87.018	83.932	62.84153005	68.85245902	71.58469945
 306	40.512	16.723	66.475	12.56830601	10.38251366	26.77595628
 307	68.507	49.232	50.605	39.89071038	22.40437158	25.13661202
 308	65.622	100	54.525	70.49180328	81.42076503	53.55191257
 309	54.115	37.24	66.394	30.6010929	18.03278689	31.14754098
 310	100	76.138	31.267	98.90710383	48.63387978	34.42622951
 311	54.728	65.623	0	36.61202186	30.05464481	15.84699454
 312	63.126	12.526	64.37	27.32240437	10.92896175	27.32240437
 313	72.827	18.08	23.704	32.24043716	7.103825137	9.836065574
 314	23.268	15.278	34.947	4.918032787	3.825136612	7.650273224
 315	87.648	68.954	59.645	71.03825137	42.62295082	40.98360656
 316	0	85.595	85.198	48.63387978	62.84153005	66.12021858
 317	35.798	84.371	69.21	32.24043716	57.37704918	50.27322404
 318	36.062	47.494	35.919	22.40437158	16.93989071	14.75409836
 319	86.083	36.277	59.152	57.37704918	19.67213115	30.6010929
 320	58.21	100	30.361	63.38797814	76.50273224	40.98360656
 321	46.745	14.614	32.317	33.33333333	4.918032787	8.743169399
 322	81.573	73.869	86.954	68.30601093	54.64480874	68.30601093
 323	85.991	49.387	48.206	61.20218579	24.59016393	27.32240437
 324	28.062	87.906	19.654	36.06557377	54.64480874	27.32240437
 325	68.992	17.993	85.124	33.87978142	18.03278689	49.18032787
 326	100	66.147	100	87.97814208	53.55191257	87.97814208
 327	33.358	64.806	84.517	25.13661202	39.89071038	55.19125683
 328	41.351	17.736	80.522	13.1147541	14.75409836	40.43715847
 329	100	100	88.719	119.6721311	93.44262295	92.34972678
 330	66.336	0	44.32	29.50819672	6.557377049	15.30054645
 331	64.85	67.09	12.293	44.80874317	32.24043716	19.12568306
 332	15.262	31.268	63.277	6.557377049	12.56830601	25.13661202
 333	15.008	43.663	37.3	8.743169399	14.20765027	12.56830601
 334	0	57.895	38.078	13.1147541	23.49726776	17.4863388
 335	66.599	58.458	67.871	42.07650273	32.24043716	39.89071038
 336	59.191	18.651	15.215	24.04371585	6.010928962	6.010928962
 337	66.781	31.14	84.629	34.42622951	21.31147541	48.63387978
 338	88.033	85.158	52.14	84.15300546	60.6557377	45.35519126
 339	36.882	100	100	54.64480874	91.80327869	97.81420765
 340	26.102	33.094	17.006	18.03278689	8.196721311	6.010928962
 341	56.309	36.861	35.862	24.59016393	12.56830601	13.66120219
 342	45.839	65.587	67.033	30.05464481	36.61202186	39.3442623
 343	83.709	81.172	16.406	74.86338798	51.36612022	29.50819672
 344	0	48.132	13.005	9.836065574	15.30054645	7.650273224
 345	87.176	50.021	100	62.84153005	39.3442623	79.23497268
 346	51.219	84.244	13.73	44.80874317	50.27322404	26.2295082
 347	60.606	71.415	48.406	43.71584699	40.43715847	31.14754098
 348	0	11.359	12.718	1.092896175	1.639344262	2.18579235
 349	86.429	49.705	33.145	61.74863388	22.40437158	20.21857923
 350	34.056	40.958	100	19.12568306	28.96174863	69.94535519
 351	100	30.557	59.628	78.1420765	19.67213115	33.33333333
 352	88.497	26.902	13.449	71.58469945	11.47540984	12.56830601
 353	14.167	51.98	88.218	13.1147541	30.6010929	54.64480874
 354	13.784	12.983	49.37	3.278688525	5.464480874	14.20765027
 355	15.018	88.441	48.062	33.33333333	58.46994536	36.61202186
 356	87.79	25.769	89.215	57.92349727	23.49726776	58.46994536
 357	0	33.206	55.865	4.918032787	11.47540984	19.67213115
 358	74.324	76.029	35.536	45.35519126	44.80874317	29.50819672
 359	65.863	57.223	42.324	40.43715847	26.77595628	22.95081967
 360	30.893	54.646	13.136	17.4863388	20.21857923	10.92896175
 361	0	34.36	28.321	4.918032787	8.743169399	7.650273224
 362	15.443	77.087	85.116	26.77595628	51.91256831	61.20218579
 363	63.381	68.947	68.521	40.43715847	40.98360656	43.16939891
 364	69.733	27.566	42.917	35.51912568	10.92896175	16.39344262
 365	32.754	100	42.76	45.90163934	77.04918033	43.71584699
 366	47.096	29.481	34.829	17.4863388	8.743169399	10.92896175
 367	8.5451	71.948	62.695	20.76502732	39.89071038	36.61202186
 368	0	86.048	29.3	30.6010929	53.00546448	26.77595628
 369	53.697	51.572	85.367	28.96174863	31.14754098	53.55191257
 370	17.608	56.69	12.515	21.31147541	21.31147541	10.38251366
 371	90.638	14.414	49.227	60.10928962	12.56830601	22.40437158
 372	63.248	63.64	89.55	58.46994536	42.07650273	64.48087432
 373	100	85.976	58.455	104.3715847	65.57377049	53.55191257
 374	9.8311	28.027	7.5567	17.4863388	5.464480874	3.278688525
 375	89.831	64.313	69.506	72.13114754	40.43715847	48.63387978
 376	31.754	12.995	25.543	7.650273224	3.825136612	5.464480874
 377	75.914	45.966	64.957	37.70491803	24.04371585	34.9726776
 378	7.5735	50.695	58.941	10.92896175	21.8579235	25.68306011
 379	100	69.835	58.912	91.80327869	45.35519126	45.35519126
 380	32.211	34.376	48.339	25.68306011	12.02185792	16.39344262
 381	13.901	12.159	73.555	3.278688525	10.92896175	31.14754098
 382	87.071	9.028	77.653	51.91256831	16.93989071	43.71584699
 383	23.272	85.409	84.29	34.42622951	61.74863388	65.57377049
 384	93.289	39.48	26.145	67.75956284	17.4863388	17.4863388
 385	65.769	59.63	30.967	44.80874317	27.86885246	19.12568306
 386	100	32.265	41.803	78.1420765	18.03278689	23.49726776
 387	86.568	85.281	86.961	83.06010929	68.85245902	74.86338798
 388	52.577	86.83	30.016	49.72677596	55.19125683	31.14754098
 389	47.921	40.199	76.902	21.8579235	21.31147541	41.53005464
 390	22.36	86.619	61.58	33.87978142	58.46994536	44.80874317
 391	52.232	33.601	88.787	24.04371585	22.40437158	52.45901639
 392	0	28.523	86.267	4.371584699	16.93989071	46.99453552
 393	43.497	67.879	39.551	29.50819672	33.87978142	23.49726776
 394	39.877	45.261	0	17.4863388	14.20765027	7.650273224
 395	86.94	12.43	24.699	53.55191257	8.743169399	12.02185792
 396	28.363	55.339	90.398	18.57923497	33.33333333	59.01639344
 397	39.018	70.534	57.879	28.41530055	38.79781421	34.42622951
 398	12.833	28.519	78.828	5.464480874	15.30054645	39.3442623
 399	68.35	31.815	69.975	34.9726776	18.03278689	34.9726776
 400	56.52	26.226	41.626	23.49726776	9.289617486	14.20765027
 401	12.938	46.218	0	8.743169399	13.66120219	6.557377049
 402	8.6938	60.179	26.117	12.02185792	24.59016393	14.20765027
 403	51.995	89.429	96.608	37.15846995	74.86338798	85.24590164
 404	46.905	47.746	48.909	23.49726776	19.67213115	21.31147541
 405	14.352	81.814	19.479	28.41530055	46.99453552	22.95081967
 406	71.482	38.117	12.273	39.89071038	13.1147541	10.92896175
 407	86.616	60.785	10.012	66.66666667	30.6010929	19.67213115
 408	71.811	88.979	52.186	66.66666667	63.93442623	44.80874317
 409	43.213	100	72.083	55.19125683	83.60655738	63.93442623
