data/calibration-002822.ti3
CTI3   
ORIGINATOR	"ColorHug Factory"
CREATED	"Tue May 05 21:35:41 2015"
DESCRIPTOR	"Calibration Target chart information 3"
DEVICE_CLASS	"DISPLAY"
COLOR_REP	"RGB_XYZ"
TARGET_INSTRUMENT	"Hughski ColorHug"
INSTRUMENT_TYPE_SPECTRAL	"NO"
NORMALIZED_TO_Y_100	"NO"
NUMBER_OF_FIELDS	7
NUMBER_OF_SETS	15
BEGIN_DATA_FORMAT
 SAMPLE_ID	RGB_R	RGB_G	RGB_B	XYZ_X	XYZ_Y	XYZ_Z
END_DATA_FORMAT
BEGIN_DATA
 1.0	0.0	0.0	0.0	0.597778320312	0.599868774414	0.699142456055
 2.0	1.0	1.0	1.0	117.028564453125	106.389602661133	115.380279541016
 3.0	1.0	0.0	0.0	84.453598022461	8.208404541016	13.473678588867
 4.0	0.0	1.0	0.0	27.306655883789	74.472717285156	29.153015136719
 5.0	0.0	0.0	1.0	3.953659057617	22.021499633789	70.620681762695
 6.0	0.0	0.0	0.0	0.603988647461	0.604568481445	0.702377319336
 7.0	1.0	1.0	1.0	117.028564453125	106.389602661133	115.380279541016
 8.0	1.0	0.0	0.0	84.453598022461	8.208404541016	13.473678588867
 9.0	0.0	1.0	0.0	27.306655883789	74.472717285156	29.153015136719
 10.0	0.0	0.0	1.0	3.957473754883	22.021499633789	70.620681762695
 11.0	0.0	0.0	0.0	0.6064453125	0.607208251953	0.703475952148
 12.0	1.0	1.0	1.0	117.028564453125	106.389602661133	115.380279541016
 13.0	1.0	0.0	0.0	84.453598022461	8.208404541016	13.473678588867
 14.0	0.0	1.0	0.0	27.306655883789	74.472717285156	29.153015136719
 15.0	0.0	0.0	1.0	3.959396362305	22.021499633789	70.620681762695
END_DATA
