data/calibration-000512.ti3
CTI3
ORIGINATOR	"ColorHug Factory"
DESCRIPTOR	"Calibration Target chart information 3"
DEVICE_CLASS	"DISPLAY"
COLOR_REP	"RGB_XYZ"
TARGET_INSTRUMENT	"Hughski ColorHug"
INSTRUMENT_TYPE_SPECTRAL	"NO"
NORMALIZED_TO_Y_100	"NO"
NUMBER_OF_FIELDS	7
NUMBER_OF_SETS	15
BEGIN_DATA_FORMAT
 SAMPLE_ID	RGB_R	RGB_G	RGB_B	XYZ_X	XYZ_Y	XYZ_Z
END_DATA_FORMAT
BEGIN_DATA
 1	0	0	0	34.42382812	0.04577636719	0.09155273438
 2	1	1	1	62.66784668	39.55078125	45.54748535
 3	1	0	0	39.68811035	3.845214844	5.767822266
 4	0	1	0	20.46203613	28.01513672	12.90893555
 5	0	0	1	0.9613037109	7.461547852	26.55029297
 6	0	0	0	0.09155273438	0.04577636719	0.09155273438
 7	1	1	1	62.71362305	39.50500488	45.50170898
 8	1	0	0	39.36767578	3.845214844	5.767822266
 9	0	1	0	20.46203613	28.06091309	12.86315918
 10	0	0	1	0.9613037109	7.461547852	26.5045166
 11	0	0	0	0.09155273438	0.04577636719	0.09155273438
 12	1	1	1	62.57629395	39.45922852	45.45593262
 13	1	0	0	39.50500488	3.845214844	5.767822266
 14	0	1	0	20.5078125	27.87780762	12.86315918
 15	0	0	1	0.9613037109	7.461547852	26.68762207
END_DATA
