data/calibration-001227.ti3
CTI3   
ORIGINATOR	"ColorHug Factory"
DESCRIPTOR	"Calibration Target chart information 3"
DEVICE_CLASS	"DISPLAY"
COLOR_REP	"RGB_XYZ"
TARGET_INSTRUMENT	"Hughski ColorHug"
INSTRUMENT_TYPE_SPECTRAL	"NO"
NORMALIZED_TO_Y_100	"NO"
NUMBER_OF_FIELDS	7
NUMBER_OF_SETS	15
BEGIN_DATA_FORMAT
 SAMPLE_ID	RGB_R	RGB_G	RGB_B	XYZ_X	XYZ_Y	XYZ_Z
END_DATA_FORMAT
BEGIN_DATA
 1	0	0	0	0.1831054688	0.1831054688	0.2288818359
 2	1	1	1	28.83911133	36.80419922	42.75512695
 3	1	0	0	16.57104492	2.655029297	2.975463867
 4	0	1	0	10.94055176	26.73339844	11.76452637
 5	0	0	1	0.9155273438	7.553100586	28.33557129
 6	0	0	0	0.1831054688	0.1831054688	0.2288818359
 7	1	1	1	28.79333496	36.71264648	42.80090332
 8	1	0	0	16.61682129	2.655029297	2.975463867
 9	0	1	0	10.98632812	26.82495117	11.76452637
 10	0	0	1	0.9155273438	7.553100586	28.10668945
 11	0	0	0	0.1831054688	0.2288818359	0.2288818359
 12	1	1	1	28.47290039	36.52954102	42.80090332
 13	1	0	0	16.52526855	2.655029297	2.975463867
 14	0	1	0	10.94055176	26.73339844	11.76452637
 15	0	0	1	0.9155273438	7.553100586	28.33557129
END_DATA
