data/calibration-001020.ti3
CTI3   
ORIGINATOR	"ColorHug Factory"
DESCRIPTOR	"Calibration Target chart information 3"
DEVICE_CLASS	"DISPLAY"
COLOR_REP	"RGB_XYZ"
TARGET_INSTRUMENT	"Hughski ColorHug"
INSTRUMENT_TYPE_SPECTRAL	"NO"
NORMALIZED_TO_Y_100	"NO"
NUMBER_OF_FIELDS	7
NUMBER_OF_SETS	15
BEGIN_DATA_FORMAT
 SAMPLE_ID	RGB_R	RGB_G	RGB_B	XYZ_X	XYZ_Y	XYZ_Z
END_DATA_FORMAT
BEGIN_DATA
 1	0	0	0	0.04577636719	0.04577636719	0.09155273438
 2	1	1	1	31.44836426	37.49084473	41.93115234
 3	1	0	0	18.21899414	2.655029297	2.975463867
 4	0	1	0	11.67297363	27.28271484	11.71875
 5	0	0	1	0.732421875	7.507324219	27.09960938
 6	0	0	0	0.04577636719	0.04577636719	0.09155273438
 7	1	1	1	31.49414062	37.39929199	41.83959961
 8	1	0	0	18.26477051	2.700805664	2.975463867
 9	0	1	0	11.67297363	27.09960938	11.71875
 10	0	0	1	0.732421875	7.507324219	27.09960938
 11	0	0	0	0.04577636719	0.04577636719	0.09155273438
 12	1	1	1	31.40258789	37.58239746	41.97692871
 13	1	0	0	18.21899414	2.655029297	2.975463867
 14	0	1	0	11.67297363	27.14538574	11.71875
 15	0	0	1	0.732421875	7.461547852	27.23693848
END_DATA
