data/calibration-001157.ti3
CTI3   
ORIGINATOR	"ColorHug Factory"
DESCRIPTOR	"Calibration Target chart information 3"
DEVICE_CLASS	"DISPLAY"
COLOR_REP	"RGB_XYZ"
TARGET_INSTRUMENT	"Hughski ColorHug"
INSTRUMENT_TYPE_SPECTRAL	"NO"
NORMALIZED_TO_Y_100	"NO"
NUMBER_OF_FIELDS	7
NUMBER_OF_SETS	15
BEGIN_DATA_FORMAT
 SAMPLE_ID	RGB_R	RGB_G	RGB_B	XYZ_X	XYZ_Y	XYZ_Z
END_DATA_FORMAT
BEGIN_DATA
 1	0	0	0	0.09155273438	0.1373291016	0.1831054688
 2	1	1	1	20.73669434	33.59985352	39.27612305
 3	1	0	0	11.26098633	2.151489258	2.288818359
 4	0	1	0	8.331298828	24.44458008	10.89477539
 5	0	0	1	0.7781982422	7.095336914	26.27563477
 6	0	0	0	0.09155273438	0.1373291016	0.1831054688
 7	1	1	1	20.82824707	33.59985352	39.32189941
 8	1	0	0	11.16943359	2.151489258	2.288818359
 9	0	1	0	8.331298828	24.21569824	10.84899902
 10	0	0	1	0.7781982422	7.095336914	26.27563477
 11	0	0	0	0.09155273438	0.1373291016	0.1831054688
 12	1	1	1	20.69091797	33.41674805	39.18457031
 13	1	0	0	11.21520996	2.151489258	2.288818359
 14	0	1	0	8.285522461	24.44458008	10.89477539
 15	0	0	1	0.7781982422	7.095336914	26.18408203
END_DATA
