data/calibration-002563.ti3
CTI3   
ORIGINATOR	"ColorHug Factory"
CREATED	"Wed Dec 03 19:15:54 2014"
DESCRIPTOR	"Calibration Target chart information 3"
DEVICE_CLASS	"DISPLAY"
COLOR_REP	"RGB_XYZ"
TARGET_INSTRUMENT	"Hughski ColorHug"
INSTRUMENT_TYPE_SPECTRAL	"NO"
NORMALIZED_TO_Y_100	"NO"
NUMBER_OF_FIELDS	7
NUMBER_OF_SETS	15
BEGIN_DATA_FORMAT
 SAMPLE_ID	RGB_R	RGB_G	RGB_B	XYZ_X	XYZ_Y	XYZ_Z
END_DATA_FORMAT
BEGIN_DATA
 1.0	0.0	0.0	0.0	0.224670410156	0.204650878906	0.241302490234
 2.0	1.0	1.0	1.0	112.219177246094	109.226654052734	112.219177246094
 3.0	1.0	0.0	0.0	76.560745239258	7.230346679688	10.475692749023
 4.0	0.0	1.0	0.0	28.15119934082	76.560745239258	28.054794311523
 5.0	0.0	0.0	1.0	3.357376098633	20.791870117188	70.01708984375
 6.0	0.0	0.0	0.0	0.221221923828	0.204650878906	0.24186706543
 7.0	1.0	1.0	1.0	112.219177246094	109.226654052734	112.219177246094
 8.0	1.0	0.0	0.0	76.560745239258	7.230346679688	10.475692749023
 9.0	0.0	1.0	0.0	28.15119934082	76.560745239258	28.054794311523
 10.0	0.0	0.0	1.0	3.358749389648	20.791870117188	70.01708984375
 11.0	0.0	0.0	0.0	0.223663330078	0.203414916992	0.24072265625
 12.0	1.0	1.0	1.0	112.219177246094	109.226654052734	112.219177246094
 13.0	1.0	0.0	0.0	76.560745239258	7.230346679688	10.475692749023
 14.0	0.0	1.0	0.0	28.15119934082	76.560745239258	28.054794311523
 15.0	0.0	0.0	1.0	3.360122680664	20.791870117188	70.01708984375
END_DATA
