data/calibration-000578.ti3
CTI3
ORIGINATOR	"ColorHug Factory"
DESCRIPTOR	"Calibration Target chart information 3"
DEVICE_CLASS	"DISPLAY"
COLOR_REP	"RGB_XYZ"
TARGET_INSTRUMENT	"Hughski ColorHug"
INSTRUMENT_TYPE_SPECTRAL	"NO"
NORMALIZED_TO_Y_100	"NO"
NUMBER_OF_FIELDS	7
NUMBER_OF_SETS	15
BEGIN_DATA_FORMAT
 SAMPLE_ID	RGB_R	RGB_G	RGB_B	XYZ_X	XYZ_Y	XYZ_Z
END_DATA_FORMAT
BEGIN_DATA
 1	0	0	0	0.09155273438	0.04577636719	0.09155273438
 2	1	1	1	52.27661133	35.4309082	40.23742676
 3	1	0	0	32.68432617	3.341674805	4.760742188
 4	0	1	0	17.39501953	25.31433105	11.4440918
 5	0	0	1	0.8697509766	6.683349609	23.8494873
 6	0	0	0	0.09155273438	0.04577636719	0.09155273438
 7	1	1	1	52.23083496	35.38513184	40.19165039
 8	1	0	0	32.82165527	3.341674805	4.760742188
 9	0	1	0	17.39501953	25.03967285	11.4440918
 10	0	0	1	0.8697509766	6.729125977	23.8494873
 11	0	0	0	0.09155273438	0.04577636719	0.09155273438
 12	1	1	1	51.91040039	35.4309082	40.23742676
 13	1	0	0	32.77587891	3.341674805	4.760742188
 14	0	1	0	17.48657227	25.31433105	11.4440918
 15	0	0	1	0.8697509766	6.729125977	23.80371094
END_DATA
