data/calibration-000288.ti3
CTI3
DESCRIPTOR	"Calibration Target chart information 3"
ORIGINATOR	"ColorHug Factory"
DEVICE_CLASS	"DISPLAY"
COLOR_REP	"RGB_XYZ"
TARGET_INSTRUMENT	"ColorHug"
INSTRUMENT_TYPE_SPECTRAL	"NO"
LUMINANCE_XYZ_CDM2	"55.755615 40.134430 46.268463"
NORMALIZED_TO_Y_100	"YES"
NUMBER_OF_FIELDS	7
NUMBER_OF_SETS	836
BEGIN_DATA_FORMAT
 SAMPLE_ID	RGB_R	RGB_G	RGB_B	XYZ_X	XYZ_Y	XYZ_Z
END_DATA_FORMAT
BEGIN_DATA
 1	100	100	100	134.5062429	99.31895573	114.5289444
 2	100	100	100	139.3870602	100	115.2099886
 3	100	100	100	138.8195233	99.31895573	114.7559591
 4	100	100	100	140.2951192	99.43246311	114.415437
 5	33.33	32.622	30.968	11.69125993	8.172531215	8.853575482
 6	100	0	100	90.01135074	27.92281498	81.9523269
 7	100	100	0	137.3439274	80.59023837	45.74347333
 8	0	100	100	49.94324631	90.80590238	101.4755959
 9	0	100	0	46.87854711	71.85017026	32.4631101
 10	0	0	100	2.27014756	18.84222474	68.89897843
 11	100	0	0	88.30874007	8.96708286	12.82633371
 12	0	0	0	0.113507378	0	0
 13	0	52.455	100	12.71282633	35.64131669	76.73098751
 14	100	0	50.3	87.51418842	12.93984109	27.35527809
 15	100	54.739	100	102.3836549	46.19750284	90.01135074
 16	100	52.128	0	98.75141884	25.31214529	20.43132804
 17	0	0	46.181	0.3405221339	3.178206583	11.46424518
 18	0	51.141	0	10.3291714	15.66401816	7.150964813
 19	0	100	51.348	47.67309875	75.93643587	47.55959137
 20	100	100	52.037	137.6844495	84.67650397	61.40749149
 21	49.216	0	0	17.70715096	1.816118048	2.610669694
 22	56.159	100	0	71.50964813	74.12031782	35.98183882
 23	49.226	100	100	67.08286039	92.39500568	104.199773
 24	44.487	0	100	16.0045403	20.43132804	71.05561862
 25	100	44.498	52.029	95.91373439	25.08513053	34.05221339
 26	48.926	48.544	100	28.94438138	35.0737798	78.66061294
 27	51.368	100	47.25	67.08286039	77.18501703	48.01362089
 28	49.893	0	49.033	18.50170261	5.561861521	16.23155505
 29	53.109	51.372	0	31.21452894	17.93416572	10.21566402
 30	0	58.587	53.943	14.52894438	25.7661748	26.33371169
 31	100	28.065	100	92.62202043	32.57661748	84.44948922
 32	0	0	72.874	15.09648127	8.740068104	32.12258797
 33	0	26.758	100	4.426787741	22.92849035	71.05561862
 34	0	25.426	0	2.383654938	3.518728717	1.70261067
 35	72.508	0	100	43.01929625	23.26901249	75.14188422
 36	100	27.395	0	90.01135074	13.16685585	14.86946652
 37	74.47	100	100	94.09761635	95.57321226	108.0590238
 38	100	0	25.728	87.6276958	9.875141884	16.45856981
 39	73.862	0	0	43.13280363	4.426787741	6.356413167
 40	100	100	25.402	139.3870602	82.40635641	49.82973893
 41	0	75.751	100	27.24177072	56.52667423	86.15209989
 42	0	75.172	0	24.85811578	36.54937571	16.68558456
 43	0	100	25.864	41.88422247	72.07718502	35.86833144
 44	100	0	74.801	88.87627696	18.50170261	47.446084
 45	0	100	75.421	48.35414302	81.61180477	68.21793417
 46	24.577	0	0	3.972758229	0.4540295119	0.5675368899
 47	26.321	100	0	51.87287174	71.96367764	33.14415437
 48	100	75.835	0	115.6640182	46.65153235	30.30646992
 49	100	100	77.061	136.0953462	90.80590238	83.31441544
 50	71.263	100	0	88.42224745	76.04994325	38.70601589
 51	0	0	15.614	0.227014756	0.3405221339	1.362088536
 52	0	30.049	70.936	4.086265607	13.28036322	32.4631101
 53	100	77.691	100	117.9341657	67.87741203	100.5675369
 54	24.486	100	100	53.34846765	91.2599319	101.2485812
 55	100	62.784	31.909	105.6753689	35.0737798	29.85244041
 56	29.552	0	100	7.832009081	19.52326901	69.80703746
 57	32.98	70.921	100	30.87400681	51.41884222	84.67650397
 58	0	27.681	40.241	3.178206583	6.583427923	10.55618615
 59	67.901	71.021	100	59.59137344	55.1645857	89.44381385
 60	28.154	100	67.829	53.57548241	79.9091941	61.29398411
 61	71.637	100	70.001	89.44381385	83.9954597	68.67196368
 62	58.822	58.763	53.586	40.29511918	28.37684449	29.85244041
 63	33.466	30.48	0	11.01021566	5.902383655	3.518728717
 64	100	73.795	71.277	113.507378	53.00794552	60.61293984
 65	68.394	29.692	0	39.27355278	8.513053348	7.604994325
 66	70.399	0	29.039	38.47900114	5.221339387	10.10215664
 67	28.078	0	26.956	5.448354143	1.589103292	4.540295119
 68	28.532	72.339	0	28.03632236	34.05221339	16.0045403
 69	100	30.941	26.496	91.03291714	15.43700341	19.0692395
 70	34.597	0	73.611	10.55618615	9.875141884	34.39273553
 71	71.573	0	72.408	40.97616345	12.93984109	37.79795687
 72	0	71.029	29.412	21.67990919	33.4846765	19.40976163
 73	68.386	75.008	0	61.40749149	40.52213394	22.13393871
 74	68.088	27.309	100	40.52213394	26.90124858	76.39046538
 75	100	26.457	73.749	91.71396141	22.47446084	48.69466515
 76	74.344	100	27.392	92.50851305	77.41203178	43.35981839
 77	27.558	100	28.197	52.66742338	73.43927355	37.68444949
 78	31.196	27.465	100	11.91827469	23.95005675	72.1906924
 79	0	75.521	72.824	25.65266742	45.74347333	49.4892168
 80	0	50.93	25.553	10.3291714	16.34506243	10.44267877
 81	32.06	33.584	64.033	11.91827469	13.73439274	28.37684449
 82	81.666	55.38	0	67.76390465	24.29057889	16.57207719
 83	68.257	32.751	58.286	41.43019296	15.32349603	27.92281498
 84	0	55.248	81.585	13.28036322	30.30646992	51.41884222
 85	73.781	52.099	100	55.95913734	40.06810443	83.20090806
 86	100	50.537	82.952	99.65947787	36.54937571	64.47219069
 87	23.55	0	50.439	4.199772985	4.313280363	14.75595914
 88	31.335	62.746	31.114	23.49602724	26.67423383	17.48013621
 89	100	18.31	49.418	88.53575482	14.75595914	27.8093076
 90	26.498	48.404	0	13.96140749	14.415437	7.037457435
 91	47.91	100	85.744	65.72077185	86.83314415	83.08740068
 92	71.829	47.313	31.811	49.82973893	19.0692395	17.59364359
 93	31.304	64.132	69.316	24.7446084	34.50624291	41.88422247
 94	80.403	0	54.321	53.00794552	10.10215664	24.7446084
 95	18.455	50.036	100	14.18842225	34.39273553	76.276958
 96	50.653	100	16.345	66.06129398	73.55278093	36.88989784
 97	80.121	100	52.261	101.4755959	81.9523269	56.52667423
 98	0	22.54	19.289	1.929625426	3.405221339	3.291713961
 99	100	75.273	46.886	114.5289444	49.37570942	42.56526674
 100	0	78.618	56.625	27.58229285	45.74347333	37.00340522
 101	51.137	80.627	100	49.94324631	64.01816118	91.60045403
 102	48.446	0	17.864	16.91259932	2.156640182	4.199772985
 103	100	50.023	21.211	98.41089671	24.63110102	22.36095346
 104	50.115	20.118	0	19.63677639	4.086265607	3.745743473
 105	58.099	72.426	33.158	47.78660613	37.91146425	24.97162316
 106	19.364	100	50.197	50.39727582	75.70942111	47.33257662
 107	50.683	19.177	100	22.13393871	23.04199773	73.09875142
 108	53.37	0	81.576	22.13393871	13.73439274	45.97048808
 109	47.768	76.245	0	41.43019296	39.61407491	19.63677639
 110	0	18.927	55.503	1.816118048	6.810442679	18.50170261
 111	0	13.277	0	0.6810442679	1.021566402	0.4540295119
 112	72.862	72.473	75.625	65.15323496	47.33257662	57.32122588
 113	100	13.904	0	88.76276958	10.10215664	13.3938706
 114	86.349	0	100	63.79114642	25.31214529	78.32009081
 115	100	41.941	100	96.02724177	38.25198638	86.71963678
 116	100	81.785	16.464	119.9772985	54.02951192	34.96027242
 117	0	44.063	52.596	7.945516459	15.77752554	20.99886493
 118	0	0	58.917	0.7945516459	5.448354143	19.86379115
 119	59.25	24.551	29.789	28.94438138	7.377979569	9.988649262
 120	82.73	82.874	100	88.87627696	71.05561862	98.75141884
 121	80.039	0	12.618	51.75936436	5.561861521	8.626560726
 122	60.957	47.729	77.817	38.138479	26.90124858	48.69466515
 123	100	0	38.618	88.19523269	11.23723042	21.1123723
 124	0	40.09	100	8.059023837	28.37684449	73.43927355
 125	0	15.283	82.322	1.929625426	13.05334847	43.8138479
 126	17.592	81.726	100	33.59818388	63.9046538	90.12485812
 127	100	14.13	100	89.55732123	29.3984109	83.08740068
 128	15.261	100	82.059	49.94324631	83.31441544	76.276958
 129	47.77	79.418	60.389	45.06242906	49.26220204	42.90578888
 130	18.768	16.429	0	3.405221339	1.70261067	1.13507378
 131	55.634	100	65.763	69.5800227	81.72531215	62.42905789
 132	100	100	38.541	138.0249716	83.31441544	54.37003405
 133	17.421	0	83.497	3.291713961	12.3723042	44.60839955
 134	17.237	16.758	100	4.880817253	20.65834279	70.37457435
 135	0	15.067	30.039	1.021566402	2.610669694	5.221339387
 136	0	0	86.505	1.589103292	13.16685585	48.35414302
 137	75.736	72.799	50.02	69.5800227	42.90578888	36.54937571
 138	100	83.323	85.529	121.7934166	69.12599319	82.63337117
 139	100	100	64.894	138.9330306	87.96821793	71.50964813
 140	81.98	84.914	0	88.42224745	54.25652667	30.4199773
 141	0	63.757	15.49	16.91259932	25.42565267	12.82633371
 142	49.514	66.135	100	38.36549376	48.69466515	84.22247446
 143	100	0	61.862	87.6276958	15.09648127	35.64131669
 144	24.308	45.41	49.831	12.3723042	16.34506243	20.20431328
 145	15.963	0	17.047	1.816118048	0.5675368899	1.816118048
 146	87.497	100	100	114.3019296	96.70828604	111.2372304
 147	52.099	25.003	75.752	23.15550511	15.32349603	40.63564132
 148	14.909	81.162	0	30.53348468	43.58683314	19.97729852
 149	0	34.792	14.626	4.540295119	7.150964813	4.313280363
 150	48.39	45.075	22.552	24.85811578	14.30192963	10.66969353
 151	83.545	65.965	100	77.2985244	52.66742338	89.55732123
 152	16.226	62.345	0	17.82065834	23.95005675	11.12372304
 153	63.222	0	14.914	30.4199773	3.518728717	5.788876277
 154	80.449	13.446	0	53.23496027	6.469920545	8.172531215
 155	83.917	41.562	0	64.58569807	15.89103292	12.93984109
 156	100	60.448	46.3	102.9511918	34.96027242	35.75482406
 157	15.584	0	34.795	1.816118048	1.929625426	6.583427923
 158	17.144	65.121	100	21.79341657	45.97048808	81.61180477
 159	83.602	55.334	62.667	70.94211124	30.87400681	40.06810443
 160	0	82.19	14.22	30.4199773	45.17593644	21.56640182
 161	25.132	74.856	50.616	29.05788876	40.52213394	31.78206583
 162	0	13.769	100	2.497162316	19.97729852	69.23950057
 163	87.181	0	0	62.99659478	6.469920545	9.307604994
 164	0	100	39.19	47.33257662	73.66628831	40.86265607
 165	78.047	65.914	19.865	67.99091941	33.14415437	21.90692395
 166	100	63.961	15.865	106.1293984	34.96027242	26.10669694
 167	100	45.955	36.032	96.93530079	23.60953462	25.7661748
 168	15.926	100	16.89	49.14869467	71.96367764	34.39273553
 169	41.459	100	0	59.36435868	72.64472191	34.50624291
 170	48.707	37.288	48.139	23.04199773	13.50737798	19.18274688
 171	83.381	100	13.285	105.7888763	78.32009081	42.22474461
 172	78.129	25.303	75.621	52.66742338	18.38819523	44.49489217
 173	12.396	0	0	1.13507378	0.113507378	0.227014756
 174	37.607	48.336	83.346	20.31782066	27.24177072	52.553916
 175	35.588	15.356	0	9.53461975	2.27014756	1.929625426
 176	61.245	100	100	78.43359818	93.98410897	106.2429058
 177	100	67.29	87.195	108.9670829	51.41884222	76.39046538
 178	0	0	30.615	0.227014756	1.362088536	4.880817253
 179	35.187	81.789	83.323	39.50056754	57.66174801	66.74233825
 180	39.525	80.194	22.879	39.38706016	44.15437003	23.723042
 181	50.634	34.593	0	23.38251986	8.740068104	5.902383655
 182	14.175	100	63.146	49.26220204	78.20658343	56.86719637
 183	83.493	17.728	34.574	57.88876277	9.421112372	15.66401816
 184	23.463	22.014	79.943	6.583427923	14.18842225	42.11123723
 185	18.066	31.847	0	6.129398411	5.902383655	2.951191827
 186	87.201	100	81.361	113.7343927	89.78433598	84.90351873
 187	0	100	87.95	48.4676504	85.47105562	83.9954597
 188	34.476	17.888	46.22	9.53461975	5.902383655	13.73439274
 189	18.277	0	67.39	2.951191827	7.491486947	27.35527809
 190	100	87.972	0	125.7661748	62.20204313	37.34392736
 191	82.925	34.85	100	62.20204313	31.78206583	80.70374574
 192	0	88.016	100	37.23041998	71.96367764	93.53007946
 193	36.104	85.655	100	44.15437003	69.5800227	93.41657208
 194	60.981	0	0	27.92281498	2.837684449	4.199772985
 195	51.466	61.826	78.106	36.20885358	36.43586833	52.32690125
 196	78.427	31.983	22.175	53.00794552	11.57775255	12.48581158
 197	66.017	44.321	0	41.20317821	14.98297389	10.21566402
 198	83.941	0	84.177	59.13734393	18.50170261	54.37003405
 199	20.158	46.612	23.269	11.23723042	13.84790011	9.080590238
 200	0	100	62.618	47.67309875	77.63904654	55.95913734
 201	33.832	0	13.933	7.718501703	1.13507378	2.27014756
 202	100	17.286	16.322	88.98978434	11.12372304	15.20998865
 203	0	42.204	83.926	8.059023837	22.92849035	50.39727582
 204	0	87.774	0	34.61975028	52.32690125	23.83654938
 205	64.988	0	59.017	32.69012486	8.853575482	24.85811578
 206	14.677	0	100	3.291713961	18.95573212	69.69353008
 207	88.934	82.673	35.021	97.27582293	54.37003405	37.34392736
 208	0	63.778	100	18.72871737	44.38138479	80.81725312
 209	83.429	17.674	100	59.8183882	26.7877412	78.43359818
 210	30.899	100	85.668	54.93757094	85.13053348	81.49829739
 211	83.68	0	41.016	57.2077185	8.39954597	17.70715096
 212	100	63.515	0	105.6753689	34.05221339	24.40408627
 213	85.074	69.987	0	81.04426788	37.00340522	23.04199773
 214	20.801	45.524	69.018	11.91827469	20.54483541	34.73325766
 215	21.382	82.482	73.017	34.16572077	54.82406356	54.48354143
 216	100	15.128	64.249	88.87627696	17.0261067	38.138479
 217	36.522	0	58.427	9.648127128	6.242905789	20.99886493
 218	22.466	81.296	33.007	33.03064699	45.62996595	26.33371169
 219	62.531	87.152	0	64.58569807	54.93757094	28.03632236
 220	84.12	85.397	67.886	92.62202043	62.65607264	59.47786606
 221	18.87	27.336	45.389	5.561861521	7.491486947	13.62088536
 222	66.439	100	14.444	81.38479001	75.2553916	38.93303065
 223	41.636	22.147	19.003	14.18842225	4.540295119	4.994324631
 224	61.271	100	81.94	77.41203178	86.6061294	79.79568672
 225	86.013	100	0	110.4426788	78.43359818	42.11123723
 226	37.57	0	0	9.53461975	1.021566402	1.475595914
 227	100	16.132	84.102	88.87627696	23.15550511	59.47786606
 228	0	100	13.619	47.446084	72.1906924	33.71169126
 229	38.905	100	56.471	58.56980704	77.97956867	52.78093076
 230	100	15.382	34.563	88.6492622	12.14528944	20.0908059
 231	36.656	14.908	100	12.03178207	21.22587968	71.50964813
 232	0	62.593	66.608	16.91259932	31.78206583	37.79795687
 233	66.347	12.528	100	36.43586833	23.38251986	74.68785471
 234	100	43.375	69.233	96.70828604	28.37684449	47.446084
 235	100	56.36	61.236	102.0431328	34.39273553	44.15437003
 236	0	86.194	44.955	33.82519864	53.34846765	34.27922815
 237	64.527	87.262	100	68.5584563	74.12031782	97.72985244
 238	34.411	0	42.471	8.172531215	3.518728717	11.12372304
 239	80.23	59.707	85.12	68.67196368	40.52213394	65.49375709
 240	20.625	19.056	14.791	4.313280363	2.724177072	2.610669694
 241	15.341	34.221	100	7.945516459	25.7661748	72.30419977
 242	36.777	0	87.905	10.55618615	14.75595914	52.09988649
 243	34.598	56.247	100	23.15550511	39.27355278	79.45516459
 244	20.86	67.629	17.418	22.36095346	29.73893303	15.32349603
 245	44.958	60.843	18.054	29.85244041	24.85811578	14.415437
 246	37.421	60.193	0	24.85811578	23.26901249	11.69125993
 247	84.011	33.849	42.612	62.65607264	15.32349603	21.56640182
 248	17.241	60.339	37.743	17.13961407	24.7446084	18.27468785
 249	50.65	17.261	53.278	20.43132804	8.059023837	19.63677639
 250	45.505	48.926	65.152	25.19863791	22.81498297	34.16572077
 251	44.567	84.081	39.649	45.8569807	51.30533485	32.4631101
 252	100	86.339	72.054	123.3825199	68.33144154	68.33144154
 253	68.14	61.135	0	51.19182747	26.56072645	15.77752554
 254	17.93	66.986	81.403	22.13393871	39.84108967	55.50510783
 255	39.242	60.215	48.926	26.22020431	27.12826334	25.31214529
 256	20.099	18.77	62.967	4.767309875	8.626560726	24.51759364
 257	34.553	100	14.582	54.59704881	72.98524404	35.0737798
 258	87.345	0	66.694	63.56413167	13.84790011	36.43586833
 259	0	43.714	39.842	7.604994325	13.62088536	13.62088536
 260	100	37.705	13.955	93.07604994	17.59364359	17.82065834
 261	31.265	86.993	0	64.9262202	51.75936436	24.29057889
 262	51.402	82.661	81.338	50.39727582	59.02383655	66.17480136
 263	100	100	12.984	138.7060159	81.38479001	47.21906924
 264	0	37.859	0	5.448354143	8.059023837	3.745743473
 265	62.092	58.215	100	45.06242906	42.7922815	83.31441544
 266	86.186	100	64.1	111.123723	84.90351873	66.74233825
 267	100	35.251	85.898	93.64358683	29.51191827	64.81271283
 268	63.182	89.992	41.974	67.99091941	61.52099886	39.72758229
 269	13.504	100	0	48.24063564	71.39614075	32.80363224
 270	100	0	13.228	87.40068104	9.307604994	13.84790011
 271	63.881	40.826	100	39.27355278	32.00908059	78.43359818
 272	69.387	84.838	20.792	70.03405221	53.23496027	30.07945516
 273	0	70.279	45.136	21.33938706	34.61975028	25.7661748
 274	79.094	64.754	40.908	68.44494892	34.39273553	28.94438138
 275	62.385	54.099	17.396	41.31668558	20.99886493	13.96140749
 276	64.408	14.621	0	32.4631101	4.540295119	5.221339387
 277	70.028	15.606	44.651	39.38706016	8.39954597	17.25312145
 278	0	63.544	0	16.79909194	25.19863791	11.46424518
 279	83.475	47.274	20.502	66.06129398	19.86379115	16.68558456
 280	55.866	0	32.671	24.85811578	3.972758229	9.080590238
 281	58.007	0	100	26.90124858	21.56640182	73.09875142
 282	100	0	87.698	88.42224745	22.81498297	63.22360953
 283	0	13.792	67.215	1.475595914	8.513053348	27.58229285
 284	84.123	17.001	58.549	59.59137344	13.16685585	29.3984109
 285	59.579	32.873	15.966	30.64699205	9.194097616	8.059023837
 286	10.41	32.998	28.659	5.107832009	7.377979569	7.264472191
 287	17.231	40.031	85.65	9.421112372	22.81498297	52.44040863
 288	37.568	41.561	10.108	16.34506243	11.12372304	6.583427923
 289	0	69.015	85.092	21.45289444	43.13280363	61.06696935
 290	14.442	100	36.187	48.92167991	73.2122588	40.06810443
 291	100	40.549	0	94.21112372	18.72871737	17.36662883
 292	82.143	45.435	78.429	65.03972758	28.60385925	52.66742338
 293	52.674	0	67.3	21.1123723	9.53461975	30.19296254
 294	0	87.868	66.793	35.86833144	60.27241771	51.30533485
 295	86.53	100	40.524	111.2372304	80.36322361	51.30533485
 296	71.777	85.586	67.232	74.68785471	61.40749149	56.52667423
 297	43.216	100	31.671	61.18047673	74.80136209	39.95459705
 298	39.245	32.908	85.845	16.23155505	20.31782066	52.44040863
 299	0	45.662	67.543	8.853575482	19.97729852	33.25766175
 300	12.161	100	100	50.17026107	90.80590238	102.0431328
 301	67.049	0	85.516	35.64131669	16.57207719	53.23496027
 302	100	89.041	100	127.5822928	82.74687855	107.3779796
 303	20.246	60.698	56.526	18.38819523	28.03632236	29.3984109
 304	52.177	55.457	40.416	32.69012486	23.15550511	20.54483541
 305	72.617	87.018	83.932	77.75255392	68.44494892	75.70942111
 306	40.512	16.723	66.475	13.28036322	9.988649262	28.94438138
 307	68.507	49.232	50.605	46.31101022	22.24744608	26.56072645
 308	65.622	100	54.525	81.49829739	79.68217934	55.05107832
 309	54.115	37.24	66.394	27.46878547	17.48013621	33.37116913
 310	100	76.138	31.267	114.8694665	48.12712826	35.75482406
 311	54.728	65.623	0	40.1816118	29.28490352	15.55051078
 312	63.126	12.526	64.37	31.10102157	10.78320091	29.73893303
 313	72.827	18.08	23.704	42.7922815	7.037457435	9.988649262
 314	23.268	15.278	34.947	4.767309875	3.518728717	7.604994325
 315	87.648	68.954	59.645	84.67650397	42.56526674	44.49489217
 316	0	85.595	85.198	34.27922815	62.08853575	69.92054484
 317	35.798	84.371	69.21	41.65720772	56.41316686	52.32690125
 318	36.062	47.494	35.919	18.0476731	16.34506243	14.415437
 319	86.083	36.277	59.152	66.62883087	19.40976163	32.80363224
 320	58.21	100	30.361	72.98524404	75.36889898	41.54370034
 321	46.745	14.614	32.317	16.57207719	4.426787741	8.39954597
 322	81.573	73.869	86.954	79.22814983	54.71055619	74.12031782
 323	85.991	49.387	48.206	71.62315551	24.29057889	28.71736663
 324	28.062	87.906	19.654	40.40862656	53.91600454	26.90124858
 325	68.992	17.993	85.124	38.93303065	18.61520999	53.57548241
 326	100	66.147	100	108.9670829	55.73212259	95.11918275
 327	33.358	64.806	84.517	26.7877412	40.29511918	60.04540295
 328	41.351	17.736	80.522	14.30192963	14.30192963	43.92735528
 329	100	100	88.719	137.7979569	94.55164586	97.9568672
 330	66.336	0	44.32	33.93870602	6.469920545	15.89103292
 331	64.85	67.09	12.293	50.96481271	32.00908059	18.72871737
 332	15.262	31.268	63.277	5.902383655	12.03178207	26.33371169
 333	15.008	43.663	37.3	9.194097616	13.50737798	12.93984109
 334	0	57.895	38.078	13.73439274	22.7014756	17.25312145
 335	66.599	58.458	67.871	48.80817253	32.34960272	43.01929625
 336	59.191	18.651	15.215	27.46878547	4.994324631	6.015891033
 337	66.781	31.14	84.629	39.38706016	21.79341657	53.91600454
 338	88.033	85.158	52.14	98.75141884	60.38592509	47.67309875
 339	36.882	100	100	58.91032917	91.48694665	103.1782066
 340	26.102	33.094	17.006	8.626560726	7.037457435	5.107832009
 341	56.309	36.861	35.862	28.94438138	12.03178207	13.96140749
 342	45.839	65.587	67.033	33.93870602	35.98183882	41.43019296
 343	83.709	81.172	16.406	87.74120318	50.05675369	30.07945516
 344	0	48.132	13.005	9.080590238	13.96140749	7.264472191
 345	87.176	50.021	100	75.36889898	40.52213394	85.47105562
 346	51.219	84.244	13.73	50.73779796	49.4892168	25.53916005
 347	60.606	71.415	48.406	49.71623156	39.38706016	32.4631101
 348	0	11.359	12.718	0.5675368899	1.021566402	1.362088536
 349	86.429	49.705	33.145	72.07718502	22.81498297	21.67990919
 350	34.056	40.958	100	16.34506243	29.73893303	75.36889898
 351	100	30.557	59.628	91.82746879	20.0908059	36.54937571
 352	88.497	26.902	13.449	67.99091941	11.12372304	12.48581158
 353	14.167	51.98	88.218	13.50737798	30.4199773	58.56980704
 354	13.784	12.983	49.37	2.497162316	4.880817253	14.18842225
 355	15.018	88.441	48.062	37.34392736	56.41316686	37.34392736
 356	87.79	25.769	89.215	67.30987514	24.85811578	63.79114642
 357	0	33.206	55.865	4.540295119	11.01021566	20.65834279
 358	74.324	76.029	35.536	69.23950057	43.70034052	30.4199773
 359	65.863	57.223	42.324	46.65153235	26.10669694	23.83654938
 360	30.893	54.646	13.136	18.50170261	18.95573212	10.21566402
 361	0	34.36	28.321	4.540295119	7.718501703	7.264472191
 362	15.443	77.087	85.116	28.94438138	51.98637911	65.38024972
 363	63.381	68.947	68.521	51.30533485	40.86265607	46.65153235
 364	69.733	27.566	42.917	40.52213394	10.89670829	17.70715096
 365	32.754	100	42.76	55.05107832	75.02837684	43.92735528
 366	47.096	29.481	34.829	19.40976163	8.286038593	11.01021566
 367	8.5451	71.948	62.695	23.38251986	39.72758229	38.47900114
 368	0	86.048	29.3	33.25766175	51.30533485	27.35527809
 369	53.697	51.572	85.367	33.03064699	31.32803632	57.88876277
 370	17.608	56.69	12.515	14.98297389	19.86379115	10.10215664
 371	90.638	14.414	49.227	70.48808173	12.14528944	24.51759364
 372	63.248	63.64	89.55	49.26220204	43.24631101	69.12599319
 373	100	85.976	58.455	123.3825199	64.69920545	55.95913734
 374	9.8311	28.027	7.5567	3.745743473	4.540295119	2.610669694
 375	89.831	64.313	69.506	85.69807037	40.86265607	51.5323496
 376	31.754	12.995	25.543	7.491486947	2.724177072	4.994324631
 377	75.914	45.966	64.957	55.05107832	24.51759364	37.79795687
 378	7.5735	50.695	58.941	11.23723042	21.1123723	27.46878547
 379	100	69.835	58.912	109.7616345	46.31101022	47.78660613
 380	32.211	34.376	48.339	11.91827469	11.01021566	17.36662883
 381	13.901	12.159	73.555	2.837684449	10.10215664	34.05221339
 382	87.071	9.028	77.653	64.24517594	17.59364359	47.78660613
 383	23.272	85.409	84.29	37.79795687	62.42905789	69.35300795
 384	93.289	39.48	26.145	79.22814983	17.70715096	18.50170261
 385	65.769	59.63	30.967	47.90011351	26.90124858	20.0908059
 386	100	32.265	41.803	91.71396141	17.70715096	25.42565267
 387	86.568	85.281	86.961	96.93530079	69.5800227	81.61180477
 388	52.577	86.83	30.016	54.59704881	54.82406356	31.10102157
 389	47.921	40.199	76.902	24.06356413	21.45289444	44.26787741
 390	22.36	86.619	61.58	37.79795687	57.43473326	46.19750284
 391	52.232	33.601	88.787	25.87968218	22.81498297	57.88876277
 392	0	28.523	86.267	4.199772985	17.70715096	50.28376844
 393	43.497	67.879	39.551	33.37116913	33.14415437	24.06356413
 394	39.877	45.261	0	19.0692395	13.16685585	7.150964813
 395	86.94	12.43	24.699	62.99659478	8.286038593	12.82633371
 396	28.363	55.339	90.398	19.40976163	34.27922815	64.01816118
 397	39.018	70.534	57.879	32.4631101	38.138479	35.52780931
 398	12.833	28.519	78.828	5.221339387	15.43700341	41.88422247
 399	68.35	31.815	69.975	40.74914869	17.82065834	38.138479
 400	56.52	26.226	41.626	26.67423383	8.853575482	14.86946652
 401	12.938	46.218	0	9.421112372	12.59931896	5.902383655
 402	8.6938	60.179	26.117	15.55051078	23.38251986	13.84790011
 403	51.995	89.429	96.608	57.88876277	74.34733258	91.60045403
 404	46.905	47.746	48.909	25.31214529	18.95573212	22.02043133
 405	14.352	81.814	19.479	31.10102157	45.17593644	22.36095346
 406	71.482	38.117	12.273	45.28944381	12.82633371	10.66969353
 407	86.616	60.785	10.012	77.86606129	29.3984109	20.20431328
 408	71.811	88.979	52.186	77.18501703	62.42905789	46.31101022
 409	43.213	100	72.083	61.74801362	81.9523269	66.62883087
