data/calibration-002642.ti3
CTI3   
ORIGINATOR	"ColorHug Factory"
CREATED	"Tue Jan 27 20:17:32 2015"
DESCRIPTOR	"Calibration Target chart information 3"
DEVICE_CLASS	"DISPLAY"
COLOR_REP	"RGB_XYZ"
TARGET_INSTRUMENT	"Hughski ColorHug"
INSTRUMENT_TYPE_SPECTRAL	"NO"
NORMALIZED_TO_Y_100	"NO"
NUMBER_OF_FIELDS	7
NUMBER_OF_SETS	15
BEGIN_DATA_FORMAT
 SAMPLE_ID	RGB_R	RGB_G	RGB_B	XYZ_X	XYZ_Y	XYZ_Z
END_DATA_FORMAT
BEGIN_DATA
 1.0	0.0	0.0	0.0	0.359390258789	0.371520996094	0.435760498047
 2.0	1.0	1.0	1.0	51.848098754883	53.54248046875	55.351348876953
 3.0	1.0	0.0	0.0	36.571426391602	3.99609375	5.919067382812
 4.0	0.0	1.0	0.0	14.075592041016	38.824630737305	15.255111694336
 5.0	0.0	0.0	1.0	1.912673950195	10.981231689453	33.99169921875
 6.0	0.0	0.0	0.0	0.360946655273	0.371734619141	0.437362670898
 7.0	1.0	1.0	1.0	51.848098754883	53.54248046875	55.351348876953
 8.0	1.0	0.0	0.0	36.247787475586	4.00390625	5.92333984375
 9.0	0.0	1.0	0.0	14.051452636719	39.196166992188	15.398483276367
 10.0	0.0	0.0	1.0	1.921188354492	10.879135131836	33.851226806641
 11.0	0.0	0.0	0.0	0.361404418945	0.370269775391	0.435134887695
 12.0	1.0	1.0	1.0	52.512817382812	53.54248046875	54.979858398438
 13.0	1.0	0.0	0.0	36.571426391602	4.005859375	5.92333984375
 14.0	0.0	1.0	0.0	14.00341796875	38.824630737305	15.283569335938
 15.0	0.0	0.0	1.0	1.923446655273	11.070266723633	33.711929321289
END_DATA
