data/calibration-000932.ti3
CTI3   
ORIGINATOR	"ColorHug Factory"
DESCRIPTOR	"Calibration Target chart information 3"
DEVICE_CLASS	"DISPLAY"
COLOR_REP	"RGB_XYZ"
TARGET_INSTRUMENT	"Hughski ColorHug"
INSTRUMENT_TYPE_SPECTRAL	"NO"
NORMALIZED_TO_Y_100	"NO"
NUMBER_OF_FIELDS	7
NUMBER_OF_SETS	15
BEGIN_DATA_FORMAT
 SAMPLE_ID	RGB_R	RGB_G	RGB_B	XYZ_X	XYZ_Y	XYZ_Z
END_DATA_FORMAT
BEGIN_DATA
 1	0	0	0	0.04577636719	0.04577636719	0.09155273438
 2	1	1	1	60.51635742	41.33605957	48.24829102
 3	1	0	0	37.76550293	3.799438477	5.630493164
 4	0	1	0	20.05004883	29.1595459	13.36669922
 5	0	0	1	1.007080078	8.010864258	29.20532227
 6	0	0	0	0.04577636719	0.04577636719	0.09155273438
 7	1	1	1	60.56213379	41.33605957	48.43139648
 8	1	0	0	37.9486084	3.753662109	5.630493164
 9	0	1	0	19.86694336	29.11376953	13.36669922
 10	0	0	1	1.007080078	8.010864258	29.25109863
 11	0	0	0	0.04577636719	0.04577636719	0.09155273438
 12	1	1	1	60.51635742	41.1529541	48.47717285
 13	1	0	0	37.90283203	3.799438477	5.584716797
 14	0	1	0	19.95849609	29.20532227	13.41247559
 15	0	0	1	0.9613037109	8.010864258	28.93066406
END_DATA
