data/calibration-001321.ti3
CTI3   
ORIGINATOR	"ColorHug Factory"
DESCRIPTOR	"Calibration Target chart information 3"
DEVICE_CLASS	"DISPLAY"
COLOR_REP	"RGB_XYZ"
TARGET_INSTRUMENT	"Hughski ColorHug"
INSTRUMENT_TYPE_SPECTRAL	"NO"
NORMALIZED_TO_Y_100	"NO"
NUMBER_OF_FIELDS	7
NUMBER_OF_SETS	15
BEGIN_DATA_FORMAT
 SAMPLE_ID	RGB_R	RGB_G	RGB_B	XYZ_X	XYZ_Y	XYZ_Z
END_DATA_FORMAT
BEGIN_DATA
 1	0	0	0	0.04577636719	0.09155273438	0.1373291016
 2	1	1	1	32.45544434	35.93444824	43.99108887
 3	1	0	0	18.81408691	2.60925293	3.295898438
 4	0	1	0	11.81030273	25.68054199	11.8560791
 5	0	0	1	0.8239746094	7.598876953	28.70178223
 6	0	0	0	0.04577636719	0.09155273438	0.1373291016
 7	1	1	1	32.45544434	35.93444824	43.99108887
 8	1	0	0	18.81408691	2.60925293	3.341674805
 9	0	1	0	11.81030273	25.63476562	11.8560791
 10	0	0	1	0.8239746094	7.64465332	28.47290039
 11	0	0	0	0.04577636719	0.09155273438	0.1373291016
 12	1	1	1	32.45544434	35.93444824	44.03686523
 13	1	0	0	18.85986328	2.60925293	3.341674805
 14	0	1	0	11.81030273	25.68054199	11.8560791
 15	0	0	1	0.8239746094	7.64465332	28.70178223
END_DATA
