data/calibration-001071.ti3
CTI3   
ORIGINATOR	"ColorHug Factory"
DESCRIPTOR	"Calibration Target chart information 3"
DEVICE_CLASS	"DISPLAY"
COLOR_REP	"RGB_XYZ"
TARGET_INSTRUMENT	"Hughski ColorHug"
INSTRUMENT_TYPE_SPECTRAL	"NO"
NORMALIZED_TO_Y_100	"NO"
NUMBER_OF_FIELDS	7
NUMBER_OF_SETS	15
BEGIN_DATA_FORMAT
 SAMPLE_ID	RGB_R	RGB_G	RGB_B	XYZ_X	XYZ_Y	XYZ_Z
END_DATA_FORMAT
BEGIN_DATA
 1	0	0	0	0	0.04577636719	0.04577636719
 2	1	1	1	29.52575684	31.9519043	36.52954102
 3	1	0	0	17.39501953	2.334594727	2.746582031
 4	0	1	0	10.57434082	22.97973633	9.887695312
 5	0	0	1	0.5950927734	6.317138672	23.66638184
 6	0	0	0	0	0.04577636719	0.04577636719
 7	1	1	1	29.25109863	31.86035156	36.52954102
 8	1	0	0	17.39501953	2.334594727	2.746582031
 9	0	1	0	10.57434082	22.93395996	9.841918945
 10	0	0	1	0.5950927734	6.317138672	23.62060547
 11	0	0	0	0	0	0.04577636719
 12	1	1	1	29.34265137	31.90612793	36.43798828
 13	1	0	0	17.39501953	2.334594727	2.700805664
 14	0	1	0	10.57434082	22.79663086	9.887695312
 15	0	0	1	0.5950927734	6.362915039	23.75793457
END_DATA
