data/calibration-002200.ti3
CTI3   
ORIGINATOR	"ColorHug Factory"
CREATED	"Wed Nov 20 21:01:15 2013"
DESCRIPTOR	"Calibration Target chart information 3"
DEVICE_CLASS	"DISPLAY"
COLOR_REP	"RGB_XYZ"
TARGET_INSTRUMENT	"Hughski ColorHug"
INSTRUMENT_TYPE_SPECTRAL	"NO"
NORMALIZED_TO_Y_100	"NO"
NUMBER_OF_FIELDS	7
NUMBER_OF_SETS	15
BEGIN_DATA_FORMAT
 SAMPLE_ID	RGB_R	RGB_G	RGB_B	XYZ_X	XYZ_Y	XYZ_Z
END_DATA_FORMAT
BEGIN_DATA
 1	0	0	0	0.1373291015625	0.091552734375	0.18310546875
 2	1	1	1	77.7740478515625	36.895751953125	57.220458984375
 3	1	0	0	49.3927001953125	3.9825439453125	6.77490234375
 4	0	1	0	24.3988037109375	23.98681640625	12.451171875
 5	0	0	1	1.4190673828125	8.7890625	37.53662109375
 6	0	0	0	0.1373291015625	0.091552734375	0.18310546875
 7	1	1	1	77.5909423828125	36.8499755859375	56.9915771484375
 8	1	0	0	48.9349365234375	3.9825439453125	6.7291259765625
 9	0	1	0	24.5819091796875	24.078369140625	12.4053955078125
 10	0	0	1	1.4190673828125	8.7890625	37.628173828125
 11	0	0	0	0.1373291015625	0.091552734375	0.18310546875
 12	1	1	1	77.45361328125	36.712646484375	57.037353515625
 13	1	0	0	49.072265625	3.9825439453125	6.7291259765625
 14	0	1	0	24.35302734375	23.98681640625	12.359619140625
 15	0	0	1	1.4190673828125	8.7890625	37.6739501953125
END_DATA
