data/calibration-000215.ti3
CTI3
DESCRIPTOR	"Calibration Target chart information 3"
ORIGINATOR	"ColorHug Factory"
DEVICE_CLASS	"DISPLAY"
COLOR_REP	"RGB_XYZ"
TARGET_INSTRUMENT	"ColorHug"
INSTRUMENT_TYPE_SPECTRAL	"NO"
LUMINANCE_XYZ_CDM2	"54.416656 37.193298 41.965485"
NORMALIZED_TO_Y_100	"YES"
NUMBER_OF_FIELDS	7
NUMBER_OF_SETS	836
BEGIN_DATA_FORMAT
 SAMPLE_ID	RGB_R	RGB_G	RGB_B	XYZ_X	XYZ_Y	XYZ_Z
END_DATA_FORMAT
BEGIN_DATA
 1	100	100	100	135.012285	99.75429975	112.6535627
 2	100	100	100	149.6314496	99.75429975	112.5307125
 3	100	100	100	150	99.75429975	112.6535627
 4	100	100	100	149.5085995	100	112.6535627
 5	33.33	32.622	30.968	12.16216216	8.108108108	8.5995086
 6	100	0	100	94.96314496	27.14987715	79.48402948
 7	100	100	0	148.2800983	81.81818182	46.56019656
 8	0	100	100	50.61425061	89.55773956	97.91154791
 9	0	100	0	48.77149877	72.23587224	32.18673219
 10	0	0	100	2.211302211	18.05896806	66.33906634
 11	100	0	0	93.36609337	8.968058968	13.39066339
 12	0	0	0	0	0.1228501229	0.1228501229
 13	0	52.455	100	12.77641278	34.64373464	73.71007371
 14	100	0	50.3	93.61179361	12.77641278	27.02702703
 15	100	54.739	100	108.4766585	45.08599509	87.71498771
 16	100	52.128	0	105.5282555	24.93857494	20.76167076
 17	0	0	46.181	0.6142506143	2.948402948	10.93366093
 18	0	51.141	0	10.56511057	15.35626536	7.002457002
 19	0	100	51.348	48.89434889	75.7985258	46.19164619
 20	100	100	52.037	148.034398	85.74938575	61.3022113
 21	49.216	0	0	18.05896806	1.842751843	2.702702703
 22	56.159	100	0	73.71007371	74.57002457	35.87223587
 23	49.226	100	100	68.91891892	92.13759214	101.1056511
 24	44.487	0	100	16.33906634	19.53316953	68.55036855
 25	100	44.498	52.029	101.965602	24.44717445	33.29238329
 26	48.926	48.544	100	29.23832924	33.78378378	75.30712531
 27	51.368	100	47.25	69.04176904	77.3955774	47.05159705
 28	49.893	0	49.033	19.16461916	5.405405405	15.47911548
 29	53.109	51.372	0	32.06388206	17.44471744	10.07371007
 30	0	58.587	53.943	14.61916462	24.93857494	24.81572482
 31	100	28.065	100	97.05159705	31.57248157	81.81818182
 32	0	0	72.874	1.105651106	8.230958231	30.22113022
 33	0	26.758	100	4.422604423	21.99017199	68.05896806
 34	0	25.426	0	2.457002457	3.562653563	1.71990172
 35	72.508	0	100	44.47174447	22.35872236	72.23587224
 36	100	27.395	0	95.33169533	13.02211302	15.23341523
 37	74.47	100	100	97.2972973	94.84029484	105.1597052
 38	100	0	25.728	92.50614251	9.828009828	16.58476658
 39	73.862	0	0	44.47174447	4.422604423	6.511056511
 40	100	100	25.402	145.5773956	82.06388206	49.50859951
 41	0	75.751	100	27.14987715	55.03685504	82.92383292
 42	0	75.172	0	24.81572482	35.74938575	16.21621622
 43	0	100	25.864	47.91154791	72.6044226	35.38083538
 44	100	0	74.801	92.997543	17.81326781	46.19164619
 45	0	100	75.421	48.89434889	80.83538084	65.84766585
 46	24.577	0	0	4.176904177	0.4914004914	0.7371007371
 47	26.321	100	0	52.82555283	72.23587224	32.92383292
 48	100	75.835	0	121.3759214	45.94594595	30.34398034
 49	100	100	77.061	147.6658477	91.15479115	81.6953317
 50	71.263	100	0	91.64619165	76.16707617	38.32923833
 51	0	0	15.614	0.1228501229	0.3685503686	1.351351351
 52	0	30.049	70.936	4.176904177	12.77641278	30.83538084
 53	100	77.691	100	123.8329238	67.32186732	97.78869779
 54	24.486	100	100	54.42260442	89.92628993	98.77149877
 55	100	62.784	31.909	110.5651106	34.76658477	29.60687961
 56	29.552	0	100	7.985257985	18.7960688	67.1990172
 57	32.98	70.921	100	31.44963145	50.49140049	81.57248157
 58	0	27.681	40.241	3.194103194	6.511056511	10.1965602
 59	67.901	71.021	100	61.3022113	53.80835381	85.995086
 60	28.154	100	67.829	54.42260442	79.23832924	59.21375921
 61	71.637	100	70.001	92.38329238	84.15233415	66.95331695
 62	58.822	58.763	53.586	41.27764128	27.64127764	28.62407862
 63	33.466	30.48	0	11.42506143	5.896805897	3.562653563
 64	100	73.795	71.277	119.4103194	51.84275184	59.33660934
 65	68.394	29.692	0	40.54054054	8.476658477	7.616707617
 66	70.399	0	29.039	39.68058968	5.15970516	10.07371007
 67	28.078	0	26.956	5.651105651	1.597051597	4.545454545
 68	28.532	72.339	0	28.5012285	33.66093366	15.84766585
 69	100	30.941	26.496	96.06879607	15.23341523	19.28746929
 70	34.597	0	73.611	9.459459459	9.459459459	32.67813268
 71	71.573	0	72.408	42.13759214	12.40786241	36.48648649
 72	0	71.029	29.412	21.99017199	32.92383292	18.7960688
 73	68.386	75.008	0	62.53071253	39.92628993	21.74447174
 74	68.088	27.309	100	41.64619165	26.16707617	73.58722359
 75	100	26.457	73.749	96.06879607	21.74447174	47.42014742
 76	74.344	100	27.392	96.06879607	77.64127764	42.997543
 77	27.558	100	28.197	54.42260442	73.34152334	36.73218673
 78	31.196	27.465	100	11.42506143	23.0958231	69.04176904
 79	0	75.521	72.824	25.92137592	44.96314496	47.2972973
 80	0	50.93	25.553	10.44226044	15.97051597	10.07371007
 81	32.06	33.584	64.033	12.03931204	13.26781327	26.9041769
 82	81.666	55.38	0	69.77886978	23.71007371	16.46191646
 83	68.257	32.751	58.286	41.89189189	14.74201474	26.65847666
 84	0	55.248	81.585	13.39066339	29.11547912	48.89434889
 85	73.781	52.099	100	57.12530713	38.6977887	80.0982801
 86	100	50.537	82.952	104.4226044	35.5036855	62.28501229
 87	23.55	0	50.439	4.2997543	4.054054054	14.004914
 88	31.335	62.746	31.114	23.58722359	26.04422604	16.70761671
 89	100	18.31	49.418	92.997543	14.37346437	27.3955774
 90	26.498	48.404	0	14.12776413	14.004914	7.002457002
 91	47.91	100	85.744	66.58476658	86.36363636	80.0982801
 92	71.829	47.313	31.811	50.73710074	18.55036855	16.95331695
 93	31.304	64.132	69.316	24.93857494	33.29238329	39.68058968
 94	80.403	0	54.321	54.2997543	9.705159705	23.71007371
 95	18.455	50.036	100	14.12776413	33.16953317	73.34152334
 96	50.653	100	16.345	67.69041769	73.95577396	36.11793612
 97	80.121	100	52.261	104.9140049	81.32678133	55.15970516
 98	0	22.54	19.289	1.965601966	3.316953317	3.316953317
 99	100	75.273	46.886	119.7788698	48.52579853	41.64619165
 100	0	78.618	56.625	27.76412776	44.71744472	35.5036855
 101	51.137	80.627	100	50.12285012	63.02211302	88.57493857
 102	48.446	0	17.864	17.32186732	2.211302211	4.2997543
 103	100	50.023	21.211	102.0884521	24.2014742	22.23587224
 104	50.115	20.118	0	20.02457002	4.176904177	3.808353808
 105	58.099	72.426	33.158	49.01719902	36.97788698	24.2014742
 106	19.364	100	50.197	50.49140049	75.92137592	46.06879607
 107	50.683	19.177	100	22.35872236	22.11302211	70.14742015
 108	53.37	0	81.576	22.6044226	13.26781327	43.98034398
 109	47.768	76.245	0	42.13759214	38.82063882	19.16461916
 110	0	18.927	55.503	1.842751843	6.633906634	17.32186732
 111	0	13.277	0	0.7371007371	1.105651106	0.6142506143
 112	72.862	72.473	75.625	66.70761671	46.43734644	55.03685504
 113	100	13.904	0	92.01474201	9.950859951	13.75921376
 114	86.349	0	100	65.72481572	24.44717445	75.67567568
 115	100	41.941	100	100.7371007	37.1007371	84.3980344
 116	100	81.785	16.464	125.7985258	53.31695332	35.01228501
 117	0	44.063	52.596	8.108108108	15.23341523	19.9017199
 118	0	0	58.917	0.7371007371	5.15970516	18.7960688
 119	59.25	24.551	29.789	29.36117936	7.248157248	9.828009828
 120	82.73	82.874	100	91.76904177	69.9017199	95.94594595
 121	80.039	0	12.618	53.19410319	5.528255528	8.722358722
 122	60.957	47.729	77.817	38.6977887	26.16707617	46.31449631
 123	100	0	38.618	91.4004914	11.05651106	20.88452088
 124	0	40.09	100	7.985257985	27.51842752	71.00737101
 125	0	15.283	82.322	1.965601966	12.53071253	41.27764128
 126	17.592	81.726	100	33.90663391	62.40786241	86.85503686
 127	100	14.13	100	93.73464373	28.37837838	80.34398034
 128	15.261	100	82.059	50.73710074	82.92383292	74.07862408
 129	47.77	79.418	60.389	45.20884521	48.4029484	41.03194103
 130	18.768	16.429	0	3.562653563	1.842751843	1.228501229
 131	55.634	100	65.763	72.48157248	80.83538084	60.56511057
 132	100	100	38.541	145.3316953	83.29238329	53.93120393
 133	17.421	0	83.497	3.316953317	11.79361179	42.997543
 134	17.237	16.758	100	4.914004914	20.02457002	67.44471744
 135	0	15.067	30.039	1.105651106	2.57985258	5.15970516
 136	0	0	86.505	1.597051597	12.53071253	46.31449631
 137	75.736	72.799	50.02	70.88452088	41.76904177	35.5036855
 138	100	83.323	85.529	127.5184275	67.56756757	80.0982801
 139	100	100	64.894	145.0859951	87.46928747	70.27027027
 140	81.98	84.914	0	90.66339066	53.68550369	29.97542998
 141	0	63.757	15.49	16.83046683	24.93857494	12.53071253
 142	49.514	66.135	100	38.32923833	47.05159705	81.81818182
 143	100	0	61.862	91.4004914	14.74201474	34.52088452
 144	24.308	45.41	49.831	12.40786241	15.84766585	19.28746929
 145	15.963	0	17.047	1.965601966	0.6142506143	1.842751843
 146	87.497	100	100	119.041769	96.92874693	108.968059
 147	52.099	25.003	75.752	23.46437346	14.61916462	38.45208845
 148	14.909	81.162	0	30.71253071	42.87469287	19.53316953
 149	0	34.792	14.626	4.668304668	7.002457002	4.2997543
 150	48.39	45.075	22.552	25.30712531	14.004914	10.31941032
 151	83.545	65.965	100	80.0982801	50.98280098	87.83783784
 152	16.226	62.345	0	17.93611794	23.34152334	10.81081081
 153	63.222	0	14.914	30.95823096	3.43980344	5.773955774
 154	80.449	13.446	0	54.42260442	6.388206388	8.353808354
 155	83.917	41.562	0	65.35626536	15.47911548	12.8992629
 156	100	60.448	46.3	108.2309582	34.27518428	34.76658477
 157	15.584	0	34.795	1.965601966	1.842751843	6.265356265
 158	17.144	65.121	100	21.62162162	44.71744472	79.23832924
 159	83.602	55.334	62.667	72.6044226	30.0982801	38.94348894
 160	0	82.19	14.22	29.97542998	44.34889435	21.00737101
 161	25.132	74.856	50.616	28.99262899	39.55773956	30.34398034
 162	0	13.769	100	2.457002457	19.28746929	66.95331695
 163	87.181	0	0	64.61916462	6.388206388	9.459459459
 164	0	100	39.19	47.42014742	73.34152334	39.92628993
 165	78.047	65.914	19.865	69.04176904	32.18673219	21.4987715
 166	100	63.961	15.865	110.1965602	34.15233415	26.04422604
 167	100	45.955	36.032	100.1228501	22.85012285	25.30712531
 168	15.926	100	16.89	48.89434889	72.23587224	33.53808354
 169	41.459	100	0	60.07371007	72.97297297	33.78378378
 170	48.707	37.288	48.139	23.21867322	12.8992629	18.42751843
 171	83.381	100	13.285	108.8452088	78.00982801	41.76904177
 172	78.129	25.303	75.621	53.43980344	17.69041769	42.26044226
 173	12.396	0	0	1.228501229	0.2457002457	0.3685503686
 174	37.607	48.336	83.346	20.27027027	26.28992629	50
 175	35.588	15.356	0	9.582309582	2.334152334	2.088452088
 176	61.245	100	100	78.99262899	92.997543	103.4398034
 177	100	67.29	87.195	113.3906634	50	74.07862408
 178	0	0	30.615	0.2457002457	1.351351351	4.668304668
 179	35.187	81.789	83.323	39.31203931	56.51105651	63.75921376
 180	39.525	80.194	22.879	39.18918919	43.48894349	22.97297297
 181	50.634	34.593	0	23.58722359	8.476658477	5.896805897
 182	14.175	100	63.146	49.38574939	77.88697789	54.54545455
 183	83.493	17.728	34.574	59.45945946	9.213759214	15.35626536
 184	23.463	22.014	79.943	6.633906634	13.51351351	40.04914005
 185	18.066	31.847	0	6.265356265	5.773955774	2.948402948
 186	87.201	100	81.361	115.970516	89.31203931	82.8009828
 187	0	100	87.95	48.64864865	85.25798526	80.83538084
 188	34.476	17.888	46.22	9.705159705	5.651105651	13.14496314
 189	18.277	0	67.39	3.071253071	7.248157248	25.92137592
 190	100	87.972	0	130.958231	61.05651106	37.34643735
 191	82.925	34.85	100	63.88206388	30.95823096	78.62407862
 192	0	88.016	100	36.73218673	70.63882064	90.78624079
 193	36.104	85.655	100	44.22604423	68.18181818	90.41769042
 194	60.981	0	0	28.25552826	2.948402948	4.176904177
 195	51.466	61.826	78.106	36.36363636	35.13513514	50
 196	78.427	31.983	22.175	54.05405405	11.3022113	12.40786241
 197	66.017	44.321	0	41.64619165	14.61916462	10.1965602
 198	83.941	0	84.177	60.56511057	17.69041769	52.21130221
 199	20.158	46.612	23.269	11.42506143	13.51351351	8.845208845
 200	0	100	62.618	47.91154791	77.64127764	54.42260442
 201	33.832	0	13.933	7.985257985	1.105651106	2.334152334
 202	100	17.286	16.322	92.01474201	10.93366093	15.35626536
 203	0	42.204	83.926	8.108108108	22.11302211	48.15724816
 204	0	87.774	0	34.64373464	51.84275184	23.21867322
 205	64.988	0	59.017	32.92383292	8.476658477	23.95577396
 206	14.677	0	100	3.316953317	18.42751843	67.07616708
 207	88.934	82.673	35.021	100.6142506	53.19410319	36.73218673
 208	0	63.778	100	18.67321867	43.24324324	78.62407862
 209	83.429	17.674	100	60.68796069	25.7985258	76.65847666
 210	30.899	100	85.668	55.28255528	84.64373464	79.23832924
 211	83.68	0	41.016	58.84520885	8.230958231	17.1990172
 212	100	63.515	0	108.8452088	33.41523342	24.44717445
 213	85.074	69.987	0	82.30958231	36.24078624	22.72727273
 214	20.801	45.524	69.018	11.91646192	19.9017199	33.16953317
 215	21.382	82.482	73.017	34.27518428	53.19410319	52.21130221
 216	100	15.128	64.249	92.38329238	16.58476658	36.85503686
 217	36.522	0	58.427	9.828009828	6.01965602	19.9017199
 218	22.466	81.296	33.007	32.92383292	44.71744472	25.42997543
 219	62.531	87.152	0	65.23341523	54.05405405	27.3955774
 220	84.12	85.397	67.886	94.71744472	61.79361179	57.49385749
 221	18.87	27.336	45.389	5.651105651	7.248157248	13.02211302
 222	66.439	100	14.444	83.29238329	75.42997543	38.20638821
 223	41.636	22.147	19.003	14.37346437	4.545454545	5.036855037
 224	61.271	100	81.94	78.62407862	85.74938575	77.27272727
 225	86.013	100	0	113.7592138	77.76412776	41.4004914
 226	37.57	0	0	9.705159705	0.9828009828	1.597051597
 227	100	16.132	84.102	92.38329238	22.23587224	57.73955774
 228	0	100	13.619	47.17444717	71.74447174	32.92383292
 229	38.905	100	56.471	58.5995086	77.3955774	50.98280098
 230	100	15.382	34.563	90.54054054	11.79361179	19.9017199
 231	36.656	14.908	100	12.03931204	20.63882064	68.55036855
 232	0	62.593	66.608	16.58476658	30.34398034	35.74938575
 233	66.347	12.528	100	36.48648649	22.72727273	72.6044226
 234	100	43.375	69.233	98.15724816	27.14987715	45.7002457
 235	100	56.36	61.236	104.6683047	33.53808354	42.87469287
 236	0	86.194	44.955	33.53808354	51.96560197	32.8009828
 237	64.527	87.262	100	68.05896806	72.6044226	95.08599509
 238	34.411	0	42.471	8.353808354	3.43980344	10.56511057
 239	80.23	59.707	85.12	68.91891892	39.18918919	62.65356265
 240	20.625	19.056	14.791	4.422604423	2.702702703	2.702702703
 241	15.341	34.221	100	7.862407862	25.06142506	70.27027027
 242	36.777	0	87.905	10.56511057	14.12776413	50
 243	34.598	56.247	100	23.0958231	37.83783784	76.9041769
 244	20.86	67.629	17.418	22.23587224	28.62407862	14.74201474
 245	44.958	60.843	18.054	29.85257985	24.07862408	14.004914
 246	37.421	60.193	0	24.69287469	22.48157248	11.3022113
 247	84.011	33.849	42.612	63.51351351	14.86486486	21.13022113
 248	17.241	60.339	37.743	17.07616708	23.71007371	17.44471744
 249	50.65	17.261	53.278	20.63882064	7.862407862	18.91891892
 250	45.505	48.926	65.152	25.30712531	21.99017199	32.67813268
 251	44.567	84.081	39.649	46.31449631	50.12285012	31.44963145
 252	100	86.339	72.054	129.6068796	67.1990172	66.09336609
 253	68.14	61.135	0	51.5970516	25.92137592	15.47911548
 254	17.93	66.986	81.403	22.11302211	38.6977887	53.43980344
 255	39.242	60.215	48.926	26.41277641	26.28992629	24.2014742
 256	20.099	18.77	62.967	4.791154791	8.353808354	23.46437346
 257	34.553	100	14.582	54.91400491	72.6044226	34.3980344
 258	87.345	0	66.694	65.47911548	13.39066339	35.01228501
 259	0	43.714	39.842	7.616707617	13.14496314	13.14496314
 260	100	37.705	13.955	95.94594595	17.1990172	17.93611794
 261	31.265	86.993	0	40.54054054	51.10565111	23.58722359
 262	51.402	82.661	81.338	50.61425061	57.98525799	63.75921376
 263	100	100	12.984	143.980344	81.32678133	47.05159705
 264	0	37.859	0	5.528255528	7.985257985	3.685503686
 265	62.092	58.215	100	45.20884521	41.27764128	80.58968059
 266	86.186	100	64.1	114.4963145	85.01228501	65.35626536
 267	100	35.251	85.898	96.68304668	28.5012285	62.53071253
 268	63.182	89.992	41.974	68.7960688	60.44226044	38.57493857
 269	13.504	100	0	48.77149877	71.62162162	32.43243243
 270	100	0	13.228	90.29484029	9.090909091	14.12776413
 271	63.881	40.826	100	39.18918919	31.08108108	76.28992629
 272	69.387	84.838	20.792	71.25307125	52.08845209	29.36117936
 273	0	70.279	45.136	21.25307125	33.66093366	24.93857494
 274	79.094	64.754	40.908	69.9017199	33.29238329	28.00982801
 275	62.385	54.099	17.396	41.64619165	20.27027027	13.75921376
 276	64.408	14.621	0	32.8009828	4.545454545	5.282555283
 277	70.028	15.606	44.651	39.68058968	8.108108108	16.70761671
 278	0	63.544	0	16.58476658	24.44717445	11.17936118
 279	83.475	47.274	20.502	66.21621622	19.04176904	16.46191646
 280	55.866	0	32.671	23.46437346	3.808353808	8.845208845
 281	58.007	0	100	27.14987715	20.88452088	71.00737101
 282	100	0	87.698	91.4004914	21.99017199	61.3022113
 283	0	13.792	67.215	1.474201474	8.230958231	26.16707617
 284	84.123	17.001	58.549	60.56511057	12.65356265	28.25552826
 285	59.579	32.873	15.966	30.71253071	8.845208845	7.985257985
 286	10.41	32.998	28.659	5.15970516	7.248157248	7.002457002
 287	17.231	40.031	85.65	9.336609337	21.86732187	50
 288	37.568	41.561	10.108	16.33906634	10.68796069	6.511056511
 289	0	69.015	85.092	21.13022113	41.4004914	58.10810811
 290	14.442	100	36.187	48.64864865	73.46437346	38.82063882
 291	100	40.549	0	96.56019656	18.05896806	17.32186732
 292	82.143	45.435	78.429	64.74201474	27.27272727	50.61425061
 293	52.674	0	67.3	21.13022113	9.090909091	28.86977887
 294	0	87.868	66.793	35.5036855	58.96805897	48.77149877
 295	86.53	100	40.524	114.2506143	80.0982801	50
 296	71.777	85.586	67.232	75.92137592	60.1965602	54.42260442
 297	43.216	100	31.671	61.17936118	73.95577396	38.6977887
 298	39.245	32.908	85.845	16.09336609	19.53316953	50
 299	0	45.662	67.543	8.845208845	19.16461916	31.44963145
 300	12.161	100	100	49.87714988	89.68058968	99.26289926
 301	67.049	0	85.516	35.62653563	15.97051597	50.61425061
 302	100	89.041	100	132.6781327	81.08108108	105.036855
 303	20.246	60.698	56.526	18.18181818	27.14987715	28.00982801
 304	52.177	55.457	40.416	32.8009828	22.48157248	19.77886978
 305	72.617	87.018	83.932	77.88697789	66.70761671	73.0958231
 306	40.512	16.723	66.475	13.39066339	9.705159705	27.64127764
 307	68.507	49.232	50.605	46.56019656	21.4987715	25.67567568
 308	65.622	100	54.525	82.92383292	79.60687961	53.80835381
 309	54.115	37.24	66.394	27.3955774	16.70761671	31.81818182
 310	100	76.138	31.267	118.4275184	47.54299754	35.13513514
 311	54.728	65.623	0	39.92628993	28.37837838	15.11056511
 312	63.126	12.526	64.37	31.44963145	10.44226044	28.5012285
 313	72.827	18.08	23.704	43.24324324	6.87960688	9.828009828
 314	23.268	15.278	34.947	4.914004914	3.43980344	7.493857494
 315	87.648	68.954	59.645	86.48648649	41.4004914	42.87469287
 316	0	85.595	85.198	34.02948403	61.3022113	67.32186732
 317	35.798	84.371	69.21	41.76904177	55.8968059	50.12285012
 318	36.062	47.494	35.919	18.05896806	15.72481572	13.88206388
 319	86.083	36.277	59.152	67.93611794	18.91891892	31.81818182
 320	58.21	100	30.361	73.46437346	75.06142506	40.54054054
 321	46.745	14.614	32.317	16.95331695	4.422604423	8.230958231
 322	81.573	73.869	86.954	81.08108108	53.31695332	71.37592138
 323	85.991	49.387	48.206	72.35872236	23.71007371	27.88697789
 324	28.062	87.906	19.654	40.29484029	52.45700246	26.16707617
 325	68.992	17.993	85.124	39.18918919	17.81326781	51.5970516
 326	100	66.147	100	112.039312	54.2997543	92.997543
 327	33.358	64.806	84.517	26.53562654	38.32923833	57.002457
 328	41.351	17.736	80.522	14.37346437	13.88206388	42.26044226
 329	100	100	88.719	142.5061425	94.34889435	96.43734644
 330	66.336	0	44.32	34.15233415	6.388206388	15.47911548
 331	64.85	67.09	12.293	51.22850123	31.08108108	18.3046683
 332	15.262	31.268	63.277	5.896805897	11.67076167	25.30712531
 333	15.008	43.663	37.3	9.213759214	13.02211302	12.40786241
 334	0	57.895	38.078	13.63636364	21.86732187	16.46191646
 335	66.599	58.458	67.871	49.01719902	31.32678133	40.90909091
 336	59.191	18.651	15.215	27.51842752	4.914004914	6.142506143
 337	66.781	31.14	84.629	39.18918919	20.88452088	51.96560197
 338	88.033	85.158	52.14	101.1056511	59.09090909	46.68304668
 339	36.882	100	100	58.5995086	91.03194103	100.982801
 340	26.102	33.094	17.006	8.722358722	6.87960688	5.036855037
 341	56.309	36.861	35.862	28.86977887	11.67076167	13.51351351
 342	45.839	65.587	67.033	33.66093366	34.76658477	39.68058968
 343	83.709	81.172	16.406	88.45208845	48.89434889	29.36117936
 344	0	48.132	13.005	8.968058968	13.51351351	7.125307125
 345	87.176	50.021	100	75.92137592	39.31203931	83.16953317
 346	51.219	84.244	13.73	50.98280098	48.52579853	24.93857494
 347	60.606	71.415	48.406	50	38.08353808	31.08108108
 348	0	11.359	12.718	0.6142506143	1.105651106	1.474201474
 349	86.429	49.705	33.145	72.6044226	21.99017199	21.25307125
 350	34.056	40.958	100	16.09336609	28.74692875	72.6044226
 351	100	30.557	59.628	93.61179361	19.28746929	35.38083538
 352	88.497	26.902	13.449	69.41031941	10.81081081	12.53071253
 353	14.167	51.98	88.218	13.39066339	29.23832924	56.14250614
 354	13.784	12.983	49.37	2.57985258	4.668304668	13.51351351
 355	15.018	88.441	48.062	36.97788698	55.77395577	35.995086
 356	87.79	25.769	89.215	68.42751843	23.83292383	61.17936118
 357	0	33.206	55.865	4.668304668	10.56511057	19.65601966
 358	74.324	76.029	35.536	69.53316953	42.50614251	29.36117936
 359	65.863	57.223	42.324	46.68304668	25.06142506	22.85012285
 360	30.893	54.646	13.136	18.67321867	18.3046683	9.828009828
 361	0	34.36	28.321	4.545454545	7.616707617	7.002457002
 362	15.443	77.087	85.116	28.62407862	50.12285012	62.77641278
 363	63.381	68.947	68.521	51.22850123	39.68058968	44.71744472
 364	69.733	27.566	42.917	40.41769042	10.56511057	17.07616708
 365	32.754	100	42.76	54.79115479	74.44717445	42.87469287
 366	47.096	29.481	34.829	19.53316953	8.108108108	10.68796069
 367	8.5451	71.948	62.695	22.97297297	38.32923833	36.60933661
 368	0	86.048	29.3	33.16953317	50	26.28992629
 369	53.697	51.572	85.367	32.67813268	29.97542998	55.52825553
 370	17.608	56.69	12.515	14.98771499	19.28746929	9.828009828
 371	90.638	14.414	49.227	71.37592138	11.79361179	23.71007371
 372	63.248	63.64	89.55	48.4029484	41.52334152	66.95331695
 373	100	85.976	58.455	127.7641278	63.51351351	55.03685504
 374	9.8311	28.027	7.5567	3.808353808	4.545454545	2.57985258
 375	89.831	64.313	69.506	87.83783784	39.55773956	49.50859951
 376	31.754	12.995	25.543	7.616707617	2.702702703	4.914004914
 377	75.914	45.966	64.957	54.91400491	23.34152334	36.24078624
 378	7.5735	50.695	58.941	11.05651106	20.27027027	26.04422604
 379	100	69.835	58.912	113.3906634	44.71744472	46.68304668
 380	32.211	34.376	48.339	11.91646192	10.68796069	16.46191646
 381	13.901	12.159	73.555	2.948402948	9.705159705	32.43243243
 382	87.071	9.028	77.653	65.47911548	16.95331695	46.19164619
 383	23.272	85.409	84.29	37.34643735	60.44226044	66.46191646
 384	93.289	39.48	26.145	81.57248157	17.07616708	18.42751843
 385	65.769	59.63	30.967	47.78869779	25.92137592	19.28746929
 386	100	32.265	41.803	93.73464373	17.1990172	24.81572482
 387	86.568	85.281	86.961	98.03439803	67.69041769	78.99262899
 388	52.577	86.83	30.016	54.54545455	53.19410319	30.22113022
 389	47.921	40.199	76.902	23.83292383	20.63882064	42.26044226
 390	22.36	86.619	61.58	37.46928747	55.65110565	44.47174447
 391	52.232	33.601	88.787	25.67567568	21.99017199	55.8968059
 392	0	28.523	86.267	4.2997543	16.95331695	48.52579853
 393	43.497	67.879	39.551	33.16953317	32.06388206	22.97297297
 394	39.877	45.261	0	19.16461916	12.77641278	7.002457002
 395	86.94	12.43	24.699	63.63636364	8.108108108	12.77641278
 396	28.363	55.339	90.398	19.28746929	33.04668305	61.17936118
 397	39.018	70.534	57.879	32.06388206	36.85503686	34.02948403
 398	12.833	28.519	78.828	5.282555283	14.86486486	40.04914005
 399	68.35	31.815	69.975	40.90909091	17.07616708	36.48648649
 400	56.52	26.226	41.626	26.78132678	8.5995086	14.37346437
 401	12.938	46.218	0	9.336609337	12.28501229	5.773955774
 402	8.6938	60.179	26.117	15.35626536	22.48157248	13.26781327
 403	51.995	89.429	96.608	57.49385749	72.6044226	89.31203931
 404	46.905	47.746	48.909	25.06142506	18.18181818	21.00737101
 405	14.352	81.814	19.479	30.95823096	43.98034398	21.74447174
 406	71.482	38.117	12.273	45.94594595	12.40786241	10.56511057
 407	86.616	60.785	10.012	78.74692875	28.62407862	20.02457002
 408	71.811	88.979	52.186	77.64127764	61.05651106	44.84029484
 409	43.213	100	72.083	61.17936118	80.83538084	64.4963145
 410	73.92	23.444	8.2853	45.33169533	7.371007371	8.230958231
 411	40.629	85.534	53.423	44.71744472	53.80835381	39.31203931
