data/calibration-001193.ti3
CTI3   
ORIGINATOR	"ColorHug Factory"
DESCRIPTOR	"Calibration Target chart information 3"
DEVICE_CLASS	"DISPLAY"
COLOR_REP	"RGB_XYZ"
TARGET_INSTRUMENT	"Hughski ColorHug"
INSTRUMENT_TYPE_SPECTRAL	"NO"
NORMALIZED_TO_Y_100	"NO"
NUMBER_OF_FIELDS	7
NUMBER_OF_SETS	15
BEGIN_DATA_FORMAT
 SAMPLE_ID	RGB_R	RGB_G	RGB_B	XYZ_X	XYZ_Y	XYZ_Z
END_DATA_FORMAT
BEGIN_DATA
 1	0	0	0	0.2288818359	0.2288818359	0.2746582031
 2	1	1	1	31.17370605	35.47668457	42.11425781
 3	1	0	0	18.40209961	2.655029297	3.25012207
 4	0	1	0	11.67297363	25.63476562	11.5814209
 5	0	0	1	0.9613037109	7.553100586	27.64892578
 6	0	0	0	0.2288818359	0.2288818359	0.2746582031
 7	1	1	1	31.08215332	35.47668457	42.11425781
 8	1	0	0	18.40209961	2.655029297	3.25012207
 9	0	1	0	11.67297363	25.49743652	11.48986816
 10	0	0	1	0.9613037109	7.553100586	27.42004395
 11	0	0	0	0.2288818359	0.2288818359	0.2746582031
 12	1	1	1	31.35681152	35.5682373	42.06848145
 13	1	0	0	18.26477051	2.655029297	3.25012207
 14	0	1	0	11.5814209	25.49743652	11.53564453
 15	0	0	1	0.9613037109	7.553100586	27.64892578
END_DATA
