data/calibration-002293.ti3
CTI3   
ORIGINATOR	"ColorHug Factory"
CREATED	"Tue Jan 21 19:50:44 2014"
DESCRIPTOR	"Calibration Target chart information 3"
DEVICE_CLASS	"DISPLAY"
COLOR_REP	"RGB_XYZ"
TARGET_INSTRUMENT	"Hughski ColorHug"
INSTRUMENT_TYPE_SPECTRAL	"NO"
NORMALIZED_TO_Y_100	"NO"
NUMBER_OF_FIELDS	7
NUMBER_OF_SETS	15
BEGIN_DATA_FORMAT
 SAMPLE_ID	RGB_R	RGB_G	RGB_B	XYZ_X	XYZ_Y	XYZ_Z
END_DATA_FORMAT
BEGIN_DATA
 1.0	0.0	0.0	0.0	0.246734619141	0.211944580078	0.262390136719
 2.0	1.0	1.0	1.0	75.155960083008	35.310333251953	54.613327026367
 3.0	1.0	0.0	0.0	47.352600097656	3.882461547852	6.287017822266
 4.0	0.0	1.0	0.0	23.472778320312	22.692520141602	11.554290771484
 5.0	0.0	0.0	1.0	1.482177734375	8.66877746582	35.929809570312
 6.0	0.0	0.0	0.0	0.247787475586	0.213287353516	0.26416015625
 7.0	1.0	1.0	1.0	75.851837158203	35.310333251953	54.613327026367
 8.0	1.0	0.0	0.0	47.352600097656	3.884292602539	6.253433227539
 9.0	0.0	1.0	0.0	23.540222167969	22.882675170898	11.554290771484
 10.0	0.0	0.0	1.0	1.483779907227	8.66877746582	35.929809570312
 11.0	0.0	0.0	0.0	0.249588012695	0.2138671875	0.265426635742
 12.0	1.0	1.0	1.0	75.851837158203	35.463195800781	54.613327026367
 13.0	1.0	0.0	0.0	47.352600097656	3.891677856445	6.248657226562
 14.0	0.0	1.0	0.0	23.540222167969	22.818939208984	11.636352539062
 15.0	0.0	0.0	1.0	1.485122680664	8.66877746582	36.088104248047
END_DATA
