data/calibration-001917.ti3
CTI3   
ORIGINATOR	"ColorHug Factory"
CREATED	"Sat May 25 21:31:25 2013"
DESCRIPTOR	"Calibration Target chart information 3"
DEVICE_CLASS	"DISPLAY"
COLOR_REP	"RGB_XYZ"
TARGET_INSTRUMENT	"Hughski ColorHug"
INSTRUMENT_TYPE_SPECTRAL	"NO"
NORMALIZED_TO_Y_100	"NO"
NUMBER_OF_FIELDS	7
NUMBER_OF_SETS	15
BEGIN_DATA_FORMAT
 SAMPLE_ID	RGB_R	RGB_G	RGB_B	XYZ_X	XYZ_Y	XYZ_Z
END_DATA_FORMAT
BEGIN_DATA
 1	0	0	0	0.091552734375	0.0457763671875	0.1373291015625
 2	1	1	1	40.7867431640625	37.0330810546875	51.6357421875
 3	1	0	0	24.71923828125	2.7923583984375	4.0283203125
 4	0	1	0	14.09912109375	25.08544921875	12.26806640625
 5	0	0	1	0.8697509765625	9.1094970703125	35.614013671875
 6	0	0	0	0.091552734375	0.0457763671875	0.1373291015625
 7	1	1	1	40.5120849609375	36.80419921875	51.5899658203125
 8	1	0	0	24.8565673828125	2.7923583984375	4.0283203125
 9	0	1	0	13.9617919921875	25.1312255859375	12.1307373046875
 10	0	0	1	0.8697509765625	9.1094970703125	35.4766845703125
 11	0	0	0	0.091552734375	0.0457763671875	0.1373291015625
 12	1	1	1	40.740966796875	36.9873046875	51.6357421875
 13	1	0	0	24.90234375	2.7923583984375	4.0283203125
 14	0	1	0	14.0533447265625	24.9481201171875	12.2222900390625
 15	0	0	1	0.823974609375	9.1094970703125	35.5224609375
END_DATA
