data/calibration-001465.ti3
CTI3   
ORIGINATOR	"ColorHug Factory"
DESCRIPTOR	"Calibration Target chart information 3"
DEVICE_CLASS	"DISPLAY"
COLOR_REP	"RGB_XYZ"
TARGET_INSTRUMENT	"Hughski ColorHug"
INSTRUMENT_TYPE_SPECTRAL	"NO"
NORMALIZED_TO_Y_100	"NO"
NUMBER_OF_FIELDS	7
NUMBER_OF_SETS	15
BEGIN_DATA_FORMAT
 SAMPLE_ID	RGB_R	RGB_G	RGB_B	XYZ_X	XYZ_Y	XYZ_Z
END_DATA_FORMAT
BEGIN_DATA
 1	0	0	0	0.1831054688	0.2288818359	0.2746582031
 2	1	1	1	34.8815918	34.51538086	43.35021973
 3	1	0	0	20.9197998	2.655029297	3.616333008
 4	0	1	0	12.40539551	24.62768555	11.5814209
 5	0	0	1	0.9155273438	7.369995117	28.33557129
 6	0	0	0	0.2288818359	0.2288818359	0.2746582031
 7	1	1	1	34.79003906	34.42382812	43.44177246
 8	1	0	0	20.87402344	2.655029297	3.616333008
 9	0	1	0	12.35961914	24.62768555	11.53564453
 10	0	0	1	0.9155273438	7.32421875	28.42712402
 11	0	0	0	0.2288818359	0.2288818359	0.3204345703
 12	1	1	1	34.60693359	34.37805176	43.30444336
 13	1	0	0	20.82824707	2.655029297	3.570556641
 14	0	1	0	12.40539551	24.76501465	11.5814209
 15	0	0	1	0.9155273438	7.32421875	28.47290039
END_DATA
