data/calibration-002581.ti3
CTI3   
ORIGINATOR	"ColorHug Factory"
CREATED	"Wed Dec 03 19:31:46 2014"
DESCRIPTOR	"Calibration Target chart information 3"
DEVICE_CLASS	"DISPLAY"
COLOR_REP	"RGB_XYZ"
TARGET_INSTRUMENT	"Hughski ColorHug"
INSTRUMENT_TYPE_SPECTRAL	"NO"
NORMALIZED_TO_Y_100	"NO"
NUMBER_OF_FIELDS	7
NUMBER_OF_SETS	15
BEGIN_DATA_FORMAT
 SAMPLE_ID	RGB_R	RGB_G	RGB_B	XYZ_X	XYZ_Y	XYZ_Z
END_DATA_FORMAT
BEGIN_DATA
 1.0	0.0	0.0	0.0	0.275939941406	0.28337097168	0.331726074219
 2.0	1.0	1.0	1.0	98.698791503906	96.37646484375	102.399993896484
 3.0	1.0	0.0	0.0	68.84033203125	6.370132446289	10.076248168945
 4.0	0.0	1.0	0.0	23.953201293945	68.266662597656	25.761001586914
 5.0	0.0	0.0	1.0	2.818984985352	19.230041503906	63.015380859375
 6.0	0.0	0.0	0.0	0.277755737305	0.285919189453	0.333480834961
 7.0	1.0	1.0	1.0	98.698791503906	96.37646484375	102.399993896484
 8.0	1.0	0.0	0.0	68.84033203125	6.370132446289	10.076248168945
 9.0	0.0	1.0	0.0	23.953201293945	68.266662597656	25.761001586914
 10.0	0.0	0.0	1.0	2.820922851562	19.230041503906	63.015380859375
 11.0	0.0	0.0	0.0	0.27897644043	0.287231445312	0.334503173828
 12.0	1.0	1.0	1.0	98.698791503906	96.37646484375	102.399993896484
 13.0	1.0	0.0	0.0	68.84033203125	6.370132446289	10.063873291016
 14.0	0.0	1.0	0.0	23.953201293945	68.266662597656	25.761001586914
 15.0	0.0	0.0	1.0	2.825790405273	19.230041503906	63.015380859375
END_DATA
