data/calibration-000172.ti3
CTI3
DESCRIPTOR	"Calibration Target chart information 3"
ORIGINATOR	"ColorHug Factory"
DEVICE_CLASS	"DISPLAY"
COLOR_REP	"RGB_XYZ"
TARGET_INSTRUMENT	"ColorHug"
INSTRUMENT_TYPE_SPECTRAL	"NO"
LUMINANCE_XYZ_CDM2	"56.545258 40.729523 47.561646"
NORMALIZED_TO_Y_100	"YES"
NUMBER_OF_FIELDS	7
NUMBER_OF_SETS	836
BEGIN_DATA_FORMAT
 SAMPLE_ID	RGB_R	RGB_G	RGB_B	XYZ_X	XYZ_Y	XYZ_Z
END_DATA_FORMAT
BEGIN_DATA
 1	100	100	100	137.9349046	100	116.6105499
 2	100	100	100	139.2817059	100	116.6105499
 3	100	100	100	137.8226712	99.43883277	116.6105499
 4	100	100	100	139.5061728	100	116.6105499
 5	33.33	32.622	30.968	12.00897868	8.641975309	9.427609428
 6	100	0	100	88.88888889	28.50729517	82.49158249
 7	100	100	0	136.5881033	80.92031425	48.70931538
 8	0	100	100	48.59708193	90.12345679	101.9079686
 9	0	100	0	47.02581369	71.49270483	34.11896745
 10	0	0	100	2.469135802	19.30415264	68.12570146
 11	100	0	0	87.09315376	9.427609428	14.25364759
 12	0	0	0	0.3367003367	0.3367003367	0.4489337823
 13	0	52.455	100	13.01907969	35.80246914	76.09427609
 14	100	0	50.3	87.31762065	13.46801347	28.73176207
 15	100	54.739	100	101.9079686	46.91358025	91.02132435
 16	100	52.128	0	98.87766554	25.70145903	22.10998878
 17	0	0	46.181	0.6734006734	3.479236813	11.89674523
 18	0	51.141	0	10.66217733	15.93714927	7.85634119
 19	0	100	51.348	47.36251403	75.75757576	49.15824916
 20	100	100	52.037	136.7003367	85.29741863	64.19753086
 21	49.216	0	0	17.84511785	2.132435466	3.254769921
 22	56.159	100	0	70.37037037	74.07407407	38.15937149
 23	49.226	100	100	66.77890011	92.92929293	105.2749719
 24	44.487	0	100	16.27384961	20.87542088	70.9315376
 25	100	44.498	52.029	95.28619529	25.58922559	35.4657688
 26	48.926	48.544	100	28.95622896	35.35353535	77.89001122
 27	51.368	100	47.25	66.66666667	77.44107744	50.05611672
 28	49.893	0	49.033	18.9674523	6.060606061	16.83501684
 29	53.109	51.372	0	31.5375982	18.29405163	11.22334456
 30	0	58.587	53.943	14.70258137	26.03815937	26.82379349
 31	100	28.065	100	91.91919192	33.33333333	84.84848485
 32	0	0	72.874	1.346801347	9.090909091	32.09876543
 33	0	26.758	100	4.713804714	23.45679012	70.59483726
 34	0	25.426	0	2.693602694	3.928170595	2.132435466
 35	72.508	0	100	43.0976431	23.79349046	75.42087542
 36	100	27.395	0	90.46015713	13.8047138	16.38608305
 37	74.47	100	100	92.81705948	94.38832772	109.2031425
 38	100	0	25.728	87.76655443	10.54994388	17.84511785
 39	73.862	0	0	42.76094276	4.826038159	7.182940516
 40	100	100	25.402	137.8226712	81.81818182	52.07631874
 41	0	75.751	100	27.04826038	56.79012346	86.41975309
 42	0	75.172	0	24.57912458	36.58810325	17.62065095
 43	0	100	25.864	47.25028058	72.1661055	37.71043771
 44	100	0	74.801	87.99102132	19.07968575	48.26038159
 45	0	100	75.421	47.81144781	81.59371493	69.13580247
 46	24.577	0	0	4.377104377	0.785634119	1.01010101
 47	26.321	100	0	51.29068462	71.94163861	35.01683502
 48	100	75.835	0	113.5802469	46.68911336	32.43546577
 49	100	100	77.061	138.6083053	91.1335578	85.40965208
 50	71.263	100	0	87.65432099	76.20650954	40.51627385
 51	0	0	15.614	0.3367003367	0.6734006734	1.683501684
 52	0	30.049	70.936	4.377104377	13.8047138	32.65993266
 53	100	77.691	100	115.9371493	68.2379349	101.5712682
 54	24.486	100	100	53.08641975	91.1335578	103.030303
 55	100	62.784	31.909	105.1627385	35.4657688	31.64983165
 56	29.552	0	100	8.080808081	19.86531987	69.47250281
 57	32.98	70.921	100	31.08866442	52.18855219	84.84848485
 58	0	27.681	40.241	3.367003367	7.070707071	11.11111111
 59	67.901	71.021	100	59.48372615	55.89225589	89.67452301
 60	28.154	100	67.829	53.31088664	79.91021324	62.17732884
 61	71.637	100	70.001	88.77665544	84.51178451	70.59483726
 62	58.822	58.763	53.586	40.4040404	28.73176207	30.75196409
 63	33.466	30.48	0	11.44781145	6.285072952	4.152637486
 64	100	73.795	71.277	111.7845118	53.75982043	61.95286195
 65	68.394	29.692	0	39.61840629	9.090909091	8.529741863
 66	70.399	0	29.039	38.72053872	5.723905724	11.11111111
 67	28.078	0	26.956	8.978675645	1.907968575	5.050505051
 68	28.532	72.339	0	28.28282828	34.45566779	17.17171717
 69	100	30.941	26.496	91.24579125	16.04938272	20.65095398
 70	34.597	0	73.611	9.652076319	10.32547699	34.45566779
 71	71.573	0	72.408	40.85297419	13.46801347	38.38383838
 72	0	71.029	29.412	21.99775533	33.89450056	20.31425365
 73	68.386	75.008	0	60.49382716	40.51627385	23.56902357
 74	68.088	27.309	100	40.6285073	27.49719416	76.54320988
 75	100	26.457	73.749	90.34792368	23.12008979	49.60718294
 76	74.344	100	27.392	92.14365881	77.66554433	45.23007856
 77	27.558	100	28.197	52.86195286	73.73737374	39.50617284
 78	31.196	27.465	100	11.67227834	24.46689113	71.94163861
 79	0	75.521	72.824	25.92592593	46.57687991	49.83164983
 80	0	50.93	25.553	10.54994388	16.83501684	11.22334456
 81	32.06	33.584	64.033	12.23344557	14.25364759	28.73176207
 82	81.666	55.38	0	66.44219978	24.57912458	17.95735129
 83	68.257	32.751	58.286	41.18967452	15.82491582	28.61952862
 84	0	55.248	81.585	13.46801347	30.52749719	51.17845118
 85	73.781	52.099	100	54.99438833	40.4040404	83.38945006
 86	100	50.537	82.952	99.21436588	37.03703704	65.31986532
 87	23.55	0	50.439	4.601571268	4.601571268	15.03928171
 88	31.335	62.746	31.114	23.56902357	27.04826038	18.29405163
 89	100	18.31	49.418	88.88888889	15.2637486	29.0684624
 90	26.498	48.404	0	14.25364759	14.70258137	7.744107744
 91	47.91	100	85.744	65.09539843	86.41975309	84.06285073
 92	71.829	47.313	31.811	49.60718294	19.41638608	18.63075196
 93	31.304	64.132	69.316	24.91582492	34.68013468	42.31200898
 94	80.403	0	54.321	52.86195286	10.54994388	25.47699214
 95	18.455	50.036	100	14.47811448	34.56790123	75.98204265
 96	50.653	100	16.345	65.7687991	73.73737374	38.49607183
 97	80.121	100	52.261	100.6734007	81.70594837	58.36139169
 98	0	22.54	19.289	2.244668911	3.815937149	3.815937149
 99	100	75.273	46.886	113.8047138	49.71941639	44.21997755
 100	0	78.618	56.625	27.94612795	45.67901235	37.9349046
 101	51.137	80.627	100	49.83164983	64.19753086	92.03142536
 102	48.446	0	17.864	17.28395062	2.581369248	4.826038159
 103	100	50.023	21.211	97.97979798	25.25252525	24.01795735
 104	50.115	20.118	0	19.97755331	4.601571268	4.377104377
 105	58.099	72.426	33.158	48.14814815	38.15937149	26.26262626
 106	19.364	100	50.197	50.16835017	75.8698092	49.04601571
 107	50.683	19.177	100	22.44668911	23.45679012	72.1661055
 108	53.37	0	81.576	22.671156	14.25364759	45.67901235
 109	47.768	76.245	0	41.52637486	39.84287318	20.87542088
 110	0	18.927	55.503	2.132435466	7.295173962	18.85521886
 111	0	13.277	0	1.01010101	1.346801347	0.8978675645
 112	72.862	72.473	75.625	65.31986532	48.26038159	58.1369248
 113	100	13.904	0	88.55218855	10.66217733	14.81481481
 114	86.349	0	100	63.86083053	26.03815937	78.90011223
 115	100	41.941	100	96.52076319	39.1694725	87.76655443
 116	100	81.785	16.464	119.3041526	54.54545455	37.37373737
 117	0	44.063	52.596	8.305274972	16.27384961	21.54882155
 118	0	0	58.917	0.8978675645	5.836139169	20.08978676
 119	59.25	24.551	29.789	29.29292929	7.85634119	10.88664422
 120	82.73	82.874	100	88.88888889	71.49270483	99.55106622
 121	80.039	0	12.618	51.9640853	6.172839506	9.652076319
 122	60.957	47.729	77.817	38.15937149	27.38496072	49.2704826
 123	100	0	38.618	87.76655443	11.78451178	22.55892256
 124	0	40.09	100	8.305274972	28.95622896	73.4006734
 125	0	15.283	82.322	2.244668911	13.46801347	43.20987654
 126	17.592	81.726	100	33.78226712	64.30976431	89.67452301
 127	100	14.13	100	89.11335578	29.96632997	82.82828283
 128	15.261	100	82.059	49.94388328	84.06285073	77.328844
 129	47.77	79.418	60.389	44.89337823	49.15824916	43.65881033
 130	18.768	16.429	0	3.703703704	2.132435466	1.571268238
 131	55.634	100	65.763	70.25813692	81.59371493	63.52413019
 132	100	100	38.541	137.8226712	83.38945006	56.9023569
 133	17.421	0	83.497	3.591470258	12.68237935	44.44444444
 134	17.237	16.758	100	5.162738496	21.21212121	69.92143659
 135	0	15.067	30.039	1.346801347	2.918069585	5.723905724
 136	0	0	86.505	1.795735129	13.58024691	47.81144781
 137	75.736	72.799	50.02	69.36026936	43.0976431	38.04713805
 138	100	83.323	85.529	121.5488215	69.13580247	83.95061728
 139	100	100	64.894	138.3838384	87.99102132	73.51290685
 140	81.98	84.914	0	87.54208754	54.09652076	32.09876543
 141	0	63.757	15.49	17.17171717	25.70145903	13.69248036
 142	49.514	66.135	100	38.15937149	48.59708193	84.17508418
 143	100	0	61.862	87.09315376	15.71268238	36.58810325
 144	24.308	45.41	49.831	12.68237935	16.83501684	20.76318743
 145	15.963	0	17.047	2.132435466	0.8978675645	2.244668911
 146	87.497	100	100	113.35578	97.41863075	112.5701459
 147	52.099	25.003	75.752	23.45679012	15.82491582	40.51627385
 148	14.909	81.162	0	30.75196409	43.77104377	21.21212121
 149	0	34.792	14.626	4.938271605	7.519640853	4.938271605
 150	48.39	45.075	22.552	25.3647587	14.81481481	11.56004489
 151	83.545	65.965	100	78.11447811	52.97418631	91.02132435
 152	16.226	62.345	0	18.29405163	24.46689113	12.00897868
 153	63.222	0	14.914	30.75196409	3.928170595	6.509539843
 154	80.449	13.446	0	53.64758698	7.070707071	9.315375982
 155	83.917	41.562	0	63.86083053	16.4983165	14.25364759
 156	100	60.448	46.3	104.040404	35.69023569	37.37373737
 157	15.584	0	34.795	2.244668911	2.244668911	6.958473625
 158	17.144	65.121	100	22.10998878	46.57687991	81.70594837
 159	83.602	55.334	62.667	70.81930415	31.64983165	41.41414141
 160	0	82.19	14.22	30.3030303	45.11784512	22.8956229
 161	25.132	74.856	50.616	29.29292929	40.85297419	32.77216611
 162	0	13.769	100	2.693602694	20.53872054	68.91133558
 163	87.181	0	0	63.07519641	6.958473625	10.43771044
 164	0	100	39.19	47.47474747	73.84960718	42.64870932
 165	78.047	65.914	19.865	67.67676768	33.67003367	23.45679012
 166	100	63.961	15.865	104.8260382	35.4657688	27.94612795
 167	100	45.955	36.032	96.2962963	24.1301908	27.27272727
 168	15.926	100	16.89	48.70931538	71.49270483	36.13916947
 169	41.459	100	0	59.48372615	73.17620651	36.13916947
 170	48.707	37.288	48.139	23.45679012	13.91694725	19.97755331
 171	83.381	100	13.285	105.4994388	78.45117845	44.66891134
 172	78.129	25.303	75.621	52.52525253	18.9674523	44.66891134
 173	12.396	0	0	1.459034792	0.4489337823	0.5611672278
 174	37.607	48.336	83.346	20.76318743	27.8338945	52.74971942
 175	35.588	15.356	0	9.87654321	2.693602694	2.469135802
 176	61.245	100	100	77.44107744	93.6026936	106.9584736
 177	100	67.29	87.195	108.7542088	51.73961841	77.328844
 178	0	0	30.615	0.4489337823	1.683501684	5.162738496
 179	35.187	81.789	83.323	39.50617284	57.80022447	66.66666667
 180	39.525	80.194	22.879	39.50617284	44.21997755	25.02805836
 181	50.634	34.593	0	23.68125701	9.090909091	6.734006734
 182	14.175	100	63.146	49.2704826	78.11447811	58.02469136
 183	83.493	17.728	34.574	58.1369248	9.988776655	16.72278339
 184	23.463	22.014	79.943	6.958473625	14.59034792	42.19977553
 185	18.066	31.847	0	6.509539843	6.285072952	3.591470258
 186	87.201	100	81.361	112.5701459	90.01122334	86.53198653
 187	0	100	87.95	48.14814815	85.40965208	84.06285073
 188	34.476	17.888	46.22	9.87654321	6.285072952	14.25364759
 189	18.277	0	67.39	3.367003367	7.968574635	27.38496072
 190	100	87.972	0	123.681257	62.0650954	39.61840629
 191	82.925	34.85	100	62.51402918	32.43546577	81.25701459
 192	0	88.016	100	37.26150393	72.27833895	93.82716049
 193	36.104	85.655	100	43.99551066	70.03367003	93.71492705
 194	60.981	0	0	28.05836139	3.254769921	4.826038159
 195	51.466	61.826	78.106	36.58810325	36.58810325	52.86195286
 196	78.427	31.983	22.175	53.1986532	12.12121212	13.69248036
 197	66.017	44.321	0	41.41414141	15.48821549	11.335578
 198	83.941	0	84.177	59.3714927	19.07968575	54.76992144
 199	20.158	46.612	23.269	11.67227834	14.25364759	9.87654321
 200	0	100	62.618	48.0359147	77.77777778	57.23905724
 201	33.832	0	13.933	8.193041526	1.459034792	2.805836139
 202	100	17.286	16.322	88.43995511	11.78451178	16.72278339
 203	0	42.204	83.926	8.417508418	23.56902357	50.50505051
 204	0	87.774	0	34.90460157	52.30078563	24.91582492
 205	64.988	0	59.017	32.88439955	9.427609428	25.58922559
 206	14.677	0	100	3.591470258	19.52861953	68.79910213
 207	88.934	82.673	35.021	96.85746352	54.4332211	39.1694725
 208	0	63.778	100	18.9674523	45.00561167	81.14478114
 209	83.429	17.674	100	59.5959596	27.38496072	78.45117845
 210	30.899	100	85.668	54.88215488	85.85858586	82.60381594
 211	83.68	0	41.016	57.35129068	8.978675645	18.74298541
 212	100	63.515	0	105.1627385	34.34343434	26.37485971
 213	85.074	69.987	0	80.69584736	37.71043771	24.80359147
 214	20.801	45.524	69.018	12.23344557	20.98765432	35.24130191
 215	21.382	82.482	73.017	34.45566779	55.10662177	55.33108866
 216	100	15.128	64.249	87.87878788	17.62065095	39.1694725
 217	36.522	0	58.427	11.56004489	6.734006734	21.21212121
 218	22.466	81.296	33.007	33.10886644	45.90347924	27.60942761
 219	62.531	87.152	0	64.08529742	54.88215488	29.51739618
 220	84.12	85.397	67.886	92.03142536	63.07519641	60.94276094
 221	18.87	27.336	45.389	5.948372615	7.968574635	14.0291807
 222	66.439	100	14.444	81.48148148	75.64534231	40.6285073
 223	41.636	22.147	19.003	14.47811448	5.050505051	5.723905724
 224	61.271	100	81.94	76.54320988	86.41975309	81.0325477
 225	86.013	100	0	109.7643098	78.00224467	44.332211
 226	37.57	0	0	9.87654321	1.346801347	1.907968575
 227	100	16.132	84.102	89.00112233	23.68125701	60.15712682
 228	0	100	13.619	46.8013468	72.1661055	35.01683502
 229	38.905	100	56.471	58.1369248	77.77777778	54.65768799
 230	100	15.382	34.563	88.10325477	12.79461279	21.4365881
 231	36.656	14.908	100	12.34567901	21.66105499	71.04377104
 232	0	62.593	66.608	17.17171717	31.98653199	38.15937149
 233	66.347	12.528	100	36.36363636	24.01795735	74.6352413
 234	100	43.375	69.233	95.73512907	28.73176207	48.70931538
 235	100	56.36	61.236	100.7856341	34.68013468	45.67901235
 236	0	86.194	44.955	34.00673401	53.53535354	35.4657688
 237	64.527	87.262	100	67.56453423	73.84960718	97.64309764
 238	34.411	0	42.471	8.641975309	3.928170595	11.56004489
 239	80.23	59.707	85.12	68.2379349	40.96520763	66.10549944
 240	20.625	19.056	14.791	4.713804714	3.142536476	3.142536476
 241	15.341	34.221	100	8.305274972	26.48709315	72.72727273
 242	36.777	0	87.905	10.88664422	15.2637486	52.07631874
 243	34.598	56.247	100	23.45679012	39.61840629	78.90011223
 244	20.86	67.629	17.418	22.78338945	29.96632997	16.27384961
 245	44.958	60.843	18.054	29.96632997	25.14029181	15.48821549
 246	37.421	60.193	0	25.14029181	23.68125701	12.5701459
 247	84.011	33.849	42.612	62.73849607	15.93714927	22.8956229
 248	17.241	60.339	37.743	17.50841751	25.02805836	19.19191919
 249	50.65	17.261	53.278	20.76318743	8.641975309	20.31425365
 250	45.505	48.926	65.152	25.58922559	23.45679012	35.01683502
 251	44.567	84.081	39.649	45.90347924	51.40291807	33.89450056
 252	100	86.339	72.054	123.2323232	68.68686869	70.37037037
 253	68.14	61.135	0	51.17845118	27.04826038	17.05948373
 254	17.93	66.986	81.403	22.55892256	40.51627385	56.00448934
 255	39.242	60.215	48.926	26.5993266	27.60942761	26.15039282
 256	20.099	18.77	62.967	5.050505051	9.090909091	24.80359147
 257	34.553	100	14.582	55.33108866	72.72727273	36.58810325
 258	87.345	0	66.694	63.18742985	14.47811448	37.03703704
 259	0	43.714	39.842	7.968574635	14.0291807	14.25364759
 260	100	37.705	13.955	90.23569024	18.29405163	19.41638608
 261	31.265	86.993	0	40.6285073	51.73961841	25.47699214
 262	51.402	82.661	81.338	50.7295174	59.25925926	66.89113356
 263	100	100	12.984	138.047138	81.59371493	49.49494949
 264	0	37.859	0	5.723905724	8.529741863	4.377104377
 265	62.092	58.215	100	44.78114478	43.43434343	83.38945006
 266	86.186	100	64.1	109.8765432	84.96071829	68.4624018
 267	100	35.251	85.898	93.26599327	30.07856341	64.98316498
 268	63.182	89.992	41.974	67.56453423	61.72839506	41.52637486
 269	13.504	100	0	48.14814815	72.05387205	34.34343434
 270	100	0	13.228	86.64421998	9.764309764	15.2637486
 271	63.881	40.826	100	39.28170595	32.65993266	78.00224467
 272	69.387	84.838	20.792	69.58473625	53.31088664	31.64983165
 273	0	70.279	45.136	21.54882155	34.90460157	26.5993266
 274	79.094	64.754	40.908	68.12570146	34.56790123	30.19079686
 275	62.385	54.099	17.396	41.63860831	21.4365881	15.15151515
 276	64.408	14.621	0	32.65993266	4.938271605	6.060606061
 277	70.028	15.606	44.651	39.39393939	8.8664422	18.06958474
 278	0	63.544	0	17.05948373	25.47699214	12.34567901
 279	83.475	47.274	20.502	65.7687991	20.31425365	18.06958474
 280	55.866	0	32.671	23.56902357	4.377104377	9.764309764
 281	58.007	0	100	27.16049383	22.10998878	72.72727273
 282	100	0	87.698	88.55218855	23.45679012	63.63636364
 283	0	13.792	67.215	1.683501684	8.978675645	27.60942761
 284	84.123	17.001	58.549	59.25925926	13.69248036	30.19079686
 285	59.579	32.873	15.966	30.86419753	9.652076319	8.978675645
 286	10.41	32.998	28.659	5.499438833	7.968574635	7.85634119
 287	17.231	40.031	85.65	9.87654321	23.34455668	52.52525253
 288	37.568	41.561	10.108	16.83501684	11.56004489	7.407407407
 289	0	69.015	85.092	21.54882155	43.43434343	60.94276094
 290	14.442	100	36.187	48.59708193	73.96184063	41.63860831
 291	100	40.549	0	93.6026936	19.19191919	18.9674523
 292	82.143	45.435	78.429	64.08529742	29.18069585	53.31088664
 293	52.674	0	67.3	21.66105499	9.988776655	30.63973064
 294	0	87.868	66.793	36.02693603	60.60606061	52.18855219
 295	86.53	100	40.524	110.7744108	81.25701459	53.75982043
 296	71.777	85.586	67.232	74.52300786	61.50392817	57.68799102
 297	43.216	100	31.671	60.60606061	74.6352413	41.75084175
 298	39.245	32.908	85.845	16.61054994	20.76318743	52.41301908
 299	0	45.662	67.543	9.203142536	20.42648709	33.67003367
 300	12.161	100	100	49.71941639	90.46015713	102.5813692
 301	67.049	0	85.516	35.91470258	17.17171717	52.97418631
 302	100	89.041	100	125.9259259	82.94051627	108.6419753
 303	20.246	60.698	56.526	18.85521886	28.39506173	29.85409652
 304	52.177	55.457	40.416	32.88439955	23.56902357	21.54882155
 305	72.617	87.018	83.932	76.87991021	68.2379349	76.54320988
 306	40.512	16.723	66.475	13.69248036	10.54994388	29.18069585
 307	68.507	49.232	50.605	46.24017957	22.671156	27.72166105
 308	65.622	100	54.525	81.25701459	80.24691358	56.79012346
 309	54.115	37.24	66.394	27.60942761	17.95735129	33.89450056
 310	100	76.138	31.267	114.2536476	48.59708193	37.48597082
 311	54.728	65.623	0	40.17957351	29.40516274	16.72278339
 312	63.126	12.526	64.37	31.42536476	11.335578	30.07856341
 313	72.827	18.08	23.704	42.98540965	7.519640853	10.88664422
 314	23.268	15.278	34.947	5.162738496	3.928170595	8.193041526
 315	87.648	68.954	59.645	84.28731762	42.87317621	45.5667789
 316	0	85.595	85.198	34.45566779	62.51402918	70.59483726
 317	35.798	84.371	69.21	41.63860831	57.23905724	53.42312009
 318	36.062	47.494	35.919	18.40628507	16.72278339	15.15151515
 319	86.083	36.277	59.152	66.44219978	20.2020202	34.11896745
 320	58.21	100	30.361	72.05387205	75.75757576	43.32210999
 321	46.745	14.614	32.317	17.17171717	4.938271605	9.090909091
 322	81.573	73.869	86.954	79.34904602	55.21885522	74.52300786
 323	85.991	49.387	48.206	71.38047138	24.91582492	30.07856341
 324	28.062	87.906	19.654	40.4040404	53.98428732	28.28282828
 325	68.992	17.993	85.124	39.39393939	19.07968575	54.09652076
 326	100	66.147	100	108.5297419	56.34118967	95.17396184
 327	33.358	64.806	84.517	27.04826038	40.17957351	59.70819304
 328	41.351	17.736	80.522	14.70258137	14.81481481	43.99551066
 329	100	100	88.719	138.7205387	95.17396184	99.21436588
 330	66.336	0	44.32	34.45566779	7.070707071	16.83501684
 331	64.85	67.09	12.293	51.51515152	32.43546577	19.97755331
 332	15.262	31.268	63.277	6.285072952	12.5701459	26.5993266
 333	15.008	43.663	37.3	9.539842873	13.91694725	13.58024691
 334	0	57.895	38.078	14.14141414	23.12008979	18.06958474
 335	66.599	58.458	67.871	49.04601571	32.88439955	43.88327722
 336	59.191	18.651	15.215	27.72166105	5.499438833	6.84624018
 337	66.781	31.14	84.629	39.28170595	22.33445567	54.32098765
 338	88.033	85.158	52.14	98.42873176	60.60606061	49.83164983
 339	36.882	100	100	58.92255892	92.14365881	104.3771044
 340	26.102	33.094	17.006	9.090909091	7.519640853	5.723905724
 341	56.309	36.861	35.862	29.18069585	12.5701459	14.81481481
 342	45.839	65.587	67.033	33.89450056	36.47586981	42.31200898
 343	83.709	81.172	16.406	87.20538721	50.28058361	31.64983165
 344	0	48.132	13.005	9.427609428	14.36588103	7.968574635
 345	87.176	50.021	100	74.74747475	41.18967452	85.9708193
 346	51.219	84.244	13.73	50.61728395	49.71941639	27.04826038
 347	60.606	71.415	48.406	50.05611672	39.61840629	33.55780022
 348	0	11.359	12.718	0.8978675645	1.346801347	1.795735129
 349	86.429	49.705	33.145	71.71717172	23.12008979	23.12008979
 350	34.056	40.958	100	16.61054994	30.3030303	74.6352413
 351	100	30.557	59.628	90.46015713	20.76318743	37.59820426
 352	88.497	26.902	13.449	67.003367	11.56004489	13.8047138
 353	14.167	51.98	88.218	13.8047138	30.75196409	58.36139169
 354	13.784	12.983	49.37	2.805836139	5.274971942	14.47811448
 355	15.018	88.441	48.062	37.37373737	56.9023569	38.49607183
 356	87.79	25.769	89.215	67.11560045	25.25252525	63.97306397
 357	0	33.206	55.865	4.938271605	11.56004489	21.09988777
 358	74.324	76.029	35.536	68.57463524	44.21997755	31.87429854
 359	65.863	57.223	42.324	46.35241302	26.26262626	24.80359147
 360	30.893	54.646	13.136	18.85521886	19.41638608	11.11111111
 361	0	34.36	28.321	4.938271605	8.193041526	7.85634119
 362	15.443	77.087	85.116	29.18069585	52.30078563	65.7687991
 363	63.381	68.947	68.521	51.40291807	41.41414141	47.81144781
 364	69.733	27.566	42.917	40.74074074	11.44781145	18.63075196
 365	32.754	100	42.76	54.54545455	74.85970819	45.34231201
 366	47.096	29.481	34.829	19.97755331	8.8664422	11.78451178
 367	8.5451	71.948	62.695	23.68125701	40.17957351	39.1694725
 368	0	86.048	29.3	33.67003367	51.40291807	28.73176207
 369	53.697	51.572	85.367	33.33333333	31.7620651	58.1369248
 370	17.608	56.69	12.515	15.37598204	20.31425365	10.99887767
 371	90.638	14.414	49.227	69.92143659	12.68237935	25.70145903
 372	63.248	63.64	89.55	49.2704826	43.77104377	69.80920314
 373	100	85.976	58.455	121.661055	65.20763187	58.69809203
 374	9.8311	28.027	7.5567	4.152637486	4.938271605	3.142536476
 375	89.831	64.313	69.506	86.08305275	41.41414141	52.86195286
 376	31.754	12.995	25.543	8.080808081	3.142536476	5.499438833
 377	75.914	45.966	64.957	54.99438833	24.91582492	38.83277217
 378	7.5735	50.695	58.941	11.67227834	21.66105499	27.94612795
 379	100	69.835	58.912	108.4175084	46.46464646	49.71941639
 380	32.211	34.376	48.339	12.34567901	11.56004489	17.95735129
 381	13.901	12.159	73.555	3.142536476	10.54994388	33.78226712
 382	87.071	9.028	77.653	64.19753086	18.18181818	48.37261504
 383	23.272	85.409	84.29	37.71043771	62.0650954	69.47250281
 384	93.289	39.48	26.145	79.7979798	18.29405163	20.08978676
 385	65.769	59.63	30.967	48.0359147	27.16049383	21.21212121
 386	100	32.265	41.803	91.35802469	18.29405163	26.82379349
 387	86.568	85.281	86.961	96.2962963	69.58473625	82.49158249
 388	52.577	86.83	30.016	54.4332211	54.88215488	32.65993266
 389	47.921	40.199	76.902	24.24242424	21.88552189	44.10774411
 390	22.36	86.619	61.58	37.82267116	57.35129068	47.13804714
 391	52.232	33.601	88.787	26.03815937	23.34455668	57.80022447
 392	0	28.523	86.267	4.489337823	18.18181818	49.94388328
 393	43.497	67.879	39.551	33.33333333	33.33333333	24.91582492
 394	39.877	45.261	0	19.41638608	13.58024691	7.968574635
 395	86.94	12.43	24.699	62.73849607	8.754208754	13.91694725
 396	28.363	55.339	90.398	20.08978676	34.45566779	63.2996633
 397	39.018	70.534	57.879	32.32323232	38.27160494	36.36363636
 398	12.833	28.519	78.828	5.499438833	15.82491582	41.41414141
 399	68.35	31.815	69.975	40.51627385	18.29405163	38.38383838
 400	56.52	26.226	41.626	26.93602694	9.315375982	15.60044893
 401	12.938	46.218	0	9.764309764	12.90684624	6.509539843
 402	8.6938	60.179	26.117	15.82491582	23.56902357	14.59034792
 403	51.995	89.429	96.608	57.68799102	74.6352413	92.25589226
 404	46.905	47.746	48.909	25.47699214	19.30415264	22.78338945
 405	14.352	81.814	19.479	31.20089787	45.45454545	23.79349046
 406	71.482	38.117	12.273	45.45454545	13.24354658	11.67227834
 407	86.616	60.785	10.012	77.328844	29.96632997	21.77328844
 408	71.811	88.979	52.186	76.99214366	62.51402918	48.14814815
 409	43.213	100	72.083	60.94276094	82.15488215	67.90123457
