data/calibration-001840.ti3
CTI3   
ORIGINATOR	"ColorHug Factory"
CREATED	"Wed Apr 10 09:06:48 2013"
DESCRIPTOR	"Calibration Target chart information 3"
DEVICE_CLASS	"DISPLAY"
COLOR_REP	"RGB_XYZ"
TARGET_INSTRUMENT	"Hughski ColorHug"
INSTRUMENT_TYPE_SPECTRAL	"NO"
NORMALIZED_TO_Y_100	"NO"
NUMBER_OF_FIELDS	7
NUMBER_OF_SETS	15
BEGIN_DATA_FORMAT
 SAMPLE_ID	RGB_R	RGB_G	RGB_B	XYZ_X	XYZ_Y	XYZ_Z
END_DATA_FORMAT
BEGIN_DATA
 1	0	0	0	0.1373291016	0.1831054688	0.2288818359
 2	1	1	1	42.66357422	38.0859375	50.39978027
 3	1	0	0	25.9552002	3.021240234	4.028320312
 4	0	1	0	14.60266113	26.27563477	12.17651367
 5	0	0	1	1.007080078	8.560180664	33.73718262
 6	0	0	0	0.1373291016	0.1831054688	0.2288818359
 7	1	1	1	42.70935059	37.71972656	50.26245117
 8	1	0	0	25.9552002	3.021240234	4.028320312
 9	0	1	0	14.69421387	26.45874023	12.22229004
 10	0	0	1	1.007080078	8.560180664	34.10339355
 11	0	0	0	0.1831054688	0.1831054688	0.2288818359
 12	1	1	1	42.43469238	38.0859375	50.35400391
 13	1	0	0	25.90942383	3.021240234	4.028320312
 14	0	1	0	14.60266113	26.41296387	12.17651367
 15	0	0	1	1.007080078	8.560180664	34.01184082
END_DATA
