data/calibration-002457.ti3
CTI3   
ORIGINATOR	"ColorHug Factory"
CREATED	"Wed Jun 11 19:50:34 2014"
DESCRIPTOR	"Calibration Target chart information 3"
DEVICE_CLASS	"DISPLAY"
COLOR_REP	"RGB_XYZ"
TARGET_INSTRUMENT	"Hughski ColorHug"
INSTRUMENT_TYPE_SPECTRAL	"NO"
NORMALIZED_TO_Y_100	"NO"
NUMBER_OF_FIELDS	7
NUMBER_OF_SETS	15
BEGIN_DATA_FORMAT
 SAMPLE_ID	RGB_R	RGB_G	RGB_B	XYZ_X	XYZ_Y	XYZ_Z
END_DATA_FORMAT
BEGIN_DATA
 1.0	0.0	0.0	0.0	0.221710205078	0.192199707031	0.336135864258
 2.0	1.0	1.0	1.0	76.560745239258	33.032257080078	54.979858398438
 3.0	1.0	0.0	0.0	49.05387878418	3.819107055664	6.574630737305
 4.0	0.0	1.0	0.0	23.405700683594	20.428924560547	10.908111572266
 5.0	0.0	0.0	1.0	1.433166503906	8.770874023438	37.06787109375
 6.0	0.0	0.0	0.0	0.223175048828	0.193664550781	0.337036132812
 7.0	1.0	1.0	1.0	76.560745239258	32.899597167969	55.351348876953
 8.0	1.0	0.0	0.0	48.761901855469	3.824462890625	6.611770629883
 9.0	0.0	1.0	0.0	23.540222167969	20.177337646484	10.908111572266
 10.0	0.0	0.0	1.0	1.440719604492	8.724166870117	37.06787109375
 11.0	0.0	0.0	0.0	0.225158691406	0.194778442383	0.339614868164
 12.0	1.0	1.0	1.0	0.0	33.032257080078	55.727890014648
 13.0	1.0	0.0	0.0	48.761901855469	3.847808837891	6.57991027832
 14.0	0.0	1.0	0.0	23.339019775391	20.277221679688	10.850326538086
 15.0	0.0	0.0	1.0	1.435668945312	8.687164306641	37.06787109375
END_DATA
