data/calibration-000623.ti3
CTI3
ORIGINATOR	"ColorHug Factory"
DESCRIPTOR	"Calibration Target chart information 3"
DEVICE_CLASS	"DISPLAY"
COLOR_REP	"RGB_XYZ"
TARGET_INSTRUMENT	"Hughski ColorHug"
INSTRUMENT_TYPE_SPECTRAL	"NO"
NORMALIZED_TO_Y_100	"NO"
NUMBER_OF_FIELDS	7
NUMBER_OF_SETS	15
BEGIN_DATA_FORMAT
 SAMPLE_ID	RGB_R	RGB_G	RGB_B	XYZ_X	XYZ_Y	XYZ_Z
END_DATA_FORMAT
BEGIN_DATA
 1	0	0	0	0.04577636719	0.04577636719	0.09155273438
 2	1	1	1	56.62536621	37.99438477	42.80090332
 3	1	0	0	36.16333008	3.662109375	5.310058594
 4	0	1	0	18.81408691	27.19116211	12.1307373
 5	0	0	1	0.8239746094	7.141113281	25.03967285
 6	0	0	0	0.04577636719	0	0.09155273438
 7	1	1	1	57.35778809	38.2232666	42.75512695
 8	1	0	0	36.11755371	3.662109375	5.310058594
 9	0	1	0	18.81408691	27.09960938	12.1307373
 10	0	0	1	0.8239746094	7.186889648	25.03967285
 11	0	0	0	0.04577636719	0	0.09155273438
 12	1	1	1	56.80847168	38.17749023	42.84667969
 13	1	0	0	35.79711914	3.662109375	5.310058594
 14	0	1	0	18.95141602	27.23693848	12.1307373
 15	0	0	1	0.8239746094	7.186889648	25.13122559
END_DATA
