data/calibration-000299.ti3
CTI3
DESCRIPTOR	"Calibration Target chart information 3"
ORIGINATOR	"ColorHug Factory"
DEVICE_CLASS	"DISPLAY"
COLOR_REP	"RGB_XYZ"
TARGET_INSTRUMENT	"ColorHug"
INSTRUMENT_TYPE_SPECTRAL	"NO"
LUMINANCE_XYZ_CDM2	"60.939789 39.379120 45.032501"
NORMALIZED_TO_Y_100	"YES"
NUMBER_OF_FIELDS	7
NUMBER_OF_SETS	836
BEGIN_DATA_FORMAT
 SAMPLE_ID	RGB_R	RGB_G	RGB_B	XYZ_X	XYZ_Y	XYZ_Z
END_DATA_FORMAT
BEGIN_DATA
 1	100	100	100	154.6929316	99.88412514	114.368482
 2	100	100	100	154.8088065	100	114.2526072
 3	100	100	100	154.9246813	99.42062572	113.0938586
 4	100	100	100	152.6071842	99.42062572	114.2526072
 5	33.33	32.622	30.968	12.74623407	8.111239861	8.690614137
 6	100	0	100	87.13789108	27.92584009	79.95365006
 7	100	100	0	153.7659328	81.69177289	49.24681344
 8	0	100	100	52.83893395	90.49826188	98.9571263
 9	0	100	0	50.75318656	71.72653534	33.48783314
 10	0	0	100	2.201622248	18.30822711	64.77404403
 11	100	0	0	97.91425261	9.617612978	15.06373117
 12	0	0	0	0.1158748552	0.1158748552	0.1158748552
 13	0	52.455	100	13.4414832	34.64658169	72.30590962
 14	100	0	50.3	98.49362688	13.4414832	28.50521437
 15	100	54.739	100	113.6732329	46.34994206	88.8760139
 16	100	52.128	0	110.5446118	25.72421784	22.82734647
 17	0	0	46.181	0.4634994206	3.012746234	10.66048667
 18	0	51.141	0	11.1239861	15.41135574	7.300115875
 19	0	100	51.348	51.21668598	75.31865585	47.2769409
 20	100	100	52.037	151.4484357	85.51564311	63.73117034
 21	49.216	0	0	19.23522596	1.969872538	3.012746234
 22	56.159	100	0	77.40440324	74.50753187	38.00695249
 23	49.226	100	100	72.76940904	91.88876014	101.622248
 24	44.487	0	100	17.38122827	19.93047509	67.67091541
 25	100	44.498	52.029	107.0683662	25.37659328	35.11008111
 26	48.926	48.544	100	31.05446118	34.18308227	74.1599073
 27	51.368	100	47.25	72.76940904	77.40440324	48.66743917
 28	49.893	0	49.033	20.39397451	5.561993048	15.64310545
 29	53.109	51.372	0	34.18308227	17.72885284	10.89223638
 30	0	58.587	53.943	15.41135574	25.02896871	25.14484357
 31	100	28.065	100	103.2444959	32.5608343	82.38702202
 32	0	0	72.874	1.042873696	8.342989571	29.89571263
 33	0	26.758	100	4.634994206	22.13209733	66.85979143
 34	0	25.426	0	2.665121669	3.59212051	1.738122827
 35	72.508	0	100	46.81344148	22.82734647	72.30590962
 36	100	27.395	0	100.3476246	13.78910776	16.91772885
 37	74.47	100	100	103.3603708	95.5967555	106.6048667
 38	100	0	25.728	97.91425261	10.54461182	18.30822711
 39	73.862	0	0	47.2769409	4.750869061	7.41599073
 40	100	100	25.402	152.838934	82.50289687	52.25955968
 41	0	75.751	100	28.85283893	55.73580533	82.85052144
 42	0	75.172	0	26.18771727	35.80533024	17.03360371
 43	0	100	25.864	50.86906141	72.07415991	36.96407879
 44	100	0	74.801	97.79837775	18.65585168	47.16106605
 45	0	100	75.421	51.79606025	81.46002317	67.09154114
 46	24.577	0	0	4.519119351	0.4634994206	0.8111239861
 47	26.321	100	0	55.96755504	72.42178447	34.41483198
 48	100	75.835	0	126.7670915	47.04519119	33.14020857
 49	100	100	77.061	153.6500579	91.54113557	84.2410197
 50	71.263	100	0	95.94438007	76.24565469	40.67207416
 51	0	0	15.614	0.1158748552	0.3476245655	1.274623407
 52	0	30.049	70.936	4.403244496	12.86210892	30.47508691
 53	100	77.691	100	130.4750869	68.36616454	99.30475087
 54	24.486	100	100	57.3580533	90.49826188	99.42062572
 55	100	62.784	31.909	116.2224797	35.57358053	31.98146002
 56	29.552	0	100	8.342989571	18.88760139	66.16454229
 57	32.98	70.921	100	33.25608343	51.44843569	81.46002317
 58	0	27.681	40.241	3.3603708	6.488991889	10.0811124
 59	67.901	71.021	100	64.77404403	54.92468134	86.67439166
 60	28.154	100	67.829	57.82155272	79.37427578	60.25492468
 61	71.637	100	70.001	97.45075319	84.70451912	69.17728853
 62	58.822	58.763	53.586	43.9165701	27.92584009	29.43221321
 63	33.466	30.48	0	12.16685979	5.909617613	3.82387022
 64	100	73.795	71.277	125.2607184	53.30243337	61.06604867
 65	68.394	29.692	0	45.19119351	8.806488992	8.458864426
 66	70.399	0	29.039	42.98957126	5.446118192	10.66048667
 67	28.078	0	26.956	6.025492468	1.622247972	4.403244496
 68	28.532	72.339	0	30.01158749	33.83545771	16.68597914
 69	100	30.941	26.496	100.811124	15.87485516	21.08922364
 70	34.597	0	73.611	9.965237543	9.617612978	32.09733488
 71	71.573	0	72.408	44.9594438	12.86210892	36.61645423
 72	0	71.029	29.412	23.40672074	33.25608343	19.46697567
 73	68.386	75.008	0	66.74391657	40.20857474	23.5225956
 74	68.088	27.309	100	44.14831981	26.53534183	73.1170336
 75	100	26.457	73.749	101.2746234	22.4797219	48.43568946
 76	74.344	100	27.392	101.0428737	77.40440324	45.30706837
 77	27.558	100	28.197	57.12630359	73.69640788	38.58632677
 78	31.196	27.465	100	12.05098494	23.29084589	68.25028969
 79	0	75.521	72.824	27.11471611	45.07531866	47.74044032
 80	0	50.93	25.553	11.1239861	16.10660487	10.42873696
 81	32.06	33.584	64.033	12.86210892	13.32560834	26.53534183
 82	81.666	55.38	0	74.39165701	24.44959444	18.0764774
 83	68.257	32.751	58.286	44.84356895	15.17960603	27.11471611
 84	0	55.248	81.585	14.13673233	29.54808806	48.20393975
 85	73.781	52.099	100	61.41367323	39.39745075	80.30127462
 86	100	50.537	82.952	109.5017381	36.26882966	63.73117034
 87	23.55	0	50.439	4.634994206	4.171494786	13.78910776
 88	31.335	62.746	31.114	25.26071842	26.30359212	17.26535342
 89	100	18.31	49.418	99.07300116	15.17960603	28.85283893
 90	26.498	48.404	0	15.17960603	14.13673233	7.300115875
 91	47.91	100	85.744	70.10428737	85.74739282	81.34414832
 92	71.829	47.313	31.811	54.57705678	19.00347625	18.19235226
 93	31.304	64.132	69.316	26.53534183	33.71958285	40.09269988
 94	80.403	0	54.321	58.16917729	10.31286211	24.68134415
 95	18.455	50.036	100	20.62572422	33.25608343	72.53765933
 96	50.653	100	16.345	71.72653534	74.27578216	38.2387022
 97	80.121	100	52.261	111.5874855	81.80764774	57.70567787
 98	0	22.54	19.289	2.201622248	3.3603708	3.244495944
 99	100	75.273	46.886	125.9559676	49.3626883	43.9165701
 100	0	78.618	56.625	59.79142526	45.30706837	36.15295481
 101	51.137	80.627	100	53.65005794	63.61529548	88.8760139
 102	48.446	0	17.864	18.53997683	2.317497103	4.519119351
 103	100	50.023	21.211	108.806489	25.02896871	24.33371958
 104	50.115	20.118	0	21.55272306	4.287369641	4.287369641
 105	58.099	72.426	33.158	51.91193511	37.65932793	25.49246813
 106	19.364	100	50.197	53.9976825	75.66628042	47.2769409
 107	50.683	19.177	100	23.98609502	22.36384705	68.82966396
 108	53.37	0	81.576	24.33371958	13.55735805	43.33719583
 109	47.768	76.245	0	44.9594438	39.39745075	20.50984936
 110	0	18.927	55.503	1.969872538	6.604866744	17.03360371
 111	0	13.277	0	0.8111239861	1.042873696	0.5793742758
 112	72.862	72.473	75.625	70.10428737	47.74044032	56.19930475
 113	100	13.904	0	97.56662804	10.66048667	15.52723059
 114	86.349	0	100	69.98841251	25.02896871	75.202781
 115	100	41.941	100	106.2572422	38.2387022	84.58864426
 116	100	81.785	16.464	131.8655852	54.92468134	37.77520278
 117	0	44.063	52.596	8.574739282	15.41135574	19.81460023
 118	0	0	58.917	0.6952491309	5.214368482	18.30822711
 119	59.25	24.551	29.789	31.74971031	7.41599073	10.31286211
 120	82.73	82.874	100	97.45075319	70.33603708	96.52375435
 121	80.039	0	12.618	57.01042874	6.025492468	9.733487833
 122	60.957	47.729	77.817	41.48319815	26.30359212	46.58169177
 123	100	0	38.618	97.56662804	11.81923523	22.4797219
 124	0	40.09	100	8.458864426	27.69409038	69.52491309
 125	0	15.283	82.322	2.085747393	12.63035921	40.67207416
 126	17.592	81.726	100	36.15295481	63.03592121	86.79026651
 127	100	14.13	100	98.9571263	29.2004635	80.53302433
 128	15.261	100	82.059	53.53418308	83.54577057	74.73928158
 129	47.77	79.418	60.389	48.20393975	49.13093859	41.83082271
 130	18.768	16.429	0	3.82387022	1.853997683	1.274623407
 131	55.634	100	65.763	76.70915411	80.18539977	61.06604867
 132	100	100	38.541	152.02781	83.66164542	57.24217845
 133	17.421	0	83.497	3.476245655	11.93511008	41.83082271
 134	17.237	16.758	100	5.214368482	20.1622248	66.16454229
 135	0	15.067	30.039	1.158748552	2.549246813	4.982618772
 136	0	0	86.505	1.622247972	12.74623407	45.19119351
 137	75.736	72.799	50.02	75.202781	42.29432213	37.07995365
 138	100	83.323	85.529	134.0672074	68.59791425	81.9235226
 139	100	100	64.894	152.6071842	88.18076477	73.00115875
 140	81.98	84.914	0	95.94438007	54.46118192	32.21320973
 141	0	63.757	15.49	18.0764774	25.14484357	13.09385863
 142	49.514	66.135	100	41.01969873	47.62456547	80.64889919
 143	100	0	61.862	97.45075319	15.52723059	35.80533024
 144	24.308	45.41	49.831	13.20973349	15.99073001	19.23522596
 145	15.963	0	17.047	2.085747393	0.6952491309	1.853997683
 146	87.497	100	100	124.797219	96.98725377	109.9652375
 147	52.099	25.003	75.752	25.02896871	14.94785632	38.2387022
 148	14.909	81.162	0	32.67670915	43.22132097	20.74159907
 149	0	34.792	14.626	4.982618772	7.068366165	4.403244496
 150	48.39	45.075	22.552	26.99884125	14.13673233	10.89223638
 151	83.545	65.965	100	85.74739282	52.14368482	87.83314021
 152	16.226	62.345	0	19.1193511	23.63847045	11.47161066
 153	63.222	0	14.914	33.37195829	3.707995365	6.373117034
 154	80.449	13.446	0	58.51680185	6.836616454	9.501738123
 155	83.917	41.562	0	70.33603708	15.99073001	14.48435689
 156	100	60.448	46.3	114.8319815	35.34183082	37.07995365
 157	15.584	0	34.795	2.085747393	1.853997683	6.141367323
 158	17.144	65.121	100	23.29084589	45.07531866	77.98377752
 159	83.602	55.334	62.667	77.63615295	30.82271147	39.97682503
 160	0	82.19	14.22	32.09733488	44.9594438	22.13209733
 161	25.132	74.856	50.616	30.93858633	40.09269988	31.05446118
 162	0	13.769	100	2.433371958	19.35110081	65.70104287
 163	87.181	0	0	69.29316338	6.952491309	10.77636153
 164	0	100	39.19	50.86906141	73.69640788	41.13557358
 165	78.047	65.914	19.865	74.1599073	33.14020857	23.29084589
 166	100	63.961	15.865	116.801854	35.45770568	28.38933951
 167	100	45.955	36.032	106.6048667	23.87022016	27.34646582
 168	15.926	100	16.89	52.37543453	72.07415991	35.34183082
 169	41.459	100	0	63.96292005	72.53765933	35.68945539
 170	48.707	37.288	48.139	25.14484357	13.32560834	18.65585168
 171	83.381	100	13.285	115.7589803	78.44727694	44.84356895
 172	78.129	25.303	75.621	57.01042874	18.30822711	42.87369641
 173	12.396	0	0	1.390498262	0.2317497103	0.3476245655
 174	37.607	48.336	83.346	21.78447277	26.76709154	49.71031286
 175	35.588	15.356	0	10.42873696	2.433371958	2.201622248
 176	61.245	100	100	84.35689455	92.81575898	103.7079954
 177	100	67.29	87.195	120.0463499	51.44843569	75.08690614
 178	0	0	30.615	0.2317497103	1.390498262	4.519119351
 179	35.187	81.789	83.323	42.17844728	57.3580533	64.42641947
 180	39.525	80.194	22.879	42.52607184	44.14831981	24.33371958
 181	50.634	34.593	0	25.37659328	8.806488992	6.373117034
 182	14.175	100	63.146	52.83893395	77.98377752	56.0834299
 183	83.493	17.728	34.574	63.49942063	9.733487833	16.45422943
 184	23.463	22.014	79.943	7.18424102	13.67323291	39.39745075
 185	18.066	31.847	0	6.720741599	5.909617613	3.128621089
 186	87.201	100	81.361	123.7543453	89.80301275	84.58864426
 187	0	100	87.95	52.02780997	85.2838934	81.57589803
 188	34.476	17.888	46.22	10.42873696	5.793742758	13.09385863
 189	18.277	0	67.39	3.244495944	7.300115875	25.49246813
 190	100	87.972	0	138.5863268	62.57242178	40.32444959
 191	82.925	34.85	100	68.25028969	31.40208575	77.86790267
 192	0	88.016	100	39.2815759	70.45191194	89.9188876
 193	36.104	85.655	100	46.69756663	68.4820394	89.9188876
 194	60.981	0	0	30.59096176	3.128621089	4.866743917
 195	51.466	61.826	78.106	39.04982619	35.34183082	50.40556199
 196	78.427	31.983	22.175	58.05330243	11.81923523	13.4414832
 197	66.017	44.321	0	44.9594438	15.06373117	11.1239861
 198	83.941	0	84.177	64.65816918	18.42410197	52.7230591
 199	20.158	46.612	23.269	12.05098494	13.55735805	9.038238702
 200	0	100	62.618	50.98493627	77.5202781	55.38818076
 201	33.832	0	13.933	8.574739282	1.274623407	2.433371958
 202	100	17.286	16.322	97.6825029	11.70336037	17.14947856
 203	0	42.204	83.926	8.574739282	22.36384705	47.2769409
 204	0	87.774	0	37.07995365	51.56431054	24.44959444
 205	64.988	0	59.017	35.68945539	8.806488992	24.10196987
 206	14.677	0	100	3.476245655	18.42410197	65.46929316
 207	88.934	82.673	35.021	105.2143685	54.22943221	39.16570104
 208	0	63.778	100	19.69872538	43.45307068	76.94090382
 209	83.429	17.674	100	65.35341831	26.41946698	75.78215527
 210	30.899	100	85.668	58.86442642	85.16801854	79.8377752
 211	83.68	0	41.016	63.03592121	8.806488992	18.19235226
 212	100	63.515	0	115.7589803	34.18308227	26.76709154
 213	85.074	69.987	0	88.76013905	37.54345307	24.797219
 214	20.801	45.524	69.018	12.63035921	19.93047509	32.79258401
 215	21.382	82.482	73.017	36.84820394	54.11355736	52.7230591
 216	100	15.128	64.249	98.26187717	17.26535342	38.47045191
 217	36.522	0	58.427	10.54461182	6.141367323	19.69872538
 218	22.466	81.296	33.007	35.34183082	45.53881808	26.53534183
 219	62.531	87.152	0	69.52491309	54.46118192	29.31633835
 220	84.12	85.397	67.886	101.1587486	62.92004635	59.55967555
 221	18.87	27.336	45.389	6.025492468	7.300115875	12.86210892
 222	66.439	100	14.444	88.8760139	75.31865585	40.5561993
 223	41.636	22.147	19.003	15.41135574	4.634994206	5.330243337
 224	61.271	100	81.94	83.42989571	85.74739282	78.79490151
 225	86.013	100	0	120.7415991	78.79490151	44.72769409
 226	37.57	0	0	10.42873696	1.158748552	1.738122827
 227	100	16.132	84.102	98.14600232	23.29084589	58.51680185
 228	0	100	13.619	50.28968714	71.03128621	34.41483198
 229	38.905	100	56.471	62.80417149	77.40440324	53.07068366
 230	100	15.382	34.563	97.6825029	12.63035921	21.4368482
 231	36.656	14.908	100	13.09385863	20.74159907	66.85979143
 232	0	62.593	66.608	17.96060255	31.05446118	35.9212051
 233	66.347	12.528	100	39.39745075	22.94322132	71.03128621
 234	100	43.375	69.233	104.5191194	28.38933951	47.2769409
 235	100	56.36	61.236	111.7033604	34.41483198	44.61181924
 236	0	86.194	44.955	35.80533024	52.37543453	33.83545771
 237	64.527	87.262	100	73.46465817	73.58053302	95.01738123
 238	34.411	0	42.471	9.038238702	3.476245655	10.54461182
 239	80.23	59.707	85.12	73.92815759	39.74507532	63.26767092
 240	20.625	19.056	14.791	4.750869061	2.780996524	2.665121669
 241	15.341	34.221	100	8.342989571	25.14484357	68.4820394
 242	36.777	0	87.905	11.35573581	14.25260718	48.78331402
 243	34.598	56.247	100	24.797219	38.47045191	75.55040556
 244	20.86	67.629	17.418	23.87022016	29.2004635	15.52723059
 245	44.958	60.843	18.054	32.09733488	24.68134415	14.83198146
 246	37.421	60.193	0	26.53534183	22.94322132	12.05098494
 247	84.011	33.849	42.612	68.4820394	15.41135574	22.13209733
 248	17.241	60.339	37.743	18.30822711	24.10196987	17.84472769
 249	50.65	17.261	53.278	22.24797219	7.995365006	18.88760139
 250	45.505	48.926	65.152	27.11471611	22.36384705	32.79258401
 251	44.567	84.081	39.649	49.13093859	50.75318656	32.67670915
 252	100	86.339	72.054	136.1529548	68.82966396	69.06141367
 253	68.14	61.135	0	55.61993048	26.30359212	16.68597914
 254	17.93	66.986	81.403	23.63847045	39.04982619	53.07068366
 255	39.242	60.215	48.926	28.27346466	26.65121669	24.68134415
 256	20.099	18.77	62.967	5.098493627	8.342989571	22.94322132
 257	34.553	100	14.582	59.90730012	73.00115875	36.03707995
 258	87.345	0	66.694	69.40903824	14.02085747	35.68945539
 259	0	43.714	39.842	8.227114716	13.20973349	13.09385863
 260	100	37.705	13.955	102.2016222	18.0764774	19.93047509
 261	31.265	86.993	0	43.45307068	51.21668598	25.02896871
 262	51.402	82.661	81.338	54.57705678	58.28505214	64.31054461
 263	100	100	12.984	150.405562	80.8806489	49.82618772
 264	0	37.859	0	5.909617613	7.995365006	3.939745075
 265	62.092	58.215	100	48.89918888	42.41019699	79.95365006
 266	86.186	100	64.1	120.5098494	84.47276941	67.20741599
 267	100	35.251	85.898	102.7809965	29.54808806	63.73117034
 268	63.182	89.992	41.974	73.34878331	61.29779838	40.20857474
 269	13.504	100	0	51.91193511	71.03128621	33.83545771
 270	100	0	13.228	96.52375435	9.849362688	15.7589803
 271	63.881	40.826	100	42.29432213	31.40208575	74.85515643
 272	69.387	84.838	20.792	75.55040556	52.95480881	31.17033604
 273	0	70.279	45.136	22.71147161	34.18308227	25.26071842
 274	79.094	64.754	40.908	74.73928158	34.18308227	29.66396292
 275	62.385	54.099	17.396	44.84356895	20.85747393	14.7161066
 276	64.408	14.621	0	35.34183082	4.750869061	6.025492468
 277	70.028	15.606	44.651	42.75782155	8.458864426	17.26535342
 278	0	63.544	0	17.84472769	24.68134415	11.81923523
 279	83.475	47.274	20.502	72.30590962	19.93047509	18.0764774
 280	55.866	0	32.671	25.37659328	4.05561993	9.154113557
 281	58.007	0	100	29.08458864	21.08922364	69.29316338
 282	100	0	87.698	97.33487833	22.82734647	61.99304751
 283	0	13.792	67.215	1.506373117	8.227114716	25.60834299
 284	84.123	17.001	58.549	65.00579374	13.20973349	29.2004635
 285	59.579	32.873	15.966	33.14020857	9.269988413	8.690614137
 286	10.41	32.998	28.659	5.561993048	7.300115875	7.068366165
 287	17.231	40.031	85.65	10.0811124	22.01622248	49.13093859
 288	37.568	41.561	10.108	17.72885284	10.89223638	6.952491309
 289	0	69.015	85.092	22.4797219	42.06257242	57.58980301
 290	14.442	100	36.187	52.25955968	73.46465817	40.5561993
 291	100	40.549	0	103.0127462	19.00347625	19.35110081
 292	82.143	45.435	78.429	69.64078795	28.27346466	50.86906141
 293	52.674	0	67.3	22.94322132	9.385863268	28.62108922
 294	0	87.868	66.793	38.12282735	59.4438007	49.94206257
 295	86.53	100	40.524	120.6257242	80.18539977	52.83893395
 296	71.777	85.586	67.232	81.11239861	61.18192352	55.73580533
 297	43.216	100	31.671	65.46929316	74.62340672	40.78794902
 298	39.245	32.908	85.845	17.38122827	19.81460023	49.24681344
 299	0	45.662	67.543	9.385863268	19.35110081	31.28621089
 300	12.161	100	100	52.95480881	89.57126304	98.60950174
 301	67.049	0	85.516	38.2387022	16.33835458	50.28968714
 302	100	89.041	100	139.6292005	82.38702202	106.0254925
 303	20.246	60.698	56.526	19.58285052	27.46234067	28.04171495
 304	52.177	55.457	40.416	35.34183082	22.94322132	20.39397451
 305	72.617	87.018	83.932	83.08227115	67.4391657	74.04403244
 306	40.512	16.723	66.475	14.36848204	9.849362688	27.11471611
 307	68.507	49.232	50.605	50.17381228	22.01622248	26.41946698
 308	65.622	100	54.525	87.83314021	79.25840093	55.50405562
 309	54.115	37.24	66.394	29.66396292	17.03360371	31.86558517
 310	100	76.138	31.267	125.4924681	48.89918888	38.00695249
 311	54.728	65.623	0	43.10544612	28.85283893	16.33835458
 312	63.126	12.526	64.37	33.83545771	10.77636153	28.50521437
 313	72.827	18.08	23.704	46.58169177	7.300115875	10.66048667
 314	23.268	15.278	34.947	5.214368482	3.476245655	7.300115875
 315	87.648	68.954	59.645	92.35225956	42.29432213	44.72769409
 316	0	85.595	85.198	36.15295481	61.29779838	67.4391657
 317	35.798	84.371	69.21	44.38006952	56.31517961	51.33256083
 318	36.062	47.494	35.919	19.35110081	15.99073001	14.25260718
 319	86.083	36.277	59.152	72.19003476	19.58285052	32.79258401
 320	58.21	100	30.361	77.86790267	74.97103129	42.29432213
 321	46.745	14.614	32.317	18.19235226	4.519119351	8.342989571
 322	81.573	73.869	86.954	86.44264195	53.9976825	72.07415991
 323	85.991	49.387	48.206	78.09965238	24.44959444	29.31633835
 324	28.062	87.906	19.654	43.22132097	53.41830823	27.46234067
 325	68.992	17.993	85.124	42.29432213	18.30822711	51.44843569
 326	100	66.147	100	118.5399768	55.50405562	93.04750869
 327	33.358	64.806	84.517	28.27346466	39.16570104	57.12630359
 328	41.351	17.736	80.522	15.41135574	13.90498262	41.48319815
 329	100	100	88.719	150.405562	94.66975666	97.79837775
 330	66.336	0	44.32	37.19582851	6.604866744	15.87485516
 331	64.85	67.09	12.293	55.50405562	31.86558517	19.58285052
 332	15.262	31.268	63.277	6.373117034	11.81923523	24.797219
 333	15.008	43.663	37.3	9.849362688	13.20973349	12.3986095
 334	0	57.895	38.078	14.60023175	22.24797219	16.801854
 335	66.599	58.458	67.871	52.49130939	31.98146002	41.599073
 336	59.191	18.651	15.215	29.77983778	5.214368482	6.604866744
 337	66.781	31.14	84.629	42.52607184	21.32097335	51.33256083
 338	88.033	85.158	52.14	107.7636153	60.25492468	48.3198146
 339	36.882	100	100	62.34067207	90.49826188	100.2317497
 340	26.102	33.094	17.006	9.385863268	6.952491309	5.214368482
 341	56.309	36.861	35.862	31.28621089	12.05098494	13.90498262
 342	45.839	65.587	67.033	36.38470452	35.45770568	40.5561993
 343	83.709	81.172	16.406	94.90150637	49.71031286	31.63383546
 344	0	48.132	13.005	9.733487833	13.67323291	7.300115875
 345	87.176	50.021	100	81.69177289	40.32444959	83.08227115
 346	51.219	84.244	13.73	54.57705678	49.3626883	26.41946698
 347	60.606	71.415	48.406	53.53418308	38.58632677	32.32908459
 348	0	11.359	12.718	0.6952491309	1.158748552	1.390498262
 349	86.429	49.705	33.145	78.44727694	22.82734647	22.71147161
 350	34.056	40.958	100	17.38122827	28.96871379	71.26303592
 351	100	30.557	59.628	100.4634994	20.27809965	36.96407879
 352	88.497	26.902	13.449	73.58053302	11.47161066	13.90498262
 353	14.167	51.98	88.218	14.25260718	29.54808806	55.50405562
 354	13.784	12.983	49.37	2.780996524	4.750869061	13.20973349
 355	15.018	88.441	48.062	39.86095017	56.66280417	37.19582851
 356	87.79	25.769	89.215	73.58053302	24.56546929	61.64542294
 357	0	33.206	55.865	4.982618772	10.77636153	19.35110081
 358	74.324	76.029	35.536	74.62340672	43.68482039	31.40208575
 359	65.863	57.223	42.324	50.17381228	25.60834299	23.87022016
 360	30.893	54.646	13.136	19.93047509	18.77172654	10.42873696
 361	0	34.36	28.321	4.982618772	7.64774044	7.068366165
 362	15.443	77.087	85.116	30.59096176	51.44843569	63.03592121
 363	63.381	68.947	68.521	55.27230591	40.67207416	45.77056779
 364	69.733	27.566	42.917	43.9165701	11.00811124	17.84472769
 365	32.754	100	42.76	58.51680185	74.85515643	44.38006952
 366	47.096	29.481	34.829	21.08922364	8.342989571	10.89223638
 367	8.5451	71.948	62.695	24.797219	39.04982619	36.96407879
 368	0	86.048	29.3	35.34183082	50.40556199	27.57821553
 369	53.697	51.572	85.367	35.34183082	30.59096176	55.50405562
 370	17.608	56.69	12.515	16.10660487	19.58285052	10.31286211
 371	90.638	14.414	49.227	77.05677868	12.3986095	25.02896871
 372	63.248	63.64	89.55	52.49130939	42.52607184	67.09154114
 373	100	85.976	58.455	135.225956	64.65816918	57.12630359
 374	9.8311	28.027	7.5567	4.05561993	4.519119351	2.665121669
 375	89.831	64.313	69.506	93.62688297	40.44032445	51.33256083
 376	31.754	12.995	25.543	8.227114716	2.780996524	4.982618772
 377	75.914	45.966	64.957	59.67555041	24.10196987	36.96407879
 378	7.5735	50.695	58.941	11.93511008	20.50984936	25.95596756
 379	100	69.835	58.912	120.0463499	46.11819235	48.78331402
 380	32.211	34.376	48.339	12.86210892	10.77636153	16.45422943
 381	13.901	12.159	73.555	3.128621089	9.849362688	31.5179606
 382	87.071	9.028	77.653	69.98841251	17.61297798	46.81344148
 383	23.272	85.409	84.29	39.97682503	61.06604867	66.62804171
 384	93.289	39.48	26.145	86.79026651	17.96060255	20.04634994
 385	65.769	59.63	30.967	51.33256083	26.53534183	20.50984936
 386	100	32.265	41.803	100	18.0764774	26.53534183
 387	86.568	85.281	86.961	103.5921205	68.36616454	80.06952491
 388	52.577	86.83	30.016	58.28505214	53.88180765	31.86558517
 389	47.921	40.199	76.902	25.8400927	20.85747393	41.83082271
 390	22.36	86.619	61.58	39.97682503	56.77867903	45.42294322
 391	52.232	33.601	88.787	27.69409038	22.24797219	55.15643105
 392	0	28.523	86.267	4.403244496	17.03360371	47.16106605
 393	43.497	67.879	39.551	35.57358053	32.44495944	23.75434531
 394	39.877	45.261	0	20.50984936	12.97798378	7.531865585
 395	86.94	12.43	24.699	68.36616454	8.690614137	14.02085747
 396	28.363	55.339	90.398	20.62572422	33.37195829	60.7184241
 397	39.018	70.534	57.879	34.41483198	37.54345307	34.64658169
 398	12.833	28.519	78.828	5.561993048	14.94785632	39.04982619
 399	68.35	31.815	69.975	44.14831981	17.49710313	36.73232908
 400	56.52	26.226	41.626	28.85283893	8.922363847	14.60023175
 401	12.938	46.218	0	10.0811124	12.3986095	6.025492468
 402	8.6938	60.179	26.117	16.57010429	22.82734647	13.78910776
 403	51.995	89.429	96.608	61.99304751	73.46465817	89.10776362
 404	46.905	47.746	48.909	26.99884125	18.53997683	21.4368482
 405	14.352	81.814	19.479	32.90845886	44.49594438	22.82734647
 406	71.482	38.117	12.273	49.3626883	12.86210892	11.47161066
 407	86.616	60.785	10.012	84.58864426	29.66396292	21.90034762
 408	71.811	88.979	52.186	83.08227115	61.87717265	46.58169177
 409	43.213	100	72.083	65.70104287	81.57589803	65.58516802
