data/calibration-000871.ti3
CTI3   
ORIGINATOR	"ColorHug Factory"
DESCRIPTOR	"Calibration Target chart information 3"
DEVICE_CLASS	"DISPLAY"
COLOR_REP	"RGB_XYZ"
TARGET_INSTRUMENT	"Hughski ColorHug"
INSTRUMENT_TYPE_SPECTRAL	"NO"
NORMALIZED_TO_Y_100	"NO"
NUMBER_OF_FIELDS	7
NUMBER_OF_SETS	15
BEGIN_DATA_FORMAT
 SAMPLE_ID	RGB_R	RGB_G	RGB_B	XYZ_X	XYZ_Y	XYZ_Z
END_DATA_FORMAT
BEGIN_DATA
 1	0	0	0	0.04577636719	0.04577636719	0.09155273438
 2	1	1	1	64.0411377	40.19165039	46.41723633
 3	1	0	0	40.55786133	3.890991211	6.088256836
 4	0	1	0	21.10290527	28.79333496	13.22937012
 5	0	0	1	0.9613037109	7.690429688	26.91650391
 6	0	0	0	0.04577636719	0.04577636719	0.09155273438
 7	1	1	1	64.0411377	40.37475586	46.6003418
 8	1	0	0	40.69519043	3.890991211	6.088256836
 9	0	1	0	21.14868164	28.83911133	13.22937012
 10	0	0	1	0.9613037109	7.690429688	27.19116211
 11	0	0	0	0.04577636719	0.04577636719	0.09155273438
 12	1	1	1	63.58337402	40.32897949	46.6003418
 13	1	0	0	40.7409668	3.890991211	6.088256836
 14	0	1	0	21.24023438	28.70178223	13.22937012
 15	0	0	1	0.9613037109	7.690429688	27.14538574
END_DATA
