data/calibration-000574.ti3
CTI3
ORIGINATOR	"ColorHug Factory"
DESCRIPTOR	"Calibration Target chart information 3"
DEVICE_CLASS	"DISPLAY"
COLOR_REP	"RGB_XYZ"
TARGET_INSTRUMENT	"Hughski ColorHug"
INSTRUMENT_TYPE_SPECTRAL	"NO"
NORMALIZED_TO_Y_100	"NO"
NUMBER_OF_FIELDS	7
NUMBER_OF_SETS	15
BEGIN_DATA_FORMAT
 SAMPLE_ID	RGB_R	RGB_G	RGB_B	XYZ_X	XYZ_Y	XYZ_Z
END_DATA_FORMAT
BEGIN_DATA
 1	0	0	0	0	0	0
 2	1	1	1	64.08691406	40.78674316	47.88208008
 3	1	0	0	40.64941406	3.890991211	5.950927734
 4	0	1	0	21.05712891	29.0222168	13.59558105
 5	0	0	1	0.9155273438	7.64465332	28.10668945
 6	0	0	0	0	0	0
 7	1	1	1	63.12561035	40.19165039	47.56164551
 8	1	0	0	40.55786133	3.890991211	5.905151367
 9	0	1	0	20.9197998	28.8848877	13.50402832
 10	0	0	1	0.8697509766	7.64465332	28.06091309
 11	0	0	0	0	0	0
 12	1	1	1	63.49182129	40.7409668	47.88208008
 13	1	0	0	40.42053223	3.890991211	5.905151367
 14	0	1	0	21.05712891	28.8848877	13.50402832
 15	0	0	1	0.8697509766	7.64465332	28.01513672
END_DATA
