data/calibration-001238.ti3
CTI3   
ORIGINATOR	"ColorHug Factory"
DESCRIPTOR	"Calibration Target chart information 3"
DEVICE_CLASS	"DISPLAY"
COLOR_REP	"RGB_XYZ"
TARGET_INSTRUMENT	"Hughski ColorHug"
INSTRUMENT_TYPE_SPECTRAL	"NO"
NORMALIZED_TO_Y_100	"NO"
NUMBER_OF_FIELDS	7
NUMBER_OF_SETS	15
BEGIN_DATA_FORMAT
 SAMPLE_ID	RGB_R	RGB_G	RGB_B	XYZ_X	XYZ_Y	XYZ_Z
END_DATA_FORMAT
BEGIN_DATA
 1	0	0	0	0.09155273438	0.1373291016	0.1831054688
 2	1	1	1	26.91650391	30.85327148	35.5682373
 3	1	0	0	15.74707031	2.380371094	2.838134766
 4	0	1	0	10.02502441	22.43041992	10.02502441
 5	0	0	1	0.732421875	6.408691406	22.97973633
 6	0	0	0	0.09155273438	0.1373291016	0.1831054688
 7	1	1	1	26.91650391	30.80749512	35.5682373
 8	1	0	0	15.79284668	2.380371094	2.838134766
 9	0	1	0	10.07080078	22.38464355	10.11657715
 10	0	0	1	0.732421875	6.408691406	23.07128906
 11	0	0	0	0.09155273438	0.1373291016	0.1831054688
 12	1	1	1	26.7791748	30.71594238	35.65979004
 13	1	0	0	15.74707031	2.380371094	2.838134766
 14	0	1	0	10.02502441	22.43041992	10.11657715
 15	0	0	1	0.732421875	6.408691406	23.0255127
END_DATA
