data/calibration-002208.ti3
CTI3   
ORIGINATOR	"ColorHug Factory"
CREATED	"Wed Nov 20 21:06:39 2013"
DESCRIPTOR	"Calibration Target chart information 3"
DEVICE_CLASS	"DISPLAY"
COLOR_REP	"RGB_XYZ"
TARGET_INSTRUMENT	"Hughski ColorHug"
INSTRUMENT_TYPE_SPECTRAL	"NO"
NORMALIZED_TO_Y_100	"NO"
NUMBER_OF_FIELDS	7
NUMBER_OF_SETS	15
BEGIN_DATA_FORMAT
 SAMPLE_ID	RGB_R	RGB_G	RGB_B	XYZ_X	XYZ_Y	XYZ_Z
END_DATA_FORMAT
BEGIN_DATA
 1	0	0	0	0.1373291015625	0.091552734375	0.18310546875
 2	1	1	1	72.0062255859375	33.3709716796875	51.544189453125
 3	1	0	0	45.7763671875	3.5247802734375	5.9967041015625
 4	0	1	0	22.7508544921875	21.6522216796875	10.8489990234375
 5	0	0	1	1.3275146484375	7.965087890625	34.4696044921875
 6	0	0	0	0.1373291015625	0.091552734375	0.18310546875
 7	1	1	1	71.3653564453125	33.2794189453125	51.5899658203125
 8	1	0	0	45.95947265625	3.570556640625	5.9967041015625
 9	0	1	0	22.6593017578125	21.7437744140625	10.8489990234375
 10	0	0	1	1.3275146484375	8.0108642578125	34.423828125
 11	0	0	0	0.1373291015625	0.091552734375	0.18310546875
 12	1	1	1	71.2738037109375	33.3709716796875	51.5899658203125
 13	1	0	0	45.684814453125	3.570556640625	5.9967041015625
 14	0	1	0	22.7508544921875	21.697998046875	10.8489990234375
 15	0	0	1	1.3275146484375	8.0108642578125	34.5611572265625
END_DATA
