data/calibration-001137.ti3
CTI3   
ORIGINATOR	"ColorHug Factory"
DESCRIPTOR	"Calibration Target chart information 3"
DEVICE_CLASS	"DISPLAY"
COLOR_REP	"RGB_XYZ"
TARGET_INSTRUMENT	"Hughski ColorHug"
INSTRUMENT_TYPE_SPECTRAL	"NO"
NORMALIZED_TO_Y_100	"NO"
NUMBER_OF_FIELDS	7
NUMBER_OF_SETS	15
BEGIN_DATA_FORMAT
 SAMPLE_ID	RGB_R	RGB_G	RGB_B	XYZ_X	XYZ_Y	XYZ_Z
END_DATA_FORMAT
BEGIN_DATA
 1	0	0	0	0.2746582031	0.3204345703	0.4119873047
 2	1	1	1	30.07507324	33.18786621	38.17749023
 3	1	0	0	17.80700684	2.655029297	3.158569336
 4	0	1	0	11.16943359	24.03259277	10.89477539
 5	0	0	1	0.9613037109	6.912231445	24.39880371
 6	0	0	0	0.3204345703	0.3204345703	0.3204345703
 7	1	1	1	30.07507324	33.09631348	38.04016113
 8	1	0	0	17.89855957	2.655029297	3.204345703
 9	0	1	0	11.07788086	24.03259277	10.89477539
 10	0	0	1	0.9613037109	6.912231445	24.35302734
 11	0	0	0	0.3204345703	0.3204345703	0.3662109375
 12	1	1	1	30.02929688	33.00476074	38.04016113
 13	1	0	0	17.89855957	2.655029297	3.204345703
 14	0	1	0	11.12365723	24.03259277	10.80322266
 15	0	0	1	0.9613037109	6.912231445	24.49035645
END_DATA
