data/calibration-001375.ti3
CTI3   
ORIGINATOR	"ColorHug Factory"
DESCRIPTOR	"Calibration Target chart information 3"
DEVICE_CLASS	"DISPLAY"
COLOR_REP	"RGB_XYZ"
TARGET_INSTRUMENT	"Hughski ColorHug"
INSTRUMENT_TYPE_SPECTRAL	"NO"
NORMALIZED_TO_Y_100	"NO"
NUMBER_OF_FIELDS	7
NUMBER_OF_SETS	15
BEGIN_DATA_FORMAT
 SAMPLE_ID	RGB_R	RGB_G	RGB_B	XYZ_X	XYZ_Y	XYZ_Z
END_DATA_FORMAT
BEGIN_DATA
 1	0	0	0	0.1373291016	0.1831054688	0.2746582031
 2	1	1	1	34.19494629	36.57531738	44.31152344
 3	1	0	0	20.59936523	2.9296875	3.570556641
 4	0	1	0	12.54272461	26.5045166	12.1307373
 5	0	0	1	0.9155273438	7.827758789	29.11376953
 6	0	0	0	0.1373291016	0.1831054688	0.2746582031
 7	1	1	1	34.24072266	36.34643555	44.26574707
 8	1	0	0	20.59936523	2.9296875	3.570556641
 9	0	1	0	12.54272461	26.3671875	12.1307373
 10	0	0	1	0.9155273438	7.827758789	29.11376953
 11	0	0	0	0.1373291016	0.1831054688	0.2746582031
 12	1	1	1	34.33227539	36.71264648	44.40307617
 13	1	0	0	20.55358887	2.883911133	3.570556641
 14	0	1	0	12.54272461	26.41296387	12.1307373
 15	0	0	1	0.9155273438	7.827758789	29.06799316
END_DATA
