data/calibration-002342.ti3
CTI3   
ORIGINATOR	"ColorHug Factory"
CREATED	"Tue Jan 21 20:37:41 2014"
DESCRIPTOR	"Calibration Target chart information 3"
DEVICE_CLASS	"DISPLAY"
COLOR_REP	"RGB_XYZ"
TARGET_INSTRUMENT	"Hughski ColorHug"
INSTRUMENT_TYPE_SPECTRAL	"NO"
NORMALIZED_TO_Y_100	"NO"
NUMBER_OF_FIELDS	7
NUMBER_OF_SETS	15
BEGIN_DATA_FORMAT
 SAMPLE_ID	RGB_R	RGB_G	RGB_B	XYZ_X	XYZ_Y	XYZ_Z
END_DATA_FORMAT
BEGIN_DATA
 1.0	0.0	0.0	0.0	0.297164916992	0.266616821289	0.353088378906
 2.0	1.0	1.0	1.0	84.453598022461	36.735412597656	58.09928894043
 3.0	1.0	0.0	0.0	53.194793701172	4.336685180664	7.522491455078
 4.0	0.0	1.0	0.0	26.172515869141	23.744918823242	12.799987792969
 5.0	0.0	0.0	1.0	1.673873901367	8.923736572266	37.236358642578
 6.0	0.0	0.0	0.0	0.301620483398	0.270034790039	0.359115600586
 7.0	1.0	1.0	1.0	84.453598022461	36.900894165039	58.09928894043
 8.0	1.0	0.0	0.0	53.194793701172	4.304779052734	7.494964599609
 9.0	0.0	1.0	0.0	26.256408691406	23.608062744141	12.780029296875
 10.0	0.0	0.0	1.0	1.673202514648	8.962799072266	37.236358642578
 11.0	0.0	0.0	0.0	0.304534912109	0.27294921875	0.362152099609
 12.0	1.0	1.0	1.0	84.453598022461	36.571426391602	58.09928894043
 13.0	1.0	0.0	0.0	53.194793701172	4.334381103516	7.564163208008
 14.0	0.0	1.0	0.0	26.172515869141	23.608062744141	12.820022583008
 15.0	0.0	0.0	1.0	1.674911499023	8.953002929688	37.236358642578
END_DATA
