data/calibration-001828.ti3
CTI3   
ORIGINATOR	"ColorHug Factory"
CREATED	"Wed Apr 10 08:54:24 2013"
DESCRIPTOR	"Calibration Target chart information 3"
DEVICE_CLASS	"DISPLAY"
COLOR_REP	"RGB_XYZ"
TARGET_INSTRUMENT	"Hughski ColorHug"
INSTRUMENT_TYPE_SPECTRAL	"NO"
NORMALIZED_TO_Y_100	"NO"
NUMBER_OF_FIELDS	7
NUMBER_OF_SETS	15
BEGIN_DATA_FORMAT
 SAMPLE_ID	RGB_R	RGB_G	RGB_B	XYZ_X	XYZ_Y	XYZ_Z
END_DATA_FORMAT
BEGIN_DATA
 1	0	0	0	0.09155273438	0.09155273438	0.1373291016
 2	1	1	1	36.20910645	38.77258301	49.6673584
 3	1	0	0	21.28601074	2.792358398	3.479003906
 4	0	1	0	12.90893555	26.87072754	12.22229004
 5	0	0	1	0.9613037109	8.880615234	33.50830078
 6	0	0	0	0.09155273438	0.09155273438	0.1373291016
 7	1	1	1	35.98022461	38.40637207	49.48425293
 8	1	0	0	21.28601074	2.792358398	3.479003906
 9	0	1	0	12.86315918	26.82495117	12.17651367
 10	0	0	1	0.9613037109	8.880615234	33.41674805
 11	0	0	0	0.09155273438	0.09155273438	0.1373291016
 12	1	1	1	36.16333008	38.86413574	49.3927002
 13	1	0	0	21.19445801	2.792358398	3.479003906
 14	0	1	0	12.90893555	27.09960938	12.26806641
 15	0	0	1	0.9613037109	8.880615234	33.37097168
END_DATA
