data/calibration-001091.ti3
CTI3   
ORIGINATOR	"ColorHug Factory"
DESCRIPTOR	"Calibration Target chart information 3"
DEVICE_CLASS	"DISPLAY"
COLOR_REP	"RGB_XYZ"
TARGET_INSTRUMENT	"Hughski ColorHug"
INSTRUMENT_TYPE_SPECTRAL	"NO"
NORMALIZED_TO_Y_100	"NO"
NUMBER_OF_FIELDS	7
NUMBER_OF_SETS	15
BEGIN_DATA_FORMAT
 SAMPLE_ID	RGB_R	RGB_G	RGB_B	XYZ_X	XYZ_Y	XYZ_Z
END_DATA_FORMAT
BEGIN_DATA
 1	0	0	0	0	0	0.09155273438
 2	1	1	1	55.57250977	37.76550293	44.3572998
 3	1	0	0	35.38513184	3.433227539	5.172729492
 4	0	1	0	18.81408691	26.96228027	12.40539551
 5	0	0	1	0.8697509766	7.369995117	26.6418457
 6	0	0	0	0	0	0.09155273438
 7	1	1	1	55.02319336	37.39929199	44.26574707
 8	1	0	0	35.47668457	3.479003906	5.172729492
 9	0	1	0	18.90563965	26.91650391	12.40539551
 10	0	0	1	0.8697509766	7.32421875	26.68762207
 11	0	0	0	0.04577636719	0.04577636719	0.09155273438
 12	1	1	1	55.29785156	37.30773926	43.89953613
 13	1	0	0	35.06469727	3.433227539	5.126953125
 14	0	1	0	18.44787598	26.7791748	12.31384277
 15	0	0	1	0.8697509766	7.232666016	26.6418457
END_DATA
