data/calibration-001304.ti3
CTI3   
ORIGINATOR	"ColorHug Factory"
DESCRIPTOR	"Calibration Target chart information 3"
DEVICE_CLASS	"DISPLAY"
COLOR_REP	"RGB_XYZ"
TARGET_INSTRUMENT	"Hughski ColorHug"
INSTRUMENT_TYPE_SPECTRAL	"NO"
NORMALIZED_TO_Y_100	"NO"
NUMBER_OF_FIELDS	7
NUMBER_OF_SETS	15
BEGIN_DATA_FORMAT
 SAMPLE_ID	RGB_R	RGB_G	RGB_B	XYZ_X	XYZ_Y	XYZ_Z
END_DATA_FORMAT
BEGIN_DATA
 1	0	0	0	0.09155273438	0.09155273438	0.1373291016
 2	1	1	1	37.39929199	37.99438477	47.51586914
 3	1	0	0	22.65930176	2.9296875	3.936767578
 4	0	1	0	13.59558105	26.87072754	13.04626465
 5	0	0	1	0.9155273438	8.148193359	30.67016602
 6	0	0	0	0.09155273438	0.1373291016	0.1373291016
 7	1	1	1	37.26196289	37.85705566	47.47009277
 8	1	0	0	22.52197266	2.9296875	3.936767578
 9	0	1	0	13.68713379	26.96228027	13.09204102
 10	0	0	1	0.9155273438	8.148193359	30.62438965
 11	0	0	0	0.09155273438	0.1373291016	0.1373291016
 12	1	1	1	37.21618652	37.9486084	47.42431641
 13	1	0	0	22.61352539	2.9296875	3.936767578
 14	0	1	0	13.54980469	27.05383301	13.04626465
 15	0	0	1	0.9155273438	8.102416992	30.71594238
END_DATA
