data/calibration-001150.ti3
CTI3   
ORIGINATOR	"ColorHug Factory"
DESCRIPTOR	"Calibration Target chart information 3"
DEVICE_CLASS	"DISPLAY"
COLOR_REP	"RGB_XYZ"
TARGET_INSTRUMENT	"Hughski ColorHug"
INSTRUMENT_TYPE_SPECTRAL	"NO"
NORMALIZED_TO_Y_100	"NO"
NUMBER_OF_FIELDS	7
NUMBER_OF_SETS	15
BEGIN_DATA_FORMAT
 SAMPLE_ID	RGB_R	RGB_G	RGB_B	XYZ_X	XYZ_Y	XYZ_Z
END_DATA_FORMAT
BEGIN_DATA
 1	0	0	0	0	0	0
 2	1	1	1	35.38513184	36.20910645	43.8079834
 3	1	0	0	20.96557617	2.517700195	3.387451172
 4	0	1	0	12.40539551	25.90942383	11.8560791
 5	0	0	1	0.6408691406	7.278442383	28.38134766
 6	0	0	0	0	0	0.09155273438
 7	1	1	1	35.33935547	36.16333008	44.0826416
 8	1	0	0	21.10290527	2.517700195	3.387451172
 9	0	1	0	12.40539551	25.86364746	11.8560791
 10	0	0	1	0.6408691406	7.278442383	28.38134766
 11	0	0	0	0	0	0.09155273438
 12	1	1	1	35.20202637	36.16333008	44.03686523
 13	1	0	0	21.05712891	2.517700195	3.341674805
 14	0	1	0	12.40539551	25.90942383	11.8560791
 15	0	0	1	0.6408691406	7.278442383	28.33557129
END_DATA
