data/calibration-002142.ti3
CTI3   
ORIGINATOR	"ColorHug Factory"
CREATED	"Wed Nov 20 20:01:22 2013"
DESCRIPTOR	"Calibration Target chart information 3"
DEVICE_CLASS	"DISPLAY"
COLOR_REP	"RGB_XYZ"
TARGET_INSTRUMENT	"Hughski ColorHug"
INSTRUMENT_TYPE_SPECTRAL	"NO"
NORMALIZED_TO_Y_100	"NO"
NUMBER_OF_FIELDS	7
NUMBER_OF_SETS	15
BEGIN_DATA_FORMAT
 SAMPLE_ID	RGB_R	RGB_G	RGB_B	XYZ_X	XYZ_Y	XYZ_Z
END_DATA_FORMAT
BEGIN_DATA
 1	0	0	0	0.1373291015625	0.091552734375	0.1373291015625
 2	1	1	1	74.3865966796875	35.247802734375	52.3223876953125
 3	1	0	0	47.6531982421875	3.84521484375	6.2255859375
 4	0	1	0	23.8037109375	22.979736328125	11.4898681640625
 5	0	0	1	1.28173828125	8.331298828125	34.4696044921875
 6	0	0	0	0.1373291015625	0.091552734375	0.1373291015625
 7	1	1	1	74.066162109375	34.881591796875	52.093505859375
 8	1	0	0	48.065185546875	3.8909912109375	6.2255859375
 9	0	1	0	23.8037109375	22.979736328125	11.53564453125
 10	0	0	1	1.28173828125	8.331298828125	34.5611572265625
 11	0	0	0	0.1373291015625	0.091552734375	0.1373291015625
 12	1	1	1	74.432373046875	35.1104736328125	52.5054931640625
 13	1	0	0	47.9278564453125	3.84521484375	6.2255859375
 14	0	1	0	23.8037109375	22.88818359375	11.444091796875
 15	0	0	1	1.28173828125	8.2855224609375	34.698486328125
END_DATA
