data/calibration-002112.ti3
CTI3   
ORIGINATOR	"ColorHug Factory"
CREATED	"Sun Sep 15 20:36:27 2013"
DESCRIPTOR	"Calibration Target chart information 3"
DEVICE_CLASS	"DISPLAY"
COLOR_REP	"RGB_XYZ"
TARGET_INSTRUMENT	"Hughski ColorHug"
INSTRUMENT_TYPE_SPECTRAL	"NO"
NORMALIZED_TO_Y_100	"NO"
NUMBER_OF_FIELDS	7
NUMBER_OF_SETS	15
BEGIN_DATA_FORMAT
 SAMPLE_ID	RGB_R	RGB_G	RGB_B	XYZ_X	XYZ_Y	XYZ_Z
END_DATA_FORMAT
BEGIN_DATA
 1	0	0	0	0.1373291015625	0.091552734375	0.1373291015625
 2	1	1	1	78.643798828125	37.90283203125	56.3507080078125
 3	1	0	0	50.6744384765625	4.1656494140625	7.50732421875
 4	0	1	0	24.90234375	24.8565673828125	13.092041015625
 5	0	0	1	1.2359619140625	9.0179443359375	35.614013671875
 6	0	0	0	0.1373291015625	0.091552734375	0.1373291015625
 7	1	1	1	78.18603515625	37.90283203125	56.3507080078125
 8	1	0	0	50.994873046875	4.1656494140625	7.50732421875
 9	0	1	0	24.90234375	24.90234375	13.092041015625
 10	0	0	1	1.2359619140625	9.0179443359375	35.6597900390625
 11	0	0	0	0.1373291015625	0.091552734375	0.1373291015625
 12	1	1	1	77.728271484375	37.90283203125	56.5338134765625
 13	1	0	0	50.9033203125	4.1656494140625	7.5531005859375
 14	0	1	0	24.810791015625	24.71923828125	13.0462646484375
 15	0	0	1	1.28173828125	9.063720703125	35.797119140625
END_DATA
