data/calibration-001520.ti3
CTI3   
ORIGINATOR	"ColorHug Factory"
DESCRIPTOR	"Calibration Target chart information 3"
DEVICE_CLASS	"DISPLAY"
COLOR_REP	"RGB_XYZ"
TARGET_INSTRUMENT	"Hughski ColorHug"
INSTRUMENT_TYPE_SPECTRAL	"NO"
NORMALIZED_TO_Y_100	"NO"
NUMBER_OF_FIELDS	7
NUMBER_OF_SETS	15
BEGIN_DATA_FORMAT
 SAMPLE_ID	RGB_R	RGB_G	RGB_B	XYZ_X	XYZ_Y	XYZ_Z
END_DATA_FORMAT
BEGIN_DATA
 1	0	0	0	0.04577636719	0.09155273438	0.1373291016
 2	1	1	1	30.53283691	38.86413574	48.06518555
 3	1	0	0	16.84570312	2.471923828	2.975463867
 4	0	1	0	10.80322266	27.28271484	12.22229004
 5	0	0	1	0.8697509766	8.377075195	31.90612793
 6	0	0	0	0.09155273438	0.09155273438	0.1373291016
 7	1	1	1	30.44128418	38.72680664	47.92785645
 8	1	0	0	16.89147949	2.471923828	2.975463867
 9	0	1	0	10.80322266	27.23693848	12.17651367
 10	0	0	1	0.8697509766	8.377075195	31.90612793
 11	0	0	0	0.09155273438	0.09155273438	0.1373291016
 12	1	1	1	30.44128418	38.81835938	47.97363281
 13	1	0	0	16.89147949	2.471923828	2.975463867
 14	0	1	0	10.75744629	27.19116211	12.17651367
 15	0	0	1	0.8697509766	8.377075195	32.13500977
END_DATA
