data/calibration-001268.ti3
CTI3   
ORIGINATOR	"ColorHug Factory"
DESCRIPTOR	"Calibration Target chart information 3"
DEVICE_CLASS	"DISPLAY"
COLOR_REP	"RGB_XYZ"
TARGET_INSTRUMENT	"Hughski ColorHug"
INSTRUMENT_TYPE_SPECTRAL	"NO"
NORMALIZED_TO_Y_100	"NO"
NUMBER_OF_FIELDS	7
NUMBER_OF_SETS	15
BEGIN_DATA_FORMAT
 SAMPLE_ID	RGB_R	RGB_G	RGB_B	XYZ_X	XYZ_Y	XYZ_Z
END_DATA_FORMAT
BEGIN_DATA
 1	0	0	0	0	0.04577636719	0.09155273438
 2	1	1	1	31.63146973	35.24780273	43.02978516
 3	1	0	0	18.63098145	2.563476562	3.204345703
 4	0	1	0	11.62719727	24.94812012	11.39831543
 5	0	0	1	0.7781982422	7.64465332	28.24401855
 6	0	0	0	0.04577636719	0.04577636719	0.09155273438
 7	1	1	1	31.35681152	35.11047363	42.98400879
 8	1	0	0	18.81408691	2.60925293	3.204345703
 9	0	1	0	11.62719727	25.13122559	11.4440918
 10	0	0	1	0.7781982422	7.690429688	28.56445312
 11	0	0	0	0.04577636719	0.04577636719	0.09155273438
 12	1	1	1	31.40258789	35.11047363	43.02978516
 13	1	0	0	18.63098145	2.60925293	3.158569336
 14	0	1	0	11.67297363	25.08544922	11.4440918
 15	0	0	1	0.7781982422	7.690429688	28.33557129
END_DATA
