data/calibration-000115.ti3
CTI3
DESCRIPTOR	"Calibration Target chart information 3"
ORIGINATOR	"ColorHug Factory"
DEVICE_CLASS	"DISPLAY"
COLOR_REP	"RGB_XYZ"
TARGET_INSTRUMENT	"ColorHug"
INSTRUMENT_TYPE_SPECTRAL	"NO"
LUMINANCE_XYZ_CDM2	"53.352356 38.612366 44.357300"
NORMALIZED_TO_Y_100	"YES"
NUMBER_OF_FIELDS	7
NUMBER_OF_SETS	836
BEGIN_DATA_FORMAT
 SAMPLE_ID	RGB_R	RGB_G	RGB_B	XYZ_X	XYZ_Y	XYZ_Z
END_DATA_FORMAT
BEGIN_DATA
 1	100	100	100	134.3601896	99.88151659	114.92891
 2	100	100	100	139.8104265	99.88151659	114.8104265
 3	100	100	100	139.5734597	100	114.8104265
 4	100	100	100	138.6255924	100	114.6919431
 5	33.33	32.622	30.968	12.20379147	7.701421801	8.17535545
 6	100	0	100	88.15165877	28.43601896	81.16113744
 7	100	100	0	137.4407583	81.16113744	48.57819905
 8	0	100	100	60.07109005	90.99526066	100.5924171
 9	0	100	0	47.74881517	71.80094787	34.00473934
 10	0	0	100	5.09478673	19.31279621	67.53554502
 11	100	0	0	86.25592417	9.71563981	14.57345972
 12	0	0	0	41.82464455	0.8293838863	0.9478672986
 13	0	52.455	100	12.20379147	34.00473934	74.0521327
 14	100	0	50.3	86.72985782	13.15165877	26.77725118
 15	100	54.739	100	96.56398104	44.90521327	89.21800948
 16	100	52.128	0	98.22274882	24.17061611	21.56398104
 17	0	0	46.181	29.50236967	3.55450237	10.42654028
 18	0	51.141	0	10.07109005	14.69194313	7.464454976
 19	0	100	51.348	47.39336493	75.23696682	46.56398104
 20	100	100	52.037	131.7535545	84.95260664	61.72985782
 21	49.216	0	0	40.99526066	2.488151659	3.436018957
 22	56.159	100	0	65.04739336	74.17061611	37.67772512
 23	49.226	100	100	65.75829384	92.65402844	102.9620853
 24	44.487	0	100	19.43127962	20.61611374	69.54976303
 25	100	44.498	52.029	94.1943128	23.45971564	32.46445498
 26	48.926	48.544	100	28.43601896	33.17535545	75.59241706
 27	51.368	100	47.25	63.98104265	77.01421801	47.39336493
 28	49.893	0	49.033	22.1563981	5.687203791	14.81042654
 29	53.109	51.372	0	28.55450237	16.70616114	10.42654028
 30	0	58.587	53.943	14.92890995	23.93364929	23.93364929
 31	100	28.065	100	90.16587678	32.22748815	83.53080569
 32	0	0	72.874	27.13270142	8.886255924	29.73933649
 33	0	26.758	100	4.620853081	22.74881517	68.36492891
 34	0	25.426	0	2.843601896	3.791469194	2.369668246
 35	72.508	0	100	42.41706161	23.57819905	73.93364929
 36	100	27.395	0	88.98104265	13.15165877	16.3507109
 37	74.47	100	100	93.00947867	95.26066351	107.2274882
 38	100	0	25.728	88.27014218	10.5450237	17.41706161
 39	73.862	0	0	47.39336493	5.213270142	7.582938389
 40	100	100	25.402	132.8199052	81.87203791	51.30331754
 41	0	75.751	100	35.30805687	55.8056872	84.12322275
 42	0	75.172	0	24.40758294	36.01895735	17.2985782
 43	0	100	25.864	47.39336493	72.74881517	36.84834123
 44	100	0	74.801	86.61137441	18.48341232	46.09004739
 45	0	100	75.421	53.43601896	81.51658768	66.58767773
 46	24.577	0	0	9.241706161	1.184834123	1.54028436
 47	26.321	100	0	51.06635071	72.74881517	34.5971564
 48	100	75.835	0	107.2274882	45.97156398	31.99052133
 49	100	100	77.061	137.4407583	90.63981043	82.46445498
 50	71.263	100	0	90.63981043	76.65876777	40.52132701
 51	0	0	15.614	87.67772512	76.65876777	33.17535545
 52	0	30.049	70.936	4.265402844	12.55924171	30.09478673
 53	100	77.691	100	115.2843602	67.18009479	99.52606635
 54	24.486	100	100	57.10900474	91.23222749	101.3033175
 55	100	62.784	31.909	102.1327014	33.88625592	29.85781991
 56	29.552	0	100	15.87677725	19.90521327	68.36492891
 57	32.98	70.921	100	27.8436019	50.59241706	82.46445498
 58	0	27.681	40.241	4.383886256	6.398104265	9.597156398
 59	67.901	71.021	100	56.99052133	54.14691943	87.32227488
 60	28.154	100	67.829	52.96208531	79.38388626	59.71563981
 61	71.637	100	70.001	88.507109	84.24170616	67.65402844
 62	58.822	58.763	53.586	46.09004739	26.54028436	27.72511848
 63	33.466	30.48	0	11.84834123	5.805687204	3.909952607
 64	100	73.795	71.277	111.1374408	51.30331754	58.88625592
 65	68.394	29.692	0	39.09952607	8.412322275	8.293838863
 66	70.399	0	29.039	38.507109	5.805687204	10.5450237
 67	28.078	0	26.956	7.701421801	2.251184834	4.739336493
 68	28.532	72.339	0	26.54028436	33.05687204	16.58767773
 69	100	30.941	26.496	90.16587678	15.04739336	19.78672986
 70	34.597	0	73.611	16.70616114	9.834123223	31.99052133
 71	71.573	0	72.408	40.52132701	13.03317536	36.25592417
 72	0	71.029	29.412	21.91943128	32.7014218	18.95734597
 73	68.386	75.008	0	58.76777251	39.57345972	22.86729858
 74	68.088	27.309	100	41.3507109	26.54028436	74.28909953
 75	100	26.457	73.749	86.72985782	21.68246445	46.80094787
 76	74.344	100	27.392	91.23222749	77.60663507	44.43127962
 77	27.558	100	28.197	54.26540284	73.81516588	38.03317536
 78	31.196	27.465	100	17.77251185	23.45971564	70.14218009
 79	0	75.521	72.824	25.11848341	44.66824645	47.03791469
 80	0	50.93	25.553	10.42654028	15.28436019	10.07109005
 81	32.06	33.584	64.033	10.66350711	12.79620853	25.71090047
 82	81.666	55.38	0	64.92890995	23.34123223	17.2985782
 83	68.257	32.751	58.286	41.46919431	14.33649289	25.9478673
 84	0	55.248	81.585	13.03317536	28.43601896	47.03791469
 85	73.781	52.099	100	53.67298578	38.507109	81.04265403
 86	100	50.537	82.952	96.56398104	34.47867299	61.13744076
 87	23.55	0	50.439	11.72985782	4.502369668	13.27014218
 88	31.335	62.746	31.114	21.56398104	25.35545024	16.58767773
 89	100	18.31	49.418	87.91469194	14.57345972	27.13270142
 90	26.498	48.404	0	13.74407583	13.27014218	7.227488152
 91	47.91	100	85.744	62.79620853	85.90047393	80.09478673
 92	71.829	47.313	31.811	49.40758294	17.65402844	16.82464455
 93	31.304	64.132	69.316	23.45971564	32.7014218	39.21800948
 94	80.403	0	54.321	51.65876777	10.30805687	23.57819905
 95	18.455	50.036	100	13.86255924	33.05687204	73.45971564
 96	50.653	100	16.345	63.62559242	74.17061611	37.91469194
 97	80.121	100	52.261	98.1042654	81.51658768	55.92417062
 98	0	22.54	19.289	7.345971564	3.791469194	3.672985782
 99	100	75.273	46.886	111.3744076	48.22274882	41.94312796
 100	0	78.618	56.625	29.50236967	44.43127962	35.30805687
 101	51.137	80.627	100	46.20853081	63.03317536	89.09952607
 102	48.446	0	17.864	16.94312796	2.843601896	4.739336493
 103	100	50.023	21.211	96.09004739	23.57819905	22.98578199
 104	50.115	20.118	0	20.14218009	4.502369668	4.502369668
 105	58.099	72.426	33.158	45.02369668	36.492891	24.17061611
 106	19.364	100	50.197	49.88151659	76.18483412	46.91943128
 107	50.683	19.177	100	23.57819905	22.86729858	70.73459716
 108	53.37	0	81.576	20.97156398	13.62559242	42.77251185
 109	47.768	76.245	0	38.86255924	38.62559242	20.14218009
 110	0	18.927	55.503	2.606635071	6.753554502	16.70616114
 111	0	13.277	0	1.421800948	1.658767773	1.303317536
 112	72.862	72.473	75.625	62.91469194	46.20853081	54.62085308
 113	100	13.904	0	87.91469194	10.5450237	15.04739336
 114	86.349	0	100	65.87677725	25.82938389	77.01421801
 115	100	41.941	100	94.66824645	37.20379147	85.18957346
 116	100	81.785	16.464	116.8246445	52.96208531	36.25592417
 117	0	44.063	52.596	8.293838863	14.4549763	18.83886256
 118	0	0	58.917	1.421800948	5.805687204	18.48341232
 119	59.25	24.551	29.789	27.48815166	7.345971564	9.952606635
 120	82.73	82.874	100	85.5450237	69.66824645	97.03791469
 121	80.039	0	12.618	53.67298578	6.279620853	9.597156398
 122	60.957	47.729	77.817	37.32227488	25.11848341	45.02369668
 123	100	0	38.618	87.08530806	11.61137441	21.20853081
 124	0	40.09	100	15.75829384	27.48815166	71.09004739
 125	0	15.283	82.322	2.606635071	12.79620853	40.28436019
 126	17.592	81.726	100	32.58293839	62.67772512	88.03317536
 127	100	14.13	100	88.15165877	29.26540284	81.7535545
 128	15.261	100	82.059	51.8957346	83.05687204	73.69668246
 129	47.77	79.418	60.389	42.89099526	47.98578199	40.63981043
 130	18.768	16.429	0	6.161137441	2.251184834	1.895734597
 131	55.634	100	65.763	68.00947867	80.92417062	60.78199052
 132	100	100	38.541	133.5308057	83.05687204	54.97630332
 133	17.421	0	83.497	14.33649289	12.32227488	41.58767773
 134	17.237	16.758	100	5.09478673	20.97156398	68.12796209
 135	0	15.067	30.039	1.777251185	2.962085308	5.09478673
 136	0	0	86.505	2.251184834	13.15165877	45.14218009
 137	75.736	72.799	50.02	66.82464455	41.11374408	35.07109005
 138	100	83.323	85.529	113.3886256	67.06161137	79.85781991
 139	100	100	64.894	136.9668246	87.55924171	71.20853081
 140	81.98	84.914	0	90.28436019	53.31753555	31.39810427
 141	0	63.757	15.49	25.59241706	24.52606635	12.91469194
 142	49.514	66.135	100	35.42654028	47.03791469	82.22748815
 143	100	0	61.862	81.16113744	15.28436019	34.36018957
 144	24.308	45.41	49.831	16.82464455	14.92890995	18.12796209
 145	15.963	0	17.047	2.488151659	1.421800948	2.369668246
 146	87.497	100	100	112.4407583	97.51184834	111.1374408
 147	52.099	25.003	75.752	31.51658768	14.57345972	37.32227488
 148	14.909	81.162	0	29.73933649	42.77251185	20.61611374
 149	0	34.792	14.626	4.976303318	6.872037915	4.502369668
 150	48.39	45.075	22.552	22.39336493	13.27014218	10.30805687
 151	83.545	65.965	100	73.69668246	51.30331754	88.38862559
 152	16.226	62.345	0	26.42180095	23.1042654	11.492891
 153	63.222	0	14.914	28.55450237	4.146919431	6.516587678
 154	80.449	13.446	0	51.54028436	6.990521327	9.478672986
 155	83.917	41.562	0	62.67772512	15.04739336	13.86255924
 156	100	60.448	46.3	97.86729858	33.41232227	34.5971564
 157	15.584	0	34.795	14.69194313	2.488151659	6.161137441
 158	17.144	65.121	100	20.73459716	44.54976303	79.73933649
 159	83.602	55.334	62.667	67.77251185	29.50236967	38.15165877
 160	0	82.19	14.22	32.34597156	44.43127962	21.91943128
 161	25.132	74.856	50.616	28.19905213	39.4549763	29.97630332
 162	0	13.769	100	4.383886256	20.26066351	67.77251185
 163	87.181	0	0	61.84834123	7.345971564	10.78199052
 164	0	100	39.19	47.74881517	73.93364929	40.99526066
 165	78.047	65.914	19.865	64.81042654	31.7535545	22.27488152
 166	100	63.961	15.865	102.4881517	33.88625592	27.13270142
 167	100	45.955	36.032	95.97156398	22.1563981	25.23696682
 168	15.926	100	16.89	50.71090047	72.27488152	35.5450237
 169	41.459	100	0	56.63507109	73.34123223	35.66350711
 170	48.707	37.288	48.139	21.44549763	12.20379147	17.2985782
 171	83.381	100	13.285	100.2369668	77.8436019	43.95734597
 172	78.129	25.303	75.621	53.79146919	17.77251185	41.82464455
 173	12.396	0	0	8.6492891	0.9478672986	1.184834123
 174	37.607	48.336	83.346	17.77251185	25.11848341	48.69668246
 175	35.588	15.356	0	9.004739336	2.725118483	2.725118483
 176	61.245	100	100	75.35545024	93.2464455	104.9763033
 177	100	67.29	87.195	106.7535545	49.52606635	73.57819905
 178	0	0	30.615	12.20379147	2.014218009	4.857819905
 179	35.187	81.789	83.323	37.08530806	55.68720379	62.67772512
 180	39.525	80.194	22.879	37.55924171	43.36492891	23.69668246
 181	50.634	34.593	0	22.39336493	8.293838863	6.279620853
 182	14.175	100	63.146	48.1042654	77.72511848	55.33175355
 183	83.493	17.728	34.574	56.04265403	9.478672986	15.52132701
 184	23.463	22.014	79.943	23.57819905	13.74407583	38.62559242
 185	18.066	31.847	0	6.042654028	5.805687204	3.55450237
 186	87.201	100	81.361	109.7156398	88.38862559	82.46445498
 187	0	100	87.95	57.46445498	85.42654028	81.04265403
 188	34.476	17.888	46.22	9.952606635	5.805687204	12.44075829
 189	18.277	0	67.39	3.55450237	7.819905213	25.35545024
 190	100	87.972	0	121.8009479	61.13744076	38.86255924
 191	82.925	34.85	100	62.44075829	31.27962085	79.50236967
 192	0	88.016	100	39.92890995	70.73459716	91.23222749
 193	36.104	85.655	100	41.58767773	68.36492891	91.3507109
 194	60.981	0	0	28.55450237	3.672985782	5.09478673
 195	51.466	61.826	78.106	33.17535545	33.88625592	48.57819905
 196	78.427	31.983	22.175	50.35545024	11.25592417	12.91469194
 197	66.017	44.321	0	40.28436019	14.09952607	10.66350711
 198	83.941	0	84.177	57.7014218	18.48341232	51.77725118
 199	20.158	46.612	23.269	14.4549763	12.79620853	8.886255924
 200	0	100	62.618	47.1563981	77.72511848	54.73933649
 201	33.832	0	13.933	7.938388626	1.777251185	2.843601896
 202	100	17.286	16.322	86.84834123	11.37440758	16.46919431
 203	0	42.204	83.926	13.03317536	21.44549763	46.80094787
 204	0	87.774	0	34.00473934	51.8957346	24.76303318
 205	64.988	0	59.017	31.87203791	9.004739336	23.57819905
 206	14.677	0	100	3.909952607	19.54976303	67.89099526
 207	88.934	82.673	35.021	94.43127962	52.72511848	37.32227488
 208	0	63.778	100	26.8957346	43.12796209	78.79146919
 209	83.429	17.674	100	56.87203791	26.77725118	76.8957346
 210	30.899	100	85.668	54.02843602	85.07109005	78.90995261
 211	83.68	0	41.016	56.39810427	8.767772512	17.2985782
 212	100	63.515	0	102.3696682	32.81990521	25.59241706
 213	85.074	69.987	0	81.16113744	36.25592417	23.93364929
 214	20.801	45.524	69.018	17.18009479	19.07582938	32.10900474
 215	21.382	82.482	73.017	32.58293839	52.96208531	51.8957346
 216	100	15.128	64.249	86.492891	16.82464455	36.72985782
 217	36.522	0	58.427	11.01895735	6.398104265	19.07582938
 218	22.466	81.296	33.007	31.7535545	44.54976303	25.71090047
 219	62.531	87.152	0	61.84834123	54.02843602	28.79146919
 220	84.12	85.397	67.886	87.32227488	61.01895735	57.58293839
 221	18.87	27.336	45.389	7.819905213	7.227488152	12.32227488
 222	66.439	100	14.444	80.21327014	75.71090047	40.16587678
 223	41.636	22.147	19.003	17.77251185	4.739336493	5.331753555
 224	61.271	100	81.94	73.93364929	85.42654028	77.13270142
 225	86.013	100	0	105.3317536	77.72511848	43.72037915
 226	37.57	0	0	12.08530806	1.777251185	2.369668246
 227	100	16.132	84.102	87.67772512	22.74881517	57.58293839
 228	0	100	13.619	49.0521327	71.80094787	34.5971564
 229	38.905	100	56.471	56.51658768	77.25118483	51.42180095
 230	100	15.382	34.563	83.88625592	12.32227488	20.26066351
 231	36.656	14.908	100	11.61137441	21.44549763	69.31279621
 232	0	62.593	66.608	16.23222749	30.21327014	35.30805687
 233	66.347	12.528	100	35.30805687	23.57819905	72.51184834
 234	100	43.375	69.233	93.00947867	26.54028436	45.14218009
 235	100	56.36	61.236	98.93364929	32.58293839	42.53554502
 236	0	86.194	44.955	40.87677725	51.8957346	33.05687204
 237	64.527	87.262	100	64.09952607	72.74881517	95.73459716
 238	34.411	0	42.471	14.4549763	3.909952607	10.07109005
 239	80.23	59.707	85.12	64.57345972	38.507109	61.96682464
 240	20.625	19.056	14.791	10.30805687	3.08056872	3.08056872
 241	15.341	34.221	100	7.582938389	25.35545024	70.26066351
 242	36.777	0	87.905	9.834123223	14.69194313	48.57819905
 243	34.598	56.247	100	21.09004739	37.67772512	76.54028436
 244	20.86	67.629	17.418	21.56398104	28.67298578	15.4028436
 245	44.958	60.843	18.054	27.25118483	23.45971564	14.21800948
 246	37.421	60.193	0	22.86729858	22.03791469	11.84834123
 247	84.011	33.849	42.612	59.95260664	14.57345972	20.73459716
 248	17.241	60.339	37.743	20.26066351	23.1042654	16.94312796
 249	50.65	17.261	53.278	18.83886256	7.938388626	17.89099526
 250	45.505	48.926	65.152	22.63033175	21.20853081	31.7535545
 251	44.567	84.081	39.649	42.77251185	49.64454976	31.39810427
 252	100	86.339	72.054	113.8625592	67.06161137	66.82464455
 253	68.14	61.135	0	54.50236967	25.35545024	16.23222749
 254	17.93	66.986	81.403	22.63033175	38.62559242	51.77725118
 255	39.242	60.215	48.926	23.93364929	25.35545024	23.22274882
 256	20.099	18.77	62.967	5.687203791	8.530805687	22.63033175
 257	34.553	100	14.582	53.67298578	72.86729858	36.01895735
 258	87.345	0	66.694	62.67772512	14.09952607	34.95260664
 259	0	43.714	39.842	15.28436019	12.44075829	12.44075829
 260	100	37.705	13.955	90.28436019	16.82464455	18.72037915
 261	31.265	86.993	0	40.04739336	51.30331754	25.11848341
 262	51.402	82.661	81.338	47.27488152	57.34597156	62.67772512
 263	100	100	12.984	127.4881517	81.27962085	48.57819905
 264	0	37.859	0	18.95734597	7.701421801	4.265402844
 265	62.092	58.215	100	42.2985782	41.58767773	81.16113744
 266	86.186	100	64.1	105.3317536	84.5971564	65.87677725
 267	100	35.251	85.898	94.43127962	28.19905213	61.72985782
 268	63.182	89.992	41.974	68.12796209	59.95260664	38.98104265
 269	13.504	100	0	48.81516588	71.80094787	34.12322275
 270	100	0	13.228	82.58293839	9.952606635	15.28436019
 271	63.881	40.826	100	39.92890995	31.04265403	76.54028436
 272	69.387	84.838	20.792	65.63981043	51.30331754	30.33175355
 273	0	70.279	45.136	27.8436019	33.29383886	24.52606635
 274	79.094	64.754	40.908	64.33649289	32.46445498	27.8436019
 275	62.385	54.099	17.396	42.53554502	19.90521327	14.09952607
 276	64.408	14.621	0	31.87203791	4.976303318	6.279620853
 277	70.028	15.606	44.651	38.15165877	8.412322275	16.3507109
 278	0	63.544	0	16.94312796	24.40758294	11.96682464
 279	83.475	47.274	20.502	61.84834123	18.60189573	16.94312796
 280	55.866	0	32.671	24.40758294	4.383886256	8.767772512
 281	58.007	0	100	25.82938389	21.91943128	71.44549763
 282	100	0	87.698	84.5971564	22.63033175	61.25592417
 283	0	13.792	67.215	10.07109005	8.530805687	25.59241706
 284	84.123	17.001	58.549	57.7014218	12.91469194	27.96208531
 285	59.579	32.873	15.966	31.51658768	8.767772512	8.412322275
 286	10.41	32.998	28.659	5.924170616	7.109004739	6.990521327
 287	17.231	40.031	85.65	8.886255924	21.20853081	48.93364929
 288	37.568	41.561	10.108	14.57345972	10.18957346	6.63507109
 289	0	69.015	85.092	20.73459716	41.3507109	57.46445498
 290	14.442	100	36.187	47.86729858	73.69668246	39.81042654
 291	100	40.549	0	88.507109	17.77251185	18.48341232
 292	82.143	45.435	78.429	62.55924171	26.65876777	49.0521327
 293	52.674	0	67.3	26.30331754	9.597156398	28.19905213
 294	0	87.868	66.793	35.07109005	58.76777251	48.81516588
 295	86.53	100	40.524	105.6872038	80.45023697	51.30331754
 296	71.777	85.586	67.232	76.06635071	59.36018957	54.02843602
 297	43.216	100	31.671	60.07109005	74.28909953	40.16587678
 298	39.245	32.908	85.845	19.07582938	19.31279621	48.45971564
 299	0	45.662	67.543	8.6492891	18.48341232	30.68720379
 300	12.161	100	100	49.0521327	90.75829384	100.5924171
 301	67.049	0	85.516	35.78199052	16.58767773	49.76303318
 302	100	89.041	100	118.957346	81.51658768	106.5165877
 303	20.246	60.698	56.526	29.73933649	26.30331754	27.13270142
 304	52.177	55.457	40.416	29.73933649	21.80094787	19.1943128
 305	72.617	87.018	83.932	72.98578199	66.58767773	72.86729858
 306	40.512	16.723	66.475	18.60189573	9.952606635	26.8957346
 307	68.507	49.232	50.605	43.72037915	20.85308057	24.88151659
 308	65.622	100	54.525	78.67298578	79.38388626	54.02843602
 309	54.115	37.24	66.394	31.27962085	16.23222749	31.04265403
 310	100	76.138	31.267	107.5829384	47.51184834	36.01895735
 311	54.728	65.623	0	47.39336493	28.08056872	15.99526066
 312	63.126	12.526	64.37	30.68720379	10.66350711	27.72511848
 313	72.827	18.08	23.704	42.06161137	7.345971564	10.5450237
 314	23.268	15.278	34.947	7.109004739	3.791469194	7.109004739
 315	87.648	68.954	59.645	81.51658768	40.99526066	42.65402844
 316	0	85.595	85.198	34.00473934	60.78199052	66.82464455
 317	35.798	84.371	69.21	38.86255924	55.09478673	49.88151659
 318	36.062	47.494	35.919	17.41706161	14.92890995	13.15165877
 319	86.083	36.277	59.152	64.81042654	18.72037915	31.51658768
 320	58.21	100	30.361	70.61611374	75.71090047	41.94312796
 321	46.745	14.614	32.317	18.2464455	4.502369668	7.938388626
 322	81.573	73.869	86.954	76.42180095	53.19905213	70.49763033
 323	85.991	49.387	48.206	70.49763033	22.98578199	27.48815166
 324	28.062	87.906	19.654	42.89099526	52.72511848	27.25118483
 325	68.992	17.993	85.124	38.38862559	18.2464455	50.59241706
 326	100	66.147	100	98.34123223	54.02843602	93.60189573
 327	33.358	64.806	84.517	33.6492891	37.91469194	55.8056872
 328	41.351	17.736	80.522	14.21800948	13.98104265	40.63981043
 329	100	100	88.719	134.3601896	93.72037915	95.97156398
 330	66.336	0	44.32	49.17061611	6.872037915	15.28436019
 331	64.85	67.09	12.293	48.69668246	31.04265403	19.07582938
 332	15.262	31.268	63.277	9.952606635	11.37440758	24.17061611
 333	15.008	43.663	37.3	8.530805687	12.32227488	11.72985782
 334	0	57.895	38.078	13.27014218	21.32701422	15.99526066
 335	66.599	58.458	67.871	46.20853081	30.56872038	40.4028436
 336	59.191	18.651	15.215	28.08056872	5.331753555	6.63507109
 337	66.781	31.14	84.629	36.96682464	20.73459716	50.59241706
 338	88.033	85.158	52.14	91.46919431	58.41232227	46.56398104
 339	36.882	100	100	62.67772512	91.58767773	101.8957346
 340	26.102	33.094	17.006	9.478672986	6.872037915	5.331753555
 341	56.309	36.861	35.862	26.30331754	11.01895735	12.91469194
 342	45.839	65.587	67.033	30.8056872	34.12322275	39.21800948
 343	83.709	81.172	16.406	82.58293839	48.45971564	30.45023697
 344	0	48.132	13.005	11.25592417	12.91469194	7.227488152
 345	87.176	50.021	100	72.74881517	39.21800948	83.29383886
 346	51.219	84.244	13.73	49.28909953	48.1042654	25.71090047
 347	60.606	71.415	48.406	47.1563981	37.44075829	30.68720379
 348	0	11.359	12.718	4.739336493	1.777251185	1.895734597
 349	86.429	49.705	33.145	69.1943128	21.44549763	21.32701422
 350	34.056	40.958	100	17.89099526	28.55450237	72.39336493
 351	100	30.557	59.628	87.44075829	19.31279621	35.18957346
 352	88.497	26.902	13.449	70.14218009	11.01895735	13.38862559
 353	14.167	51.98	88.218	17.18009479	28.55450237	54.85781991
 354	13.784	12.983	49.37	2.843601896	4.976303318	12.79620853
 355	15.018	88.441	48.062	36.01895735	55.92417062	36.37440758
 356	87.79	25.769	89.215	66.11374408	24.17061611	60.78199052
 357	0	33.206	55.865	15.52132701	10.42654028	18.95734597
 358	74.324	76.029	35.536	66.3507109	42.65402844	29.97630332
 359	65.863	57.223	42.324	48.1042654	24.52606635	22.51184834
 360	30.893	54.646	13.136	19.43127962	17.77251185	10.07109005
 361	0	34.36	28.321	4.857819905	7.464454976	6.990521327
 362	15.443	77.087	85.116	27.60663507	50.23696682	61.96682464
 363	63.381	68.947	68.521	48.81516588	39.4549763	44.43127962
 364	69.733	27.566	42.917	40.52132701	10.5450237	16.70616114
 365	32.754	100	42.76	52.72511848	74.28909953	43.48341232
 366	47.096	29.481	34.829	22.03791469	7.819905213	10.18957346
 367	8.5451	71.948	62.695	22.39336493	38.15165877	36.01895735
 368	0	86.048	29.3	32.46445498	50.82938389	27.25118483
 369	53.697	51.572	85.367	30.33175355	29.38388626	54.02843602
 370	17.608	56.69	12.515	15.52132701	19.07582938	10.18957346
 371	90.638	14.414	49.227	69.07582938	12.08530806	23.69668246
 372	63.248	63.64	89.55	49.28909953	41.46919431	65.99526066
 373	100	85.976	58.455	115.1658768	63.38862559	55.33175355
 374	9.8311	28.027	7.5567	14.21800948	4.739336493	3.08056872
 375	89.831	64.313	69.506	82.81990521	39.21800948	49.17061611
 376	31.754	12.995	25.543	10.66350711	3.08056872	5.09478673
 377	75.914	45.966	64.957	52.13270142	22.74881517	35.66350711
 378	7.5735	50.695	58.941	11.96682464	19.78672986	25.35545024
 379	100	69.835	58.912	104.1469194	44.54976303	46.56398104
 380	32.211	34.376	48.339	19.54976303	10.18957346	15.52132701
 381	13.901	12.159	73.555	3.199052133	10.07109005	31.39810427
 382	87.071	9.028	77.653	63.507109	17.41706161	45.73459716
 383	23.272	85.409	84.29	39.21800948	60.18957346	65.52132701
 384	93.289	39.48	26.145	74.0521327	16.70616114	18.95734597
 385	65.769	59.63	30.967	46.20853081	25.35545024	19.43127962
 386	100	32.265	41.803	86.84834123	16.94312796	24.88151659
 387	86.568	85.281	86.961	92.41706161	66.94312796	78.19905213
 388	52.577	86.83	30.016	56.39810427	53.08056872	30.8056872
 389	47.921	40.199	76.902	26.54028436	19.78672986	40.63981043
 390	22.36	86.619	61.58	35.90047393	55.8056872	44.43127962
 391	52.232	33.601	88.787	24.64454976	21.56398104	54.62085308
 392	0	28.523	86.267	4.620853081	17.06161137	47.1563981
 393	43.497	67.879	39.551	30.45023697	31.63507109	22.51184834
 394	39.877	45.261	0	17.53554502	12.20379147	7.345971564
 395	86.94	12.43	24.699	60.78199052	8.6492891	13.62559242
 396	28.363	55.339	90.398	21.91943128	32.46445498	60.07109005
 397	39.018	70.534	57.879	29.85781991	36.492891	33.17535545
 398	12.833	28.519	78.828	5.687203791	14.69194313	38.507109
 399	68.35	31.815	69.975	38.507109	16.82464455	35.66350711
 400	56.52	26.226	41.626	25.9478673	8.530805687	13.74407583
 401	12.938	46.218	0	9.004739336	11.72985782	6.161137441
 402	8.6938	60.179	26.117	14.69194313	22.03791469	13.507109
 403	51.995	89.429	96.608	53.67298578	72.98578199	89.57345972
 404	46.905	47.746	48.909	26.30331754	17.18009479	20.02369668
 405	14.352	81.814	19.479	29.85781991	44.07582938	22.74881517
 406	71.482	38.117	12.273	42.06161137	12.08530806	11.01895735
 407	86.616	60.785	10.012	73.81516588	28.19905213	20.85308057
 408	71.811	88.979	52.186	75.23696682	61.01895735	45.26066351
 409	43.213	100	72.083	60.78199052	81.51658768	64.92890995
