data/calibration-001843.ti3
CTI3   
ORIGINATOR	"ColorHug Factory"
CREATED	"Wed Apr 10 09:06:49 2013"
DESCRIPTOR	"Calibration Target chart information 3"
DEVICE_CLASS	"DISPLAY"
COLOR_REP	"RGB_XYZ"
TARGET_INSTRUMENT	"Hughski ColorHug"
INSTRUMENT_TYPE_SPECTRAL	"NO"
NORMALIZED_TO_Y_100	"NO"
NUMBER_OF_FIELDS	7
NUMBER_OF_SETS	15
BEGIN_DATA_FORMAT
 SAMPLE_ID	RGB_R	RGB_G	RGB_B	XYZ_X	XYZ_Y	XYZ_Z
END_DATA_FORMAT
BEGIN_DATA
 1	0	0	0	0.04577636719	0.09155273438	0.1373291016
 2	1	1	1	43.44177246	39.87121582	51.95617676
 3	1	0	0	26.55029297	3.067016602	4.257202148
 4	0	1	0	15.24353027	27.55737305	13.04626465
 5	0	0	1	0.9613037109	8.972167969	34.42382812
 6	0	0	0	0.04577636719	0.04577636719	0.1373291016
 7	1	1	1	43.44177246	39.59655762	51.86462402
 8	1	0	0	26.32141113	3.067016602	4.257202148
 9	0	1	0	15.24353027	27.78625488	13.09204102
 10	0	0	1	0.9613037109	8.926391602	34.46960449
 11	0	0	0	0.04577636719	0.04577636719	0.1373291016
 12	1	1	1	43.85375977	40.00854492	51.86462402
 13	1	0	0	26.45874023	3.112792969	4.257202148
 14	0	1	0	15.10620117	27.83203125	13.09204102
 15	0	0	1	0.9613037109	8.972167969	34.42382812
END_DATA
