data/calibration-002025.ti3
CTI3   
ORIGINATOR	"ColorHug Factory"
CREATED	"Sun May 26 10:17:34 2013"
DESCRIPTOR	"Calibration Target chart information 3"
DEVICE_CLASS	"DISPLAY"
COLOR_REP	"RGB_XYZ"
TARGET_INSTRUMENT	"Hughski ColorHug"
INSTRUMENT_TYPE_SPECTRAL	"NO"
NORMALIZED_TO_Y_100	"NO"
NUMBER_OF_FIELDS	7
NUMBER_OF_SETS	15
BEGIN_DATA_FORMAT
 SAMPLE_ID	RGB_R	RGB_G	RGB_B	XYZ_X	XYZ_Y	XYZ_Z
END_DATA_FORMAT
BEGIN_DATA
 1	0	0	0	0	0.091552734375	0.0457763671875
 2	1	1	1	40.3289794921875	35.9344482421875	47.79052734375
 3	1	0	0	24.9481201171875	2.74658203125	3.7078857421875
 4	0	1	0	14.1448974609375	24.8565673828125	11.3983154296875
 5	0	0	1	0.7781982421875	8.148193359375	32.5927734375
 6	0	0	0	0.091552734375	0.091552734375	0.0457763671875
 7	1	1	1	40.4205322265625	35.980224609375	47.4700927734375
 8	1	0	0	24.90234375	2.7923583984375	3.7078857421875
 9	0	1	0	14.1448974609375	24.90234375	11.3983154296875
 10	0	0	1	0.7781982421875	8.148193359375	32.684326171875
 11	0	0	0	0	0.091552734375	0.0457763671875
 12	1	1	1	40.374755859375	35.9344482421875	47.7447509765625
 13	1	0	0	24.8565673828125	2.7923583984375	3.7078857421875
 14	0	1	0	14.1448974609375	24.8565673828125	11.3983154296875
 15	0	0	1	0.7781982421875	8.148193359375	32.6385498046875
END_DATA
