data/calibration-002091.ti3
CTI3   
ORIGINATOR	"ColorHug Factory"
CREATED	"Sun Sep 15 20:29:10 2013"
DESCRIPTOR	"Calibration Target chart information 3"
DEVICE_CLASS	"DISPLAY"
COLOR_REP	"RGB_XYZ"
TARGET_INSTRUMENT	"Hughski ColorHug"
INSTRUMENT_TYPE_SPECTRAL	"NO"
NORMALIZED_TO_Y_100	"NO"
NUMBER_OF_FIELDS	7
NUMBER_OF_SETS	15
BEGIN_DATA_FORMAT
 SAMPLE_ID	RGB_R	RGB_G	RGB_B	XYZ_X	XYZ_Y	XYZ_Z
END_DATA_FORMAT
BEGIN_DATA
 1	0	0	0	0	0	0
 2	1	1	1	80.2459716796875	39.5050048828125	58.7310791015625
 3	1	0	0	52.1392822265625	3.7078857421875	7.0037841796875
 4	0	1	0	25.45166015625	25.909423828125	13.2293701171875
 5	0	0	1	0.7781982421875	8.9263916015625	37.5823974609375
 6	0	0	0	0	0	0
 7	1	1	1	79.5135498046875	39.276123046875	58.868408203125
 8	1	0	0	52.18505859375	3.7078857421875	7.0037841796875
 9	0	1	0	25.360107421875	25.8636474609375	13.18359375
 10	0	0	1	0.7781982421875	8.9263916015625	37.7655029296875
 11	0	0	0	0	0	0
 12	1	1	1	79.8797607421875	39.4134521484375	58.8226318359375
 13	1	0	0	52.18505859375	3.7078857421875	7.0037841796875
 14	0	1	0	25.4974365234375	26.0009765625	13.1378173828125
 15	0	0	1	0.7781982421875	8.880615234375	37.7655029296875
END_DATA
