data/calibration-001915.ti3
CTI3   
ORIGINATOR	"ColorHug Factory"
CREATED	"Sat May 25 21:31:24 2013"
DESCRIPTOR	"Calibration Target chart information 3"
DEVICE_CLASS	"DISPLAY"
COLOR_REP	"RGB_XYZ"
TARGET_INSTRUMENT	"Hughski ColorHug"
INSTRUMENT_TYPE_SPECTRAL	"NO"
NORMALIZED_TO_Y_100	"NO"
NUMBER_OF_FIELDS	7
NUMBER_OF_SETS	15
BEGIN_DATA_FORMAT
 SAMPLE_ID	RGB_R	RGB_G	RGB_B	XYZ_X	XYZ_Y	XYZ_Z
END_DATA_FORMAT
BEGIN_DATA
 1	0	0	0	0.091552734375	0.1373291015625	0.18310546875
 2	1	1	1	35.3851318359375	35.5224609375	47.5616455078125
 3	1	0	0	21.4691162109375	2.74658203125	3.7078857421875
 4	0	1	0	12.8173828125	24.6734619140625	11.8560791015625
 5	0	0	1	0.91552734375	8.4228515625	32.501220703125
 6	0	0	0	0.091552734375	0.1373291015625	0.18310546875
 7	1	1	1	35.33935546875	35.3851318359375	47.6531982421875
 8	1	0	0	21.6064453125	2.74658203125	3.662109375
 9	0	1	0	12.8173828125	24.6734619140625	11.7645263671875
 10	0	0	1	0.91552734375	8.3770751953125	32.6385498046875
 11	0	0	0	0.091552734375	0.1373291015625	0.18310546875
 12	1	1	1	35.4766845703125	35.5224609375	47.7447509765625
 13	1	0	0	21.3775634765625	2.74658203125	3.7078857421875
 14	0	1	0	12.725830078125	24.6734619140625	11.7645263671875
 15	0	0	1	0.91552734375	8.3770751953125	32.6385498046875
END_DATA
