data/calibration-002643.ti3
CTI3   
ORIGINATOR	"ColorHug Factory"
CREATED	"Tue Jan 27 20:17:32 2015"
DESCRIPTOR	"Calibration Target chart information 3"
DEVICE_CLASS	"DISPLAY"
COLOR_REP	"RGB_XYZ"
TARGET_INSTRUMENT	"Hughski ColorHug"
INSTRUMENT_TYPE_SPECTRAL	"NO"
NORMALIZED_TO_Y_100	"NO"
NUMBER_OF_FIELDS	7
NUMBER_OF_SETS	15
BEGIN_DATA_FORMAT
 SAMPLE_ID	RGB_R	RGB_G	RGB_B	XYZ_X	XYZ_Y	XYZ_Z
END_DATA_FORMAT
BEGIN_DATA
 1.0	0.0	0.0	0.0	0.532806396484	0.540863037109	0.621688842773
 2.0	1.0	1.0	1.0	60.235290527344	59.795608520508	62.060592651367
 3.0	1.0	0.0	0.0	42.890045166016	4.58935546875	6.781448364258
 4.0	0.0	1.0	0.0	15.753845214844	44.042999267578	16.752548217773
 5.0	0.0	0.0	1.0	2.307601928711	12.245132446289	38.641494750977
 6.0	0.0	0.0	0.0	0.534225463867	0.539901733398	0.620269775391
 7.0	1.0	1.0	1.0	60.68147277832	60.235290527344	62.060592651367
 8.0	1.0	0.0	0.0	43.115783691406	4.58935546875	6.775833129883
 9.0	0.0	1.0	0.0	15.753845214844	44.042999267578	16.752548217773
 10.0	0.0	0.0	1.0	2.293380737305	12.245132446289	38.641494750977
 11.0	0.0	0.0	0.0	0.535980224609	0.540649414062	0.62663269043
 12.0	1.0	1.0	1.0	60.235290527344	60.235290527344	62.060592651367
 13.0	1.0	0.0	0.0	42.890045166016	4.636093139648	6.775833129883
 14.0	0.0	1.0	0.0	15.784194946289	44.042999267578	16.752548217773
 15.0	0.0	0.0	1.0	2.308898925781	12.318786621094	38.280364990234
END_DATA
