data/calibration-000360.ti3
CTI3
ORIGINATOR	"ColorHug Factory"
DESCRIPTOR	"Calibration Target chart information 3"
DEVICE_CLASS	"DISPLAY"
COLOR_REP	"RGB_XYZ"
TARGET_INSTRUMENT	"Hughski ColorHug"
INSTRUMENT_TYPE_SPECTRAL	"NO"
NORMALIZED_TO_Y_100	"NO"
NUMBER_OF_FIELDS	7
NUMBER_OF_SETS	15
BEGIN_DATA_FORMAT
 SAMPLE_ID	RGB_R	RGB_G	RGB_B	XYZ_X	XYZ_Y	XYZ_Z
END_DATA_FORMAT
BEGIN_DATA
 1	0	0	0	0.09155273438	0.09155273438	0.09155273438
 2	1	1	1	49.75891113	35.5682373	40.6036377
 3	1	0	0	31.08215332	3.25012207	4.577636719
 4	0	1	0	16.47949219	25.22277832	11.4440918
 5	0	0	1	0.8239746094	6.866455078	24.30725098
 6	0	0	0	0.09155273438	0.09155273438	0.09155273438
 7	1	1	1	49.3927002	35.52246094	40.55786133
 8	1	0	0	30.94482422	3.25012207	4.531860352
 9	0	1	0	16.43371582	25.17700195	11.39831543
 10	0	0	1	0.8239746094	6.866455078	24.30725098
 11	0	0	0	0.09155273438	0.09155273438	0.09155273438
 12	1	1	1	49.5300293	35.47668457	40.55786133
 13	1	0	0	30.80749512	3.25012207	4.531860352
 14	0	1	0	16.47949219	25.22277832	11.39831543
 15	0	0	1	0.8239746094	6.866455078	24.26147461
END_DATA
