data/calibration-001929.ti3
CTI3   
ORIGINATOR	"ColorHug Factory"
CREATED	"Sat May 25 21:40:07 2013"
DESCRIPTOR	"Calibration Target chart information 3"
DEVICE_CLASS	"DISPLAY"
COLOR_REP	"RGB_XYZ"
TARGET_INSTRUMENT	"Hughski ColorHug"
INSTRUMENT_TYPE_SPECTRAL	"NO"
NORMALIZED_TO_Y_100	"NO"
NUMBER_OF_FIELDS	7
NUMBER_OF_SETS	15
BEGIN_DATA_FORMAT
 SAMPLE_ID	RGB_R	RGB_G	RGB_B	XYZ_X	XYZ_Y	XYZ_Z
END_DATA_FORMAT
BEGIN_DATA
 1	0	0	0	0.18310546875	0.2288818359375	0.3204345703125
 2	1	1	1	46.1883544921875	38.1317138671875	50.811767578125
 3	1	0	0	28.5186767578125	3.2501220703125	4.57763671875
 4	0	1	0	16.021728515625	26.4129638671875	12.6800537109375
 5	0	0	1	1.0986328125	8.7432861328125	33.782958984375
 6	0	0	0	0.18310546875	0.2288818359375	0.3204345703125
 7	1	1	1	46.0968017578125	37.628173828125	50.72021484375
 8	1	0	0	28.5186767578125	3.2501220703125	4.57763671875
 9	0	1	0	16.021728515625	26.3671875	12.6800537109375
 10	0	0	1	1.0986328125	8.7432861328125	34.149169921875
 11	0	0	0	0.18310546875	0.2288818359375	0.3204345703125
 12	1	1	1	46.234130859375	38.0859375	50.8575439453125
 13	1	0	0	28.7017822265625	3.2501220703125	4.6234130859375
 14	0	1	0	16.0675048828125	26.55029296875	12.6800537109375
 15	0	0	1	1.0986328125	8.7432861328125	33.8287353515625
END_DATA
