data/calibration-000609.ti3
CTI3
ORIGINATOR	"ColorHug Factory"
DESCRIPTOR	"Calibration Target chart information 3"
DEVICE_CLASS	"DISPLAY"
COLOR_REP	"RGB_XYZ"
TARGET_INSTRUMENT	"Hughski ColorHug"
INSTRUMENT_TYPE_SPECTRAL	"NO"
NORMALIZED_TO_Y_100	"NO"
NUMBER_OF_FIELDS	7
NUMBER_OF_SETS	15
BEGIN_DATA_FORMAT
 SAMPLE_ID	RGB_R	RGB_G	RGB_B	XYZ_X	XYZ_Y	XYZ_Z
END_DATA_FORMAT
BEGIN_DATA
 1	0	0	0	0.04577636719	0.04577636719	0
 2	1	1	1	58.82263184	37.99438477	45.36437988
 3	1	0	0	37.17041016	3.524780273	5.401611328
 4	0	1	0	19.27185059	26.91650391	12.63427734
 5	0	0	1	0.8697509766	7.141113281	26.82495117
 6	0	0	0	0.04577636719	0.04577636719	0
 7	1	1	1	58.1817627	37.90283203	45.31860352
 8	1	0	0	37.17041016	3.524780273	5.401611328
 9	0	1	0	19.31762695	26.87072754	12.63427734
 10	0	0	1	0.8697509766	7.141113281	26.82495117
 11	0	0	0	0.04577636719	0.04577636719	0
 12	1	1	1	58.82263184	37.99438477	45.31860352
 13	1	0	0	36.94152832	3.524780273	5.401611328
 14	0	1	0	19.22607422	26.96228027	12.58850098
 15	0	0	1	0.8697509766	7.186889648	26.87072754
END_DATA
