data/calibration-002853.ti3
CTI3   
ORIGINATOR	"ColorHug Factory"
CREATED	"Tue May 05 22:00:56 2015"
DESCRIPTOR	"Calibration Target chart information 3"
DEVICE_CLASS	"DISPLAY"
COLOR_REP	"RGB_XYZ"
TARGET_INSTRUMENT	"Hughski ColorHug"
INSTRUMENT_TYPE_SPECTRAL	"NO"
NORMALIZED_TO_Y_100	"NO"
NUMBER_OF_FIELDS	7
NUMBER_OF_SETS	15
BEGIN_DATA_FORMAT
 SAMPLE_ID	RGB_R	RGB_G	RGB_B	XYZ_X	XYZ_Y	XYZ_Z
END_DATA_FORMAT
BEGIN_DATA
 1.0	0.0	0.0	0.0	0.426376342773	0.446975708008	0.535842895508
 2.0	1.0	1.0	1.0	110.702697753906	103.696197509766	115.380279541016
 3.0	1.0	0.0	0.0	78.01904296875	7.578155517578	12.01171875
 4.0	0.0	1.0	0.0	27.03630065918	73.142852783203	28.845062255859
 5.0	0.0	0.0	1.0	3.655502319336	21.389022827148	71.859634399414
 6.0	0.0	0.0	0.0	0.429901123047	0.449432373047	0.538803100586
 7.0	1.0	1.0	1.0	110.702697753906	103.696197509766	115.380279541016
 8.0	1.0	0.0	0.0	78.01904296875	7.585174560547	12.01171875
 9.0	0.0	1.0	0.0	27.03630065918	73.142852783203	28.845062255859
 10.0	0.0	0.0	1.0	3.655502319336	21.389022827148	71.859634399414
 11.0	0.0	0.0	0.0	0.428451538086	0.448211669922	0.538330078125
 12.0	1.0	1.0	1.0	110.702697753906	103.696197509766	115.380279541016
 13.0	1.0	0.0	0.0	78.01904296875	7.585174560547	12.01171875
 14.0	0.0	1.0	0.0	27.03630065918	73.142852783203	28.946990966797
 15.0	0.0	0.0	1.0	3.655502319336	21.389022827148	71.859634399414
END_DATA
