data/calibration-001961.ti3
CTI3   
ORIGINATOR	"ColorHug Factory"
CREATED	"Sun May 26 09:18:00 2013"
DESCRIPTOR	"Calibration Target chart information 3"
DEVICE_CLASS	"DISPLAY"
COLOR_REP	"RGB_XYZ"
TARGET_INSTRUMENT	"Hughski ColorHug"
INSTRUMENT_TYPE_SPECTRAL	"NO"
NORMALIZED_TO_Y_100	"NO"
NUMBER_OF_FIELDS	7
NUMBER_OF_SETS	15
BEGIN_DATA_FORMAT
 SAMPLE_ID	RGB_R	RGB_G	RGB_B	XYZ_X	XYZ_Y	XYZ_Z
END_DATA_FORMAT
BEGIN_DATA
 1	0	0	0	0.091552734375	0.091552734375	0.18310546875
 2	1	1	1	40.1458740234375	33.87451171875	46.5087890625
 3	1	0	0	25.177001953125	2.74658203125	4.0283203125
 4	0	1	0	14.09912109375	23.6663818359375	11.444091796875
 5	0	0	1	0.823974609375	7.8277587890625	31.31103515625
 6	0	0	0	0.091552734375	0.091552734375	0.18310546875
 7	1	1	1	40.4205322265625	34.0576171875	46.417236328125
 8	1	0	0	25.177001953125	2.74658203125	4.0283203125
 9	0	1	0	14.09912109375	23.62060546875	11.444091796875
 10	0	0	1	0.823974609375	7.8277587890625	31.219482421875
 11	0	0	0	0.091552734375	0.091552734375	0.18310546875
 12	1	1	1	40.5120849609375	34.1033935546875	46.32568359375
 13	1	0	0	25.0396728515625	2.74658203125	4.0283203125
 14	0	1	0	14.1448974609375	23.6663818359375	11.53564453125
 15	0	0	1	0.8697509765625	7.8277587890625	31.2652587890625
END_DATA
