data/calibration-001764.ti3
CTI3   
ORIGINATOR	"ColorHug Factory"
CREATED	"Wed Feb 20 20:59:27 2013"
DESCRIPTOR	"Calibration Target chart information 3"
DEVICE_CLASS	"DISPLAY"
COLOR_REP	"RGB_XYZ"
TARGET_INSTRUMENT	"Hughski ColorHug"
INSTRUMENT_TYPE_SPECTRAL	"NO"
NORMALIZED_TO_Y_100	"NO"
NUMBER_OF_FIELDS	7
NUMBER_OF_SETS	15
BEGIN_DATA_FORMAT
 SAMPLE_ID	RGB_R	RGB_G	RGB_B	XYZ_X	XYZ_Y	XYZ_Z
END_DATA_FORMAT
BEGIN_DATA
 1	0	0	0	0.1831054688	0.2288818359	0.2288818359
 2	1	1	1	28.61022949	30.30395508	39.55078125
 3	1	0	0	16.47949219	2.288818359	2.883911133
 4	0	1	0	9.796142578	20.73669434	9.704589844
 5	0	0	1	0.8697509766	7.141113281	26.68762207
 6	0	0	0	0.1831054688	0.2288818359	0.2288818359
 7	1	1	1	28.56445312	30.07507324	39.59655762
 8	1	0	0	16.47949219	2.288818359	2.883911133
 9	0	1	0	9.796142578	20.73669434	9.704589844
 10	0	0	1	0.9155273438	7.141113281	26.91650391
 11	0	0	0	0.1831054688	0.2288818359	0.2288818359
 12	1	1	1	28.83911133	30.57861328	39.87121582
 13	1	0	0	16.47949219	2.288818359	2.883911133
 14	0	1	0	9.796142578	20.69091797	9.658813477
 15	0	0	1	0.9155273438	7.186889648	26.96228027
END_DATA
