data/calibration-001651.ti3
CTI3   
ORIGINATOR	"ColorHug Factory"
CREATED	"Thu Feb 14 22:37:28 2013"
DESCRIPTOR	"Calibration Target chart information 3"
DEVICE_CLASS	"DISPLAY"
COLOR_REP	"RGB_XYZ"
TARGET_INSTRUMENT	"Hughski ColorHug"
INSTRUMENT_TYPE_SPECTRAL	"NO"
NORMALIZED_TO_Y_100	"NO"
NUMBER_OF_FIELDS	7
NUMBER_OF_SETS	15
BEGIN_DATA_FORMAT
 SAMPLE_ID	RGB_R	RGB_G	RGB_B	XYZ_X	XYZ_Y	XYZ_Z
END_DATA_FORMAT
BEGIN_DATA
 1	0	0	0	0.2288818359	0.2746582031	0.3662109375
 2	1	1	1	31.35681152	32.40966797	42.29736328
 3	1	0	0	18.26477051	2.426147461	3.158569336
 4	0	1	0	10.75744629	22.47619629	10.43701172
 5	0	0	1	1.007080078	7.369995117	29.25109863
 6	0	0	0	0.2288818359	0.2746582031	0.3662109375
 7	1	1	1	31.21948242	32.18078613	42.75512695
 8	1	0	0	18.17321777	2.426147461	3.158569336
 9	0	1	0	10.71166992	22.47619629	10.39123535
 10	0	0	1	1.007080078	7.415771484	29.20532227
 11	0	0	0	0.2288818359	0.2746582031	0.3662109375
 12	1	1	1	31.35681152	32.13500977	42.57202148
 13	1	0	0	18.17321777	2.426147461	3.158569336
 14	0	1	0	10.71166992	22.56774902	10.39123535
 15	0	0	1	1.007080078	7.369995117	29.25109863
END_DATA
