data/calibration-001453.ti3
CTI3   
ORIGINATOR	"ColorHug Factory"
DESCRIPTOR	"Calibration Target chart information 3"
DEVICE_CLASS	"DISPLAY"
COLOR_REP	"RGB_XYZ"
TARGET_INSTRUMENT	"Hughski ColorHug"
INSTRUMENT_TYPE_SPECTRAL	"NO"
NORMALIZED_TO_Y_100	"NO"
NUMBER_OF_FIELDS	7
NUMBER_OF_SETS	15
BEGIN_DATA_FORMAT
 SAMPLE_ID	RGB_R	RGB_G	RGB_B	XYZ_X	XYZ_Y	XYZ_Z
END_DATA_FORMAT
BEGIN_DATA
 1	0	0	0	0.04577636719	0.04577636719	0.04577636719
 2	1	1	1	36.30065918	34.24072266	42.52624512
 3	1	0	0	22.01843262	2.60925293	3.570556641
 4	0	1	0	12.77160645	24.44458008	11.3067627
 5	0	0	1	0.732421875	7.095336914	27.42004395
 6	0	0	0	0.04577636719	0.04577636719	0.04577636719
 7	1	1	1	36.43798828	34.24072266	42.57202148
 8	1	0	0	22.01843262	2.60925293	3.570556641
 9	0	1	0	12.81738281	24.39880371	11.3067627
 10	0	0	1	0.732421875	7.141113281	27.28271484
 11	0	0	0	0.04577636719	0.04577636719	0.04577636719
 12	1	1	1	36.02600098	34.10339355	42.48046875
 13	1	0	0	21.97265625	2.60925293	3.570556641
 14	0	1	0	12.72583008	24.44458008	11.39831543
 15	0	0	1	0.732421875	7.141113281	27.09960938
END_DATA
