data/calibration-002069.ti3
CTI3   
ORIGINATOR	"ColorHug Factory"
CREATED	"Sun Sep 15 20:14:23 2013"
DESCRIPTOR	"Calibration Target chart information 3"
DEVICE_CLASS	"DISPLAY"
COLOR_REP	"RGB_XYZ"
TARGET_INSTRUMENT	"Hughski ColorHug"
INSTRUMENT_TYPE_SPECTRAL	"NO"
NORMALIZED_TO_Y_100	"NO"
NUMBER_OF_FIELDS	7
NUMBER_OF_SETS	15
BEGIN_DATA_FORMAT
 SAMPLE_ID	RGB_R	RGB_G	RGB_B	XYZ_X	XYZ_Y	XYZ_Z
END_DATA_FORMAT
BEGIN_DATA
 1	0	0	0	0.091552734375	0.0457763671875	0.091552734375
 2	1	1	1	77.911376953125	38.4521484375	57.1746826171875
 3	1	0	0	50.6744384765625	4.1656494140625	7.5531005859375
 4	0	1	0	24.90234375	25.2227783203125	13.36669921875
 5	0	0	1	1.2359619140625	9.1094970703125	36.07177734375
 6	0	0	0	0.091552734375	0.0457763671875	0.091552734375
 7	1	1	1	78.5064697265625	38.6810302734375	56.5338134765625
 8	1	0	0	50.6744384765625	4.1656494140625	7.5531005859375
 9	0	1	0	24.90234375	25.2685546875	13.36669921875
 10	0	0	1	1.2359619140625	9.1094970703125	36.163330078125
 11	0	0	0	0.091552734375	0.0457763671875	0.091552734375
 12	1	1	1	78.369140625	38.543701171875	57.220458984375
 13	1	0	0	50.6744384765625	4.21142578125	7.5531005859375
 14	0	1	0	24.8565673828125	25.2227783203125	13.36669921875
 15	0	0	1	1.2359619140625	9.1094970703125	36.1175537109375
END_DATA
