data/calibration-001737.ti3
CTI3   
ORIGINATOR	"ColorHug Factory"
CREATED	"Wed Feb 20 20:24:22 2013"
DESCRIPTOR	"Calibration Target chart information 3"
DEVICE_CLASS	"DISPLAY"
COLOR_REP	"RGB_XYZ"
TARGET_INSTRUMENT	"Hughski ColorHug"
INSTRUMENT_TYPE_SPECTRAL	"NO"
NORMALIZED_TO_Y_100	"NO"
NUMBER_OF_FIELDS	7
NUMBER_OF_SETS	15
BEGIN_DATA_FORMAT
 SAMPLE_ID	RGB_R	RGB_G	RGB_B	XYZ_X	XYZ_Y	XYZ_Z
END_DATA_FORMAT
BEGIN_DATA
 1	0	0	0	0.04577636719	0.04577636719	0.09155273438
 2	1	1	1	42.38891602	37.62817383	48.66027832
 3	1	0	0	25.63476562	2.883911133	4.07409668
 4	0	1	0	14.28222656	25.90942383	12.22229004
 5	0	0	1	0.8239746094	8.377075195	31.67724609
 6	0	0	0	0.04577636719	0.04577636719	0.09155273438
 7	1	1	1	42.34313965	37.62817383	48.38562012
 8	1	0	0	25.54321289	2.883911133	4.07409668
 9	0	1	0	14.28222656	25.90942383	12.22229004
 10	0	0	1	0.8239746094	8.377075195	31.72302246
 11	0	0	0	0.04577636719	0.04577636719	0.09155273438
 12	1	1	1	42.34313965	37.6739502	48.66027832
 13	1	0	0	25.49743652	2.883911133	4.07409668
 14	0	1	0	14.28222656	25.86364746	12.17651367
 15	0	0	1	0.8239746094	8.377075195	32.13500977
END_DATA
