data/calibration-002347.ti3
CTI3   
ORIGINATOR	"ColorHug Factory"
CREATED	"Tue Jan 21 20:37:42 2014"
DESCRIPTOR	"Calibration Target chart information 3"
DEVICE_CLASS	"DISPLAY"
COLOR_REP	"RGB_XYZ"
TARGET_INSTRUMENT	"Hughski ColorHug"
INSTRUMENT_TYPE_SPECTRAL	"NO"
NORMALIZED_TO_Y_100	"NO"
NUMBER_OF_FIELDS	7
NUMBER_OF_SETS	15
BEGIN_DATA_FORMAT
 SAMPLE_ID	RGB_R	RGB_G	RGB_B	XYZ_X	XYZ_Y	XYZ_Z
END_DATA_FORMAT
BEGIN_DATA
 1.0	0.0	0.0	0.0	0.116729736328	0.072402954102	0.154418945312
 2.0	1.0	1.0	1.0	75.155960083008	34.565399169922	55.727890014648
 3.0	1.0	0.0	0.0	47.352600097656	3.629592895508	6.311233520508
 4.0	0.0	1.0	0.0	22.94677734375	22.140533447266	11.409469604492
 5.0	0.0	0.0	1.0	1.338562011719	8.489105224609	37.06787109375
 6.0	0.0	0.0	0.0	0.116729736328	0.072296142578	0.154983520508
 7.0	1.0	1.0	1.0	75.155960083008	34.565399169922	56.109588623047
 8.0	1.0	0.0	0.0	47.352600097656	3.639266967773	6.350387573242
 9.0	0.0	1.0	0.0	22.94677734375	22.200531005859	11.425369262695
 10.0	0.0	0.0	1.0	1.333984375	8.454071044922	37.406387329102
 11.0	0.0	0.0	0.0	0.116455078125	0.07209777832	0.155090332031
 12.0	1.0	1.0	1.0	75.155960083008	34.711853027344	56.109588623047
 13.0	1.0	0.0	0.0	47.352600097656	3.652236938477	6.38005065918
 14.0	0.0	1.0	0.0	23.141235351562	22.021499633789	11.425369262695
 15.0	0.0	0.0	1.0	1.333541870117	8.462799072266	37.06787109375
END_DATA
