data/calibration-000813.ti3
CTI3   
ORIGINATOR	"ColorHug Factory"
DESCRIPTOR	"Calibration Target chart information 3"
DEVICE_CLASS	"DISPLAY"
COLOR_REP	"RGB_XYZ"
TARGET_INSTRUMENT	"Hughski ColorHug"
INSTRUMENT_TYPE_SPECTRAL	"NO"
NORMALIZED_TO_Y_100	"NO"
NUMBER_OF_FIELDS	7
NUMBER_OF_SETS	15
BEGIN_DATA_FORMAT
 SAMPLE_ID	RGB_R	RGB_G	RGB_B	XYZ_X	XYZ_Y	XYZ_Z
END_DATA_FORMAT
BEGIN_DATA
 1	0	0	0	0.04577636719	0	0.04577636719
 2	1	1	1	55.70983887	38.0859375	44.86083984
 3	1	0	0	34.46960449	3.570556641	5.53894043
 4	0	1	0	18.12744141	26.82495117	12.58850098
 5	0	0	1	0.9155273438	7.461547852	25.9552002
 6	0	0	0	0.04577636719	0	0.04577636719
 7	1	1	1	55.57250977	38.04016113	44.86083984
 8	1	0	0	34.69848633	3.524780273	5.53894043
 9	0	1	0	17.9901123	26.6418457	12.63427734
 10	0	0	1	0.9155273438	7.461547852	26.27563477
 11	0	0	0	0.04577636719	0	0.04577636719
 12	1	1	1	55.57250977	38.0859375	44.86083984
 13	1	0	0	34.56115723	3.524780273	5.53894043
 14	0	1	0	18.03588867	26.87072754	12.63427734
 15	0	0	1	0.9155273438	7.461547852	26.32141113
END_DATA
