data/calibration-001774.ti3
CTI3   
ORIGINATOR	"ColorHug Factory"
CREATED	"Tue Mar 26 19:57:44 2013"
DESCRIPTOR	"Calibration Target chart information 3"
DEVICE_CLASS	"DISPLAY"
COLOR_REP	"RGB_XYZ"
TARGET_INSTRUMENT	"Hughski ColorHug"
INSTRUMENT_TYPE_SPECTRAL	"NO"
NORMALIZED_TO_Y_100	"NO"
NUMBER_OF_FIELDS	7
NUMBER_OF_SETS	15
BEGIN_DATA_FORMAT
 SAMPLE_ID	RGB_R	RGB_G	RGB_B	XYZ_X	XYZ_Y	XYZ_Z
END_DATA_FORMAT
BEGIN_DATA
 1	0	0	0	0.1831054688	0.2288818359	0.3204345703
 2	1	1	1	44.03686523	37.17041016	49.75891113
 3	1	0	0	26.45874023	2.975463867	4.165649414
 4	0	1	0	14.7857666	25.86364746	12.1307373
 5	0	0	1	1.052856445	8.331298828	33.09631348
 6	0	0	0	0.1831054688	0.2288818359	0.3204345703
 7	1	1	1	44.0826416	37.12463379	49.8046875
 8	1	0	0	26.41296387	2.975463867	4.165649414
 9	0	1	0	14.7857666	25.68054199	12.1307373
 10	0	0	1	1.052856445	8.331298828	33.37097168
 11	0	0	0	0.1831054688	0.2288818359	0.3204345703
 12	1	1	1	44.0826416	37.12463379	49.85046387
 13	1	0	0	26.55029297	2.975463867	4.165649414
 14	0	1	0	14.7857666	25.72631836	12.1307373
 15	0	0	1	1.052856445	8.331298828	33.09631348
END_DATA
