data/calibration-002239.ti3
CTI3   
ORIGINATOR	"ColorHug Factory"
CREATED	"Wed Nov 20 21:25:20 2013"
DESCRIPTOR	"Calibration Target chart information 3"
DEVICE_CLASS	"DISPLAY"
COLOR_REP	"RGB_XYZ"
TARGET_INSTRUMENT	"Hughski ColorHug"
INSTRUMENT_TYPE_SPECTRAL	"NO"
NORMALIZED_TO_Y_100	"NO"
NUMBER_OF_FIELDS	7
NUMBER_OF_SETS	15
BEGIN_DATA_FORMAT
 SAMPLE_ID	RGB_R	RGB_G	RGB_B	XYZ_X	XYZ_Y	XYZ_Z
END_DATA_FORMAT
BEGIN_DATA
 1	0	0	0	0.0457763671875	0.0457763671875	0.091552734375
 2	1	1	1	73.05908203125	36.5753173828125	54.74853515625
 3	1	0	0	46.32568359375	3.9825439453125	6.5460205078125
 4	0	1	0	23.62060546875	23.8494873046875	12.1307373046875
 5	0	0	1	1.3275146484375	8.880615234375	36.163330078125
 6	0	0	0	0.0457763671875	0.0457763671875	0.091552734375
 7	1	1	1	73.05908203125	36.62109375	54.6112060546875
 8	1	0	0	46.966552734375	4.0283203125	6.5460205078125
 9	0	1	0	23.4832763671875	23.712158203125	12.2222900390625
 10	0	0	1	1.373291015625	8.880615234375	36.0260009765625
 11	0	0	0	0.0457763671875	0.0457763671875	0.091552734375
 12	1	1	1	72.3724365234375	36.529541015625	54.7027587890625
 13	1	0	0	46.5545654296875	3.9825439453125	6.500244140625
 14	0	1	0	23.4832763671875	23.7579345703125	12.1307373046875
 15	0	0	1	1.373291015625	8.8348388671875	35.888671875
END_DATA
