data/calibration-001939.ti3
CTI3   
ORIGINATOR	"ColorHug Factory"
CREATED	"Sat May 25 21:48:48 2013"
DESCRIPTOR	"Calibration Target chart information 3"
DEVICE_CLASS	"DISPLAY"
COLOR_REP	"RGB_XYZ"
TARGET_INSTRUMENT	"Hughski ColorHug"
INSTRUMENT_TYPE_SPECTRAL	"NO"
NORMALIZED_TO_Y_100	"NO"
NUMBER_OF_FIELDS	7
NUMBER_OF_SETS	15
BEGIN_DATA_FORMAT
 SAMPLE_ID	RGB_R	RGB_G	RGB_B	XYZ_X	XYZ_Y	XYZ_Z
END_DATA_FORMAT
BEGIN_DATA
 1	0	0	0	0.0457763671875	0.091552734375	0.1373291015625
 2	1	1	1	29.3426513671875	38.177490234375	49.2095947265625
 3	1	0	0	16.7999267578125	2.5634765625	3.0670166015625
 4	0	1	0	11.077880859375	26.458740234375	12.2222900390625
 5	0	0	1	0.8697509765625	8.97216796875	33.8287353515625
 6	0	0	0	0.0457763671875	0.091552734375	0.1373291015625
 7	1	1	1	29.3426513671875	38.177490234375	49.2095947265625
 8	1	0	0	16.754150390625	2.5634765625	3.0670166015625
 9	0	1	0	11.077880859375	26.7333984375	12.176513671875
 10	0	0	1	0.8697509765625	8.97216796875	33.966064453125
 11	0	0	0	0.0457763671875	0.091552734375	0.1373291015625
 12	1	1	1	29.205322265625	38.1317138671875	49.163818359375
 13	1	0	0	16.754150390625	2.5634765625	3.0670166015625
 14	0	1	0	11.077880859375	26.5960693359375	12.2222900390625
 15	0	0	1	0.8697509765625	8.97216796875	34.0118408203125
END_DATA
