data/calibration-001345.ti3
CTI3   
ORIGINATOR	"ColorHug Factory"
DESCRIPTOR	"Calibration Target chart information 3"
DEVICE_CLASS	"DISPLAY"
COLOR_REP	"RGB_XYZ"
TARGET_INSTRUMENT	"Hughski ColorHug"
INSTRUMENT_TYPE_SPECTRAL	"NO"
NORMALIZED_TO_Y_100	"NO"
NUMBER_OF_FIELDS	7
NUMBER_OF_SETS	15
BEGIN_DATA_FORMAT
 SAMPLE_ID	RGB_R	RGB_G	RGB_B	XYZ_X	XYZ_Y	XYZ_Z
END_DATA_FORMAT
BEGIN_DATA
 1	0	0	0	0	0.04577636719	0.09155273438
 2	1	1	1	26.32141113	33.41674805	40.7409668
 3	1	0	0	14.83154297	2.197265625	2.700805664
 4	0	1	0	9.658813477	23.66638184	10.84899902
 5	0	0	1	0.6408691406	7.095336914	26.7791748
 6	0	0	0	0.09155273438	0.04577636719	0.09155273438
 7	1	1	1	26.0925293	33.05053711	40.6036377
 8	1	0	0	14.7857666	2.197265625	2.700805664
 9	0	1	0	9.658813477	23.75793457	10.80322266
 10	0	0	1	0.6408691406	7.095336914	26.7791748
 11	0	0	0	0.09155273438	0.04577636719	0.09155273438
 12	1	1	1	26.18408203	33.27941895	40.64941406
 13	1	0	0	14.7857666	2.197265625	2.700805664
 14	0	1	0	9.613037109	23.52905273	10.80322266
 15	0	0	1	0.6408691406	7.095336914	26.68762207
END_DATA
