data/calibration-000323.ti3
CTI3
DESCRIPTOR	"Calibration Target chart information 3"
ORIGINATOR	"ColorHug Factory"
DEVICE_CLASS	"DISPLAY"
COLOR_REP	"RGB_XYZ"
TARGET_INSTRUMENT	"ColorHug"
INSTRUMENT_TYPE_SPECTRAL	"NO"
LUMINANCE_XYZ_CDM2	"48.877716 34.812927 39.459229"
NORMALIZED_TO_Y_100	"YES"
NUMBER_OF_FIELDS	7
NUMBER_OF_SETS	836
BEGIN_DATA_FORMAT
 SAMPLE_ID	RGB_R	RGB_G	RGB_B	XYZ_X	XYZ_Y	XYZ_Z
END_DATA_FORMAT
BEGIN_DATA
 1	100	100	100	138.1389253	100	112.9750983
 2	100	100	100	139.4495413	98.82044561	112.7129751
 3	100	100	100	141.0222805	99.8689384	112.9750983
 4	100	100	100	141.1533421	100	113.2372215
 5	33.33	32.622	30.968	11.53342071	7.994757536	8.519003932
 6	100	0	100	89.38401048	27.78505898	78.76802097
 7	100	100	0	138.4010485	81.25819135	47.83748362
 8	0	100	100	48.62385321	90.56356488	98.68938401
 9	0	100	0	46.65792923	71.03538663	33.15858453
 10	0	0	100	2.096985583	18.21756225	64.61336828
 11	100	0	0	86.76277851	9.174311927	13.76146789
 12	0	0	0	0	0	0.131061599
 13	0	52.455	100	12.3197903	34.60026212	72.34600262
 14	100	0	50.3	87.9423329	12.9750983	26.73656619
 15	100	54.739	100	101.5727392	45.60943644	87.2870249
 16	100	52.128	0	98.82044561	25.0327654	21.36304063
 17	0	0	46.181	0.2621231979	2.883355177	10.35386632
 18	0	51.141	0	10.09174312	15.07208388	7.077326343
 19	0	100	51.348	47.05111402	75.0982962	46.92005242
 20	100	100	52.037	139.4495413	85.45216252	61.73001311
 21	49.216	0	0	17.16906946	1.834862385	2.752293578
 22	56.159	100	0	70.64220183	73.65661861	36.9593709
 23	49.226	100	100	65.79292267	91.61205767	101.310616
 24	44.487	0	100	15.46526868	19.79030144	66.97247706
 25	100	44.498	52.029	96.19921363	24.6395806	33.42070773
 26	48.926	48.544	100	27.91612058	33.94495413	74.04980341
 27	51.368	100	47.25	65.79292267	76.40891219	47.70642202
 28	49.893	0	49.033	18.08650066	5.373525557	15.07208388
 29	53.109	51.372	0	30.66841415	17.30013106	10.35386632
 30	0	58.587	53.943	14.02359109	24.6395806	24.508519
 31	100	28.065	100	91.74311927	32.24115334	80.86500655
 32	0	0	72.874	0.9174311927	8.256880734	29.22673657
 33	0	26.758	100	4.193971166	22.28047182	66.71035387
 34	0	25.426	0	2.359108781	3.407601573	1.703800786
 35	72.508	0	100	42.20183486	22.80471822	71.03538663
 36	100	27.395	0	90.43250328	13.23722149	15.59633028
 37	74.47	100	100	92.92267366	94.75753604	105.5045872
 38	100	0	25.728	87.4180865	10.09174312	16.90694626
 39	73.862	0	0	42.59501966	4.456094364	6.684141547
 40	100	100	25.402	136.8283093	81.65137615	50.85190039
 41	0	75.751	100	26.34338139	55.04587156	82.04456094
 42	0	75.172	0	23.72214941	35.51769332	16.77588467
 43	0	100	25.864	46.65792923	71.95281782	36.17300131
 44	100	0	74.801	88.33551769	18.21756225	45.08519004
 45	0	100	75.421	47.31323722	80.47182176	65.79292267
 46	24.577	0	0	3.931847969	0.3931847969	0.6553079948
 47	26.321	100	0	51.50720839	71.42857143	33.94495413
 48	100	75.835	0	114.8099607	46.13368283	31.32372215
 49	100	100	77.061	138.1389253	90.43250328	82.04456094
 50	71.263	100	0	86.8938401	75.88466579	39.84272608
 51	0	0	15.614	0.131061599	0.2621231979	1.179554391
 52	0	30.049	70.936	3.931847969	12.7129751	29.88204456
 53	100	77.691	100	117.0380079	67.23460026	97.24770642
 54	24.486	100	100	52.55570118	90.17038008	98.68938401
 55	100	62.784	31.909	104.587156	34.99344692	30.27522936
 56	29.552	0	100	7.601572739	18.87287025	65.66186107
 57	32.98	70.921	100	30.27522936	50.5897772	80.86500655
 58	0	27.681	40.241	3.014416776	6.29095675	9.698558322
 59	67.901	71.021	100	58.06028834	53.86631717	85.05897772
 60	28.154	100	67.829	52.16251638	79.29226737	59.23984273
 61	71.637	100	70.001	88.0733945	83.61730013	66.97247706
 62	58.822	58.763	53.586	39.44954128	27.39187418	28.44036697
 63	33.466	30.48	0	10.74705111	5.766710354	3.538663172
 64	100	73.795	71.277	113.1061599	52.29357798	58.58453473
 65	68.394	29.692	0	38.92529489	8.387942333	7.863695937
 66	70.399	0	29.039	37.8768021	5.111402359	9.96068152
 67	28.078	0	26.956	5.242463958	1.441677588	4.193971166
 68	28.532	72.339	0	27.39187418	33.15858453	16.12057667
 69	100	30.941	26.496	90.56356488	15.33420708	19.65923984
 70	34.597	0	73.611	8.78112713	9.305373526	31.32372215
 71	71.573	0	72.408	39.97378768	12.4508519	35.38663172
 72	0	71.029	29.412	21.23197903	32.50327654	18.87287025
 73	68.386	75.008	0	59.76408912	39.44954128	22.41153342
 74	68.088	27.309	100	39.44954128	26.34338139	71.95281782
 75	100	26.457	73.749	90.56356488	21.88728702	46.39580603
 76	74.344	100	27.392	90.95674967	77.32634338	43.64351245
 77	27.558	100	28.197	51.50720839	73.00131062	37.4836173
 78	31.196	27.465	100	10.87811271	23.19790301	68.02096986
 79	0	75.521	72.824	24.9017038	44.56094364	46.39580603
 80	0	50.93	25.553	9.96068152	15.72739187	10.09174312
 81	32.06	33.584	64.033	11.40235911	13.1061599	25.95019659
 82	81.666	55.38	0	65.79292267	23.72214941	16.90694626
 83	68.257	32.751	58.286	39.97378768	14.80996068	26.21231979
 84	0	55.248	81.585	12.8440367	28.96461337	47.57536042
 85	73.781	52.099	100	54.65268676	38.92529489	79.29226737
 86	100	50.537	82.952	98.82044561	35.51769332	61.59895151
 87	23.55	0	50.439	4.062909567	3.931847969	13.36828309
 88	31.335	62.746	31.114	22.67365662	25.81913499	16.90694626
 89	100	18.31	49.418	88.20445609	14.54783748	27.26081258
 90	26.498	48.404	0	13.63040629	13.89252949	7.077326343
 91	47.91	100	85.744	64.22018349	85.45216252	80.07863696
 92	71.829	47.313	31.811	48.75491481	18.47968545	17.16906946
 93	31.304	64.132	69.316	23.98427261	33.42070773	39.31847969
 94	80.403	0	54.321	51.63826999	9.829619921	23.46002621
 95	18.455	50.036	100	13.63040629	33.42070773	71.82175623
 96	50.653	100	16.345	64.74442988	73.52555701	37.3525557
 97	80.121	100	52.261	100.1310616	80.86500655	55.57011796
 98	0	22.54	19.289	1.834862385	3.276539974	3.145478375
 99	100	75.273	46.886	113.6304063	48.36173001	42.20183486
 100	0	78.618	56.625	26.99868938	44.29882045	35.38663172
 101	51.137	80.627	100	48.75491481	63.30275229	87.8112713
 102	48.446	0	17.864	16.51376147	2.228047182	4.193971166
 103	100	50.023	21.211	96.98558322	24.24639581	22.80471822
 104	50.115	20.118	0	19.26605505	4.062909567	3.931847969
 105	58.099	72.426	33.158	46.92005242	36.82830931	24.508519
 106	19.364	100	50.197	49.27916121	74.9672346	46.65792923
 107	50.683	19.177	100	21.49410223	22.28047182	68.93840105
 108	53.37	0	81.576	21.62516383	13.23722149	42.20183486
 109	47.768	76.245	0	40.49803408	38.53211009	19.79030144
 110	0	18.927	55.503	1.703800786	6.422018349	16.64482307
 111	0	13.277	0	0.6553079948	0.9174311927	0.5242463958
 112	72.862	72.473	75.625	64.48230668	46.92005242	54.39056356
 113	100	13.904	0	87.6802097	10.09174312	14.15465269
 114	86.349	0	100	62.2542595	24.9017038	74.31192661
 115	100	41.941	100	93.84010485	37.6146789	83.61730013
 116	100	81.785	16.464	118.4796855	53.34207077	35.77981651
 117	0	44.063	52.596	7.732634338	15.07208388	19.52817824
 118	0	0	58.917	0.5242463958	4.98034076	17.95543906
 119	59.25	24.551	29.789	28.04718218	7.208387942	9.698558322
 120	82.73	82.874	100	87.0249017	69.72477064	95.15072084
 121	80.039	0	12.618	50.85190039	5.635648755	8.912188729
 122	60.957	47.729	77.817	36.82830931	25.95019659	45.08519004
 123	100	0	38.618	86.63171691	11.14023591	20.96985583
 124	0	40.09	100	7.601572739	27.52293578	69.06946265
 125	0	15.283	82.322	1.834862385	12.4508519	39.97378768
 126	17.592	81.726	100	32.76539974	62.3853211	86.10747051
 127	100	14.13	100	89.12188729	28.70249017	79.29226737
 128	15.261	100	82.059	48.75491481	82.69986894	73.39449541
 129	47.77	79.418	60.389	43.51245085	47.83748362	40.89121887
 130	18.768	16.429	0	3.669724771	1.703800786	1.048492792
 131	55.634	100	65.763	69.46264744	80.07863696	60.28833552
 132	100	100	38.541	136.3040629	82.69986894	54.52162516
 133	17.421	0	83.497	3.014416776	11.66448231	41.15334207
 134	17.237	16.758	100	4.718217562	20.18348624	65.13761468
 135	0	15.067	30.039	0.9174311927	2.49017038	4.849279161
 136	0	0	86.505	1.441677588	12.4508519	44.42988204
 137	75.736	72.799	50.02	67.88990826	41.80865007	35.77981651
 138	100	83.323	85.529	120.576671	67.62778506	79.55439056
 139	100	100	64.894	137.8768021	86.8938401	70.38007864
 140	81.98	84.914	0	87.0249017	53.21100917	30.93053735
 141	0	63.757	15.49	16.25163827	24.6395806	12.5819135
 142	49.514	66.135	100	36.9593709	46.92005242	80.07863696
 143	100	0	61.862	86.36959371	14.94102228	33.94495413
 144	24.308	45.41	49.831	11.9266055	15.72739187	18.74180865
 145	15.963	0	17.047	1.703800786	0.5242463958	1.703800786
 146	87.497	100	100	113.1061599	96.72346003	108.3879423
 147	52.099	25.003	75.752	22.41153342	14.67889908	37.3525557
 148	14.909	81.162	0	29.61992136	42.33289646	20.18348624
 149	0	34.792	14.626	4.456094364	6.815203145	4.193971166
 150	48.39	45.075	22.552	24.24639581	13.89252949	10.35386632
 151	83.545	65.965	100	74.836173	51.11402359	86.10747051
 152	16.226	62.345	0	17.16906946	23.19790301	11.14023591
 153	63.222	0	14.914	29.61992136	3.407601573	5.897771953
 154	80.449	13.446	0	51.90039318	6.553079948	8.519003932
 155	83.917	41.562	0	62.9095675	15.59633028	13.36828309
 156	100	60.448	46.3	103.0144168	34.33813893	35.12450852
 157	15.584	0	34.795	1.834862385	1.703800786	5.897771953
 158	17.144	65.121	100	20.96985583	44.95412844	77.71952818
 159	83.602	55.334	62.667	69.46264744	30.27522936	38.53211009
 160	0	82.19	14.22	29.22673657	44.03669725	21.62516383
 161	25.132	74.856	50.616	28.04718218	39.31847969	30.53735256
 162	0	13.769	100	2.228047182	19.39711664	65.00655308
 163	87.181	0	0	62.1231979	6.553079948	9.698558322
 164	0	100	39.19	46.00262123	72.60812582	40.49803408
 165	78.047	65.914	19.865	66.18610747	32.24115334	22.01834862
 166	100	63.961	15.865	104.3250328	34.60026212	26.99868938
 167	100	45.955	36.032	95.41284404	23.06684142	25.68807339
 168	15.926	100	16.89	47.31323722	71.16644823	34.73132372
 169	41.459	100	0	58.19134993	72.08387942	34.99344692
 170	48.707	37.288	48.139	22.41153342	12.9750983	17.95543906
 171	83.381	100	13.285	104.3250328	77.85058978	43.11926606
 172	78.129	25.303	75.621	50.98296199	17.69331586	41.41546527
 173	12.396	0	0	1.048492792	0.131061599	0.2621231979
 174	37.607	48.336	83.346	19.65923984	26.34338139	48.88597641
 175	35.588	15.356	0	9.174311927	2.228047182	1.965923984
 176	61.245	100	100	76.14678899	92.13630406	102.4901704
 177	100	67.29	87.195	107.6015727	50.327654	72.87024902
 178	0	0	30.615	0.131061599	1.179554391	4.325032765
 179	35.187	81.789	83.323	38.13892529	55.70117955	62.6474443
 180	39.525	80.194	22.879	38.13892529	43.11926606	23.59108781
 181	50.634	34.593	0	22.67365662	8.519003932	6.028833552
 182	14.175	100	63.146	47.83748362	76.67103539	54.52162516
 183	83.493	17.728	34.574	56.35648755	9.305373526	15.33420708
 184	23.463	22.014	79.943	6.29095675	13.49934469	38.66317169
 185	18.066	31.847	0	5.897771953	5.635648755	3.014416776
 186	87.201	100	81.361	111.5334207	88.85976409	82.17562254
 187	0	100	87.95	47.18217562	84.01048493	80.07863696
 188	34.476	17.888	46.22	9.174311927	5.635648755	12.5819135
 189	18.277	0	67.39	2.883355177	7.077326343	24.7706422
 190	100	87.972	0	122.9357798	60.94364351	38.26998689
 191	82.925	34.85	100	61.07470511	31.06159895	76.80209699
 192	0	88.016	100	35.77981651	70.64220183	89.25294889
 193	36.104	85.655	100	42.20183486	67.88990826	89.12188729
 194	60.981	0	0	26.99868938	2.883355177	4.325032765
 195	51.466	61.826	78.106	34.86238532	34.99344692	48.88597641
 196	78.427	31.983	22.175	51.63826999	11.27129751	12.4508519
 197	66.017	44.321	0	40.10484928	14.54783748	10.35386632
 198	83.941	0	84.177	57.14285714	17.95543906	50.85190039
 199	20.158	46.612	23.269	10.87811271	13.23722149	8.78112713
 200	0	100	62.618	46.26474443	76.80209699	53.86631717
 201	33.832	0	13.933	7.47051114	1.048492792	2.228047182
 202	100	17.286	16.322	86.76277851	11.14023591	15.59633028
 203	0	42.204	83.926	7.732634338	22.01834862	46.78899083
 204	0	87.774	0	33.55176933	50.85190039	23.85321101
 205	64.988	0	59.017	31.58584535	8.519003932	23.19790301
 206	14.677	0	100	3.145478375	18.34862385	65.26867628
 207	88.934	82.673	35.021	95.28178244	52.81782438	37.2214941
 208	0	63.778	100	17.82437746	43.11926606	76.53997379
 209	83.429	17.674	100	58.06028834	25.95019659	74.7051114
 210	30.899	100	85.668	53.34207077	84.01048493	78.11271298
 211	83.68	0	41.016	55.83224115	8.256880734	17.16906946
 212	100	63.515	0	103.27654	33.28964613	25.0327654
 213	85.074	69.987	0	79.29226737	36.30406291	23.46002621
 214	20.801	45.524	69.018	11.40235911	19.65923984	31.97903014
 215	21.382	82.482	73.017	33.15858453	53.47313237	51.11402359
 216	100	15.128	64.249	82.43774574	16.64482307	36.56618611
 217	36.522	0	58.427	9.305373526	5.897771953	19.00393185
 218	22.466	81.296	33.007	31.97903014	44.82306684	25.81913499
 219	62.531	87.152	0	61.9921363	53.60419397	28.17824377
 220	84.12	85.397	67.886	89.38401048	61.46788991	57.53604194
 221	18.87	27.336	45.389	5.373525557	7.077326343	12.4508519
 222	66.439	100	14.444	80.07863696	74.836173	39.18741809
 223	41.636	22.147	19.003	13.63040629	4.456094364	4.98034076
 224	61.271	100	81.94	75.491481	85.45216252	77.19528178
 225	86.013	100	0	108.7811271	77.58846658	42.72608126
 226	37.57	0	0	9.174311927	0.9174311927	1.441677588
 227	100	16.132	84.102	87.8112713	22.54259502	56.22542595
 228	0	100	13.619	46.00262123	71.16644823	33.94495413
 229	38.905	100	56.471	57.01179554	77.06422018	51.50720839
 230	100	15.382	34.563	86.36959371	12.0576671	20.05242464
 231	36.656	14.908	100	11.66448231	20.57667104	67.10353866
 232	0	62.593	66.608	16.12057667	30.14416776	35.12450852
 233	66.347	12.528	100	35.12450852	22.67365662	70.64220183
 234	100	43.375	69.233	92.79161206	27.39187418	45.08519004
 235	100	56.36	61.236	98.55832241	33.55176933	42.72608126
 236	0	86.194	44.955	32.63433814	52.16251638	33.15858453
 237	64.527	87.262	100	65.92398427	72.34600262	93.44692005
 238	34.411	0	42.471	7.863695937	3.276539974	10.09174312
 239	80.23	59.707	85.12	66.57929227	39.31847969	61.73001311
 240	20.625	19.056	14.791	4.193971166	2.621231979	2.49017038
 241	15.341	34.221	100	7.601572739	24.9017038	68.41415465
 242	36.777	0	87.905	10.09174312	14.15465269	47.83748362
 243	34.598	56.247	100	22.14941022	37.8768021	75.2293578
 244	20.86	67.629	17.418	21.62516383	28.44036697	15.07208388
 245	44.958	60.843	18.054	28.83355177	24.11533421	14.15465269
 246	37.421	60.193	0	23.85321101	22.41153342	11.53342071
 247	84.011	33.849	42.612	61.20576671	14.94102228	20.96985583
 248	17.241	60.339	37.743	16.38269987	23.59108781	17.30013106
 249	50.65	17.261	53.278	19.65923984	7.732634338	18.08650066
 250	45.505	48.926	65.152	24.24639581	21.88728702	31.84796855
 251	44.567	84.081	39.649	44.16775885	49.8034076	31.58584535
 252	100	86.339	72.054	122.4115334	67.10353866	66.57929227
 253	68.14	61.135	0	49.4102228	25.68807339	15.85845347
 254	17.93	66.986	81.403	21.36304063	38.53211009	51.50720839
 255	39.242	60.215	48.926	25.2948886	26.08125819	23.85321101
 256	20.099	18.77	62.967	4.456094364	8.125819135	22.28047182
 257	34.553	100	14.582	53.47313237	71.95281782	35.12450852
 258	87.345	0	66.694	61.73001311	13.49934469	34.07601573
 259	0	43.714	39.842	7.339449541	12.8440367	12.7129751
 260	100	37.705	13.955	91.21887287	17.30013106	18.21756225
 261	31.265	86.993	0	39.31847969	50.327654	24.24639581
 262	51.402	82.661	81.338	48.88597641	57.66710354	62.7785059
 263	100	100	12.984	136.0419397	80.34076016	47.96854522
 264	0	37.859	0	5.242463958	7.732634338	3.669724771
 265	62.092	58.215	100	43.11926606	41.67758847	79.16120577
 266	86.186	100	64.1	107.8636959	83.35517693	65.53079948
 267	100	35.251	85.898	91.61205767	28.57142857	61.46788991
 268	63.182	89.992	41.974	65.66186107	59.89515072	38.92529489
 269	13.504	100	0	47.05111402	70.77326343	33.02752294
 270	100	0	13.228	85.58322412	9.305373526	14.41677588
 271	63.881	40.826	100	37.7457405	31.06159895	73.78768021
 272	69.387	84.838	20.792	67.75884666	51.63826999	30.01310616
 273	0	70.279	45.136	20.57667104	33.28964613	24.6395806
 274	79.094	64.754	40.908	66.44823067	33.15858453	28.17824377
 275	62.385	54.099	17.396	39.97378768	20.31454784	14.02359109
 276	64.408	14.621	0	31.06159895	4.456094364	5.373525557
 277	70.028	15.606	44.651	37.8768021	8.125819135	16.38269987
 278	0	63.544	0	16.12057667	24.24639581	11.40235911
 279	83.475	47.274	20.502	64.22018349	19.26605505	16.77588467
 280	55.866	0	32.671	22.54259502	3.80078637	8.650065531
 281	58.007	0	100	25.81913499	20.96985583	68.54521625
 282	100	0	87.698	86.50065531	22.14941022	60.15727392
 283	0	13.792	67.215	1.31061599	7.994757536	24.9017038
 284	84.123	17.001	58.549	57.40498034	12.7129751	27.65399738
 285	59.579	32.873	15.966	29.35779817	8.912188729	7.994757536
 286	10.41	32.998	28.659	4.849279161	7.077326343	6.815203145
 287	17.231	40.031	85.65	9.043250328	21.75622543	48.36173001
 288	37.568	41.561	10.108	15.72739187	10.61598952	6.553079948
 289	0	69.015	85.092	20.44560944	41.54652687	56.35648755
 290	14.442	100	36.187	47.18217562	72.34600262	39.58060288
 291	100	40.549	0	91.61205767	18.21756225	17.82437746
 292	82.143	45.435	78.429	62.2542595	27.52293578	49.27916121
 293	52.674	0	67.3	20.31454784	9.043250328	27.65399738
 294	0	87.868	66.793	34.33813893	58.45347313	48.36173001
 295	86.53	100	40.524	107.9947575	79.55439056	51.24508519
 296	71.777	85.586	67.232	72.34600262	59.89515072	54.12844037
 297	43.216	100	31.671	58.71559633	73.00131062	39.58060288
 298	39.245	32.908	85.845	15.46526868	19.39711664	48.49279161
 299	0	45.662	67.543	8.387942333	18.87287025	30.40629096
 300	12.161	100	100	48.23066841	89.12188729	97.90301442
 301	67.049	0	85.516	34.20707733	15.98951507	48.88597641
 302	100	89.041	100	123.5910878	80.99606815	104.1939712
 303	20.246	60.698	56.526	17.56225426	26.99868938	27.39187418
 304	52.177	55.457	40.416	31.45478375	22.41153342	19.65923984
 305	72.617	87.018	83.932	74.836173	66.31716907	72.47706422
 306	40.512	16.723	66.475	12.7129751	9.436435125	26.34338139
 307	68.507	49.232	50.605	44.56094364	21.49410223	25.2948886
 308	65.622	100	54.525	79.16120577	78.37483617	54.12844037
 309	54.115	37.24	66.394	26.34338139	16.64482307	30.93053735
 310	100	76.138	31.267	112.0576671	47.31323722	35.64875491
 311	54.728	65.623	0	38.53211009	28.30930537	15.59633028
 312	63.126	12.526	64.37	30.01310616	10.35386632	27.39187418
 313	72.827	18.08	23.704	41.28440367	6.815203145	9.829619921
 314	23.268	15.278	34.947	4.587155963	3.276539974	6.946264744
 315	87.648	68.954	59.645	78.11271298	41.28440367	42.72608126
 316	0	85.595	85.198	33.02752294	60.55045872	66.18610747
 317	35.798	84.371	69.21	39.97378768	55.04587156	50.0655308
 318	36.062	47.494	35.919	17.30013106	15.59633028	13.63040629
 319	86.083	36.277	59.152	64.74442988	18.87287025	31.19266055
 320	58.21	100	30.361	70.38007864	74.31192661	41.28440367
 321	46.745	14.614	32.317	15.98951507	4.193971166	7.863695937
 322	81.573	73.869	86.954	76.40891219	53.07994758	70.24901704
 323	85.991	49.387	48.206	68.93840105	23.59108781	27.78505898
 324	28.062	87.906	19.654	38.79423329	52.42463958	26.73656619
 325	68.992	17.993	85.124	37.4836173	17.69331586	49.8034076
 326	100	66.147	100	105.1114024	53.99737877	90.30144168
 327	33.358	64.806	84.517	25.5570118	38.53211009	55.57011796
 328	41.351	17.736	80.522	13.63040629	13.63040629	40.36697248
 329	100	100	88.719	136.4351245	93.70904325	95.28178244
 330	66.336	0	44.32	32.76539974	6.29095675	15.07208388
 331	64.85	67.09	12.293	49.4102228	30.93053735	18.61074705
 332	15.262	31.268	63.277	5.635648755	11.40235911	23.98427261
 333	15.008	43.663	37.3	8.78112713	12.8440367	12.0576671
 334	0	57.895	38.078	13.1061599	21.75622543	16.38269987
 335	66.599	58.458	67.871	46.78899083	31.06159895	40.36697248
 336	59.191	18.651	15.215	26.34338139	4.98034076	6.028833552
 337	66.781	31.14	84.629	37.4836173	20.96985583	50.0655308
 338	88.033	85.158	52.14	95.93709043	58.71559633	46.26474443
 339	36.882	100	100	56.48754915	89.64613368	99.34469201
 340	26.102	33.094	17.006	8.387942333	6.684141547	4.98034076
 341	56.309	36.861	35.862	27.65399738	11.53342071	13.23722149
 342	45.839	65.587	67.033	32.50327654	34.73132372	39.05635649
 343	83.709	81.172	16.406	84.27260813	48.75491481	30.01310616
 344	0	48.132	13.005	8.650065531	13.23722149	7.077326343
 345	87.176	50.021	100	72.21494102	39.71166448	81.38925295
 346	51.219	84.244	13.73	48.75491481	48.36173001	25.5570118
 347	60.606	71.415	48.406	47.83748362	38.13892529	31.06159895
 348	0	11.359	12.718	0.5242463958	0.9174311927	1.179554391
 349	86.429	49.705	33.145	69.98689384	22.01834862	21.49410223
 350	34.056	40.958	100	15.46526868	28.57142857	70.64220183
 351	100	30.557	59.628	88.59764089	19.65923984	34.99344692
 352	88.497	26.902	13.449	65.66186107	10.87811271	12.7129751
 353	14.167	51.98	88.218	12.8440367	29.22673657	53.99737877
 354	13.784	12.983	49.37	2.359108781	4.587155963	12.8440367
 355	15.018	88.441	48.062	35.91087811	55.04587156	36.30406291
 356	87.79	25.769	89.215	65.13761468	23.85321101	59.76408912
 357	0	33.206	55.865	4.325032765	10.48492792	18.87287025
 358	74.324	76.029	35.536	66.84141547	42.72608126	29.75098296
 359	65.863	57.223	42.324	44.69200524	25.0327654	22.93577982
 360	30.893	54.646	13.136	17.69331586	18.21756225	10.09174312
 361	0	34.36	28.321	4.325032765	7.47051114	6.815203145
 362	15.443	77.087	85.116	27.65399738	50.327654	61.59895151
 363	63.381	68.947	68.521	49.27916121	39.58060288	44.29882045
 364	69.733	27.566	42.917	39.05635649	10.61598952	16.77588467
 365	32.754	100	42.76	52.68676278	73.91874181	43.38138925
 366	47.096	29.481	34.829	18.61074705	7.994757536	10.35386632
 367	8.5451	71.948	62.695	22.28047182	38.13892529	36.04193971
 368	0	86.048	29.3	31.97903014	49.5412844	26.73656619
 369	53.697	51.572	85.367	31.45478375	29.75098296	54.12844037
 370	17.608	56.69	12.515	14.41677588	19.00393185	9.96068152
 371	90.638	14.414	49.227	67.49672346	11.79554391	23.46002621
 372	63.248	63.64	89.55	46.78899083	41.41546527	65.39973788
 373	100	85.976	58.455	120.7077326	63.56487549	54.78374836
 374	9.8311	28.027	7.5567	3.538663172	4.325032765	2.49017038
 375	89.831	64.313	69.506	83.48623853	39.58060288	48.88597641
 376	31.754	12.995	25.543	7.208387942	2.49017038	4.587155963
 377	75.914	45.966	64.957	52.68676278	23.32896461	35.38663172
 378	7.5735	50.695	58.941	10.61598952	20.18348624	25.2948886
 379	100	69.835	58.912	105.7667104	44.56094364	46.26474443
 380	32.211	34.376	48.339	11.40235911	10.48492792	15.98951507
 381	13.901	12.159	73.555	2.621231979	9.567496723	30.66841415
 382	87.071	9.028	77.653	61.86107471	16.90694626	44.56094364
 383	23.272	85.409	84.29	35.91087811	59.89515072	65.39973788
 384	93.289	39.48	26.145	77.32634338	17.16906946	18.47968545
 385	65.769	59.63	30.967	46.00262123	25.81913499	19.52817824
 386	100	32.265	41.803	89.12188729	17.30013106	24.9017038
 387	86.568	85.281	86.961	93.57798165	67.23460026	77.58846658
 388	52.577	86.83	30.016	52.16251638	52.68676278	30.79947575
 389	47.921	40.199	76.902	22.93577982	20.44560944	40.89121887
 390	22.36	86.619	61.58	36.17300131	55.17693316	44.03669725
 391	52.232	33.601	88.787	24.6395806	21.75622543	54.12844037
 392	0	28.523	86.267	3.931847969	16.77588467	46.26474443
 393	43.497	67.879	39.551	31.71690695	31.71690695	23.06684142
 394	39.877	45.261	0	18.21756225	12.5819135	7.077326343
 395	86.94	12.43	24.699	60.55045872	8.125819135	12.8440367
 396	28.363	55.339	90.398	18.47968545	32.76539974	59.50196592
 397	39.018	70.534	57.879	30.93053735	36.69724771	33.55176933
 398	12.833	28.519	78.828	4.98034076	14.54783748	38.13892529
 399	68.35	31.815	69.975	39.18741809	17.03800786	35.12450852
 400	56.52	26.226	41.626	25.4259502	8.519003932	14.02359109
 401	12.938	46.218	0	8.912188729	12.0576671	5.766710354
 402	8.6938	60.179	26.117	14.80996068	22.28047182	13.36828309
 403	51.995	89.429	96.608	55.57011796	72.34600262	87.4180865
 404	46.905	47.746	48.909	24.11533421	18.08650066	20.70773263
 405	14.352	81.814	19.479	29.88204456	43.64351245	22.28047182
 406	71.482	38.117	12.273	43.64351245	12.3197903	10.74705111
 407	86.616	60.785	10.012	74.836173	28.57142857	20.44560944
 408	71.811	88.979	52.186	74.18086501	60.55045872	45.21625164
 409	43.213	100	72.083	59.10878113	80.07863696	64.22018349
 410	73.92	23.444	8.2853	42.85714286	7.47051114	8.387942333
