data/calibration-002660.ti3
CTI3   
ORIGINATOR	"ColorHug Factory"
CREATED	"Tue Jan 27 20:24:37 2015"
DESCRIPTOR	"Calibration Target chart information 3"
DEVICE_CLASS	"DISPLAY"
COLOR_REP	"RGB_XYZ"
TARGET_INSTRUMENT	"Hughski ColorHug"
INSTRUMENT_TYPE_SPECTRAL	"NO"
NORMALIZED_TO_Y_100	"NO"
NUMBER_OF_FIELDS	7
NUMBER_OF_SETS	15
BEGIN_DATA_FORMAT
 SAMPLE_ID	RGB_R	RGB_G	RGB_B	XYZ_X	XYZ_Y	XYZ_Z
END_DATA_FORMAT
BEGIN_DATA
 1.0	0.0	0.0	0.0	0.38752746582	0.421646118164	0.452087402344
 2.0	1.0	1.0	1.0	57.286712646484	57.690139770508	56.888885498047
 3.0	1.0	0.0	0.0	39.960968017578	4.300262451172	6.201354980469
 4.0	0.0	1.0	0.0	14.976226806641	42.01025390625	15.753845214844
 5.0	0.0	0.0	1.0	2.046966552734	11.603393554688	35.310333251953
 6.0	0.0	0.0	0.0	0.390075683594	0.422439575195	0.453994750977
 7.0	1.0	1.0	1.0	56.888885498047	57.690139770508	56.888885498047
 8.0	1.0	0.0	0.0	40.354675292969	4.302520751953	6.267776489258
 9.0	0.0	1.0	0.0	15.058822631836	42.01025390625	15.753845214844
 10.0	0.0	0.0	1.0	2.056213378906	11.603393554688	35.008544921875
 11.0	0.0	0.0	0.0	0.391479492188	0.42301940918	0.45637512207
 12.0	1.0	1.0	1.0	56.888885498047	57.286712646484	56.888885498047
 13.0	1.0	0.0	0.0	40.354675292969	4.302520751953	6.267776489258
 14.0	0.0	1.0	0.0	15.058822631836	41.795913696289	15.845260620117
 15.0	0.0	0.0	1.0	2.055191040039	11.603393554688	35.310333251953
END_DATA
