data/calibration-002638.ti3
CTI3   
ORIGINATOR	"ColorHug Factory"
CREATED	"Tue Jan 27 20:04:38 2015"
DESCRIPTOR	"Calibration Target chart information 3"
DEVICE_CLASS	"DISPLAY"
COLOR_REP	"RGB_XYZ"
TARGET_INSTRUMENT	"Hughski ColorHug"
INSTRUMENT_TYPE_SPECTRAL	"NO"
NORMALIZED_TO_Y_100	"NO"
NUMBER_OF_FIELDS	7
NUMBER_OF_SETS	15
BEGIN_DATA_FORMAT
 SAMPLE_ID	RGB_R	RGB_G	RGB_B	XYZ_X	XYZ_Y	XYZ_Z
END_DATA_FORMAT
BEGIN_DATA
 1.0	0.0	0.0	0.0	0.744995117188	0.716644287109	0.709808349609
 2.0	1.0	1.0	1.0	78.769226074219	74.472717285156	75.155960083008
 3.0	1.0	0.0	0.0	55.727890014648	5.859786987305	8.524444580078
 4.0	0.0	1.0	0.0	19.598083496094	53.894729614258	20.078430175781
 5.0	0.0	0.0	1.0	2.995239257812	15.114379882812	46.282470703125
 6.0	0.0	0.0	0.0	0.74983215332	0.728164672852	0.715759277344
 7.0	1.0	1.0	1.0	79.533966064453	75.851837158203	75.851837158203
 8.0	1.0	0.0	0.0	56.888885498047	5.927627563477	8.687164306641
 9.0	0.0	1.0	0.0	20.029327392578	54.979858398438	20.531326293945
 10.0	0.0	0.0	1.0	3.03857421875	15.398483276367	47.080459594727
 11.0	0.0	0.0	0.0	0.766311645508	0.746826171875	0.731033325195
 12.0	1.0	1.0	1.0	81.108901977539	77.283004760742	77.283004760742
 13.0	1.0	0.0	0.0	57.286712646484	6.005859375	8.770874023438
 14.0	0.0	1.0	0.0	20.227157592773	55.351348876953	20.634750366211
 15.0	0.0	0.0	1.0	3.079696655273	15.663467407227	47.352600097656
END_DATA
