data/calibration-000437.ti3
CTI3
ORIGINATOR	"ColorHug Factory"
DESCRIPTOR	"Calibration Target chart information 3"
DEVICE_CLASS	"DISPLAY"
COLOR_REP	"RGB_XYZ"
TARGET_INSTRUMENT	"Hughski ColorHug"
INSTRUMENT_TYPE_SPECTRAL	"NO"
NORMALIZED_TO_Y_100	"NO"
NUMBER_OF_FIELDS	7
NUMBER_OF_SETS	15
BEGIN_DATA_FORMAT
 SAMPLE_ID	RGB_R	RGB_G	RGB_B	XYZ_X	XYZ_Y	XYZ_Z
END_DATA_FORMAT
BEGIN_DATA
 1	0	0	0	0	0	0.04577636719
 2	1	1	1	52.91748047	38.40637207	44.31152344
 3	1	0	0	33.32519531	3.387451172	4.760742188
 4	0	1	0	17.94433594	27.74047852	12.54272461
 5	0	0	1	0.7781982422	7.141113281	26.73339844
 6	0	0	0	0	0	0.04577636719
 7	1	1	1	53.05480957	38.45214844	44.31152344
 8	1	0	0	33.23364258	3.387451172	4.760742188
 9	0	1	0	17.89855957	27.55737305	12.54272461
 10	0	0	1	0.7781982422	7.186889648	26.73339844
 11	0	0	0	0	0	0.04577636719
 12	1	1	1	53.19213867	38.45214844	44.31152344
 13	1	0	0	33.41674805	3.387451172	4.760742188
 14	0	1	0	17.8527832	27.60314941	12.54272461
 15	0	0	1	0.7781982422	7.186889648	26.7791748
END_DATA
