data/calibration-002566.ti3
CTI3   
ORIGINATOR	"ColorHug Factory"
CREATED	"Wed Dec 03 19:23:43 2014"
DESCRIPTOR	"Calibration Target chart information 3"
DEVICE_CLASS	"DISPLAY"
COLOR_REP	"RGB_XYZ"
TARGET_INSTRUMENT	"Hughski ColorHug"
INSTRUMENT_TYPE_SPECTRAL	"NO"
NORMALIZED_TO_Y_100	"NO"
NUMBER_OF_FIELDS	7
NUMBER_OF_SETS	15
BEGIN_DATA_FORMAT
 SAMPLE_ID	RGB_R	RGB_G	RGB_B	XYZ_X	XYZ_Y	XYZ_Z
END_DATA_FORMAT
BEGIN_DATA
 1.0	0.0	0.0	0.0	0.763961791992	0.857879638672	1.03840637207
 2.0	1.0	1.0	1.0	103.696197509766	98.698791503906	109.226654052734
 3.0	1.0	0.0	0.0	73.142852783203	7.460830688477	12.172348022461
 4.0	0.0	1.0	0.0	24.380950927734	68.266662597656	27.959030151367
 5.0	0.0	0.0	1.0	3.478546142578	20.428924560547	66.601623535156
 6.0	0.0	0.0	0.0	0.76985168457	0.864395141602	1.045150756836
 7.0	1.0	1.0	1.0	103.696197509766	98.698791503906	109.226654052734
 8.0	1.0	0.0	0.0	73.142852783203	7.460830688477	12.172348022461
 9.0	0.0	1.0	0.0	24.380950927734	68.266662597656	27.959030151367
 10.0	0.0	0.0	1.0	3.482986450195	20.428924560547	66.601623535156
 11.0	0.0	0.0	0.0	0.772384643555	0.869079589844	1.049438476562
 12.0	1.0	1.0	1.0	103.696197509766	98.698791503906	109.226654052734
 13.0	1.0	0.0	0.0	73.142852783203	7.467636108398	12.172348022461
 14.0	0.0	1.0	0.0	24.380950927734	68.266662597656	27.959030151367
 15.0	0.0	0.0	1.0	3.487426757812	20.428924560547	66.601623535156
END_DATA
