data/calibration-001023.ti3
CTI3   
ORIGINATOR	"ColorHug Factory"
DESCRIPTOR	"Calibration Target chart information 3"
DEVICE_CLASS	"DISPLAY"
COLOR_REP	"RGB_XYZ"
TARGET_INSTRUMENT	"Hughski ColorHug"
INSTRUMENT_TYPE_SPECTRAL	"NO"
NORMALIZED_TO_Y_100	"NO"
NUMBER_OF_FIELDS	7
NUMBER_OF_SETS	15
BEGIN_DATA_FORMAT
 SAMPLE_ID	RGB_R	RGB_G	RGB_B	XYZ_X	XYZ_Y	XYZ_Z
END_DATA_FORMAT
BEGIN_DATA
 1	0	0	0	0.04577636719	0.09155273438	0.09155273438
 2	1	1	1	31.26525879	35.11047363	38.63525391
 3	1	0	0	18.26477051	2.60925293	2.975463867
 4	0	1	0	11.16943359	25.54321289	10.94055176
 5	0	0	1	0.6866455078	7.00378418	24.62768555
 6	0	0	0	0.04577636719	0.09155273438	0.09155273438
 7	1	1	1	30.99060059	35.0189209	38.72680664
 8	1	0	0	18.17321777	2.60925293	2.975463867
 9	0	1	0	11.16943359	25.54321289	10.89477539
 10	0	0	1	0.6866455078	7.00378418	24.67346191
 11	0	0	0	0.04577636719	0.09155273438	0.09155273438
 12	1	1	1	31.12792969	35.11047363	38.72680664
 13	1	0	0	18.26477051	2.60925293	2.975463867
 14	0	1	0	11.16943359	25.45166016	10.94055176
 15	0	0	1	0.6866455078	7.00378418	24.71923828
END_DATA
