data/calibration-001603.ti3
CTI3   
ORIGINATOR	"ColorHug Factory"
DESCRIPTOR	"Calibration Target chart information 3"
DEVICE_CLASS	"DISPLAY"
COLOR_REP	"RGB_XYZ"
TARGET_INSTRUMENT	"Hughski ColorHug"
INSTRUMENT_TYPE_SPECTRAL	"NO"
NORMALIZED_TO_Y_100	"NO"
NUMBER_OF_FIELDS	7
NUMBER_OF_SETS	15
BEGIN_DATA_FORMAT
 SAMPLE_ID	RGB_R	RGB_G	RGB_B	XYZ_X	XYZ_Y	XYZ_Z
END_DATA_FORMAT
BEGIN_DATA
 1	0	0	0	0.1373291016	0.1373291016	0.1831054688
 2	1	1	1	39.55078125	39.00146484	48.01940918
 3	1	0	0	23.3001709	2.9296875	3.845214844
 4	0	1	0	13.54980469	27.69470215	12.49694824
 5	0	0	1	0.9613037109	8.422851562	31.44836426
 6	0	0	0	0.1373291016	0.1373291016	0.1831054688
 7	1	1	1	39.77966309	39.50500488	48.06518555
 8	1	0	0	23.3001709	2.9296875	3.845214844
 9	0	1	0	13.59558105	27.69470215	12.45117188
 10	0	0	1	0.9613037109	8.422851562	30.99060059
 11	0	0	0	0.1373291016	0.1373291016	0.1831054688
 12	1	1	1	39.68811035	39.45922852	48.24829102
 13	1	0	0	23.3001709	2.9296875	3.845214844
 14	0	1	0	13.54980469	27.78625488	12.54272461
 15	0	0	1	0.9613037109	8.422851562	30.99060059
END_DATA
