data/calibration-001429.ti3
CTI3   
ORIGINATOR	"ColorHug Factory"
DESCRIPTOR	"Calibration Target chart information 3"
DEVICE_CLASS	"DISPLAY"
COLOR_REP	"RGB_XYZ"
TARGET_INSTRUMENT	"Hughski ColorHug"
INSTRUMENT_TYPE_SPECTRAL	"NO"
NORMALIZED_TO_Y_100	"NO"
NUMBER_OF_FIELDS	7
NUMBER_OF_SETS	15
BEGIN_DATA_FORMAT
 SAMPLE_ID	RGB_R	RGB_G	RGB_B	XYZ_X	XYZ_Y	XYZ_Z
END_DATA_FORMAT
BEGIN_DATA
 1	0	0	0	0	0	0.04577636719
 2	1	1	1	28.8848877	33.82873535	41.83959961
 3	1	0	0	16.84570312	2.243041992	2.792358398
 4	0	1	0	10.52856445	24.12414551	10.84899902
 5	0	0	1	0.6866455078	7.095336914	27.92358398
 6	0	0	0	0	0	0.04577636719
 7	1	1	1	29.0222168	33.73718262	41.79382324
 8	1	0	0	16.84570312	2.243041992	2.792358398
 9	0	1	0	10.48278809	24.03259277	10.80322266
 10	0	0	1	0.6866455078	7.095336914	27.96936035
 11	0	0	0	0	0	0.04577636719
 12	1	1	1	28.79333496	33.73718262	41.79382324
 13	1	0	0	16.75415039	2.243041992	2.792358398
 14	0	1	0	10.48278809	24.12414551	10.89477539
 15	0	0	1	0.6866455078	7.095336914	27.96936035
END_DATA
