data/calibration-001436.ti3
CTI3   
ORIGINATOR	"ColorHug Factory"
DESCRIPTOR	"Calibration Target chart information 3"
DEVICE_CLASS	"DISPLAY"
COLOR_REP	"RGB_XYZ"
TARGET_INSTRUMENT	"Hughski ColorHug"
INSTRUMENT_TYPE_SPECTRAL	"NO"
NORMALIZED_TO_Y_100	"NO"
NUMBER_OF_FIELDS	7
NUMBER_OF_SETS	15
BEGIN_DATA_FORMAT
 SAMPLE_ID	RGB_R	RGB_G	RGB_B	XYZ_X	XYZ_Y	XYZ_Z
END_DATA_FORMAT
BEGIN_DATA
 1	0	0	0	0.1373291016	0.1373291016	0.1831054688
 2	1	1	1	33.82873535	36.34643555	44.95239258
 3	1	0	0	20.27893066	2.746582031	3.570556641
 4	0	1	0	12.35961914	25.9552002	12.1307373
 5	0	0	1	0.8697509766	7.965087891	29.47998047
 6	0	0	0	0.1373291016	0.1373291016	0.1831054688
 7	1	1	1	33.87451172	36.34643555	45.04394531
 8	1	0	0	20.14160156	2.746582031	3.570556641
 9	0	1	0	12.26806641	25.86364746	12.03918457
 10	0	0	1	0.8697509766	7.965087891	29.38842773
 11	0	0	0	0.1373291016	0.1373291016	0.1831054688
 12	1	1	1	34.10339355	36.57531738	45.08972168
 13	1	0	0	20.32470703	2.792358398	3.570556641
 14	0	1	0	12.26806641	26.00097656	12.22229004
 15	0	0	1	0.8697509766	7.965087891	29.20532227
END_DATA
