data/calibration-002015.ti3
CTI3   
ORIGINATOR	"ColorHug Factory"
CREATED	"Sun May 26 10:08:28 2013"
DESCRIPTOR	"Calibration Target chart information 3"
DEVICE_CLASS	"DISPLAY"
COLOR_REP	"RGB_XYZ"
TARGET_INSTRUMENT	"Hughski ColorHug"
INSTRUMENT_TYPE_SPECTRAL	"NO"
NORMALIZED_TO_Y_100	"NO"
NUMBER_OF_FIELDS	7
NUMBER_OF_SETS	15
BEGIN_DATA_FORMAT
 SAMPLE_ID	RGB_R	RGB_G	RGB_B	XYZ_X	XYZ_Y	XYZ_Z
END_DATA_FORMAT
BEGIN_DATA
 1	0	0	0	0.091552734375	0.091552734375	0.1373291015625
 2	1	1	1	39.825439453125	37.2161865234375	49.530029296875
 3	1	0	0	24.2156982421875	2.9296875	3.8909912109375
 4	0	1	0	14.007568359375	25.543212890625	12.0391845703125
 5	0	0	1	1.007080078125	9.063720703125	33.8287353515625
 6	0	0	0	0.091552734375	0.091552734375	0.1373291015625
 7	1	1	1	39.73388671875	37.445068359375	49.163818359375
 8	1	0	0	24.0325927734375	2.9296875	3.8909912109375
 9	0	1	0	14.0533447265625	25.4974365234375	12.0849609375
 10	0	0	1	1.007080078125	8.97216796875	33.87451171875
 11	0	0	0	0.091552734375	0.091552734375	0.1373291015625
 12	1	1	1	39.459228515625	37.261962890625	49.62158203125
 13	1	0	0	24.078369140625	2.9296875	3.8909912109375
 14	0	1	0	13.9617919921875	25.634765625	11.993408203125
 15	0	0	1	1.007080078125	9.0179443359375	33.87451171875
END_DATA
