data/calibration-000996.ti3
CTI3   
ORIGINATOR	"ColorHug Factory"
DESCRIPTOR	"Calibration Target chart information 3"
DEVICE_CLASS	"DISPLAY"
COLOR_REP	"RGB_XYZ"
TARGET_INSTRUMENT	"Hughski ColorHug"
INSTRUMENT_TYPE_SPECTRAL	"NO"
NORMALIZED_TO_Y_100	"NO"
NUMBER_OF_FIELDS	7
NUMBER_OF_SETS	15
BEGIN_DATA_FORMAT
 SAMPLE_ID	RGB_R	RGB_G	RGB_B	XYZ_X	XYZ_Y	XYZ_Z
END_DATA_FORMAT
BEGIN_DATA
 1	0	0	0	0.04577636719	0	0.04577636719
 2	1	1	1	64.7277832	41.70227051	46.64611816
 3	1	0	0	41.06140137	4.07409668	5.859375
 4	0	1	0	21.33178711	29.89196777	13.41247559
 5	0	0	1	0.9155273438	7.690429688	27.14538574
 6	0	0	0	0.04577636719	0	0.04577636719
 7	1	1	1	64.68200684	41.74804688	46.64611816
 8	1	0	0	41.10717773	4.028320312	5.859375
 9	0	1	0	21.33178711	30.07507324	13.36669922
 10	0	0	1	0.9155273438	7.690429688	27.19116211
 11	0	0	0	0.04577636719	0	0.04577636719
 12	1	1	1	63.85803223	41.33605957	46.55456543
 13	1	0	0	40.96984863	4.028320312	5.905151367
 14	0	1	0	21.33178711	29.93774414	13.36669922
 15	0	0	1	0.9155273438	7.690429688	27.37426758
END_DATA
