data/calibration-002839.ti3
CTI3   
ORIGINATOR	"ColorHug Factory"
CREATED	"Tue May 05 21:48:30 2015"
DESCRIPTOR	"Calibration Target chart information 3"
DEVICE_CLASS	"DISPLAY"
COLOR_REP	"RGB_XYZ"
TARGET_INSTRUMENT	"Hughski ColorHug"
INSTRUMENT_TYPE_SPECTRAL	"NO"
NORMALIZED_TO_Y_100	"NO"
NUMBER_OF_FIELDS	7
NUMBER_OF_SETS	15
BEGIN_DATA_FORMAT
 SAMPLE_ID	RGB_R	RGB_G	RGB_B	XYZ_X	XYZ_Y	XYZ_Z
END_DATA_FORMAT
BEGIN_DATA
 1.0	0.0	0.0	0.0	0.723220825195	0.716705322266	0.832000732422
 2.0	1.0	1.0	1.0	109.226654052734	106.389602661133	115.380279541016
 3.0	1.0	0.0	0.0	76.560745239258	7.779663085938	11.787048339844
 4.0	0.0	1.0	0.0	27.86393737793	75.851837158203	29.467620849609
 5.0	0.0	0.0	1.0	3.99609375	22.200531005859	71.234771728516
 6.0	0.0	0.0	0.0	0.726104736328	0.718719482422	0.836685180664
 7.0	1.0	1.0	1.0	109.226654052734	106.389602661133	115.380279541016
 8.0	1.0	0.0	0.0	76.560745239258	7.779663085938	11.787048339844
 9.0	0.0	1.0	0.0	27.86393737793	75.851837158203	29.467620849609
 10.0	0.0	0.0	1.0	3.999984741211	22.260864257812	71.234771728516
 11.0	0.0	0.0	0.0	0.727844238281	0.721878051758	0.837448120117
 12.0	1.0	1.0	1.0	109.226654052734	106.389602661133	115.380279541016
 13.0	1.0	0.0	0.0	76.560745239258	7.779663085938	11.787048339844
 14.0	0.0	1.0	0.0	27.86393737793	75.851837158203	29.467620849609
 15.0	0.0	0.0	1.0	4.001953125	22.260864257812	71.234771728516
END_DATA
