data/calibration-000948.ti3
CTI3   
ORIGINATOR	"ColorHug Factory"
DESCRIPTOR	"Calibration Target chart information 3"
DEVICE_CLASS	"DISPLAY"
COLOR_REP	"RGB_XYZ"
TARGET_INSTRUMENT	"Hughski ColorHug"
INSTRUMENT_TYPE_SPECTRAL	"NO"
NORMALIZED_TO_Y_100	"NO"
NUMBER_OF_FIELDS	7
NUMBER_OF_SETS	15
BEGIN_DATA_FORMAT
 SAMPLE_ID	RGB_R	RGB_G	RGB_B	XYZ_X	XYZ_Y	XYZ_Z
END_DATA_FORMAT
BEGIN_DATA
 1	0	0	0	0.04577636719	0.04577636719	0.04577636719
 2	1	1	1	61.2487793	39.04724121	45.95947266
 3	1	0	0	39.00146484	3.845214844	5.996704102
 4	0	1	0	20.32470703	27.55737305	13.09204102
 5	0	0	1	0.8697509766	7.507324219	26.82495117
 6	0	0	0	0.04577636719	0.04577636719	0.04577636719
 7	1	1	1	60.28747559	39.00146484	46.00524902
 8	1	0	0	38.81835938	3.845214844	5.996704102
 9	0	1	0	20.3704834	27.60314941	13.09204102
 10	0	0	1	0.8697509766	7.553100586	26.82495117
 11	0	0	0	0.04577636719	0.04577636719	0.04577636719
 12	1	1	1	61.29455566	39.13879395	46.14257812
 13	1	0	0	38.77258301	3.845214844	5.996704102
 14	0	1	0	20.05004883	27.64892578	13.09204102
 15	0	0	1	0.8697509766	7.507324219	26.82495117
END_DATA
