data/calibration-001299.ti3
CTI3   
ORIGINATOR	"ColorHug Factory"
DESCRIPTOR	"Calibration Target chart information 3"
DEVICE_CLASS	"DISPLAY"
COLOR_REP	"RGB_XYZ"
TARGET_INSTRUMENT	"Hughski ColorHug"
INSTRUMENT_TYPE_SPECTRAL	"NO"
NORMALIZED_TO_Y_100	"NO"
NUMBER_OF_FIELDS	7
NUMBER_OF_SETS	15
BEGIN_DATA_FORMAT
 SAMPLE_ID	RGB_R	RGB_G	RGB_B	XYZ_X	XYZ_Y	XYZ_Z
END_DATA_FORMAT
BEGIN_DATA
 1	0	0	0	0	0.04577636719	0.09155273438
 2	1	1	1	32.95898438	37.85705566	45.45593262
 3	1	0	0	19.45495605	2.746582031	3.387451172
 4	0	1	0	12.26806641	27.19116211	12.40539551
 5	0	0	1	0.7781982422	7.873535156	29.4342041
 6	0	0	0	0	0.04577636719	0.09155273438
 7	1	1	1	32.86743164	37.76550293	45.36437988
 8	1	0	0	19.22607422	2.746582031	3.433227539
 9	0	1	0	12.26806641	27.00805664	12.40539551
 10	0	0	1	0.7781982422	7.873535156	29.66308594
 11	0	0	0	0	0	0.09155273438
 12	1	1	1	32.82165527	37.8112793	45.36437988
 13	1	0	0	19.22607422	2.792358398	3.387451172
 14	0	1	0	12.26806641	27.19116211	12.40539551
 15	0	0	1	0.7781982422	7.919311523	29.7088623
END_DATA
