data/calibration-000107.ti3
CTI3
DESCRIPTOR	"Calibration Target chart information 3"
ORIGINATOR	"ColorHug Factory"
DEVICE_CLASS	"DISPLAY"
COLOR_REP	"RGB_XYZ"
TARGET_INSTRUMENT	"ColorHug"
INSTRUMENT_TYPE_SPECTRAL	"NO"
LUMINANCE_XYZ_CDM2	"56.991577 42.182922 49.415588"
NORMALIZED_TO_Y_100	"YES"
NUMBER_OF_FIELDS	7
NUMBER_OF_SETS	836
BEGIN_DATA_FORMAT
 SAMPLE_ID	RGB_R	RGB_G	RGB_B	XYZ_X	XYZ_Y	XYZ_Z
END_DATA_FORMAT
BEGIN_DATA
 1	100	100	100	131.744312	99.89165764	116.0346696
 2	100	100	100	135.8613218	99.78331528	117.2264355
 3	100	100	100	136.4030336	100	117.4431203
 4	100	100	100	135.5362947	99.67497291	117.1180932
 5	33.33	32.622	30.968	17.3347779	7.800650054	8.450704225
 6	100	0	100	83.96533044	28.06067172	83.20693391
 7	100	100	0	129.5774648	81.2567714	48.97074756
 8	0	100	100	48.64572048	91.44095341	103.1419285
 9	0	100	0	46.91224269	72.80606717	34.88624052
 10	0	0	100	3.141928494	19.28494041	69.12242687
 11	100	0	0	85.37378115	9.642470206	14.40953413
 12	0	0	0	1.19176598	1.083423619	1.19176598
 13	0	52.455	100	12.02600217	34.01950163	76.27302275
 14	100	0	50.3	84.9404117	13.00108342	26.65222102
 15	100	54.739	100	97.39978332	43.98699892	90.14084507
 16	100	52.128	0	96.09967497	24.05200433	21.23510293
 17	0	0	46.181	1.408450704	3.683640303	10.61755146
 18	0	51.141	0	9.967497291	14.84290358	7.692307692
 19	0	100	51.348	46.80390033	75.94799567	47.4539545
 20	100	100	52.037	134.5612134	85.26543879	62.08017335
 21	49.216	0	0	16.25135428	2.708559047	3.46695558
 22	56.159	100	0	67.38894908	75.08125677	38.13651138
 23	49.226	100	100	64.13867822	92.95774648	106.0671723
 24	44.487	0	100	14.62621885	20.47670639	71.50595883
 25	100	44.498	52.029	90.57421452	23.18526544	32.28602384
 26	48.926	48.544	100	48.53737811	33.04442037	77.89815818
 27	51.368	100	47.25	63.0552546	77.13976165	48.42903575
 28	49.893	0	49.033	17.22643554	5.742145179	14.95124594
 29	53.109	51.372	0	27.95232936	16.79306609	10.5092091
 30	0	58.587	53.943	13.86782232	24.05200433	24.48537378
 31	100	28.065	100	89.81581798	31.85265439	85.15709642
 32	0	0	72.874	1.950162514	8.884073673	30.55254605
 33	0	26.758	100	4.875406284	22.64355363	70.7475623
 34	0	25.426	0	3.033586132	4.008667389	2.600216685
 35	72.508	0	100	41.71180932	23.40195016	75.40628386
 36	100	27.395	0	88.19068256	13.10942579	16.03466956
 37	74.47	100	100	91.11592633	95.4496208	110.0758397
 38	100	0	25.728	85.26543879	10.40086674	17.3347779
 39	73.862	0	0	42.0368364	5.308775731	7.58396533
 40	100	100	25.402	134.4528711	82.23185265	51.35427952
 41	0	75.751	100	26.11050921	55.687974	86.99891658
 42	0	75.172	0	23.83531961	36.29469122	17.76814735
 43	0	100	25.864	46.5872156	73.23943662	37.81148429
 44	100	0	74.801	86.13217768	18.20151679	46.26218852
 45	0	100	75.421	49.07908992	81.90682557	68.03900325
 46	24.577	0	0	4.65872156	1.408450704	1.625135428
 47	26.321	100	0	49.40411701	72.80606717	35.31960997
 48	100	75.835	0	104.1170098	45.82881907	31.74431203
 49	100	100	77.061	133.2611051	90.24918743	83.31527627
 50	71.263	100	0	85.8071506	77.03141928	41.06175515
 51	0	0	15.614	1.625135428	1.408450704	2.058504875
 52	0	30.049	70.936	4.442036836	12.56771398	30.76923077
 53	100	77.691	100	112.8927411	66.63055255	101.8418202
 54	24.486	100	100	52.11267606	91.7659805	104.2253521
 55	100	62.784	31.909	100.6500542	33.91115926	29.68580715
 56	29.552	0	100	25.13542795	19.82665222	70.42253521
 57	32.98	70.921	100	27.843987	50.70422535	85.48212351
 58	0	27.681	40.241	3.575297941	6.500541712	9.85915493
 59	67.901	71.021	100	55.90465872	53.95449621	90.03250271
 60	28.154	100	67.829	51.46262189	80.06500542	60.78006501
 61	71.637	100	70.001	85.91549296	84.07367281	68.68905742
 62	58.822	58.763	53.586	36.9447454	26.32719393	27.843987
 63	33.466	30.48	0	12.67605634	5.958829902	4.117009751
 64	100	73.795	71.277	108.5590466	51.46262189	59.69664139
 65	68.394	29.692	0	37.59479957	8.450704225	8.342361863
 66	70.399	0	29.039	37.70314193	5.850487541	10.5092091
 67	28.078	0	26.956	6.067172264	2.383531961	4.875406284
 68	28.532	72.339	0	26.00216685	33.36944745	16.90140845
 69	100	30.941	26.496	88.0823402	14.84290358	19.50162514
 70	34.597	0	73.611	8.559046587	9.85915493	32.82773564
 71	71.573	0	72.408	39.7616468	12.89274106	36.40303359
 72	0	71.029	29.412	21.0184182	32.61105092	19.39328277
 73	68.386	75.008	0	57.52979415	39.65330444	23.18526544
 74	68.088	27.309	100	38.24485374	26.21885157	76.92307692
 75	100	26.457	73.749	87.2156013	21.34344529	46.80390033
 76	74.344	100	27.392	89.4907909	78.22318527	44.85373781
 77	27.558	100	28.197	50.70422535	73.99783315	38.56988082
 78	31.196	27.465	100	10.29252438	23.51029252	72.37269772
 79	0	75.521	72.824	24.7020585	44.42036836	47.77898158
 80	0	50.93	25.553	9.967497291	15.38461538	10.40086674
 81	32.06	33.584	64.033	10.5092091	12.7843987	26.21885157
 82	81.666	55.38	0	63.48862405	23.18526544	17.3347779
 83	68.257	32.751	58.286	39.65330444	14.30119177	26.11050921
 84	0	55.248	81.585	12.67605634	28.27735645	48.75406284
 85	73.781	52.099	100	52.43770314	38.24485374	83.20693391
 86	100	50.537	82.952	95.34127844	34.12784399	62.18851571
 87	23.55	0	50.439	4.767063922	4.65872156	13.54279523
 88	31.335	62.746	31.114	21.23510293	25.35211268	16.90140845
 89	100	18.31	49.418	86.02383532	14.30119177	26.76056338
 90	26.498	48.404	0	12.56771398	13.32611051	7.367280607
 91	47.91	100	85.744	61.21343445	86.24052004	81.2567714
 92	71.829	47.313	31.811	47.88732394	17.55146262	16.90140845
 93	31.304	64.132	69.316	22.53521127	32.3943662	39.7616468
 94	80.403	0	54.321	51.1375948	10.18418202	23.72697725
 95	18.455	50.036	100	13.10942579	32.93607801	76.27302275
 96	50.653	100	16.345	62.62188516	74.64788732	38.56988082
 97	80.121	100	52.261	97.50812568	81.2567714	56.33802817
 98	0	22.54	19.289	2.708559047	3.900325027	3.900325027
 99	100	75.273	46.886	108.4507042	47.34561213	41.60346696
 100	0	78.618	56.625	26.76056338	44.52871073	35.96966414
 101	51.137	80.627	100	45.72047671	62.62188516	91.98266522
 102	48.446	0	17.864	15.27627302	2.92524377	4.767063922
 103	100	50.023	21.211	93.82448537	23.2936078	22.75189599
 104	50.115	20.118	0	18.7432286	4.65872156	4.550379198
 105	58.099	72.426	33.158	43.33694475	36.40303359	24.37703142
 106	19.364	100	50.197	48.53737811	75.73131094	47.34561213
 107	50.683	19.177	100	20.04333694	22.64355363	72.80606717
 108	53.37	0	81.576	20.26002167	13.43445287	43.44528711
 109	47.768	76.245	0	38.24485374	38.78656555	20.47670639
 110	0	18.927	55.503	2.92524377	6.825568797	17.11809317
 111	0	13.277	0	1.625135428	1.841820152	1.516793066
 112	72.862	72.473	75.625	61.75514626	45.50379198	54.71289274
 113	100	13.904	0	85.15709642	10.40086674	14.73456121
 114	86.349	0	100	61.86348862	25.35211268	79.30660888
 115	100	41.941	100	92.74106176	36.72806067	87.2156013
 116	100	81.785	16.464	114.3011918	52.97941495	35.96966414
 117	0	44.063	52.596	17.87648971	14.30119177	19.06825569
 118	0	0	58.917	1.625135428	5.850487541	18.7432286
 119	59.25	24.551	29.789	26.76056338	7.367280607	9.85915493
 120	82.73	82.874	100	84.61538462	69.55579632	99.24160347
 121	80.039	0	12.618	50.37919827	6.283856988	9.534127844
 122	60.957	47.729	77.817	34.88624052	24.81040087	45.50379198
 123	100	0	38.618	85.15709642	11.48429036	20.91007584
 124	0	40.09	100	7.800650054	27.30227519	73.78114843
 125	0	15.283	82.322	2.708559047	12.67605634	41.27843987
 126	17.592	81.726	100	31.96099675	62.40520043	90.57421452
 127	100	14.13	100	86.67388949	28.92741062	83.531961
 128	15.261	100	82.059	48.53737811	83.531961	75.18959913
 129	47.77	79.418	60.389	41.06175515	47.88732394	41.17009751
 130	18.768	16.429	0	3.791982665	2.491874323	2.058504875
 131	55.634	100	65.763	67.49729144	81.2567714	61.75514626
 132	100	100	38.541	133.2611051	82.99024919	55.47128927
 133	17.421	0	83.497	3.791982665	12.24268689	42.68689057
 134	17.237	16.758	100	5.200433369	20.80173348	70.53087757
 135	0	15.067	30.039	1.950162514	3.141928494	5.417118093
 136	0	0	86.505	2.491874323	13.21776815	46.37053088
 137	75.736	72.799	50.02	66.1971831	40.95341278	35.31960997
 138	100	83.323	85.529	115.9263272	66.52221018	80.82340195
 139	100	100	64.894	133.9111593	87.32394366	71.61430119
 140	81.98	84.914	0	83.74864572	53.4127844	31.63596966
 141	0	63.757	15.49	16.14301192	24.59371614	13.21776815
 142	49.514	66.135	100	34.56121343	46.37053088	84.18201517
 143	100	0	61.862	85.37378115	14.95124594	34.45287107
 144	24.308	45.41	49.831	11.48429036	14.84290358	18.41820152
 145	15.963	0	17.047	2.491874323	1.625135428	2.600216685
 146	87.497	100	100	111.1592633	97.29144095	113.6511376
 147	52.099	25.003	75.752	21.23510293	14.40953413	38.24485374
 148	14.909	81.162	0	29.2524377	43.01191766	21.12676056
 149	0	34.792	14.626	4.875406284	6.933911159	4.767063922
 150	48.39	45.075	22.552	21.8851571	13.21776815	10.40086674
 151	83.545	65.965	100	70.63921993	51.02925244	90.8992416
 152	16.226	62.345	0	19.17659805	23.18526544	11.80931744
 153	63.222	0	14.914	28.92741062	4.225352113	6.500541712
 154	80.449	13.446	0	51.24593716	7.042253521	9.31744312
 155	83.917	41.562	0	60.78006501	14.95124594	13.65113759
 156	100	60.448	46.3	99.56663055	32.93607801	34.56121343
 157	15.584	0	34.795	2.600216685	2.600216685	6.39219935
 158	17.144	65.121	100	20.36836403	44.312026	81.69014085
 159	83.602	55.334	62.667	67.17226436	29.2524377	38.56988082
 160	0	82.19	14.22	67.49729144	29.14409534	38.56988082
 161	25.132	74.856	50.616	67.38894908	29.2524377	38.56988082
 162	0	13.769	100	67.17226436	22.42686891	70.42253521
 163	87.181	0	0	61.53846154	7.258938245	10.61755146
 164	0	100	39.19	46.47887324	74.4312026	41.60346696
 165	78.047	65.914	19.865	64.35536295	31.85265439	22.31852654
 166	100	63.961	15.865	101.4084507	33.91115926	26.76056338
 167	100	45.955	36.032	92.63271939	21.8851571	25.13542795
 168	15.926	100	16.89	92.74106176	21.8851571	25.13542795
 169	41.459	100	0	92.09100758	34.12784399	36.61971831
 170	48.707	37.288	48.139	20.26002167	12.13434453	17.44312026
 171	83.381	100	13.285	102.0585049	78.65655471	43.98699892
 172	78.129	25.303	75.621	50.37919827	17.55146262	42.68689057
 173	12.396	0	0	1.950162514	1.19176598	1.300108342
 174	37.607	48.336	83.346	12.24268689	24.91874323	49.94582882
 175	35.588	15.356	0	17.76814735	2.92524377	2.816901408
 176	61.245	100	100	8.667388949	62.08017335	107.8006501
 177	100	67.29	87.195	104.7670639	49.40411701	74.32286024
 178	0	0	30.615	1.300108342	2.166847237	5.092091008
 179	35.187	81.789	83.323	36.18634886	55.79631636	64.35536295
 180	39.525	80.194	22.879	36.40303359	43.33694475	24.05200433
 181	50.634	34.593	0	21.12676056	8.342361863	6.39219935
 182	14.175	100	63.146	47.4539545	78.1148429	56.44637053
 183	83.493	17.728	34.574	55.90465872	9.425785482	15.38461538
 184	23.463	22.014	79.943	7.042253521	13.65113759	39.86998917
 185	18.066	31.847	0	6.067172264	5.958829902	3.683640303
 186	87.201	100	81.361	108.992416	88.94907909	83.96533044
 187	0	100	87.95	53.95449621	85.26543879	83.09859155
 188	34.476	17.888	46.22	8.667388949	5.958829902	12.67605634
 189	18.277	0	67.39	3.575297941	7.800650054	26.11050921
 190	100	87.972	0	120.8017335	61.21343445	39.00325027
 191	82.925	34.85	100	59.69664139	30.66088841	80.82340195
 192	0	88.016	100	35.64463705	70.63921993	94.25785482
 193	36.104	85.655	100	40.95341278	68.14734561	93.28277356
 194	60.981	0	0	26.21885157	3.791982665	5.092091008
 195	51.466	61.826	78.106	32.61105092	33.8028169	49.40411701
 196	78.427	31.983	22.175	49.94582882	11.15926327	12.89274106
 197	66.017	44.321	0	38.78656555	14.08450704	10.72589382
 198	83.941	0	84.177	56.66305525	18.20151679	52.87107259
 199	20.158	46.612	23.269	10.72589382	12.7843987	8.992416035
 200	0	100	62.618	46.47887324	78.00650054	55.57963164
 201	33.832	0	13.933	7.367280607	2.058504875	2.92524377
 202	100	17.286	16.322	85.8071506	11.26760563	16.03466956
 203	0	42.204	83.926	7.692307692	21.23510293	47.99566631
 204	0	87.774	0	33.15276273	51.78764897	25.13542795
 205	64.988	0	59.017	30.87757313	8.992416035	23.83531961
 206	14.677	0	100	3.791982665	19.39328277	70.09750813
 207	88.934	82.673	35.021	91.65763814	53.08775731	37.16143012
 208	0	63.778	100	18.52654388	42.79523294	80.82340195
 209	83.429	17.674	100	56.55471289	26.21885157	78.65655471
 210	30.899	100	85.668	52.5460455	85.04875406	81.04008667
 211	83.68	0	41.016	55.14626219	8.667388949	17.22643554
 212	100	63.515	0	94.0411701	32.61105092	25.46045504
 213	85.074	69.987	0	76.92307692	36.29469122	24.05200433
 214	20.801	45.524	69.018	12.56771398	18.85157096	32.61105092
 215	21.382	82.482	73.017	32.50270856	53.4127844	52.76273023
 216	100	15.128	64.249	85.59046587	16.57638137	36.83640303
 217	36.522	0	58.427	9.209100758	6.500541712	19.39328277
 218	22.466	81.296	33.007	30.98591549	44.42036836	26.21885157
 219	62.531	87.152	0	60.56338028	54.38786566	29.14409534
 220	84.12	85.397	67.886	87.32394366	60.99674973	58.28819068
 221	18.87	27.336	45.389	5.850487541	7.258938245	12.56771398
 222	66.439	100	14.444	78.76489707	76.16468039	40.95341278
 223	41.636	22.147	19.003	12.67605634	4.875406284	5.417118093
 224	61.271	100	81.94	73.0227519	85.91549296	78.9815818
 225	86.013	100	0	107.2589382	78.87323944	44.312026
 226	37.57	0	0	8.884073673	1.950162514	2.383531961
 227	100	16.132	84.102	85.48212351	22.31852654	58.07150596
 228	0	100	13.619	46.37053088	72.48104009	35.42795233
 229	38.905	100	56.471	55.14626219	77.46478873	52.43770314
 230	100	15.382	34.563	85.26543879	12.13434453	19.93499458
 231	36.656	14.908	100	11.375948	21.12676056	70.96424702
 232	0	62.593	66.608	16.14301192	29.79414951	35.96966414
 233	66.347	12.528	100	34.12784399	23.40195016	75.2979415
 234	100	43.375	69.233	89.16576381	26.21885157	45.39544962
 235	100	56.36	61.236	96.09967497	32.50270856	42.57854821
 236	0	86.194	44.955	32.71939328	52.43770314	33.69447454
 237	64.527	87.262	100	59.26327194	73.0227519	98.69989166
 238	34.411	0	42.471	16.57638137	4.008667389	10.29252438
 239	80.23	59.707	85.12	64.03033586	38.24485374	63.16359697
 240	20.625	19.056	14.791	5.308775731	3.358613218	3.250270856
 241	15.341	34.221	100	7.58396533	25.13542795	72.26435536
 242	36.777	0	87.905	9.642470206	14.51787649	50.16251354
 243	34.598	56.247	100	20.58504875	37.70314193	79.19826652
 244	20.86	67.629	17.418	21.12676056	28.92741062	15.70964247
 245	44.958	60.843	18.054	26.54387866	23.51029252	14.30119177
 246	37.421	60.193	0	22.10184182	22.10184182	12.02600217
 247	84.011	33.849	42.612	59.80498375	14.40953413	20.69339112
 248	17.241	60.339	37.743	16.14301192	23.18526544	17.22643554
 249	50.65	17.261	53.278	18.52654388	7.908992416	18.09317443
 250	45.505	48.926	65.152	21.8851571	21.12676056	32.28602384
 251	44.567	84.081	39.649	41.92849404	50.05417118	31.74431203
 252	100	86.339	72.054	118.6348862	66.95557963	67.6056338
 253	68.14	61.135	0	48.21235103	25.24377031	16.25135428
 254	17.93	66.986	81.403	21.45178765	38.24485374	53.4127844
 255	39.242	60.215	48.926	23.51029252	25.24377031	23.51029252
 256	20.099	18.77	62.967	7.367280607	8.559046587	23.07692308
 257	34.553	100	14.582	52.87107259	73.45612134	36.72806067
 258	87.345	0	66.694	60.88840737	13.86782232	35.31960997
 259	0	43.714	39.842	16.25135428	12.45937161	12.67605634
 260	100	37.705	13.955	88.94907909	16.68472373	18.41820152
 261	31.265	86.993	0	38.3531961	51.57096425	25.46045504
 262	51.402	82.661	81.338	46.91224269	57.42145179	64.13867822
 263	100	100	12.984	131.744312	81.58179848	49.29577465
 264	0	37.859	0	5.525460455	7.800650054	4.442036836
 265	62.092	58.215	100	41.49512459	41.27843987	83.20693391
 266	86.186	100	64.1	106.7172264	84.50704225	66.63055255
 267	100	35.251	85.898	89.92416035	27.73564464	62.73022752
 268	63.182	89.992	41.974	66.08884074	60.34669556	39.32827736
 269	13.504	100	0	55.57963164	72.58938245	34.88624052
 270	100	0	13.228	84.61538462	9.85915493	14.95124594
 271	63.881	40.826	100	36.51137595	30.44420368	78.1148429
 272	69.387	84.838	20.792	65.76381365	51.89599133	30.66088841
 273	0	70.279	45.136	20.58504875	33.58613218	24.81040087
 274	79.094	64.754	40.908	65.00541712	32.50270856	27.843987
 275	62.385	54.099	17.396	38.02816901	19.71830986	14.08450704
 276	64.408	14.621	0	32.28602384	5.092091008	6.175514626
 277	70.028	15.606	44.651	36.83640303	8.342361863	16.35969664
 278	0	63.544	0	16.25135428	24.26868906	12.24268689
 279	83.475	47.274	20.502	62.18851571	18.52654388	16.90140845
 280	55.866	0	32.671	21.99349946	4.442036836	8.884073673
 281	58.007	0	100	25.13542795	21.77681473	73.45612134
 282	100	0	87.698	85.59046587	22.31852654	61.75514626
 283	0	13.792	67.215	2.275189599	8.559046587	26.00216685
 284	84.123	17.001	58.549	57.20476706	12.7843987	27.95232936
 285	59.579	32.873	15.966	28.38569881	8.884073673	8.450704225
 286	10.41	32.998	28.659	5.200433369	7.150595883	7.150595883
 287	17.231	40.031	85.65	8.775731311	21.0184182	50.05417118
 288	37.568	41.561	10.108	14.30119177	10.29252438	6.717226436
 289	0	69.015	85.092	20.36836403	41.17009751	58.82990249
 290	14.442	100	36.187	47.23726977	73.56446371	40.73672806
 291	100	40.549	0	90.46587216	17.65980498	18.20151679
 292	82.143	45.435	78.429	60.88840737	26.21885157	50.37919827
 293	52.674	0	67.3	19.39328277	9.534127844	28.71072589
 294	0	87.868	66.793	34.56121343	59.26327194	50.16251354
 295	86.53	100	40.524	107.3672806	80.82340195	52.00433369
 296	71.777	85.586	67.232	72.26435536	59.69664139	54.71289274
 297	43.216	100	31.671	61.10509209	74.86457205	40.73672806
 298	39.245	32.908	85.845	14.30119177	19.06825569	49.83748646
 299	0	45.662	67.543	8.450704225	18.30985915	31.20260022
 300	12.161	100	100	48.32069339	91.11592633	103.6836403
 301	67.049	0	85.516	34.56121343	16.468039	51.1375948
 302	100	89.041	100	109.2091008	81.36511376	108.3423619
 303	20.246	60.698	56.526	42.57854821	26.11050921	27.41061755
 304	52.177	55.457	40.416	29.46912243	21.66847237	19.28494041
 305	72.617	87.018	83.932	73.88949079	66.52221018	74.4312026
 306	40.512	16.723	66.475	12.45937161	9.85915493	27.41061755
 307	68.507	49.232	50.605	42.79523294	20.58504875	24.91874323
 308	65.622	100	54.525	77.68147346	79.95666306	54.8212351
 309	54.115	37.24	66.394	24.81040087	16.03466956	31.31094258
 310	100	76.138	31.267	109.5341278	47.23726977	35.96966414
 311	54.728	65.623	0	49.62080173	28.06067172	16.03466956
 312	63.126	12.526	64.37	29.79414951	10.5092091	28.06067172
 313	72.827	18.08	23.704	41.06175515	7.367280607	10.40086674
 314	23.268	15.278	34.947	5.200433369	3.900325027	7.367280607
 315	87.648	68.954	59.645	80.28169014	40.6283857	43.12026002
 316	0	85.595	85.198	39.21993499	60.88840737	68.4723727
 317	35.798	84.371	69.21	38.24485374	55.03791983	50.70422535
 318	36.062	47.494	35.919	19.39328277	14.84290358	13.21776815
 319	86.083	36.277	59.152	64.13867822	18.30985915	31.5276273
 320	58.21	100	30.361	69.12242687	76.05633803	42.47020585
 321	46.745	14.614	32.317	14.95124594	4.65872156	8.017334778
 322	81.573	73.869	86.954	74.4312026	52.76273023	72.156013
 323	85.991	49.387	48.206	68.25568797	22.64355363	27.30227519
 324	28.062	87.906	19.654	39.54496208	53.30444204	27.73564464
 325	68.992	17.993	85.124	37.05308776	17.87648971	51.78764897
 326	100	66.147	100	102.4918743	53.73781148	95.55796316
 327	33.358	64.806	84.517	24.05200433	37.4864572	57.0964247
 328	41.351	17.736	80.522	12.89274106	13.75947996	41.49512459
 329	100	100	88.719	133.9111593	94.14951246	97.83315276
 330	66.336	0	44.32	32.61105092	6.825568797	15.16793066
 331	64.85	67.09	12.293	47.4539545	30.98591549	19.17659805
 332	15.262	31.268	63.277	5.742145179	11.375948	24.59371614
 333	15.008	43.663	37.3	8.559046587	12.24268689	11.9176598
 334	0	57.895	38.078	13.10942579	21.23510293	16.35969664
 335	66.599	58.458	67.871	45.39544962	30.33586132	40.73672806
 336	59.191	18.651	15.215	25.46045504	5.417118093	6.608884074
 337	66.781	31.14	84.629	36.83640303	20.47670639	51.57096425
 338	88.033	85.158	52.14	93.39111593	58.28819068	46.37053088
 339	36.882	100	100	55.687974	91.54929577	104.7670639
 340	26.102	33.094	17.006	8.234019502	6.933911159	5.417118093
 341	56.309	36.861	35.862	25.78548212	11.05092091	13.00108342
 342	45.839	65.587	67.033	30.33586132	34.23618635	39.43661972
 343	83.709	81.172	16.406	82.88190683	48.8624052	30.76923077
 344	0	48.132	13.005	8.992416035	13.00108342	7.367280607
 345	87.176	50.021	100	71.18093174	38.89490791	85.91549296
 346	51.219	84.244	13.73	46.69555796	48.32069339	26.11050921
 347	60.606	71.415	48.406	46.04550379	37.70314193	30.87757313
 348	0	11.359	12.718	1.625135428	1.950162514	2.058504875
 349	86.429	49.705	33.145	68.68905742	21.34344529	21.23510293
 350	34.056	40.958	100	14.40953413	28.38569881	75.08125677
 351	100	30.557	59.628	86.89057421	18.95991333	35.21126761
 352	88.497	26.902	13.449	65.54712893	11.05092091	13.21776815
 353	14.167	51.98	88.218	12.56771398	28.38569881	56.12134345
 354	13.784	12.983	49.37	2.92524377	5.092091008	13.00108342
 355	15.018	88.441	48.062	35.64463705	56.12134345	36.72806067
 356	87.79	25.769	89.215	64.46370531	23.72697725	61.75514626
 357	0	33.206	55.865	4.875406284	10.40086674	19.17659805
 358	74.324	76.029	35.536	64.46370531	42.79523294	30.1191766
 359	65.863	57.223	42.324	44.85373781	24.37703142	22.64355363
 360	30.893	54.646	13.136	16.468039	17.87648971	10.29252438
 361	0	34.36	28.321	4.983748646	7.58396533	7.150595883
 362	15.443	77.087	85.116	27.08559047	50.37919827	63.70530878
 363	63.381	68.947	68.521	47.4539545	39.54496208	44.85373781
 364	69.733	27.566	42.917	38.56988082	10.5092091	16.79306609
 365	32.754	100	42.76	52.11267606	75.51462622	43.98699892
 366	47.096	29.481	34.829	17.22643554	7.908992416	10.29252438
 367	8.5451	71.948	62.695	22.10184182	38.02816901	37.05308776
 368	0	86.048	29.3	32.3943662	50.81256771	27.73564464
 369	53.697	51.572	85.367	29.57746479	29.14409534	55.47128927
 370	17.608	56.69	12.515	14.08450704	19.06825569	10.40086674
 371	90.638	14.414	49.227	67.17226436	11.9176598	23.72697725
 372	63.248	63.64	89.55	45.39544962	41.06175515	67.6056338
 373	100	85.976	58.455	118.7432286	63.59696641	55.57963164
 374	9.8311	28.027	7.5567	4.117009751	4.983748646	3.250270856
 375	89.831	64.313	69.506	81.90682557	38.78656555	49.83748646
 376	31.754	12.995	25.543	7.042253521	3.250270856	5.200433369
 377	75.914	45.966	64.957	50.70422535	22.53521127	35.96966414
 378	7.5735	50.695	58.941	11.05092091	19.50162514	25.67713976
 379	100	69.835	58.912	103.2502709	43.87865655	46.47887324
 380	32.211	34.376	48.339	10.94257855	10.18418202	15.70964247
 381	13.901	12.159	73.555	3.358613218	9.967497291	32.17768147
 382	87.071	9.028	77.653	61.6468039	17.11809317	46.04550379
 383	23.272	85.409	84.29	35.64463705	60.13001083	67.17226436
 384	93.289	39.48	26.145	76.48970748	16.68472373	18.7432286
 385	65.769	59.63	30.967	44.74539545	25.13542795	19.50162514
 386	100	32.265	41.803	78.1148429	16.68472373	24.59371614
 387	86.568	85.281	86.961	92.19934995	66.95557963	79.84832069
 388	52.577	86.83	30.016	50.48754063	53.84615385	31.31094258
 389	47.921	40.199	76.902	21.34344529	19.6099675	41.17009751
 390	22.36	86.619	61.58	35.75297941	56.22968581	44.96208017
 391	52.232	33.601	88.787	23.18526544	21.23510293	55.79631636
 392	0	28.523	86.267	4.65872156	17.00975081	48.42903575
 393	43.497	67.879	39.551	30.1191766	31.63596966	22.96858072
 394	39.877	45.261	0	16.79306609	12.24268689	7.475622969
 395	86.94	12.43	24.699	60.45503792	8.667388949	13.43445287
 396	28.363	55.339	90.398	23.61863489	32.28602384	61.86348862
 397	39.018	70.534	57.879	29.57746479	36.40303359	33.8028169
 398	12.833	28.519	78.828	5.308775731	14.62621885	39.32827736
 399	68.35	31.815	69.975	37.59479957	16.68472373	36.18634886
 400	56.52	26.226	41.626	24.48537378	8.559046587	13.86782232
 401	12.938	46.218	0	8.884073673	11.80931744	6.39219935
 402	8.6938	60.179	26.117	14.51787649	22.10184182	13.65113759
 403	51.995	89.429	96.608	52.43770314	72.91440953	91.87432286
 404	46.905	47.746	48.909	25.5687974	17.11809317	20.04333694
 405	14.352	81.814	19.479	29.68580715	44.20368364	23.18526544
 406	71.482	38.117	12.273	43.22860238	12.13434453	11.05092091
 407	86.616	60.785	10.012	74.21451788	28.06067172	20.80173348
 408	71.811	88.979	52.186	73.56446371	61.10509209	45.39544962
 409	43.213	100	72.083	57.9631636	81.36511376	66.08884074
 410	73.92	23.444	8.2853	42.9035753	7.908992416	8.992416035
