data/calibration-001120.ti3
CTI3   
ORIGINATOR	"ColorHug Factory"
DESCRIPTOR	"Calibration Target chart information 3"
DEVICE_CLASS	"DISPLAY"
COLOR_REP	"RGB_XYZ"
TARGET_INSTRUMENT	"Hughski ColorHug"
INSTRUMENT_TYPE_SPECTRAL	"NO"
NORMALIZED_TO_Y_100	"NO"
NUMBER_OF_FIELDS	7
NUMBER_OF_SETS	15
BEGIN_DATA_FORMAT
 SAMPLE_ID	RGB_R	RGB_G	RGB_B	XYZ_X	XYZ_Y	XYZ_Z
END_DATA_FORMAT
BEGIN_DATA
 1	0	0	0	0.04577636719	0.04577636719	0.04577636719
 2	1	1	1	36.57531738	37.71972656	42.43469238
 3	1	0	0	21.97265625	2.883911133	3.341674805
 4	0	1	0	13.27514648	27.28271484	11.81030273
 5	0	0	1	0.7781982422	7.461547852	27.64892578
 6	0	0	0	0.04577636719	0.04577636719	0.04577636719
 7	1	1	1	36.52954102	37.90283203	42.80090332
 8	1	0	0	21.97265625	2.883911133	3.341674805
 9	0	1	0	13.32092285	27.42004395	11.8560791
 10	0	0	1	0.7781982422	7.461547852	27.64892578
 11	0	0	0	0.04577636719	0.04577636719	0.04577636719
 12	1	1	1	36.43798828	37.85705566	42.80090332
 13	1	0	0	21.92687988	2.883911133	3.341674805
 14	0	1	0	13.32092285	27.32849121	11.8560791
 15	0	0	1	0.7781982422	7.461547852	27.37426758
END_DATA
