data/calibration-002078.ti3
CTI3   
ORIGINATOR	"ColorHug Factory"
CREATED	"Sun Sep 15 20:22:42 2013"
DESCRIPTOR	"Calibration Target chart information 3"
DEVICE_CLASS	"DISPLAY"
COLOR_REP	"RGB_XYZ"
TARGET_INSTRUMENT	"Hughski ColorHug"
INSTRUMENT_TYPE_SPECTRAL	"NO"
NORMALIZED_TO_Y_100	"NO"
NUMBER_OF_FIELDS	7
NUMBER_OF_SETS	15
BEGIN_DATA_FORMAT
 SAMPLE_ID	RGB_R	RGB_G	RGB_B	XYZ_X	XYZ_Y	XYZ_Z
END_DATA_FORMAT
BEGIN_DATA
 1	0	0	0	0.091552734375	0	0.091552734375
 2	1	1	1	77.911376953125	39.276123046875	58.5479736328125
 3	1	0	0	49.98779296875	4.1656494140625	7.6446533203125
 4	0	1	0	24.5361328125	25.726318359375	13.73291015625
 5	0	0	1	1.190185546875	9.2926025390625	36.8499755859375
 6	0	0	0	0.091552734375	0	0.091552734375
 7	1	1	1	78.18603515625	39.276123046875	58.502197265625
 8	1	0	0	49.8046875	4.1656494140625	7.6446533203125
 9	0	1	0	24.5361328125	25.726318359375	13.7786865234375
 10	0	0	1	1.190185546875	9.2926025390625	36.712646484375
 11	0	0	0	0.091552734375	0	0.091552734375
 12	1	1	1	78.18603515625	39.276123046875	58.5479736328125
 13	1	0	0	49.7589111328125	4.1656494140625	7.6446533203125
 14	0	1	0	24.444580078125	25.6805419921875	13.6871337890625
 15	0	0	1	1.190185546875	9.2926025390625	36.7584228515625
END_DATA
