data/calibration-002320.ti3
CTI3   
ORIGINATOR	"ColorHug Factory"
CREATED	"Tue Jan 21 20:16:58 2014"
DESCRIPTOR	"Calibration Target chart information 3"
DEVICE_CLASS	"DISPLAY"
COLOR_REP	"RGB_XYZ"
TARGET_INSTRUMENT	"Hughski ColorHug"
INSTRUMENT_TYPE_SPECTRAL	"NO"
NORMALIZED_TO_Y_100	"NO"
NUMBER_OF_FIELDS	7
NUMBER_OF_SETS	15
BEGIN_DATA_FORMAT
 SAMPLE_ID	RGB_R	RGB_G	RGB_B	XYZ_X	XYZ_Y	XYZ_Z
END_DATA_FORMAT
BEGIN_DATA
 1.0	0.0	0.0	0.0	0.206741333008	0.175918579102	0.257507324219
 2.0	1.0	1.0	1.0	76.560745239258	34.711853027344	56.109588623047
 3.0	1.0	0.0	0.0	48.473358154297	3.668594360352	6.145523071289
 4.0	0.0	1.0	0.0	23.676300048828	22.260864257812	11.33056640625
 5.0	0.0	0.0	1.0	1.428421020508	8.542221069336	37.75114440918
 6.0	0.0	0.0	0.0	0.207580566406	0.17756652832	0.259490966797
 7.0	1.0	1.0	1.0	76.560745239258	34.565399169922	56.496551513672
 8.0	1.0	0.0	0.0	48.473358154297	3.693405151367	6.136322021484
 9.0	0.0	1.0	0.0	23.676300048828	22.443832397461	11.36198425293
 10.0	0.0	0.0	1.0	1.433410644531	8.542221069336	37.925918579102
 11.0	0.0	0.0	0.0	0.208877563477	0.178817749023	0.26057434082
 12.0	1.0	1.0	1.0	76.560745239258	34.711853027344	56.109588623047
 13.0	1.0	0.0	0.0	48.473358154297	3.690078735352	6.196670532227
 14.0	0.0	1.0	0.0	23.744918823242	22.382507324219	11.33056640625
 15.0	0.0	0.0	1.0	1.438949584961	8.533325195312	38.280364990234
END_DATA
