data/calibration-002800.ti3
CTI3   
ORIGINATOR	"ColorHug Factory"
CREATED	"Tue May 05 21:15:51 2015"
DESCRIPTOR	"Calibration Target chart information 3"
DEVICE_CLASS	"DISPLAY"
COLOR_REP	"RGB_XYZ"
TARGET_INSTRUMENT	"Hughski ColorHug"
INSTRUMENT_TYPE_SPECTRAL	"NO"
NORMALIZED_TO_Y_100	"NO"
NUMBER_OF_FIELDS	7
NUMBER_OF_SETS	15
BEGIN_DATA_FORMAT
 SAMPLE_ID	RGB_R	RGB_G	RGB_B	XYZ_X	XYZ_Y	XYZ_Z
END_DATA_FORMAT
BEGIN_DATA
 1.0	0.0	0.0	0.0	0.783233642578	0.871948242188	0.940200805664
 2.0	1.0	1.0	1.0	109.226654052734	103.696197509766	113.777770996094
 3.0	1.0	0.0	0.0	77.283004760742	7.347076416016	11.441329956055
 4.0	0.0	1.0	0.0	26.859008789062	74.472717285156	28.543548583984
 5.0	0.0	0.0	1.0	3.803146362305	21.277908325195	71.234771728516
 6.0	0.0	0.0	0.0	0.785873413086	0.874359130859	0.942794799805
 7.0	1.0	1.0	1.0	109.226654052734	103.696197509766	113.777770996094
 8.0	1.0	0.0	0.0	77.283004760742	7.347076416016	11.441329956055
 9.0	0.0	1.0	0.0	26.859008789062	74.472717285156	28.543548583984
 10.0	0.0	0.0	1.0	3.808456420898	21.277908325195	71.234771728516
 11.0	0.0	0.0	0.0	0.789505004883	0.878677368164	0.947158813477
 12.0	1.0	1.0	1.0	109.226654052734	103.696197509766	113.777770996094
 13.0	1.0	0.0	0.0	77.283004760742	7.353668212891	11.457336425781
 14.0	0.0	1.0	0.0	26.859008789062	74.472717285156	28.543548583984
 15.0	0.0	0.0	1.0	3.813766479492	21.277908325195	71.234771728516
END_DATA
