data/calibration-001816.ti3
CTI3   
ORIGINATOR	"ColorHug Factory"
CREATED	"Wed Apr 10 08:43:25 2013"
DESCRIPTOR	"Calibration Target chart information 3"
DEVICE_CLASS	"DISPLAY"
COLOR_REP	"RGB_XYZ"
TARGET_INSTRUMENT	"Hughski ColorHug"
INSTRUMENT_TYPE_SPECTRAL	"NO"
NORMALIZED_TO_Y_100	"NO"
NUMBER_OF_FIELDS	7
NUMBER_OF_SETS	15
BEGIN_DATA_FORMAT
 SAMPLE_ID	RGB_R	RGB_G	RGB_B	XYZ_X	XYZ_Y	XYZ_Z
END_DATA_FORMAT
BEGIN_DATA
 1	0	0	0	0.1373291016	0.1831054688	0.2288818359
 2	1	1	1	33.00476074	36.02600098	45.45593262
 3	1	0	0	19.08874512	2.655029297	3.25012207
 4	0	1	0	11.81030273	25.08544922	11.3067627
 5	0	0	1	0.9613037109	8.285522461	30.99060059
 6	0	0	0	0.1373291016	0.1831054688	0.2288818359
 7	1	1	1	33.14208984	36.11755371	45.18127441
 8	1	0	0	19.22607422	2.655029297	3.25012207
 9	0	1	0	11.8560791	25.03967285	11.35253906
 10	0	0	1	0.9613037109	8.285522461	31.08215332
 11	0	0	0	0.1373291016	0.1831054688	0.2288818359
 12	1	1	1	33.09631348	35.98022461	45.45593262
 13	1	0	0	19.22607422	2.655029297	3.25012207
 14	0	1	0	11.8560791	25.26855469	11.39831543
 15	0	0	1	0.9613037109	8.331298828	30.80749512
END_DATA
