data/calibration-001340.ti3
CTI3   
ORIGINATOR	"ColorHug Factory"
DESCRIPTOR	"Calibration Target chart information 3"
DEVICE_CLASS	"DISPLAY"
COLOR_REP	"RGB_XYZ"
TARGET_INSTRUMENT	"Hughski ColorHug"
INSTRUMENT_TYPE_SPECTRAL	"NO"
NORMALIZED_TO_Y_100	"NO"
NUMBER_OF_FIELDS	7
NUMBER_OF_SETS	15
BEGIN_DATA_FORMAT
 SAMPLE_ID	RGB_R	RGB_G	RGB_B	XYZ_X	XYZ_Y	XYZ_Z
END_DATA_FORMAT
BEGIN_DATA
 1	0	0	0	0.09155273438	0.09155273438	0.1373291016
 2	1	1	1	33.41674805	37.12463379	44.26574707
 3	1	0	0	19.50073242	2.700805664	3.295898438
 4	0	1	0	12.08496094	26.6418457	12.08496094
 5	0	0	1	0.8239746094	7.781982422	28.70178223
 6	0	0	0	0.09155273438	0.09155273438	0.1373291016
 7	1	1	1	33.27941895	37.12463379	44.26574707
 8	1	0	0	19.45495605	2.700805664	3.295898438
 9	0	1	0	12.08496094	26.55029297	12.03918457
 10	0	0	1	0.8239746094	7.781982422	28.70178223
 11	0	0	0	0.09155273438	0.09155273438	0.1373291016
 12	1	1	1	33.27941895	36.94152832	44.26574707
 13	1	0	0	19.68383789	2.700805664	3.295898438
 14	0	1	0	12.03918457	26.55029297	11.9934082
 15	0	0	1	0.8239746094	7.781982422	28.74755859
END_DATA
