data/calibration-000822.ti3
CTI3   
ORIGINATOR	"ColorHug Factory"
DESCRIPTOR	"Calibration Target chart information 3"
DEVICE_CLASS	"DISPLAY"
COLOR_REP	"RGB_XYZ"
TARGET_INSTRUMENT	"Hughski ColorHug"
INSTRUMENT_TYPE_SPECTRAL	"NO"
NORMALIZED_TO_Y_100	"NO"
NUMBER_OF_FIELDS	7
NUMBER_OF_SETS	15
BEGIN_DATA_FORMAT
 SAMPLE_ID	RGB_R	RGB_G	RGB_B	XYZ_X	XYZ_Y	XYZ_Z
END_DATA_FORMAT
BEGIN_DATA
 1	0	0	0	0.04577636719	0.04577636719	0.09155273438
 2	1	1	1	53.69567871	37.17041016	44.58618164
 3	1	0	0	34.01184082	3.341674805	4.943847656
 4	0	1	0	18.08166504	26.59606934	12.1307373
 5	0	0	1	0.9155273438	7.369995117	27.55737305
 6	0	0	0	0.04577636719	0.04577636719	0.09155273438
 7	1	1	1	53.74145508	37.26196289	44.63195801
 8	1	0	0	34.01184082	3.341674805	4.943847656
 9	0	1	0	17.9901123	26.41296387	12.08496094
 10	0	0	1	0.9155273438	7.415771484	27.64892578
 11	0	0	0	0.04577636719	0.04577636719	0.09155273438
 12	1	1	1	53.51257324	37.12463379	44.63195801
 13	1	0	0	33.87451172	3.341674805	4.898071289
 14	0	1	0	17.94433594	26.55029297	12.1307373
 15	0	0	1	0.9155273438	7.369995117	27.32849121
END_DATA
