data/calibration-000691.ti3
CTI3
ORIGINATOR	"ColorHug Factory"
DESCRIPTOR	"Calibration Target chart information 3"
DEVICE_CLASS	"DISPLAY"
COLOR_REP	"RGB_XYZ"
TARGET_INSTRUMENT	"Hughski ColorHug"
INSTRUMENT_TYPE_SPECTRAL	"NO"
NORMALIZED_TO_Y_100	"NO"
NUMBER_OF_FIELDS	7
NUMBER_OF_SETS	15
BEGIN_DATA_FORMAT
 SAMPLE_ID	RGB_R	RGB_G	RGB_B	XYZ_X	XYZ_Y	XYZ_Z
END_DATA_FORMAT
BEGIN_DATA
 1	0	0	0	0.04577636719	0.04577636719	0.04577636719
 2	1	1	1	53.19213867	35.88867188	39.13879395
 3	1	0	0	34.14916992	3.387451172	4.669189453
 4	0	1	0	18.21899414	25.9552002	11.3067627
 5	0	0	1	0.7781982422	6.591796875	23.25439453
 6	0	0	0	0.04577636719	0.04577636719	0.04577636719
 7	1	1	1	53.74145508	35.84289551	39.13879395
 8	1	0	0	34.19494629	3.387451172	4.669189453
 9	0	1	0	18.08166504	25.90942383	11.3067627
 10	0	0	1	0.7781982422	6.591796875	23.25439453
 11	0	0	0	0.04577636719	0.04577636719	0.04577636719
 12	1	1	1	53.74145508	35.84289551	39.13879395
 13	1	0	0	34.19494629	3.387451172	4.669189453
 14	0	1	0	18.26477051	25.86364746	11.3067627
 15	0	0	1	0.7781982422	6.591796875	23.25439453
END_DATA
