data/calibration-010268.ti3
CTI3
ORIGINATOR	"ColorHug Factory"
DESCRIPTOR	"Calibration Target chart information 3"
DEVICE_CLASS	"DISPLAY"
COLOR_REP	"RGB_XYZ"
TARGET_INSTRUMENT	"Hughski ColorHug"
INSTRUMENT_TYPE_SPECTRAL	"NO"
NORMALIZED_TO_Y_100	"NO"
NUMBER_OF_FIELDS	7
NUMBER_OF_SETS	15
BEGIN_DATA_FORMAT
 SAMPLE_ID	RGB_R	RGB_G	RGB_B	XYZ_X	XYZ_Y	XYZ_Z
END_DATA_FORMAT
BEGIN_DATA
 1	0	0	0	0	0	0
 2	1	1	1	10.84899902	7.095336914	8.010864258
 3	1	0	0	6.820678711	0.5950927734	0.9613037109
 4	0	1	0	3.570556641	5.081176758	2.334594727
 5	0	0	1	0.09155273438	1.235961914	4.486083984
 6	0	0	0	0	0	0
 7	1	1	1	10.84899902	7.095336914	8.010864258
 8	1	0	0	6.866455078	0.5950927734	0.9613037109
 9	0	1	0	3.570556641	5.081176758	2.334594727
 10	0	0	1	0.09155273438	1.235961914	4.486083984
 11	0	0	0	0	0	0
 12	1	1	1	10.84899902	7.095336914	8.010864258
 13	1	0	0	6.820678711	0.5950927734	0.9613037109
 14	0	1	0	3.570556641	5.081176758	2.334594727
 15	0	0	1	0.09155273438	1.235961914	4.486083984
END_DATA
