data/calibration-001331.ti3
CTI3   
ORIGINATOR	"ColorHug Factory"
DESCRIPTOR	"Calibration Target chart information 3"
DEVICE_CLASS	"DISPLAY"
COLOR_REP	"RGB_XYZ"
TARGET_INSTRUMENT	"Hughski ColorHug"
INSTRUMENT_TYPE_SPECTRAL	"NO"
NORMALIZED_TO_Y_100	"NO"
NUMBER_OF_FIELDS	7
NUMBER_OF_SETS	15
BEGIN_DATA_FORMAT
 SAMPLE_ID	RGB_R	RGB_G	RGB_B	XYZ_X	XYZ_Y	XYZ_Z
END_DATA_FORMAT
BEGIN_DATA
 1	0	0	0	0	0	0.04577636719
 2	1	1	1	37.17041016	35.0189209	43.02978516
 3	1	0	0	22.33886719	2.60925293	3.479003906
 4	0	1	0	12.90893555	25.03967285	11.4440918
 5	0	0	1	0.6866455078	7.049560547	27.83203125
 6	0	0	0	0	0	0.04577636719
 7	1	1	1	36.80419922	34.83581543	43.02978516
 8	1	0	0	22.38464355	2.60925293	3.479003906
 9	0	1	0	12.90893555	25.13122559	11.4440918
 10	0	0	1	0.6866455078	7.049560547	27.87780762
 11	0	0	0	0	0	0.04577636719
 12	1	1	1	37.12463379	34.83581543	43.02978516
 13	1	0	0	22.52197266	2.60925293	3.479003906
 14	0	1	0	12.90893555	24.99389648	11.4440918
 15	0	0	1	0.6866455078	7.049560547	27.64892578
END_DATA
