data/calibration-002709.ti3
CTI3   
ORIGINATOR	"ColorHug Factory"
CREATED	"Thu Mar 26 20:22:49 2015"
DESCRIPTOR	"Calibration Target chart information 3"
DEVICE_CLASS	"DISPLAY"
COLOR_REP	"RGB_XYZ"
TARGET_INSTRUMENT	"Hughski ColorHug"
INSTRUMENT_TYPE_SPECTRAL	"NO"
NORMALIZED_TO_Y_100	"NO"
NUMBER_OF_FIELDS	7
NUMBER_OF_SETS	15
BEGIN_DATA_FORMAT
 SAMPLE_ID	RGB_R	RGB_G	RGB_B	XYZ_X	XYZ_Y	XYZ_Z
END_DATA_FORMAT
BEGIN_DATA
 1.0	0.0	0.0	0.0	0.263931274414	0.297439575195	0.326431274414
 2.0	1.0	1.0	1.0	54.979858398438	53.194793701172	54.979858398438
 3.0	1.0	0.0	0.0	39.196166992188	3.813766479492	5.708709716797
 4.0	0.0	1.0	0.0	14.027389526367	39.009521484375	14.55061340332
 5.0	0.0	0.0	1.0	2.010299682617	10.70849609375	34.859573364258
 6.0	0.0	0.0	0.0	0.262283325195	0.295608520508	0.323806762695
 7.0	1.0	1.0	1.0	55.351348876953	53.194793701172	55.351348876953
 8.0	1.0	0.0	0.0	39.384613037109	3.803146362305	5.708709716797
 9.0	0.0	1.0	0.0	14.124130249023	39.009521484375	14.499114990234
 10.0	0.0	0.0	1.0	1.9970703125	10.70849609375	34.711853027344
 11.0	0.0	0.0	0.0	0.26203918457	0.294586181641	0.323226928711
 12.0	1.0	1.0	1.0	55.351348876953	53.194793701172	54.979858398438
 13.0	1.0	0.0	0.0	39.57487487793	3.81022644043	5.708709716797
 14.0	0.0	1.0	0.0	14.027389526367	39.384613037109	14.499114990234
 15.0	0.0	0.0	1.0	2.00439453125	10.529556274414	34.565399169922
END_DATA
