data/calibration-002364.ti3
CTI3   
ORIGINATOR	"ColorHug Factory"
CREATED	"Wed May 14 20:01:17 2014"
DESCRIPTOR	"Calibration Target chart information 3"
DEVICE_CLASS	"DISPLAY"
COLOR_REP	"RGB_XYZ"
TARGET_INSTRUMENT	"Hughski ColorHug"
INSTRUMENT_TYPE_SPECTRAL	"NO"
NORMALIZED_TO_Y_100	"NO"
NUMBER_OF_FIELDS	7
NUMBER_OF_SETS	15
BEGIN_DATA_FORMAT
 SAMPLE_ID	RGB_R	RGB_G	RGB_B	XYZ_X	XYZ_Y	XYZ_Z
END_DATA_FORMAT
BEGIN_DATA
 1.0	0.0	0.0	0.0	0.0	0.0	0.0
 2.0	1.0	1.0	1.0	78.01904296875	33.032257080078	56.496551513672
 3.0	1.0	0.0	0.0	49.05387878418	3.443450927734	6.425094604492
 4.0	0.0	1.0	0.0	23.076049804688	20.479995727539	11.283737182617
 5.0	0.0	0.0	1.0	0.974655151367	8.471557617188	37.406387329102
 6.0	0.0	0.0	0.0	0.0	0.0	0.0
 7.0	1.0	1.0	1.0	76.560745239258	33.165985107422	56.109588623047
 8.0	1.0	0.0	0.0	49.05387878418	3.465301513672	6.46565246582
 9.0	0.0	1.0	0.0	22.94677734375	20.582901000977	11.314910888672
 10.0	0.0	0.0	1.0	0.974655151367	8.533325195312	37.406387329102
 11.0	0.0	0.0	0.0	0.0	0.0	0.0
 12.0	1.0	1.0	1.0	78.01904296875	32.767990112305	56.496551513672
 13.0	1.0	0.0	0.0	49.05387878418	3.446350097656	6.481002807617
 14.0	0.0	1.0	0.0	22.94677734375	20.479995727539	11.2373046875
 15.0	0.0	0.0	1.0	0.971420288086	8.480316162109	37.236358642578
END_DATA
