data/calibration-000928.ti3
CTI3   
ORIGINATOR	"ColorHug Factory"
DESCRIPTOR	"Calibration Target chart information 3"
DEVICE_CLASS	"DISPLAY"
COLOR_REP	"RGB_XYZ"
TARGET_INSTRUMENT	"Hughski ColorHug"
INSTRUMENT_TYPE_SPECTRAL	"NO"
NORMALIZED_TO_Y_100	"NO"
NUMBER_OF_FIELDS	7
NUMBER_OF_SETS	15
BEGIN_DATA_FORMAT
 SAMPLE_ID	RGB_R	RGB_G	RGB_B	XYZ_X	XYZ_Y	XYZ_Z
END_DATA_FORMAT
BEGIN_DATA
 1	0	0	0	0.09155273438	0.09155273438	0.1373291016
 2	1	1	1	53.10058594	39.55078125	46.09680176
 3	1	0	0	33.00476074	3.616333008	4.989624023
 4	0	1	0	18.08166504	28.15246582	12.72583008
 5	0	0	1	1.007080078	7.827758789	28.51867676
 6	0	0	0	0.09155273438	0.09155273438	0.1373291016
 7	1	1	1	53.10058594	39.59655762	46.14257812
 8	1	0	0	33.18786621	3.570556641	4.989624023
 9	0	1	0	18.03588867	28.10668945	12.72583008
 10	0	0	1	1.007080078	7.827758789	28.51867676
 11	0	0	0	0.09155273438	0.09155273438	0.1373291016
 12	1	1	1	53.0090332	39.41345215	46.09680176
 13	1	0	0	33.18786621	3.570556641	4.989624023
 14	0	1	0	17.9901123	28.15246582	12.72583008
 15	0	0	1	1.007080078	7.827758789	28.51867676
END_DATA
