data/calibration-002454.ti3
CTI3   
ORIGINATOR	"ColorHug Factory"
CREATED	"Wed Jun 11 20:29:24 2014"
DESCRIPTOR	"Calibration Target chart information 3"
DEVICE_CLASS	"DISPLAY"
COLOR_REP	"RGB_XYZ"
TARGET_INSTRUMENT	"Hughski ColorHug"
INSTRUMENT_TYPE_SPECTRAL	"NO"
NORMALIZED_TO_Y_100	"NO"
NUMBER_OF_FIELDS	7
NUMBER_OF_SETS	15
BEGIN_DATA_FORMAT
 SAMPLE_ID	RGB_R	RGB_G	RGB_B	XYZ_X	XYZ_Y	XYZ_Z
END_DATA_FORMAT
BEGIN_DATA
 1.0	0.0	0.0	0.0	0.188247680664	0.181823730469	0.308258056641
 2.0	1.0	1.0	1.0	71.859634399414	33.165985107422	58.09928894043
 3.0	1.0	0.0	0.0	46.0224609375	3.561737060547	6.537902832031
 4.0	0.0	1.0	0.0	21.903732299805	20.479995727539	11.636352539062
 5.0	0.0	0.0	1.0	1.22541809082	8.904342651367	38.824630737305
 6.0	0.0	0.0	0.0	0.187210083008	0.179672241211	0.302352905273
 7.0	1.0	1.0	1.0	71.859634399414	33.165985107422	57.286712646484
 8.0	1.0	0.0	0.0	45.765350341797	3.563278198242	6.569366455078
 9.0	0.0	1.0	0.0	21.903732299805	20.634750366211	11.652908325195
 10.0	0.0	0.0	1.0	1.227630615234	8.894668579102	38.824630737305
 11.0	0.0	0.0	0.0	0.186752319336	0.175918579102	0.298767089844
 12.0	1.0	1.0	1.0	71.859634399414	33.165985107422	57.690139770508
 13.0	1.0	0.0	0.0	45.765350341797	3.555541992188	6.59049987793
 14.0	0.0	1.0	0.0	22.021499633789	20.582901000977	11.586975097656
 15.0	0.0	0.0	1.0	1.22966003418	8.982452392578	38.641494750977
END_DATA
