data/calibration-000442.ti3
CTI3
ORIGINATOR	"ColorHug Factory"
DESCRIPTOR	"Calibration Target chart information 3"
DEVICE_CLASS	"DISPLAY"
COLOR_REP	"RGB_XYZ"
TARGET_INSTRUMENT	"Hughski ColorHug"
INSTRUMENT_TYPE_SPECTRAL	"NO"
NORMALIZED_TO_Y_100	"NO"
NUMBER_OF_FIELDS	7
NUMBER_OF_SETS	15
BEGIN_DATA_FORMAT
 SAMPLE_ID	RGB_R	RGB_G	RGB_B	XYZ_X	XYZ_Y	XYZ_Z
END_DATA_FORMAT
BEGIN_DATA
 1	0	0	0	0.1373291016	0.09155273438	0.1373291016
 2	1	1	1	60.83679199	39.00146484	45.13549805
 3	1	0	0	37.99438477	3.662109375	5.722045898
 4	0	1	0	20.05004883	28.01513672	12.95471191
 5	0	0	1	1.007080078	7.186889648	26.32141113
 6	0	0	0	0.1373291016	0.09155273438	0.1373291016
 7	1	1	1	61.06567383	39.04724121	45.27282715
 8	1	0	0	37.9486084	3.662109375	5.722045898
 9	0	1	0	19.86694336	27.87780762	12.95471191
 10	0	0	1	1.007080078	7.232666016	26.18408203
 11	0	0	0	0.1373291016	0.09155273438	0.1373291016
 12	1	1	1	60.79101562	39.09301758	45.22705078
 13	1	0	0	38.2232666	3.662109375	5.722045898
 14	0	1	0	19.86694336	28.06091309	13.04626465
 15	0	0	1	1.007080078	7.232666016	26.32141113
END_DATA
