data/calibration-000941.ti3
CTI3   
ORIGINATOR	"ColorHug Factory"
DESCRIPTOR	"Calibration Target chart information 3"
DEVICE_CLASS	"DISPLAY"
COLOR_REP	"RGB_XYZ"
TARGET_INSTRUMENT	"Hughski ColorHug"
INSTRUMENT_TYPE_SPECTRAL	"NO"
NORMALIZED_TO_Y_100	"NO"
NUMBER_OF_FIELDS	7
NUMBER_OF_SETS	15
BEGIN_DATA_FORMAT
 SAMPLE_ID	RGB_R	RGB_G	RGB_B	XYZ_X	XYZ_Y	XYZ_Z
END_DATA_FORMAT
BEGIN_DATA
 1	0	0	0	0.04577636719	0.04577636719	0.04577636719
 2	1	1	1	64.0411377	42.25158691	49.07226562
 3	1	0	0	40.6036377	3.982543945	5.950927734
 4	0	1	0	21.42333984	30.12084961	13.96179199
 5	0	0	1	1.007080078	8.056640625	29.06799316
 6	0	0	0	0.04577636719	0.04577636719	0.04577636719
 7	1	1	1	64.08691406	42.25158691	49.07226562
 8	1	0	0	40.51208496	3.982543945	5.950927734
 9	0	1	0	21.51489258	30.25817871	13.96179199
 10	0	0	1	1.007080078	8.056640625	29.20532227
 11	0	0	0	0.04577636719	0.04577636719	0.04577636719
 12	1	1	1	64.1784668	42.43469238	49.25537109
 13	1	0	0	40.55786133	3.982543945	5.950927734
 14	0	1	0	21.51489258	30.25817871	13.96179199
 15	0	0	1	1.007080078	8.056640625	29.1595459
END_DATA
