data/calibration-000491.ti3
CTI3
ORIGINATOR	"ColorHug Factory"
DESCRIPTOR	"Calibration Target chart information 3"
DEVICE_CLASS	"DISPLAY"
COLOR_REP	"RGB_XYZ"
TARGET_INSTRUMENT	"Hughski ColorHug"
INSTRUMENT_TYPE_SPECTRAL	"NO"
NORMALIZED_TO_Y_100	"NO"
NUMBER_OF_FIELDS	7
NUMBER_OF_SETS	15
BEGIN_DATA_FORMAT
 SAMPLE_ID	RGB_R	RGB_G	RGB_B	XYZ_X	XYZ_Y	XYZ_Z
END_DATA_FORMAT
BEGIN_DATA
 1	0	0	0	0	0	0.04577636719
 2	1	1	1	63.53759766	41.70227051	48.47717285
 3	1	0	0	39.91699219	3.845214844	5.859375
 4	0	1	0	21.24023438	29.89196777	13.64135742
 5	0	0	1	0.9613037109	7.873535156	28.83911133
 6	0	0	0	0	0	0.04577636719
 7	1	1	1	63.99536133	41.51916504	48.06518555
 8	1	0	0	40.10009766	3.845214844	5.859375
 9	0	1	0	21.14868164	29.80041504	13.68713379
 10	0	0	1	0.9613037109	7.919311523	28.65600586
 11	0	0	0	0	0	0.04577636719
 12	1	1	1	63.12561035	41.56494141	48.38562012
 13	1	0	0	40.00854492	3.845214844	5.859375
 14	0	1	0	21.14868164	29.66308594	13.64135742
 15	0	0	1	0.9613037109	7.919311523	28.74755859
END_DATA
