data/calibration-001565.ti3
CTI3   
ORIGINATOR	"ColorHug Factory"
DESCRIPTOR	"Calibration Target chart information 3"
DEVICE_CLASS	"DISPLAY"
COLOR_REP	"RGB_XYZ"
TARGET_INSTRUMENT	"Hughski ColorHug"
INSTRUMENT_TYPE_SPECTRAL	"NO"
NORMALIZED_TO_Y_100	"NO"
NUMBER_OF_FIELDS	7
NUMBER_OF_SETS	15
BEGIN_DATA_FORMAT
 SAMPLE_ID	RGB_R	RGB_G	RGB_B	XYZ_X	XYZ_Y	XYZ_Z
END_DATA_FORMAT
BEGIN_DATA
 1	0	0	0	0.1373291016	0.1373291016	0.1373291016
 2	1	1	1	39.82543945	41.015625	49.89624023
 3	1	0	0	23.62060547	3.021240234	3.890991211
 4	0	1	0	14.19067383	29.47998047	13.22937012
 5	0	0	1	0.9613037109	8.560180664	32.6385498
 6	0	0	0	0.1373291016	0.1373291016	0.1373291016
 7	1	1	1	39.82543945	41.1529541	49.89624023
 8	1	0	0	23.52905273	3.067016602	3.890991211
 9	0	1	0	14.14489746	29.296875	13.32092285
 10	0	0	1	0.9613037109	8.560180664	32.45544434
 11	0	0	0	0.1373291016	0.1373291016	0.1373291016
 12	1	1	1	39.77966309	40.69519043	49.3927002
 13	1	0	0	23.48327637	3.067016602	3.890991211
 14	0	1	0	14.19067383	29.47998047	13.22937012
 15	0	0	1	0.9613037109	8.560180664	32.3638916
END_DATA
