data/calibration-000099.ti3
CTI3
DESCRIPTOR	"Calibration Target chart information 3"
ORIGINATOR	"ColorHug Factory"
DEVICE_CLASS	"DISPLAY"
COLOR_REP	"RGB_XYZ"
TARGET_INSTRUMENT	"ColorHug"
INSTRUMENT_TYPE_SPECTRAL	"NO"
LUMINANCE_XYZ_CDM2	"47.355652 37.834167 43.212891"
NORMALIZED_TO_Y_100	"YES"
NUMBER_OF_FIELDS	7
NUMBER_OF_SETS	836
BEGIN_DATA_FORMAT
 SAMPLE_ID	RGB_R	RGB_G	RGB_B	XYZ_X	XYZ_Y	XYZ_Z
END_DATA_FORMAT
BEGIN_DATA
 1	100	100	100	123.6429433	99.39686369	113.8721351
 2	100	100	100	125.9348613	100	113.7515078
 3	100	100	100	124.4873341	99.63811821	113.9927624
 4	100	100	100	125.0904704	99.75874548	113.8721351
 5	33.33	32.622	30.968	18.09408926	7.358262967	7.720144753
 6	100	0	100	70.44632087	27.74427021	81.0615199
 7	100	100	0	107.7201448	80.57901086	43.90832328
 8	0	100	100	44.27020507	91.07358263	101.8094089
 9	0	100	0	42.21954162	71.53196622	31.8455971
 10	0	0	100	4.342581423	19.90349819	69.96381182
 11	100	0	0	75.63329312	8.92641737	12.06272618
 12	0	0	0	3.739445115	1.206272618	1.206272618
 13	0	52.455	100	11.09770808	33.53437877	76.47768396
 14	100	0	50.3	74.42702051	12.18335344	23.64294331
 15	100	54.739	100	87.81664656	42.94330519	88.41978287
 16	100	52.128	0	85.1628468	22.31604343	18.21471653
 17	0	0	46.181	2.05066345	3.618817853	10.25331725
 18	0	51.141	0	8.92641737	13.8721351	6.87575392
 19	0	100	51.348	41.61640531	75.15078408	43.90832328
 20	100	100	52.037	123.2810615	83.95657419	56.57418577
 21	49.216	0	0	72.13510253	2.533172497	3.136308806
 22	56.159	100	0	59.71049457	73.22074789	34.74065139
 23	49.226	100	100	58.02171291	92.88299156	104.3425814
 24	44.487	0	100	13.99276236	20.98914355	71.65259349
 25	100	44.498	52.029	82.14716526	21.83353438	28.82991556
 26	48.926	48.544	100	26.53799759	32.44873341	77.56332931
 27	51.368	100	47.25	56.81544029	76.47768396	44.27020507
 28	49.893	0	49.033	20.14475271	5.548854041	13.99276236
 29	53.109	51.372	0	24.36670688	15.56091677	9.167671894
 30	0	58.587	53.943	12.42460796	22.67792521	22.55729795
 31	100	28.065	100	79.4933655	31.2424608	83.35343788
 32	0	0	72.874	5.066344994	8.805790109	29.31242461
 33	0	26.758	100	4.82509047	22.91917973	71.77322075
 34	0	25.426	0	2.895054282	3.860072376	2.412545235
 35	72.508	0	100	35.946924	23.40168878	75.63329312
 36	100	27.395	0	76.23642943	12.18335344	13.63088058
 37	74.47	100	100	81.42340169	95.29553679	107.7201448
 38	100	0	25.728	75.99517491	9.770808203	14.8371532
 39	73.862	0	0	36.30880579	4.945717732	6.393244873
 40	100	100	25.402	119.5416164	81.30277443	46.6827503
 41	0	75.751	100	29.79493366	53.79975875	85.1628468
 42	0	75.172	0	21.23039807	34.13751508	15.80217129
 43	0	100	25.864	41.85765983	71.89384801	34.49939686
 44	100	0	74.801	75.99517491	17.37032569	43.06393245
 45	0	100	75.421	43.06393245	80.69963812	63.93244873
 46	24.577	0	0	4.221954162	1.447527141	1.568154403
 47	26.321	100	0	45.35585042	71.77322075	32.32810615
 48	100	75.835	0	97.94933655	43.30518697	27.74427021
 49	100	100	77.061	122.7985525	89.74668275	77.9252111
 50	71.263	100	0	76.71893848	75.3920386	37.15319662
 51	0	0	15.614	7.961399276	1.447527141	2.05066345
 52	0	30.049	70.936	4.221954162	12.18335344	29.55367913
 53	100	77.691	100	101.0856454	64.53558504	98.31121834
 54	24.486	100	100	49.57780458	91.67671894	102.6537998
 55	100	62.784	31.909	90.47044632	31.8455971	25.93486128
 56	29.552	0	100	7.117008444	20.38600724	70.68757539
 57	32.98	70.921	100	25.33172497	48.97466828	83.5946924
 58	0	27.681	40.241	3.498190591	6.272617612	9.288299156
 59	67.901	71.021	100	49.2159228	52.11097708	87.6960193
 60	28.154	100	67.829	46.32086852	78.76960193	56.93606755
 61	71.637	100	70.001	77.68395657	83.11218335	63.93244873
 62	58.822	58.763	53.586	32.56936068	24.72858866	25.33172497
 63	33.466	30.48	0	9.529553679	5.669481303	3.739445115
 64	100	73.795	71.277	97.58745476	48.37153197	54.40289505
 65	68.394	29.692	0	37.63570567	7.961399276	7.117008444
 66	70.399	0	29.039	32.56936068	5.548854041	9.288299156
 67	28.078	0	26.956	6.513872135	2.412545235	4.704463209
 68	28.532	72.339	0	23.16043426	31.2424608	14.8371532
 69	100	30.941	26.496	78.16646562	13.8721351	16.88781665
 70	34.597	0	73.611	10.25331725	9.650180941	31.00120627
 71	71.573	0	72.408	34.62002413	12.42460796	34.13751508
 72	0	71.029	29.412	18.9384801	30.75995175	17.24969843
 73	68.386	75.008	0	50.42219542	37.15319662	20.14475271
 74	68.088	27.309	100	34.74065139	26.29674306	76.11580217
 75	100	26.457	73.749	78.04583836	20.26537998	43.42581423
 76	74.344	100	27.392	80.82026538	77.08082027	40.89264174
 77	27.558	100	28.197	47.28588661	72.49698432	35.58504222
 78	31.196	27.465	100	9.529553679	23.64294331	72.25572979
 79	0	75.521	72.824	22.19541616	42.5814234	44.75271411
 80	0	50.93	25.553	9.288299156	14.47527141	9.408926417
 81	32.06	33.584	64.033	9.408926417	12.18335344	24.84921592
 82	81.666	55.38	0	55.8504222	21.47165259	14.8371532
 83	68.257	32.751	58.286	33.77563329	13.51025332	24.00482509
 84	0	55.248	81.585	11.94209891	27.26176116	46.56212304
 85	73.781	52.099	100	46.44149578	37.15319662	81.0615199
 86	100	50.537	82.952	82.87092883	32.56936068	57.90108565
 87	23.55	0	50.439	13.75150784	4.583835947	12.90711701
 88	31.335	62.746	31.114	18.45597105	24.00482509	15.19903498
 89	100	18.31	49.418	76.35705669	13.51025332	24.00482509
 90	26.498	48.404	0	13.8721351	12.54523522	6.634499397
 91	47.91	100	85.744	54.28226779	85.64535585	77.9252111
 92	71.829	47.313	31.811	41.61640531	16.4053076	14.8371532
 93	31.304	64.132	69.316	21.23039807	30.88057901	37.39445115
 94	80.403	0	54.321	44.1495778	9.650180941	21.47165259
 95	18.455	50.036	100	12.54523522	32.56936068	76.35705669
 96	50.653	100	16.345	55.8504222	73.22074789	35.22316043
 97	80.121	100	52.261	85.76598311	80.57901086	51.62846803
 98	0	22.54	19.289	10.37394451	3.739445115	3.739445115
 99	100	75.273	46.886	98.31121834	44.87334138	37.39445115
 100	0	78.618	56.625	24.36670688	42.5814234	33.05186972
 101	51.137	80.627	100	40.0482509	61.15802171	90.10856454
 102	48.446	0	17.864	13.63088058	2.895054282	4.342581423
 103	100	50.023	21.211	83.5946924	21.83353438	19.66224367
 104	50.115	20.118	0	16.28468034	4.342581423	3.980699638
 105	58.099	72.426	33.158	38.96260555	34.3787696	21.71290712
 106	19.364	100	50.197	43.90832328	74.66827503	43.78769602
 107	50.683	19.177	100	17.973462	23.039807	73.10012063
 108	53.37	0	81.576	17.85283474	13.26899879	41.97828709
 109	47.768	76.245	0	33.41375151	36.79131484	18.09408926
 110	0	18.927	55.503	3.015681544	6.755126659	16.28468034
 111	0	13.277	0	1.688781665	1.930036188	1.568154403
 112	72.862	72.473	75.625	52.95536791	43.66706876	51.02533172
 113	100	13.904	0	74.90952955	9.770808203	12.42460796
 114	86.349	0	100	56.57418577	25.57297949	77.9252111
 115	100	41.941	100	81.0615199	36.18817853	85.1628468
 116	100	81.785	16.464	104.1013269	50.54282268	31.8455971
 117	0	44.063	52.596	16.88781665	13.63088058	17.85283474
 118	0	0	58.917	1.688781665	5.790108565	17.973462
 119	59.25	24.551	29.789	23.28106152	6.996381182	8.92641737
 120	82.73	82.874	100	73.10012063	67.55126659	96.74306393
 121	80.039	0	12.618	44.27020507	5.910735826	8.082026538
 122	60.957	47.729	77.817	31.96622437	23.52231604	43.5464415
 123	100	0	38.618	75.03015682	10.7358263	18.45597105
 124	0	40.09	100	8.082026538	27.26176116	73.70325694
 125	0	15.283	82.322	2.774427021	12.54523522	39.80699638
 126	17.592	81.726	100	28.7092883	61.03739445	89.14354644
 127	100	14.13	100	73.58262967	28.7092883	81.90591074
 128	15.261	100	82.059	44.1495778	82.50904704	71.65259349
 129	47.77	79.418	60.389	36.30880579	45.59710495	37.63570567
 130	18.768	16.429	0	3.739445115	2.412545235	1.930036188
 131	55.634	100	65.763	60.31363088	79.73462002	57.65983112
 132	100	100	38.541	123.7635706	82.026538	50.06031363
 133	17.421	0	83.497	3.980699638	12.18335344	41.61640531
 134	17.237	16.758	100	5.066344994	21.23039807	71.04945718
 135	0	15.067	30.039	1.930036188	3.136308806	5.186972256
 136	0	0	86.505	2.533172497	13.14837153	45.35585042
 137	75.736	72.799	50.02	57.17732207	38.84197829	31.8455971
 138	100	83.323	85.529	105.9107358	64.6562123	75.99517491
 139	100	100	64.894	124.4873341	86.73100121	65.74185766
 140	81.98	84.914	0	75.51266586	50.54282268	27.98552473
 141	0	63.757	15.49	15.44028951	23.16043426	11.70084439
 142	49.514	66.135	100	30.39806996	45.71773221	83.71531966
 143	100	0	61.862	72.61761158	14.23401689	31.2424608
 144	24.308	45.41	49.831	13.14837153	14.11338963	17.00844391
 145	15.963	0	17.047	2.653799759	1.688781665	2.533172497
 146	87.497	100	100	100.3618818	96.38118215	110.3739445
 147	52.099	25.003	75.752	26.65862485	13.99276236	36.30880579
 148	14.909	81.162	0	25.93486128	41.13389626	18.9384801
 149	0	34.792	14.626	5.669481303	6.634499397	4.342581423
 150	48.39	45.075	22.552	19.17973462	12.42460796	9.288299156
 151	83.545	65.965	100	66.10373945	49.33655006	88.90229192
 152	16.226	62.345	0	21.10977081	21.71290712	10.49457177
 153	63.222	0	14.914	24.48733414	3.980699638	5.669481303
 154	80.449	13.446	0	44.39083233	6.634499397	7.961399276
 155	83.917	41.562	0	52.59348613	13.99276236	11.70084439
 156	100	60.448	46.3	89.02291918	31.12183353	30.75995175
 157	15.584	0	34.795	7.840772014	2.653799759	6.15199035
 158	17.144	65.121	100	18.33534379	43.5464415	80.94089264
 159	83.602	55.334	62.667	59.22798552	27.62364294	35.22316043
 160	0	82.19	14.22	30.88057901	42.09891435	20.02412545
 161	25.132	74.856	50.616	24.6079614	37.63570567	27.98552473
 162	0	13.769	100	3.860072376	20.62726176	70.80820265
 163	87.181	0	0	53.79975875	6.87575392	8.92641737
 164	0	100	39.19	43.42581423	72.97949337	38.4800965
 165	78.047	65.914	19.865	55.97104946	30.03618818	19.54161641
 166	100	63.961	15.865	90.95295537	31.8455971	23.28106152
 167	100	45.955	36.032	83.71531966	20.62726176	22.0747889
 168	15.926	100	16.89	50.06031363	71.65259349	33.17249698
 169	41.459	100	0	50.66344994	72.37635706	33.29312425
 170	48.707	37.288	48.139	28.7092883	11.45958987	16.04342581
 171	83.381	100	13.285	88.66103739	76.83956574	40.16887817
 172	78.129	25.303	75.621	45.47647768	16.88781665	39.68636912
 173	12.396	0	0	2.05066345	1.206272618	1.326899879
 174	37.607	48.336	83.346	15.68154403	24.12545235	47.6477684
 175	35.588	15.356	0	7.840772014	2.895054282	2.533172497
 176	61.245	100	100	64.17370326	93.3655006	105.548854
 177	100	67.29	87.195	94.3305187	47.40651387	69.84318456
 178	0	0	30.615	1.568154403	2.171290712	4.945717732
 179	35.187	81.789	83.323	32.44873341	53.92038601	60.79613993
 180	39.525	80.194	22.879	32.44873341	41.37515078	21.71290712
 181	50.634	34.593	0	19.17973462	7.840772014	5.669481303
 182	14.175	100	63.146	42.94330519	76.83956574	52.23160434
 183	83.493	17.728	34.574	48.61278649	8.92641737	13.51025332
 184	23.463	22.014	79.943	10.61519903	13.38962606	38.4800965
 185	18.066	31.847	0	5.548854041	5.669481303	3.377563329
 186	87.201	100	81.361	99.15560917	88.05790109	78.76960193
 187	0	100	87.95	60.43425814	84.55971049	79.73462002
 188	34.476	17.888	46.22	11.21833534	5.669481303	11.82147165
 189	18.277	0	67.39	3.377563329	7.720144753	24.84921592
 190	100	87.972	0	107.840772	59.34861279	34.74065139
 191	82.925	34.85	100	53.43787696	30.51869723	79.61399276
 192	0	88.016	100	32.56936068	69.60193004	92.52110977
 193	36.104	85.655	100	36.67068758	66.70687575	91.91797346
 194	60.981	0	0	23.16043426	3.498190591	4.463208685
 195	51.466	61.826	78.106	28.82991556	32.32810615	46.80337756
 196	78.427	31.983	22.175	44.27020507	10.49457177	11.09770808
 197	66.017	44.321	0	34.13751508	13.14837153	9.167671894
 198	83.941	0	84.177	49.33655006	17.61158022	49.93968637
 199	20.158	46.612	23.269	10.01206273	12.06272618	8.2026538
 200	0	100	62.618	42.21954162	76.71893848	51.62846803
 201	33.832	0	13.933	8.805790109	2.05066345	2.774427021
 202	100	17.286	16.322	75.87454765	10.61519903	13.75150784
 203	0	42.204	83.926	24.72858866	20.62726176	46.32086852
 204	0	87.774	0	30.15681544	50.18094089	22.67792521
 205	64.988	0	59.017	27.02050663	8.685162847	22.0747889
 206	14.677	0	100	5.548854041	20.02412545	70.20506634
 207	88.934	82.673	35.021	84.07720145	50.06031363	33.29312425
 208	0	63.778	100	16.88781665	42.21954162	80.69963812
 209	83.429	17.674	100	50.66344994	26.41737033	78.52834741
 210	30.899	100	85.668	47.88902292	83.83594692	76.83956574
 211	83.68	0	41.016	48.97466828	8.2026538	15.31966224
 212	100	63.515	0	90.95295537	30.88057901	21.95416164
 213	85.074	69.987	0	70.44632087	34.13751508	20.86851628
 214	20.801	45.524	69.018	14.8371532	18.09408926	30.88057901
 215	21.382	82.482	73.017	28.82991556	50.90470446	49.33655006
 216	100	15.128	64.249	76.59831122	15.80217129	33.65500603
 217	36.522	0	58.427	15.80217129	6.393244873	18.45597105
 218	22.466	81.296	33.007	27.62364294	42.82267793	23.64294331
 219	62.531	87.152	0	53.67913148	52.11097708	26.1761158
 220	84.12	85.397	67.886	78.64897467	58.86610374	53.19662244
 221	18.87	27.336	45.389	5.790108565	6.996381182	11.82147165
 222	66.439	100	14.444	69.96381182	74.78890229	36.79131484
 223	41.636	22.147	19.003	19.78287093	4.704463209	4.945717732
 224	61.271	100	81.94	63.93244873	84.80096502	74.66827503
 225	86.013	100	0	95.65741858	78.16646562	40.53075995
 226	37.57	0	0	9.770808203	1.930036188	2.171290712
 227	100	16.132	84.102	75.99517491	21.59227986	55.00603136
 228	0	100	13.619	42.94330519	71.53196622	32.56936068
 229	38.905	100	56.471	49.69843185	77.08082027	48.85404101
 230	100	15.382	34.563	76.35705669	11.33896261	17.37032569
 231	36.656	14.908	100	11.45958987	21.59227986	72.01447527
 232	0	62.593	66.608	14.47527141	28.34740651	33.65500603
 233	66.347	12.528	100	30.03618818	23.64294331	74.54764777
 234	100	43.375	69.233	81.42340169	24.84921592	41.85765983
 235	100	56.36	61.236	87.81664656	30.75995175	38.72135103
 236	0	86.194	44.955	36.67068758	50.06031363	30.88057901
 237	64.527	87.262	100	55.60916767	71.2907117	96.01930036
 238	34.411	0	42.471	7.358262967	3.860072376	9.650180941
 239	80.23	59.707	85.12	56.57418577	36.67068758	59.83112183
 240	20.625	19.056	14.791	4.82509047	3.256936068	3.015681544
 241	15.341	34.221	100	6.996381182	25.33172497	72.8588661
 242	36.777	0	87.905	8.805790109	14.59589867	48.85404101
 243	34.598	56.247	100	18.57659831	37.15319662	78.52834741
 244	20.86	67.629	17.418	18.9384801	27.1411339	14.11338963
 245	44.958	60.843	18.054	23.52231604	22.0747889	12.78648975
 246	37.421	60.193	0	19.54161641	20.62726176	10.61519903
 247	84.011	33.849	42.612	52.11097708	13.51025332	18.45597105
 248	17.241	60.339	37.743	16.88781665	21.83353438	15.68154403
 249	50.65	17.261	53.278	16.28468034	7.599517491	16.76718938
 250	45.505	48.926	65.152	19.66224367	20.02412545	30.15681544
 251	44.567	84.081	39.649	37.39445115	47.88902292	28.58866104
 252	100	86.339	72.054	109.5295537	64.89746683	62.12303981
 253	68.14	61.135	0	52.83474065	23.64294331	14.11338963
 254	17.93	66.986	81.403	20.26537998	36.67068758	50.30156815
 255	39.242	60.215	48.926	20.74788902	23.88419783	21.47165259
 256	20.099	18.77	62.967	5.307599517	8.323281062	21.83353438
 257	34.553	100	14.582	46.20024125	71.89384801	33.65500603
 258	87.345	0	66.694	54.40289505	13.26899879	32.44873341
 259	0	43.714	39.842	11.21833534	11.82147165	11.70084439
 260	100	37.705	13.955	79.37273824	15.56091677	15.80217129
 261	31.265	86.993	0	39.32448733	48.85404101	22.79855247
 262	51.402	82.661	81.338	41.73703257	55.24728589	60.19300362
 263	100	100	12.984	117.490953	80.33775633	44.63208685
 264	0	37.859	0	5.669481303	7.358262967	3.980699638
 265	62.092	58.215	100	34.62002413	40.0482509	81.66465621
 266	86.186	100	64.1	96.01930036	82.99155609	61.39927624
 267	100	35.251	85.898	81.30277443	26.77925211	59.22798552
 268	63.182	89.992	41.974	58.86610374	58.38359469	35.58504222
 269	13.504	100	0	42.82267793	71.53196622	31.96622437
 270	100	0	13.228	65.01809409	9.167671894	12.78648975
 271	63.881	40.826	100	37.03256936	30.51869723	78.04583836
 272	69.387	84.838	20.792	58.50422195	49.33655006	27.26176116
 273	0	70.279	45.136	24.24607961	31.8455971	22.67792521
 274	79.094	64.754	40.908	56.93606755	30.51869723	24.84921592
 275	62.385	54.099	17.396	41.13389626	18.69722557	12.42460796
 276	64.408	14.621	0	27.26176116	4.82509047	5.307599517
 277	70.028	15.606	44.651	32.68998794	7.961399276	14.8371532
 278	0	63.544	0	14.59589867	22.91917973	10.85645356
 279	83.475	47.274	20.502	54.28226779	17.24969843	14.59589867
 280	55.866	0	32.671	19.54161641	4.342581423	8.082026538
 281	58.007	0	100	22.19541616	22.0747889	73.8238842
 282	100	0	87.698	76.71893848	21.71290712	59.10735826
 283	0	13.792	67.215	8.082026538	8.443908323	24.96984318
 284	84.123	17.001	58.549	49.69843185	12.18335344	25.57297949
 285	59.579	32.873	15.966	26.41737033	8.323281062	7.358262967
 286	10.41	32.998	28.659	4.945717732	6.87575392	6.634499397
 287	17.231	40.031	85.65	8.2026538	20.62726176	48.73341375
 288	37.568	41.561	10.108	12.66586248	9.650180941	6.031363088
 289	0	69.015	85.092	18.33534379	39.92762364	56.09167672
 290	14.442	100	36.187	41.73703257	73.34137515	37.51507841
 291	100	40.549	0	79.13148372	16.64656212	15.56091677
 292	82.143	45.435	78.429	55.36791315	25.09047045	46.92400483
 293	52.674	0	67.3	17.24969843	9.288299156	27.1411339
 294	0	87.868	66.793	31.12183353	57.05669481	46.44149578
 295	86.53	100	40.524	93.00361882	79.61399276	47.6477684
 296	71.777	85.586	67.232	63.81182147	57.4185766	50.42219542
 297	43.216	100	31.671	52.23160434	74.18576598	37.63570567
 298	39.245	32.908	85.845	13.51025332	18.69722557	48.49215923
 299	0	45.662	67.543	7.840772014	17.49095296	29.55367913
 300	12.161	100	100	44.27020507	90.47044632	101.6887817
 301	67.049	0	85.516	30.2774427	16.16405308	48.97466828
 302	100	89.041	100	111.3389626	79.85524729	105.548854
 303	20.246	60.698	56.526	43.42581423	24.84921592	25.45235223
 304	52.177	55.457	40.416	25.57297949	20.5066345	17.37032569
 305	72.617	87.018	83.932	65.6212304	64.53558504	69.96381182
 306	40.512	16.723	66.475	17.24969843	9.529553679	25.93486128
 307	68.507	49.232	50.605	37.87696019	19.42098914	22.67792521
 308	65.622	100	54.525	68.99879373	78.40772014	51.02533172
 309	54.115	37.24	66.394	21.83353438	15.31966224	29.43305187
 310	100	76.138	31.267	99.27623643	45.1145959	31.96622437
 311	54.728	65.623	0	34.01688782	26.41737033	14.11338963
 312	63.126	12.526	64.37	25.93486128	10.25331725	26.1761158
 313	72.827	18.08	23.704	36.06755127	6.87575392	9.167671894
 314	23.268	15.278	34.947	4.583835947	3.860072376	6.996381182
 315	87.648	68.954	59.645	72.73823884	38.4800965	39.20386007
 316	0	85.595	85.198	29.79493366	58.86610374	64.89746683
 317	35.798	84.371	69.21	34.3787696	52.71411339	47.16525935
 318	36.062	47.494	35.919	14.23401689	13.99276236	12.06272618
 319	86.083	36.277	59.152	55.97104946	17.37032569	28.7092883
 320	58.21	100	30.361	62.72617612	75.03015682	38.84197829
 321	46.745	14.614	32.317	14.59589867	4.463208685	7.478890229
 322	81.573	73.869	86.954	67.43063932	50.54282268	68.27503016
 323	85.991	49.387	48.206	61.39927624	21.35102533	24.48733414
 324	28.062	87.906	19.654	38.11821472	51.50784077	24.96984318
 325	68.992	17.993	85.124	32.68998794	17.49095296	49.57780458
 326	100	66.147	100	93.84800965	52.11097708	92.15922799
 327	33.358	64.806	84.517	22.91917973	36.55006031	54.40289505
 328	41.351	17.736	80.522	11.58021713	13.51025332	40.0482509
 329	100	100	88.719	124.0048251	93.96863691	92.76236429
 330	66.336	0	44.32	29.79493366	6.513872135	13.8721351
 331	64.85	67.09	12.293	41.37515078	29.19179735	16.76718938
 332	15.262	31.268	63.277	7.599517491	10.97708082	23.28106152
 333	15.008	43.663	37.3	7.840772014	11.70084439	10.97708082
 334	0	57.895	38.078	11.82147165	20.14475271	14.8371532
 335	66.599	58.458	67.871	39.80699638	28.82991556	37.63570567
 336	59.191	18.651	15.215	23.039807	5.186972256	5.790108565
 337	66.781	31.14	84.629	32.08685163	19.90349819	49.33655006
 338	88.033	85.158	52.14	84.68033776	55.48854041	42.21954162
 339	36.882	100	100	56.09167672	91.7973462	103.4981906
 340	26.102	33.094	17.006	10.37394451	6.634499397	5.066344994
 341	56.309	36.861	35.862	21.95416164	10.49457177	11.70084439
 342	45.839	65.587	67.033	27.02050663	32.56936068	36.79131484
 343	83.709	81.172	16.406	72.8588661	46.80337756	27.26176116
 344	0	48.132	13.005	8.2026538	12.3039807	6.755126659
 345	87.176	50.021	100	63.32931242	38.23884198	84.07720145
 346	51.219	84.244	13.73	42.09891435	46.6827503	23.28106152
 347	60.606	71.415	48.406	41.25452352	35.58504222	27.98552473
 348	0	11.359	12.718	5.669481303	1.930036188	2.05066345
 349	86.429	49.705	33.145	60.43425814	20.02412545	18.69722557
 350	34.056	40.958	100	24.24607961	28.22677925	74.78890229
 351	100	30.557	59.628	78.16646562	17.973462	31.96622437
 352	88.497	26.902	13.449	58.38359469	10.25331725	11.33896261
 353	14.167	51.98	88.218	13.99276236	27.50301568	54.28226779
 354	13.784	12.983	49.37	2.774427021	4.945717732	12.42460796
 355	15.018	88.441	48.062	30.88057901	54.52352232	33.77563329
 356	87.79	25.769	89.215	55.60916767	23.039807	58.986731
 357	0	33.206	55.865	4.704463209	10.01206273	18.21471653
 358	74.324	76.029	35.536	58.14234017	40.53075995	26.77925211
 359	65.863	57.223	42.324	39.32448733	22.91917973	20.26537998
 360	30.893	54.646	13.136	15.07840772	16.76718938	9.167671894
 361	0	34.36	28.321	4.82509047	7.237635706	6.755126659
 362	15.443	77.087	85.116	24.24607961	48.61278649	61.03739445
 363	63.381	68.947	68.521	41.85765983	37.15319662	41.37515078
 364	69.733	27.566	42.917	34.3787696	10.01206273	15.19903498
 365	32.754	100	42.76	47.28588661	74.66827503	41.013269
 366	47.096	29.481	34.829	18.09408926	7.478890229	9.408926417
 367	8.5451	71.948	62.695	19.90349819	36.18817853	34.13751508
 368	0	86.048	29.3	28.82991556	48.49215923	25.09047045
 369	53.697	51.572	85.367	26.29674306	27.98552473	52.71411339
 370	17.608	56.69	12.515	12.78648975	17.85283474	9.288299156
 371	90.638	14.414	49.227	59.71049457	11.21833534	21.23039807
 372	63.248	63.64	89.55	40.89264174	39.56574186	64.53558504
 373	100	85.976	58.455	107.5995175	60.31363088	50.18094089
 374	9.8311	28.027	7.5567	4.342581423	4.704463209	3.015681544
 375	89.831	64.313	69.506	71.04945718	37.03256936	45.83835947
 376	31.754	12.995	25.543	14.95778046	3.136308806	4.945717732
 377	75.914	45.966	64.957	45.59710495	21.23039807	33.05186972
 378	7.5735	50.695	58.941	12.06272618	18.69722557	23.88419783
 379	100	69.835	58.912	94.3305187	41.73703257	42.46079614
 380	32.211	34.376	48.339	18.09408926	9.770808203	14.71652593
 381	13.901	12.159	73.555	3.256936068	9.891435464	30.75995175
 382	87.071	9.028	77.653	54.52352232	16.4053076	43.42581423
 383	23.272	85.409	84.29	34.49939686	58.38359469	63.81182147
 384	93.289	39.48	26.145	66.22436671	15.56091677	16.28468034
 385	65.769	59.63	30.967	41.85765983	23.64294331	17.24969843
 386	100	32.265	41.803	78.40772014	15.68154403	21.83353438
 387	86.568	85.281	86.961	83.23281062	65.01809409	74.90952955
 388	52.577	86.83	30.016	45.83835947	51.14595899	28.10615199
 389	47.921	40.199	76.902	21.95416164	18.81785283	39.4451146
 390	22.36	86.619	61.58	31.60434258	53.67913148	41.73703257
 391	52.232	33.601	88.787	20.74788902	20.86851628	53.92038601
 392	0	28.523	86.267	4.583835947	16.64656212	46.80337756
 393	43.497	67.879	39.551	26.53799759	30.03618818	20.62726176
 394	39.877	45.261	0	14.95778046	11.45958987	6.634499397
 395	86.94	12.43	24.699	53.3172497	8.082026538	11.70084439
 396	28.363	55.339	90.398	16.4053076	31.48371532	59.9517491
 397	39.018	70.534	57.879	26.41737033	34.49939686	31.12183353
 398	12.833	28.519	78.828	6.393244873	14.23401689	37.99758745
 399	68.35	31.815	69.975	33.77563329	15.92279855	33.77563329
 400	56.52	26.226	41.626	21.83353438	8.082026538	12.66586248
 401	12.938	46.218	0	8.564535585	11.09770808	5.790108565
 402	8.6938	60.179	26.117	13.14837153	20.86851628	12.42460796
 403	51.995	89.429	96.608	48.13027744	71.41133896	89.38480097
 404	46.905	47.746	48.909	19.66224367	16.16405308	18.57659831
 405	14.352	81.814	19.479	26.53799759	42.34016888	20.86851628
 406	71.482	38.117	12.273	38.11821472	11.33896261	9.529553679
 407	86.616	60.785	10.012	65.74185766	26.41737033	18.09408926
 408	71.811	88.979	52.186	66.34499397	59.22798552	41.37515078
 409	43.213	100	72.083	54.52352232	80.82026538	62.00241255
