data/calibration-001184.ti3
CTI3   
ORIGINATOR	"ColorHug Factory"
DESCRIPTOR	"Calibration Target chart information 3"
DEVICE_CLASS	"DISPLAY"
COLOR_REP	"RGB_XYZ"
TARGET_INSTRUMENT	"Hughski ColorHug"
INSTRUMENT_TYPE_SPECTRAL	"NO"
NORMALIZED_TO_Y_100	"NO"
NUMBER_OF_FIELDS	7
NUMBER_OF_SETS	15
BEGIN_DATA_FORMAT
 SAMPLE_ID	RGB_R	RGB_G	RGB_B	XYZ_X	XYZ_Y	XYZ_Z
END_DATA_FORMAT
BEGIN_DATA
 1	0	0	0	0.2288818359	0.2746582031	0.2746582031
 2	1	1	1	27.37426758	35.38513184	39.73388672
 3	1	0	0	15.65551758	2.655029297	2.975463867
 4	0	1	0	10.48278809	25.63476562	11.48986816
 5	0	0	1	0.9155273438	7.369995117	25.49743652
 6	0	0	0	0.2288818359	0.2746582031	0.2746582031
 7	1	1	1	27.42004395	35.4309082	39.77966309
 8	1	0	0	15.70129395	2.655029297	2.9296875
 9	0	1	0	10.48278809	25.68054199	11.53564453
 10	0	0	1	0.9155273438	7.369995117	25.49743652
 11	0	0	0	0.2288818359	0.2746582031	0.2746582031
 12	1	1	1	27.42004395	35.38513184	39.68811035
 13	1	0	0	15.65551758	2.655029297	2.975463867
 14	0	1	0	10.43701172	25.54321289	11.4440918
 15	0	0	1	0.9155273438	7.369995117	25.49743652
END_DATA
