data/calibration-002097.ti3
CTI3   
ORIGINATOR	"ColorHug Factory"
CREATED	"Sun Sep 15 20:29:11 2013"
DESCRIPTOR	"Calibration Target chart information 3"
DEVICE_CLASS	"DISPLAY"
COLOR_REP	"RGB_XYZ"
TARGET_INSTRUMENT	"Hughski ColorHug"
INSTRUMENT_TYPE_SPECTRAL	"NO"
NORMALIZED_TO_Y_100	"NO"
NUMBER_OF_FIELDS	7
NUMBER_OF_SETS	15
BEGIN_DATA_FORMAT
 SAMPLE_ID	RGB_R	RGB_G	RGB_B	XYZ_X	XYZ_Y	XYZ_Z
END_DATA_FORMAT
BEGIN_DATA
 1	0	0	0	0.1373291015625	0.091552734375	0.1373291015625
 2	1	1	1	79.9713134765625	38.909912109375	58.502197265625
 3	1	0	0	52.093505859375	4.119873046875	7.598876953125
 4	0	1	0	25.634765625	25.726318359375	13.641357421875
 5	0	0	1	1.190185546875	9.063720703125	37.261962890625
 6	0	0	0	0.1373291015625	0.091552734375	0.1373291015625
 7	1	1	1	79.833984375	38.63525390625	58.3648681640625
 8	1	0	0	51.6357421875	4.119873046875	7.5531005859375
 9	0	1	0	25.634765625	25.726318359375	13.641357421875
 10	0	0	1	1.190185546875	9.063720703125	37.17041015625
 11	0	0	0	0.1373291015625	0.091552734375	0.1373291015625
 12	1	1	1	80.2001953125	38.8641357421875	58.4564208984375
 13	1	0	0	52.276611328125	4.119873046875	7.598876953125
 14	0	1	0	25.726318359375	25.81787109375	13.6871337890625
 15	0	0	1	1.190185546875	9.063720703125	37.2161865234375
END_DATA
