data/calibration-002762.ti3
CTI3   
ORIGINATOR	"ColorHug Factory"
CREATED	"Tue May 05 20:40:58 2015"
DESCRIPTOR	"Calibration Target chart information 3"
DEVICE_CLASS	"DISPLAY"
COLOR_REP	"RGB_XYZ"
TARGET_INSTRUMENT	"Hughski ColorHug"
INSTRUMENT_TYPE_SPECTRAL	"NO"
NORMALIZED_TO_Y_100	"NO"
NUMBER_OF_FIELDS	7
NUMBER_OF_SETS	15
BEGIN_DATA_FORMAT
 SAMPLE_ID	RGB_R	RGB_G	RGB_B	XYZ_X	XYZ_Y	XYZ_Z
END_DATA_FORMAT
BEGIN_DATA
 1.0	0.0	0.0	0.0	0.443649291992	0.421310424805	0.493759155273
 2.0	1.0	1.0	1.0	102.399993896484	88.086013793945	98.698791503906
 3.0	1.0	0.0	0.0	73.801788330078	6.532684326172	10.821655273438
 4.0	0.0	1.0	0.0	24.094116210938	63.015380859375	24.749237060547
 5.0	0.0	0.0	1.0	3.162933349609	17.731597900391	61.134323120117
 6.0	0.0	0.0	0.0	0.451370239258	0.426986694336	0.500885009766
 7.0	1.0	1.0	1.0	102.399993896484	88.086013793945	98.698791503906
 8.0	1.0	0.0	0.0	73.801788330078	6.553588867188	10.850326538086
 9.0	0.0	1.0	0.0	24.165191650391	63.015380859375	24.749237060547
 10.0	0.0	0.0	1.0	3.171493530273	17.770050048828	61.134323120117
 11.0	0.0	0.0	0.0	0.45751953125	0.432861328125	0.505737304688
 12.0	1.0	1.0	1.0	102.399993896484	88.086013793945	98.698791503906
 13.0	1.0	0.0	0.0	73.801788330078	6.558837890625	10.864715576172
 14.0	0.0	1.0	0.0	24.165191650391	63.015380859375	24.749237060547
 15.0	0.0	0.0	1.0	3.177642822266	17.770050048828	61.134323120117
END_DATA
