data/calibration-000936.ti3
CTI3   
ORIGINATOR	"ColorHug Factory"
DESCRIPTOR	"Calibration Target chart information 3"
DEVICE_CLASS	"DISPLAY"
COLOR_REP	"RGB_XYZ"
TARGET_INSTRUMENT	"Hughski ColorHug"
INSTRUMENT_TYPE_SPECTRAL	"NO"
NORMALIZED_TO_Y_100	"NO"
NUMBER_OF_FIELDS	7
NUMBER_OF_SETS	15
BEGIN_DATA_FORMAT
 SAMPLE_ID	RGB_R	RGB_G	RGB_B	XYZ_X	XYZ_Y	XYZ_Z
END_DATA_FORMAT
BEGIN_DATA
 1	0	0	0	0.09155273438	0.09155273438	0.1373291016
 2	1	1	1	55.75561523	37.26196289	42.61779785
 3	1	0	0	35.75134277	3.662109375	5.447387695
 4	0	1	0	18.81408691	26.45874023	12.26806641
 5	0	0	1	0.9155273438	7.141113281	24.94812012
 6	0	0	0	0.09155273438	0.09155273438	0.1373291016
 7	1	1	1	55.34362793	37.21618652	42.70935059
 8	1	0	0	35.5682373	3.662109375	5.447387695
 9	0	1	0	18.67675781	26.41296387	12.31384277
 10	0	0	1	0.9155273438	7.141113281	25.03967285
 11	0	0	0	0.09155273438	0.09155273438	0.1373291016
 12	1	1	1	55.9387207	36.98730469	42.52624512
 13	1	0	0	35.79711914	3.662109375	5.447387695
 14	0	1	0	18.67675781	26.73339844	12.31384277
 15	0	0	1	0.9155273438	7.141113281	24.94812012
END_DATA
