data/calibration-000275.ti3
CTI3
DESCRIPTOR	"Calibration Target chart information 3"
ORIGINATOR	"ColorHug Factory"
DEVICE_CLASS	"DISPLAY"
COLOR_REP	"RGB_XYZ"
TARGET_INSTRUMENT	"ColorHug"
INSTRUMENT_TYPE_SPECTRAL	"NO"
LUMINANCE_XYZ_CDM2	"53.707123 37.055969 43.704987"
NORMALIZED_TO_Y_100	"YES"
NUMBER_OF_FIELDS	7
NUMBER_OF_SETS	836
BEGIN_DATA_FORMAT
 SAMPLE_ID	RGB_R	RGB_G	RGB_B	XYZ_X	XYZ_Y	XYZ_Z
END_DATA_FORMAT
BEGIN_DATA
 1	100	100	100	138.4710234	99.75339088	117.5092478
 2	100	100	100	147.1023428	100	117.755857
 3	100	100	100	145.9926017	99.63008631	118.0024661
 4	100	100	100	147.1023428	99.87669544	117.6325524
 5	33.33	32.622	30.968	12.33045623	8.261405672	9.124537608
 6	100	0	100	93.95807645	27.99013564	83.60049322
 7	100	100	0	145.2527744	81.01109741	47.96547472
 8	0	100	100	50.67817509	90.13563502	103.2059186
 9	0	100	0	48.95191122	71.63995068	33.29223181
 10	0	0	100	2.466091245	18.74229346	69.79038224
 11	100	0	0	92.4784217	9.24784217	13.93341554
 12	0	0	0	0.1233045623	0.1233045623	0.1233045623
 13	0	52.455	100	13.19358816	35.26510481	77.68187423
 14	100	0	50.3	92.23181258	13.19358816	28.48335388
 15	100	54.739	100	107.5215783	46.23921085	92.23181258
 16	100	52.128	0	104.0690506	25.1541307	21.5782984
 17	0	0	46.181	0.4932182491	3.205918619	11.59062885
 18	0	51.141	0	10.72749692	15.53637485	7.274969174
 19	0	100	51.348	49.07521578	75.46239211	48.33538841
 20	100	100	52.037	144.7595561	85.08014797	63.62515413
 21	49.216	0	0	18.37237978	1.849568434	2.836004932
 22	56.159	100	0	74.22934649	73.98273736	37.36128237
 23	49.226	100	100	69.297164	92.10850801	105.918619
 24	44.487	0	100	16.64611591	20.34525277	72.50308261
 25	100	44.498	52.029	101.4796547	25.1541307	35.01849568
 26	48.926	48.544	100	29.96300863	34.77188656	79.53144266
 27	51.368	100	47.25	69.66707768	77.18865598	49.19852035
 28	49.893	0	49.033	19.48212084	5.672009864	16.64611591
 29	53.109	51.372	0	32.675709	17.75585697	10.72749692
 30	0	58.587	53.943	15.0431566	25.40073983	26.38717633
 31	100	28.065	100	97.53390875	32.92231813	86.55980271
 32	0	0	72.874	1.233045623	8.631319359	32.30579531
 33	0	26.758	100	4.685573366	22.93464858	71.76325524
 34	0	25.426	0	2.589395808	3.575832306	1.849568434
 35	72.508	0	100	45.00616523	23.18125771	76.94204686
 36	100	27.395	0	95.31442663	13.44019729	16.02959309
 37	74.47	100	100	97.78051788	95.19112207	110.6041924
 38	100	0	25.728	92.60172626	10.23427867	17.6325524
 39	73.862	0	0	45.12946979	4.562268804	6.905055487
 40	100	100	25.402	145.622688	82.12083847	51.2946979
 41	0	75.751	100	27.99013564	56.35018496	87.79284834
 42	0	75.172	0	25.40073983	36.25154131	17.01602959
 43	0	100	25.864	48.95191122	72.62638718	36.99136868
 44	100	0	74.801	92.84833539	18.6189889	48.82860666
 45	0	100	75.421	50.43156597	81.3810111	69.17385943
 46	24.577	0	0	4.315659679	0.4932182491	0.7398273736
 47	26.321	100	0	53.51418002	71.8865598	34.15536375
 48	100	75.835	0	119.3588163	46.48581998	31.6892725
 49	100	100	77.061	146.6091245	91.36868064	85.45006165
 50	71.263	100	0	91.61528977	75.95561036	39.82737361
 51	0	0	15.614	0.2466091245	0.3699136868	1.356350185
 52	0	30.049	70.936	4.315659679	13.19358816	32.79901356
 53	100	77.691	100	123.674476	67.94081381	102.9593095
 54	24.486	100	100	55.11713933	91.12207152	104.0690506
 55	100	62.784	31.909	110.3575832	35.26510481	31.19605425
 56	29.552	0	100	8.261405672	19.35881628	71.27003699
 57	32.98	70.921	100	32.05918619	51.2946979	85.9432799
 58	0	27.681	40.241	3.329223181	6.658446363	10.72749692
 59	67.901	71.021	100	61.40567201	54.62392109	90.99876695
 60	28.154	100	67.829	55.11713933	79.90135635	61.89889026
 61	71.637	100	70.001	93.09494451	84.34032059	70.28360049
 62	58.822	58.763	53.586	42.04685573	28.1134402	30.45622688
 63	33.466	30.48	0	11.59062885	5.918618989	3.699136868
 64	100	73.795	71.277	118.9889026	53.14426634	61.89889026
 65	68.394	29.692	0	41.30702836	8.754623921	8.13810111
 66	70.399	0	29.039	40.1972873	5.42540074	10.72749692
 67	28.078	0	26.956	5.795314427	1.602959309	4.808877928
 68	28.532	72.339	0	28.97657213	33.78545006	16.52281134
 69	100	30.941	26.496	96.05425401	15.65967941	20.34525277
 70	34.597	0	73.611	9.617755857	9.864364982	34.648582
 71	71.573	0	72.408	42.78668311	12.94697904	38.84093711
 72	0	71.029	29.412	22.5647349	33.41553637	19.72872996
 73	68.386	75.008	0	63.37854501	39.95067818	22.93464858
 74	68.088	27.309	100	42.54007398	27.00369914	78.17509248
 75	100	26.457	73.749	95.68434032	22.5647349	50.06165228
 76	74.344	100	27.392	96.54747226	77.92848335	44.63625154
 77	27.558	100	28.197	54.2540074	73.8594328	38.47102343
 78	31.196	27.465	100	11.83723798	23.92108508	72.74969174
 79	0	75.521	72.824	26.63378545	45.62268804	50.06165228
 80	0	50.93	25.553	10.72749692	16.27620222	10.72749692
 81	32.06	33.584	64.033	12.45376079	13.81011097	28.60665845
 82	81.666	55.38	0	70.03699137	24.29099877	17.38594328
 83	68.257	32.751	58.286	42.78668311	15.41307028	28.36004932
 84	0	55.248	81.585	13.81011097	29.96300863	51.2946979
 85	73.781	52.099	100	58.56966708	39.70406905	84.71023428
 86	100	50.537	82.952	103.3292232	36.37484587	66.21454994
 87	23.55	0	50.439	4.562268804	4.315659679	15.0431566
 88	31.335	62.746	31.114	24.29099877	26.63378545	17.75585697
 89	100	18.31	49.418	93.83477189	15.0431566	28.97657213
 90	26.498	48.404	0	14.54993835	14.30332922	7.274969174
 91	47.91	100	85.744	67.324291	86.18988903	84.46362515
 92	71.829	47.313	31.811	51.91122072	18.98890259	18.12577065
 93	31.304	64.132	69.316	25.52404439	34.15536375	42.29346486
 94	80.403	0	54.321	55.11713933	10.23427867	25.40073983
 95	18.455	50.036	100	14.67324291	33.90875462	77.55856967
 96	50.653	100	16.345	68.3107275	74.22934649	37.85450062
 97	80.121	100	52.261	105.0554871	81.25770654	57.58323058
 98	0	22.54	19.289	2.096177559	3.452527744	3.452527744
 99	100	75.273	46.886	118.7422935	49.07521578	44.01972873
 100	0	78.618	56.625	28.60665845	45.37607891	37.48458693
 101	51.137	80.627	100	51.41800247	63.99506782	93.09494451
 102	48.446	0	17.864	17.87916153	2.342786683	4.562268804
 103	100	50.023	21.211	102.8360049	24.78421702	23.42786683
 104	50.115	20.118	0	20.5918619	4.315659679	4.069050555
 105	58.099	72.426	33.158	49.81504316	37.60789149	25.64734895
 106	19.364	100	50.197	51.78791615	75.09247842	48.33538841
 107	50.683	19.177	100	23.05795314	22.81134402	74.47595561
 108	53.37	0	81.576	23.30456227	13.81011097	46.36251541
 109	47.768	76.245	0	42.78668311	39.2108508	20.22194821
 110	0	18.927	55.503	1.972872996	6.905055487	18.74229346
 111	0	13.277	0	0.8631319359	1.10974106	0.6165228113
 112	72.862	72.473	75.625	67.57090012	47.47225647	58.44636252
 113	100	13.904	0	92.97163995	10.35758323	14.54993835
 114	86.349	0	100	66.95437731	25.40073983	79.77805179
 115	100	41.941	100	101.6029593	38.47102343	88.9025894
 116	100	81.785	16.464	125.1541307	54.2540074	36.62145499
 117	0	44.063	52.596	8.384710234	15.65967941	21.33168927
 118	0	0	58.917	0.7398273736	5.42540074	20.09864365
 119	59.25	24.551	29.789	30.33292232	7.521578298	10.48088779
 120	82.73	82.874	100	92.97163995	70.9001233	100.6165228
 121	80.039	0	12.618	54.37731196	5.795314427	9.24784217
 122	60.957	47.729	77.817	39.70406905	26.75709001	49.56843403
 123	100	0	38.618	92.10850801	11.46732429	22.31812577
 124	0	40.09	100	8.384710234	28.36004932	74.72256473
 125	0	15.283	82.322	2.096177559	13.0702836	44.01972873
 126	17.592	81.726	100	34.89519112	63.50184957	91.4919852
 127	100	14.13	100	94.57459926	29.34648582	85.08014797
 128	15.261	100	82.059	52.03452528	83.47718866	77.55856967
 129	47.77	79.418	60.389	46.36251541	49.19852035	43.40320592
 130	18.768	16.429	0	3.699136868	1.849568434	1.233045623
 131	55.634	100	65.763	73.73612824	81.01109741	63.25524044
 132	100	100	38.541	144.512947	83.47718866	56.59679408
 133	17.421	0	83.497	3.452527744	12.20715166	45.12946979
 134	17.237	16.758	100	5.178791615	20.71516646	70.77681874
 135	0	15.067	30.039	1.10974106	2.71270037	5.42540074
 136	0	0	86.505	1.726263872	13.0702836	48.45869297
 137	75.736	72.799	50.02	72.25647349	42.66337855	37.73119605
 138	100	83.323	85.529	128.1134402	68.68064118	84.46362515
 139	100	100	64.894	145.7459926	88.03945746	72.99630086
 140	81.98	84.914	0	92.10850801	54.2540074	31.44266338
 141	0	63.757	15.49	17.38594328	25.40073983	13.0702836
 142	49.514	66.135	100	39.45745993	48.21208385	85.9432799
 143	100	0	61.862	91.86189889	15.28976572	36.62145499
 144	24.308	45.41	49.831	12.82367448	16.27620222	20.46855734
 145	15.963	0	17.047	1.972872996	0.7398273736	1.972872996
 146	87.497	100	100	118.3723798	97.04069051	113.810111
 147	52.099	25.003	75.752	24.04438964	15.16646116	40.69050555
 148	14.909	81.162	0	31.56596794	43.15659679	20.34525277
 149	0	34.792	14.626	4.808877928	7.151664612	4.562268804
 150	48.39	45.075	22.552	26.01726264	14.30332922	10.97410604
 151	83.545	65.965	100	81.50431566	52.40443896	91.73859433
 152	16.226	62.345	0	18.49568434	23.79778052	11.46732429
 153	63.222	0	14.914	31.81257707	3.699136868	6.165228113
 154	80.449	13.446	0	55.61035758	6.658446363	8.877928483
 155	83.917	41.562	0	66.95437731	15.90628853	13.81011097
 156	100	60.448	46.3	108.6313194	35.14180025	37.23797781
 157	15.584	0	34.795	2.096177559	1.972872996	6.781750925
 158	17.144	65.121	100	22.68803946	45.7459926	83.10727497
 159	83.602	55.334	62.667	74.22934649	31.07274969	41.30702836
 160	0	82.19	14.22	31.07274969	44.88286067	22.19482121
 161	25.132	74.856	50.616	30.08631319	40.32059186	32.30579531
 162	0	13.769	100	2.71270037	19.97533909	70.53020962
 163	87.181	0	0	66.09124538	6.658446363	10.11097411
 164	0	100	39.19	49.19852035	73.98273736	41.92355117
 165	78.047	65.914	19.865	70.9001233	33.04562269	22.81134402
 166	100	63.961	15.865	110.8508015	35.01849568	27.62022195
 167	100	45.955	36.032	101.3563502	23.67447596	27.00369914
 168	15.926	100	16.89	50.43156597	72.50308261	35.26510481
 169	41.459	100	0	61.89889026	72.8729963	35.26510481
 170	48.707	37.288	48.139	24.1676942	13.56350185	19.72872996
 171	83.381	100	13.285	110.6041924	78.4217016	43.89642417
 172	78.129	25.303	75.621	54.99383477	18.49568434	45.37607891
 173	12.396	0	0	1.233045623	0.2466091245	0.3699136868
 174	37.607	48.336	83.346	21.20838471	27.25030826	53.02096178
 175	35.588	15.356	0	9.987669544	2.342786683	2.219482121
 176	61.245	100	100	80.3945746	93.21824908	108.1381011
 177	100	67.29	87.195	114.5499383	50.92478422	77.4352651
 178	0	0	30.615	0.3699136868	1.356350185	4.932182491
 179	35.187	81.789	83.323	40.69050555	57.33662145	66.95437731
 180	39.525	80.194	22.879	40.56720099	44.01972873	24.29099877
 181	50.634	34.593	0	24.41430333	8.754623921	6.288532676
 182	14.175	100	63.146	50.67817509	78.17509248	57.58323058
 183	83.493	17.728	34.574	60.66584464	9.617755857	16.39950678
 184	23.463	22.014	79.943	7.028360049	14.0567201	42.41676942
 185	18.066	31.847	0	6.411837238	5.918618989	3.205918619
 186	87.201	100	81.361	118.2490752	90.01233046	86.55980271
 187	0	100	87.95	49.69173859	85.08014797	84.9568434
 188	34.476	17.888	46.22	9.987669544	5.918618989	14.0567201
 189	18.277	0	67.39	3.205918619	7.521578298	27.37361282
 190	100	87.972	0	130.9494451	61.40567201	39.08754624
 191	82.925	34.85	100	65.351418	31.81257707	82.24414303
 192	0	88.016	100	38.2244143	71.51664612	94.94451295
 193	36.104	85.655	100	45.37607891	69.17385943	94.57459926
 194	60.981	0	0	28.97657213	3.082614057	4.562268804
 195	51.466	61.826	78.106	37.60789149	36.00493218	52.89765721
 196	78.427	31.983	22.175	54.74722565	11.71393342	13.19358816
 197	66.017	44.321	0	42.90998767	15.0431566	10.72749692
 198	83.941	0	84.177	61.65228113	18.6189889	55.36374846
 199	20.158	46.612	23.269	11.83723798	13.81011097	9.371146732
 200	0	100	62.618	49.32182491	77.80517879	56.84340321
 201	33.832	0	13.933	8.261405672	1.233045623	2.466091245
 202	100	17.286	16.322	92.97163995	11.34401973	16.27620222
 203	0	42.204	83.926	8.508014797	22.81134402	50.80147965
 204	0	87.774	0	35.88162762	52.03452528	24.29099877
 205	64.988	0	59.017	33.90875462	9.001233046	25.52404439
 206	14.677	0	100	3.575832306	18.98890259	70.65351418
 207	88.934	82.673	35.021	101.6029593	54.13070284	38.84093711
 208	0	63.778	100	19.35881628	44.26633785	82.24414303
 209	83.429	17.674	100	61.89889026	26.75709001	80.02466091
 210	30.899	100	85.668	56.84340321	84.83353884	82.86066584
 211	83.68	0	41.016	59.55610358	8.631319359	18.49568434
 212	100	63.515	0	110.6041924	33.90875462	25.89395808
 213	85.074	69.987	0	84.46362515	37.23797781	24.04438964
 214	20.801	45.524	69.018	12.45376079	20.46855734	35.14180025
 215	21.382	82.482	73.017	35.51171393	54.37731196	55.11713933
 216	100	15.128	64.249	93.34155364	17.26263872	39.33415536
 217	36.522	0	58.427	10.23427867	6.288532676	21.20838471
 218	22.466	81.296	33.007	33.90875462	45.7459926	27.00369914
 219	62.531	87.152	0	66.58446363	54.50061652	28.60665845
 220	84.12	85.397	67.886	96.42416769	62.51541307	60.91245376
 221	18.87	27.336	45.389	5.918618989	7.521578298	13.81011097
 222	66.439	100	14.444	84.9568434	75.33908755	39.82737361
 223	41.636	22.147	19.003	14.79654747	4.685573366	5.302096178
 224	61.271	100	81.94	80.02466091	86.06658446	81.25770654
 225	86.013	100	0	115.2897657	78.29839704	43.40320592
 226	37.57	0	0	9.987669544	1.10974106	1.602959309
 227	100	16.132	84.102	93.34155364	23.18125771	60.7891492
 228	0	100	13.619	48.21208385	71.51664612	34.27866831
 229	38.905	100	56.471	60.29593095	77.80517879	53.51418002
 230	100	15.382	34.563	92.35511714	12.45376079	21.20838471
 231	36.656	14.908	100	12.57706535	21.20838471	72.00986436
 232	0	62.593	66.608	17.38594328	31.31935882	38.10110974
 233	66.347	12.528	100	37.60789149	23.42786683	75.8323058
 234	100	43.375	69.233	100.2466091	28.23674476	48.45869297
 235	100	56.36	61.236	105.918619	34.27866831	45.37607891
 236	0	86.194	44.955	34.52527744	52.77435265	34.52527744
 237	64.527	87.262	100	70.40690506	73.8594328	98.27373613
 238	34.411	0	42.471	8.631319359	3.575832306	11.34401973
 239	80.23	59.707	85.12	70.77681874	40.1972873	66.58446363
 240	20.625	19.056	14.791	4.562268804	2.836004932	2.836004932
 241	15.341	34.221	100	8.261405672	25.77065351	72.99630086
 242	36.777	0	87.905	11.0974106	14.79654747	52.89765721
 243	34.598	56.247	100	23.92108508	38.96424168	80.51787916
 244	20.86	67.629	17.418	23.05795314	29.46979038	15.65967941
 245	44.958	60.843	18.054	30.94944513	24.78421702	14.79654747
 246	37.421	60.193	0	25.64734895	23.05795314	11.96054254
 247	84.011	33.849	42.612	65.10480888	15.53637485	22.5647349
 248	17.241	60.339	37.743	17.75585697	24.53760789	18.6189889
 249	50.65	17.261	53.278	21.33168927	8.261405672	20.22194821
 250	45.505	48.926	65.152	26.26387176	22.68803946	34.89519112
 251	44.567	84.081	39.649	47.47225647	50.92478422	33.29223181
 252	100	86.339	72.054	129.0998767	68.06411837	70.40690506
 253	68.14	61.135	0	53.02096178	26.51048089	16.39950678
 254	17.93	66.986	81.403	23.05795314	39.82737361	56.35018496
 255	39.242	60.215	48.926	27.49691739	27.00369914	25.77065351
 256	20.099	18.77	62.967	5.055487053	8.631319359	25.03082614
 257	34.553	100	14.582	57.33662145	72.74969174	35.88162762
 258	87.345	0	66.694	66.58446363	14.0567201	37.36128237
 259	0	43.714	39.842	8.014796547	13.56350185	14.0567201
 260	100	37.705	13.955	97.65721332	17.75585697	19.11220715
 261	31.265	86.993	0	41.92355117	51.17139334	24.90752158
 262	51.402	82.661	81.338	52.40443896	58.93958076	66.95437731
 263	100	100	12.984	142.9099877	81.01109741	48.7053021
 264	0	37.859	0	5.672009864	8.13810111	3.945745993
 265	62.092	58.215	100	46.85573366	42.90998767	84.71023428
 266	86.186	100	64.1	115.4130703	85.08014797	68.3107275
 267	100	35.251	85.898	98.15043157	29.59309494	66.21454994
 268	63.182	89.992	41.974	69.91368681	60.91245376	40.56720099
 269	13.504	100	0	49.69173859	71.39334155	33.41553637
 270	100	0	13.228	91.61528977	9.494451295	14.91985203
 271	63.881	40.826	100	40.69050555	31.93588163	80.02466091
 272	69.387	84.838	20.792	72.25647349	52.40443896	30.82614057
 273	0	70.279	45.136	22.07151665	34.27866831	26.26387176
 274	79.094	64.754	40.908	71.02342787	34.03205919	29.59309494
 275	62.385	54.099	17.396	42.90998767	20.96177559	14.54993835
 276	64.408	14.621	0	33.53884094	4.685573366	5.672009864
 277	70.028	15.606	44.651	40.69050555	8.508014797	17.75585697
 278	0	63.544	0	17.26263872	24.90752158	11.71393342
 279	83.475	47.274	20.502	68.18742293	19.72872996	17.50924784
 280	55.866	0	32.671	24.1676942	4.069050555	9.494451295
 281	58.007	0	100	27.86683107	21.45499383	74.35265105
 282	100	0	87.698	91.98520345	22.81134402	64.98150432
 283	0	13.792	67.215	1.602959309	8.508014797	27.62022195
 284	84.123	17.001	58.549	62.02219482	13.19358816	30.08631319
 285	59.579	32.873	15.966	31.6892725	9.24784217	8.508014797
 286	10.41	32.998	28.659	5.42540074	7.521578298	7.521578298
 287	17.231	40.031	85.65	9.864364982	22.5647349	52.89765721
 288	37.568	41.561	10.108	17.01602959	11.0974106	6.905055487
 289	0	69.015	85.092	22.07151665	42.29346486	61.52897657
 290	14.442	100	36.187	50.18495684	73.8594328	40.93711467
 291	100	40.549	0	98.27373613	18.74229346	18.49568434
 292	82.143	45.435	78.429	66.70776819	28.48335388	53.63748459
 293	52.674	0	67.3	22.07151665	9.617755857	30.82614057
 294	0	87.868	66.793	36.86806412	60.17262639	51.41800247
 295	86.53	100	40.524	115.782984	80.76448829	52.65104809
 296	71.777	85.586	67.232	77.80517879	61.40567201	57.45992602
 297	43.216	100	31.671	62.63871763	74.47595561	40.93711467
 298	39.245	32.908	85.845	17.01602959	20.34525277	52.89765721
 299	0	45.662	67.543	9.24784217	19.85203453	33.6621455
 300	12.161	100	100	51.41800247	90.38224414	104.1923551
 301	67.049	0	85.516	36.99136868	16.64611591	53.76078915
 302	100	89.041	100	134.2786683	82.73736128	110.3575832
 303	20.246	60.698	56.526	19.11220715	27.86683107	29.71639951
 304	52.177	55.457	40.416	33.90875462	23.18125771	21.20838471
 305	72.617	87.018	83.932	80.27127004	68.18742293	77.18865598
 306	40.512	16.723	66.475	13.93341554	10.11097411	29.34648582
 307	68.507	49.232	50.605	47.96547472	22.31812577	27.37361282
 308	65.622	100	54.525	84.58692972	80.02466091	56.35018496
 309	54.115	37.24	66.394	28.60665845	17.38594328	34.03205919
 310	100	76.138	31.267	119.9753391	48.58199753	37.23797781
 311	54.728	65.623	0	41.67694205	28.97657213	16.02959309
 312	63.126	12.526	64.37	32.675709	10.85080148	30.33292232
 313	72.827	18.08	23.704	44.26633785	7.151664612	10.60419236
 314	23.268	15.278	34.947	5.055487053	3.575832306	7.891491985
 315	87.648	68.954	59.645	88.16276202	42.29346486	45.37607891
 316	0	85.595	85.198	35.26510481	62.02219482	70.9001233
 317	35.798	84.371	69.21	42.78668311	56.72009864	53.02096178
 318	36.062	47.494	35.919	18.86559803	16.27620222	14.79654747
 319	86.083	36.277	59.152	69.66707768	19.6054254	33.78545006
 320	58.21	100	30.361	75.09247842	75.46239211	42.54007398
 321	46.745	14.614	32.317	17.38594328	4.562268804	8.754623921
 322	81.573	73.869	86.954	82.61405672	54.00739827	74.47595561
 323	85.991	49.387	48.206	73.61282367	24.41430333	29.46979038
 324	28.062	87.906	19.654	41.67694205	53.02096178	27.49691739
 325	68.992	17.993	85.124	40.56720099	18.6189889	54.62392109
 326	100	66.147	100	113.3168927	55.11713933	97.16399507
 327	33.358	64.806	84.517	27.49691739	39.58076449	60.41923551
 328	41.351	17.736	80.522	14.91985203	14.30332922	44.51294698
 329	100	100	88.719	145.0061652	94.69790382	100.2466091
 330	66.336	0	44.32	35.26510481	6.658446363	16.52281134
 331	64.85	67.09	12.293	52.89765721	31.81257707	19.35881628
 332	15.262	31.268	63.277	6.165228113	12.0838471	26.63378545
 333	15.008	43.663	37.3	9.494451295	13.44019729	13.19358816
 334	0	57.895	38.078	14.18002466	22.44143033	17.50924784
 335	66.599	58.458	67.871	50.67817509	32.05918619	43.52651048
 336	59.191	18.651	15.215	28.48335388	5.178791615	6.5351418
 337	66.781	31.14	84.629	40.69050555	21.70160296	54.62392109
 338	88.033	85.158	52.14	102.7127004	59.92601726	49.19852035
 339	36.882	100	100	60.29593095	90.50554871	104.6855734
 340	26.102	33.094	17.006	9.124537608	7.151664612	5.302096178
 341	56.309	36.861	35.862	29.83970407	12.0838471	14.42663379
 342	45.839	65.587	67.033	35.01849568	35.75832306	42.1701603
 343	83.709	81.172	16.406	90.75215783	49.56843403	30.94944513
 344	0	48.132	13.005	9.494451295	13.93341554	7.521578298
 345	87.176	50.021	100	77.80517879	40.56720099	87.29963009
 346	51.219	84.244	13.73	52.2811344	49.69173859	26.26387176
 347	60.606	71.415	48.406	51.91122072	39.08754624	33.16892725
 348	0	11.359	12.718	0.7398273736	1.10974106	1.479654747
 349	86.429	49.705	33.145	74.8458693	22.81134402	22.68803946
 350	34.056	40.958	100	17.01602959	29.59309494	76.20221948
 351	100	30.557	59.628	95.4377312	20.34525277	37.85450062
 352	88.497	26.902	13.449	70.65351418	11.34401973	13.44019729
 353	14.167	51.98	88.218	14.0567201	30.08631319	59.55610358
 354	13.784	12.983	49.37	2.71270037	4.932182491	14.42663379
 355	15.018	88.441	48.062	38.47102343	56.72009864	38.2244143
 356	87.79	25.769	89.215	70.16029593	24.78421702	64.98150432
 357	0	33.206	55.865	4.808877928	11.0974106	20.96177559
 358	74.324	76.029	35.536	71.76325524	43.64981504	31.44266338
 359	65.863	57.223	42.324	48.33538841	25.89395808	24.53760789
 360	30.893	54.646	13.136	19.23551171	18.98890259	10.48088779
 361	0	34.36	28.321	4.808877928	7.768187423	7.398273736
 362	15.443	77.087	85.116	29.71639951	51.2946979	65.96794081
 363	63.381	68.947	68.521	52.89765721	40.93711467	47.59556104
 364	69.733	27.566	42.917	42.29346486	11.0974106	18.37237978
 365	32.754	100	42.76	56.35018496	74.72256473	44.7595561
 366	47.096	29.481	34.829	20.34525277	8.384710234	11.46732429
 367	8.5451	71.948	62.695	24.04438964	39.2108508	38.96424168
 368	0	86.048	29.3	34.27866831	50.67817509	27.74352651
 369	53.697	51.572	85.367	34.15536375	30.94944513	58.8162762
 370	17.608	56.69	12.515	15.53637485	19.6054254	10.35758323
 371	90.638	14.414	49.227	73.24290999	12.33045623	25.40073983
 372	63.248	63.64	89.55	50.18495684	42.41676942	70.03699137
 373	100	85.976	58.455	128.6066584	64.48828607	58.19975339
 374	9.8311	28.027	7.5567	3.945745993	4.685573366	2.71270037
 375	89.831	64.313	69.506	89.76572133	40.69050555	52.40443896
 376	31.754	12.995	25.543	7.891491985	2.836004932	5.178791615
 377	75.914	45.966	64.957	56.59679408	24.1676942	38.47102343
 378	7.5735	50.695	58.941	11.59062885	20.83847102	27.62022195
 379	100	69.835	58.912	114.919852	45.86929716	49.19852035
 380	32.211	34.376	48.339	12.45376079	10.97410604	17.75585697
 381	13.901	12.159	73.555	3.082614057	10.11097411	34.15536375
 382	87.071	9.028	77.653	66.70776819	17.6325524	49.07521578
 383	23.272	85.409	84.29	38.84093711	61.40567201	69.91368681
 384	93.289	39.48	26.145	83.23057953	17.75585697	19.6054254
 385	65.769	59.63	30.967	49.56843403	26.75709001	20.5918619
 386	100	32.265	41.803	95.80764488	17.87916153	26.63378545
 387	86.568	85.281	86.961	100.7398274	69.05055487	83.10727497
 388	52.577	86.83	30.016	56.59679408	54.2540074	31.93588163
 389	47.921	40.199	76.902	25.03082614	21.45499383	45.12946979
 390	22.36	86.619	61.58	39.08754624	56.84340321	46.97903822
 391	52.232	33.601	88.787	26.88039457	22.68803946	59.06288533
 392	0	28.523	86.267	4.438964242	17.6325524	50.67817509
 393	43.497	67.879	39.551	34.40197287	32.92231813	24.41430333
 394	39.877	45.261	0	19.97533909	13.19358816	7.398273736
 395	86.94	12.43	24.699	65.72133169	8.508014797	13.68680641
 396	28.363	55.339	90.398	20.22194821	34.03205919	64.3649815
 397	39.018	70.534	57.879	33.53884094	37.85450062	36.25154131
 398	12.833	28.519	78.828	5.548705302	15.41307028	42.1701603
 399	68.35	31.815	69.975	42.29346486	17.75585697	38.84093711
 400	56.52	26.226	41.626	27.86683107	9.001233046	15.41307028
 401	12.938	46.218	0	9.741060419	12.57706535	6.041923551
 402	8.6938	60.179	26.117	16.02959309	22.93464858	14.0567201
 403	51.995	89.429	96.608	60.04932182	74.10604192	93.34155364
 404	46.905	47.746	48.909	26.1405672	18.74229346	22.44143033
 405	14.352	81.814	19.479	32.18249075	44.88286067	22.93464858
 406	71.482	38.117	12.273	47.34895191	12.82367448	11.22071517
 407	86.616	60.785	10.012	80.3945746	29.46979038	21.20838471
 408	71.811	88.979	52.186	79.90135635	62.26880395	47.47225647
 409	43.213	100	72.083	63.13193588	81.50431566	67.81750925
