data/calibration-000766.ti3
CTI3   
ORIGINATOR	"ColorHug Factory"
DESCRIPTOR	"Calibration Target chart information 3"
DEVICE_CLASS	"DISPLAY"
COLOR_REP	"RGB_XYZ"
TARGET_INSTRUMENT	"Hughski ColorHug"
INSTRUMENT_TYPE_SPECTRAL	"NO"
NORMALIZED_TO_Y_100	"NO"
NUMBER_OF_FIELDS	7
NUMBER_OF_SETS	15
BEGIN_DATA_FORMAT
 SAMPLE_ID	RGB_R	RGB_G	RGB_B	XYZ_X	XYZ_Y	XYZ_Z
END_DATA_FORMAT
BEGIN_DATA
 1	0	0	0	0.04577636719	0.04577636719	0.04577636719
 2	1	1	1	55.02319336	39.59655762	46.09680176
 3	1	0	0	34.8815918	3.570556641	5.172729492
 4	0	1	0	18.44787598	28.24401855	12.81738281
 5	0	0	1	0.8697509766	7.736206055	27.74047852
 6	0	0	0	0.04577636719	0.04577636719	0.04577636719
 7	1	1	1	55.2520752	39.77966309	45.50170898
 8	1	0	0	34.51538086	3.524780273	5.126953125
 9	0	1	0	18.40209961	28.28979492	12.81738281
 10	0	0	1	0.8697509766	7.736206055	27.83203125
 11	0	0	0	0.04577636719	0.04577636719	0.04577636719
 12	1	1	1	55.43518066	39.82543945	46.09680176
 13	1	0	0	34.37805176	3.524780273	5.126953125
 14	0	1	0	18.35632324	28.38134766	12.81738281
 15	0	0	1	0.8697509766	7.736206055	27.55737305
END_DATA
