data/calibration-001835.ti3
CTI3   
ORIGINATOR	"ColorHug Factory"
CREATED	"Wed Apr 10 08:54:27 2013"
DESCRIPTOR	"Calibration Target chart information 3"
DEVICE_CLASS	"DISPLAY"
COLOR_REP	"RGB_XYZ"
TARGET_INSTRUMENT	"Hughski ColorHug"
INSTRUMENT_TYPE_SPECTRAL	"NO"
NORMALIZED_TO_Y_100	"NO"
NUMBER_OF_FIELDS	7
NUMBER_OF_SETS	15
BEGIN_DATA_FORMAT
 SAMPLE_ID	RGB_R	RGB_G	RGB_B	XYZ_X	XYZ_Y	XYZ_Z
END_DATA_FORMAT
BEGIN_DATA
 1	0	0	0	0.1831054688	0.1373291016	0.2288818359
 2	1	1	1	80.88684082	40.7409668	58.3190918
 3	1	0	0	52.4597168	4.211425781	7.64465332
 4	0	1	0	25.68054199	27.46582031	14.19067383
 5	0	0	1	1.235961914	9.063720703	36.34643555
 6	0	0	0	0.1831054688	0.1373291016	0.2288818359
 7	1	1	1	80.65795898	40.46630859	58.22753906
 8	1	0	0	52.09350586	4.211425781	7.64465332
 9	0	1	0	25.68054199	27.37426758	14.2364502
 10	0	0	1	1.235961914	9.063720703	36.39221191
 11	0	0	0	0.1831054688	0.1373291016	0.2288818359
 12	1	1	1	80.79528809	40.69519043	58.22753906
 13	1	0	0	52.09350586	4.211425781	7.64465332
 14	0	1	0	25.68054199	27.74047852	14.19067383
 15	0	0	1	1.235961914	9.10949707	36.43798828
END_DATA
