data/calibration-001862.ti3
CTI3   
ORIGINATOR	"ColorHug Factory"
CREATED	"Wed Apr 10 09:44:47 2013"
DESCRIPTOR	"Calibration Target chart information 3"
DEVICE_CLASS	"DISPLAY"
COLOR_REP	"RGB_XYZ"
TARGET_INSTRUMENT	"Hughski ColorHug"
INSTRUMENT_TYPE_SPECTRAL	"NO"
NORMALIZED_TO_Y_100	"NO"
NUMBER_OF_FIELDS	7
NUMBER_OF_SETS	15
BEGIN_DATA_FORMAT
 SAMPLE_ID	RGB_R	RGB_G	RGB_B	XYZ_X	XYZ_Y	XYZ_Z
END_DATA_FORMAT
BEGIN_DATA
 1	0	0	0	0	0.04577636719	0.09155273438
 2	1	1	1	42.11425781	39.59655762	50.53710938
 3	1	0	0	25.40588379	3.021240234	4.07409668
 4	0	1	0	14.73999023	27.32849121	12.72583008
 5	0	0	1	0.9155273438	8.972167969	33.73718262
 6	0	0	0	0	0.04577636719	0.09155273438
 7	1	1	1	42.11425781	39.59655762	50.58288574
 8	1	0	0	25.36010742	3.021240234	4.07409668
 9	0	1	0	14.69421387	27.46582031	12.72583008
 10	0	0	1	0.9155273438	9.017944336	33.50830078
 11	0	0	0	0	0.04577636719	0.09155273438
 12	1	1	1	42.06848145	39.55078125	50.58288574
 13	1	0	0	25.36010742	3.021240234	4.119873047
 14	0	1	0	14.7857666	27.37426758	12.77160645
 15	0	0	1	0.9155273438	9.017944336	33.73718262
END_DATA
