data/calibration-000911.ti3
CTI3   
ORIGINATOR	"ColorHug Factory"
DESCRIPTOR	"Calibration Target chart information 3"
DEVICE_CLASS	"DISPLAY"
COLOR_REP	"RGB_XYZ"
TARGET_INSTRUMENT	"Hughski ColorHug"
INSTRUMENT_TYPE_SPECTRAL	"NO"
NORMALIZED_TO_Y_100	"NO"
NUMBER_OF_FIELDS	7
NUMBER_OF_SETS	15
BEGIN_DATA_FORMAT
 SAMPLE_ID	RGB_R	RGB_G	RGB_B	XYZ_X	XYZ_Y	XYZ_Z
END_DATA_FORMAT
BEGIN_DATA
 1	0	0	0	0	0.04577636719	0.04577636719
 2	1	1	1	62.34741211	39.09301758	46.6003418
 3	1	0	0	39.96276855	3.845214844	5.859375
 4	0	1	0	20.55358887	27.55737305	13.09204102
 5	0	0	1	0.8697509766	7.598876953	27.32849121
 6	0	0	0	0	0.04577636719	0.04577636719
 7	1	1	1	61.70654297	39.00146484	46.6003418
 8	1	0	0	39.55078125	3.799438477	5.859375
 9	0	1	0	20.55358887	27.46582031	12.95471191
 10	0	0	1	0.8697509766	7.598876953	27.64892578
 11	0	0	0	0	0.04577636719	0.04577636719
 12	1	1	1	61.9354248	39.09301758	46.50878906
 13	1	0	0	39.91699219	3.845214844	5.859375
 14	0	1	0	20.69091797	27.51159668	12.95471191
 15	0	0	1	0.9155273438	7.598876953	27.60314941
END_DATA
