data/calibration-001007.ti3
CTI3   
ORIGINATOR	"ColorHug Factory"
DESCRIPTOR	"Calibration Target chart information 3"
DEVICE_CLASS	"DISPLAY"
COLOR_REP	"RGB_XYZ"
TARGET_INSTRUMENT	"Hughski ColorHug"
INSTRUMENT_TYPE_SPECTRAL	"NO"
NORMALIZED_TO_Y_100	"NO"
NUMBER_OF_FIELDS	7
NUMBER_OF_SETS	15
BEGIN_DATA_FORMAT
 SAMPLE_ID	RGB_R	RGB_G	RGB_B	XYZ_X	XYZ_Y	XYZ_Z
END_DATA_FORMAT
BEGIN_DATA
 1	0	0	0	0.09155273438	0.09155273438	0.09155273438
 2	1	1	1	57.54089355	37.07885742	43.02978516
 3	1	0	0	36.48376465	3.707885742	5.447387695
 4	0	1	0	19.22607422	26.3671875	12.1307373
 5	0	0	1	0.9613037109	7.232666016	25.49743652
 6	0	0	0	0.09155273438	0.09155273438	0.09155273438
 7	1	1	1	57.67822266	37.17041016	43.07556152
 8	1	0	0	36.57531738	3.707885742	5.447387695
 9	0	1	0	19.08874512	26.27563477	12.17651367
 10	0	0	1	0.9613037109	7.232666016	25.40588379
 11	0	0	0	0.09155273438	0.09155273438	0.09155273438
 12	1	1	1	57.81555176	37.21618652	43.02978516
 13	1	0	0	36.48376465	3.707885742	5.447387695
 14	0	1	0	19.18029785	26.2298584	12.22229004
 15	0	0	1	0.9613037109	7.232666016	25.45166016
END_DATA
