data/calibration-002037.ti3
CTI3   
ORIGINATOR	"ColorHug Factory"
CREATED	"Sun May 26 11:29:27 2013"
DESCRIPTOR	"Calibration Target chart information 3"
DEVICE_CLASS	"DISPLAY"
COLOR_REP	"RGB_XYZ"
TARGET_INSTRUMENT	"Hughski ColorHug"
INSTRUMENT_TYPE_SPECTRAL	"NO"
NORMALIZED_TO_Y_100	"NO"
NUMBER_OF_FIELDS	7
NUMBER_OF_SETS	15
BEGIN_DATA_FORMAT
 SAMPLE_ID	RGB_R	RGB_G	RGB_B	XYZ_X	XYZ_Y	XYZ_Z
END_DATA_FORMAT
BEGIN_DATA
 1	0	0	0	0.18310546875	0.2288818359375	0.274658203125
 2	1	1	1	37.353515625	36.712646484375	50.35400390625
 3	1	0	0	22.430419921875	2.7923583984375	3.7994384765625
 4	0	1	0	13.1378173828125	25.360107421875	12.1307373046875
 5	0	0	1	1.0528564453125	8.8348388671875	35.15625
 6	0	0	0	0.18310546875	0.2288818359375	0.274658203125
 7	1	1	1	37.2161865234375	36.712646484375	50.9490966796875
 8	1	0	0	22.430419921875	2.838134765625	3.7994384765625
 9	0	1	0	13.2293701171875	25.4974365234375	12.176513671875
 10	0	0	1	1.0528564453125	8.8348388671875	35.2935791015625
 11	0	0	0	0.18310546875	0.2288818359375	0.274658203125
 12	1	1	1	37.3077392578125	36.712646484375	50.7659912109375
 13	1	0	0	22.3846435546875	2.7923583984375	3.7994384765625
 14	0	1	0	13.18359375	25.3143310546875	12.1307373046875
 15	0	0	1	1.0528564453125	8.880615234375	35.2020263671875
END_DATA
