data/calibration-000734.ti3
CTI3
ORIGINATOR	"ColorHug Factory"
DESCRIPTOR	"Calibration Target chart information 3"
DEVICE_CLASS	"DISPLAY"
COLOR_REP	"RGB_XYZ"
TARGET_INSTRUMENT	"Hughski ColorHug"
INSTRUMENT_TYPE_SPECTRAL	"NO"
NORMALIZED_TO_Y_100	"NO"
NUMBER_OF_FIELDS	7
NUMBER_OF_SETS	15
BEGIN_DATA_FORMAT
 SAMPLE_ID	RGB_R	RGB_G	RGB_B	XYZ_X	XYZ_Y	XYZ_Z
END_DATA_FORMAT
BEGIN_DATA
 1	0	0	0	0.04577636719	0	0.04577636719
 2	1	1	1	57.58666992	38.4979248	44.26574707
 3	1	0	0	36.30065918	3.524780273	5.310058594
 4	0	1	0	18.99719238	27.32849121	12.54272461
 5	0	0	1	0.8239746094	7.186889648	26.0925293
 6	0	0	0	0.04577636719	0	0.04577636719
 7	1	1	1	57.86132812	38.45214844	44.2199707
 8	1	0	0	36.43798828	3.524780273	5.310058594
 9	0	1	0	18.99719238	27.55737305	12.49694824
 10	0	0	1	0.8239746094	7.186889648	26.0925293
 11	0	0	0	0.04577636719	0	0.04577636719
 12	1	1	1	57.12890625	38.17749023	44.17419434
 13	1	0	0	36.16333008	3.524780273	5.310058594
 14	0	1	0	18.99719238	27.42004395	12.54272461
 15	0	0	1	0.8239746094	7.186889648	26.0925293
END_DATA
