data/calibration-000063.ti3
CTI3
DESCRIPTOR	"Calibration Target chart information 3"
ORIGINATOR	"ColorHug Factory"
DEVICE_CLASS	"DISPLAY"
COLOR_REP	"RGB_XYZ"
TARGET_INSTRUMENT	"ColorHug"
INSTRUMENT_TYPE_SPECTRAL	"NO"
LUMINANCE_XYZ_CDM2	"49.415588 40.088654 45.261383"
NORMALIZED_TO_Y_100	"YES"
NUMBER_OF_FIELDS	7
NUMBER_OF_SETS	836
BEGIN_DATA_FORMAT
 SAMPLE_ID	RGB_R	RGB_G	RGB_B	XYZ_X	XYZ_Y	XYZ_Z
END_DATA_FORMAT
BEGIN_DATA
 1	100	100	100	121.8928164	99.88597491	112.7708096
 2	100	100	100	122.8050171	99.77194983	112.7708096
 3	100	100	100	123.945268	100	112.7708096
 4	100	100	100	123.7172178	99.77194983	112.6567845
 5	33.33	32.622	30.968	9.122006842	7.183580388	7.63968073
 6	100	0	100	77.53705815	27.36602052	79.24743444
 7	100	100	0	121.7787913	81.41391106	46.18015964
 8	0	100	100	45.15393387	91.56214367	100
 9	0	100	0	43.10148233	72.86202965	33.63740023
 10	0	0	100	2.394526796	18.81413911	66.70467503
 11	100	0	0	74.68643101	8.779931585	12.65678449
 12	0	0	0	33.8654504	0.4561003421	0.4561003421
 13	0	52.455	100	10.83238312	34.09350057	73.54618016
 14	100	0	50.3	76.62485747	12.08665906	24.85746864
 15	100	54.739	100	88.9395667	44.1277081	87.11516534
 16	100	52.128	0	86.31698974	23.37514253	19.38426454
 17	0	0	46.181	0.6841505131	3.078677309	9.92018244
 18	0	51.141	0	8.779931585	14.48118586	6.955530217
 19	0	100	51.348	42.75940707	76.96693273	46.18015964
 20	100	100	52.037	122.3489168	84.83466363	59.40706956
 21	49.216	0	0	28.84834664	1.824401368	2.622576967
 22	56.159	100	0	61.57354618	75.14253136	36.83010262
 23	49.226	100	100	58.83694413	93.04446978	102.622577
 24	44.487	0	100	12.88483466	20.06841505	68.5290764
 25	100	44.498	52.029	82.44013683	22.57696693	30.44469783
 26	48.926	48.544	100	23.6031927	32.95324971	75.14253136
 27	51.368	100	47.25	58.83694413	77.87913341	46.63625998
 28	49.893	0	49.033	15.16533637	5.131128848	14.1391106
 29	53.109	51.372	0	24.51539339	16.30558723	9.578107184
 30	0	58.587	53.943	12.54275941	23.94526796	23.71721779
 31	100	28.065	100	80.84378563	31.35689852	81.29988597
 32	0	0	72.874	1.254275941	8.437856328	29.41847206
 33	0	26.758	100	3.990877993	22.34891676	68.41505131
 34	0	25.426	0	2.166476625	3.420752566	1.824401368
 35	72.508	0	100	37.05815279	22.91904219	72.86202965
 36	100	27.395	0	78.56328392	12.31470924	14.25313569
 37	74.47	100	100	83.23831243	95.55302166	106.72748
 38	100	0	25.728	78.10718358	9.578107184	15.50741163
 39	73.862	0	0	40.02280502	4.446978335	6.385404789
 40	100	100	25.402	120.7525656	82.21208666	48.8027366
 41	0	75.751	100	24.74344356	55.64424173	84.03648803
 42	0	75.172	0	21.77879133	36.14595211	16.76168757
 43	0	100	25.864	42.64538198	73.77423033	36.60205245
 44	100	0	74.801	77.76510832	17.55986317	44.1277081
 45	0	100	75.421	48.23261117	81.98403649	66.24857469
 46	24.577	0	0	7.753705815	0.6841505131	0.9122006842
 47	26.321	100	0	45.72405929	73.43215507	34.32155074
 48	100	75.835	0	100.1140251	45.26795895	29.76054732
 49	100	100	77.061	121.7787913	90.99201824	80.50171038
 50	71.263	100	0	90.64994299	76.3968073	39.11060433
 51	0	0	15.614	1.254275941	0.5701254276	1.368301026
 52	0	30.049	70.936	3.534777651	12.20068415	29.64652223
 53	100	77.691	100	102.1664766	66.47662486	97.6054732
 54	24.486	100	100	52.10946408	91.79019384	100.7981756
 55	100	62.784	31.909	88.71151653	33.18129989	27.82212087
 56	29.552	0	100	19.49828962	19.38426454	67.61687571
 57	32.98	70.921	100	25.9977195	50.51311288	82.09806157
 58	0	27.681	40.241	2.736602052	6.043329532	9.122006842
 59	67.901	71.021	100	50.62713797	53.47776511	86.20296465
 60	28.154	100	67.829	47.89053592	80.27366021	59.52109464
 61	71.637	100	70.001	79.24743444	84.60661345	66.47662486
 62	58.822	58.763	53.586	40.1368301	26.11174458	26.68187001
 63	33.466	30.48	0	8.779931585	5.359179019	3.30672748
 64	100	73.795	71.277	98.4036488	50.96921323	57.12656784
 65	68.394	29.692	0	33.75142531	7.867730901	7.183580388
 66	70.399	0	29.039	33.63740023	5.131128848	9.350057013
 67	28.078	0	26.956	4.561003421	1.710376283	4.104903079
 68	28.532	72.339	0	23.6031927	32.95324971	15.84948689
 69	100	30.941	26.496	79.47548461	14.25313569	17.78791334
 70	34.597	0	73.611	8.551881414	9.350057013	31.4709236
 71	71.573	0	72.408	35.11972634	12.31470924	34.89167617
 72	0	71.029	29.412	19.15621437	32.61117446	18.47206385
 73	68.386	75.008	0	51.995439	39.11060433	21.77879133
 74	68.088	27.309	100	34.89167617	25.9977195	74.11630559
 75	100	26.457	73.749	79.01938426	20.75256556	45.03990878
 76	74.344	100	27.392	81.18586089	77.53705815	43.3295325
 77	27.558	100	28.197	47.2063854	74.11630559	37.51425314
 78	31.196	27.465	100	11.40250855	23.14709236	69.327252
 79	0	75.521	72.824	22.57696693	44.92588369	46.63625998
 80	0	50.93	25.553	8.665906499	15.05131129	9.578107184
 81	32.06	33.584	64.033	9.236031927	12.54275941	25.31356899
 82	81.666	55.38	0	57.4686431	22.69099202	15.84948689
 83	68.257	32.751	58.286	35.00570125	13.91106043	24.97149373
 84	0	55.248	81.585	11.85860889	28.27822121	47.2063854
 85	73.781	52.099	100	48.11858609	37.85632839	79.47548461
 86	100	50.537	82.952	86.43101482	33.97947548	59.63511973
 87	23.55	0	50.439	44.24173318	3.990877993	12.77080958
 88	31.335	62.746	31.114	19.15621437	25.31356899	15.96351197
 89	100	18.31	49.418	77.08095781	13.68301026	25.08551881
 90	26.498	48.404	0	18.9281642	12.99885975	6.61345496
 91	47.91	100	85.744	56.21436716	86.31698974	80.04561003
 92	71.829	47.313	31.811	42.30330673	17.10376283	15.7354618
 93	31.304	64.132	69.316	20.63854048	32.61117446	38.54047891
 94	80.403	0	54.321	45.72405929	9.464082098	22.23489168
 95	18.455	50.036	100	13.11288483	32.61117446	73.77423033
 96	50.653	100	16.345	57.58266819	74.8004561	37.05815279
 97	80.121	100	52.261	89.28164196	81.41391106	54.50399088
 98	0	22.54	19.289	2.508551881	3.30672748	3.192702395
 99	100	75.273	46.886	98.17559863	47.2063854	39.79475485
 100	0	78.618	56.625	32.38312429	44.92588369	34.89167617
 101	51.137	80.627	100	40.82098062	62.82782212	88.82554162
 102	48.446	0	17.864	13.68301026	2.166476625	3.876852908
 103	100	50.023	21.211	83.4663626	22.69099202	20.86659065
 104	50.115	20.118	0	15.96351197	3.876852908	3.648802737
 105	58.099	72.426	33.158	38.65450399	36.25997719	23.37514253
 106	19.364	100	50.197	43.44355758	76.62485747	46.06613455
 107	50.683	19.177	100	18.47206385	22.34891676	70.35347777
 108	53.37	0	81.576	18.1299886	12.99885975	42.07525656
 109	47.768	76.245	0	34.663626	38.54047891	19.38426454
 110	0	18.927	55.503	1.824401368	6.385404789	16.30558723
 111	0	13.277	0	0.7981755986	1.140250855	0.7981755986
 112	72.862	72.473	75.625	56.21436716	45.72405929	53.47776511
 113	100	13.904	0	76.85290764	9.578107184	12.88483466
 114	86.349	0	100	72.29190422	24.97149373	75.71265678
 115	100	41.941	100	83.58038769	36.60205245	83.58038769
 116	100	81.785	16.464	103.990878	52.67958951	33.97947548
 117	0	44.063	52.596	6.61345496	14.02508552	18.35803877
 118	0	0	58.917	0.9122006842	5.245153934	18.01596351
 119	59.25	24.551	29.789	24.05929304	6.727480046	9.007981756
 120	82.73	82.874	100	76.62485747	69.21322691	95.55302166
 121	80.039	0	12.618	45.38198404	5.473204105	8.209806157
 122	60.957	47.729	77.817	32.15507412	24.62941847	44.35575827
 123	100	0	38.618	76.62485747	10.60433295	19.15621437
 124	0	40.09	100	7.297605473	27.13797035	70.46750285
 125	0	15.283	82.322	1.938426454	12.31470924	39.90877993
 126	17.592	81.726	100	29.41847206	63.05587229	87.68529076
 127	100	14.13	100	77.30900798	28.27822121	79.24743444
 128	15.261	100	82.059	45.26795895	84.03648803	73.54618016
 129	47.77	79.418	60.389	37.74230331	47.77651083	40.02280502
 130	18.768	16.429	0	3.648802737	1.824401368	1.254275941
 131	55.634	100	65.763	61.11744584	81.64196123	60.20524515
 132	100	100	38.541	111.4025086	83.23831243	52.90763968
 133	17.421	0	83.497	20.75256556	11.74458381	41.27708096
 134	17.237	16.758	100	4.218928164	20.41049031	67.61687571
 135	0	15.067	30.039	1.254275941	2.508551881	4.675028506
 136	0	0	86.505	1.710376283	12.65678449	45.03990878
 137	75.736	72.799	50.02	59.17901938	40.9350057	33.97947548
 138	100	83.323	85.529	97.49144812	66.70467503	78.22120867
 139	100	100	64.894	120.2964652	87.34321551	68.98517674
 140	81.98	84.914	0	83.35233751	53.02166477	29.87457241
 141	0	63.757	15.49	23.94526796	24.4013683	12.42873432
 142	49.514	66.135	100	31.35689852	46.63625998	81.0718358
 143	100	0	61.862	76.3968073	14.36716078	32.49714937
 144	24.308	45.41	49.831	13.79703535	14.59521095	17.67388826
 145	15.963	0	17.047	1.596351197	0.7981755986	1.824401368
 146	87.497	100	100	100.7981756	97.6054732	109.2360319
 147	52.099	25.003	75.752	21.66476625	14.1391106	36.83010262
 148	14.909	81.162	0	26.33979475	42.87343216	20.06841505
 149	0	34.792	14.626	3.990877993	6.385404789	3.990877993
 150	48.39	45.075	22.552	19.49828962	12.77080958	9.464082098
 151	83.545	65.965	100	66.9327252	50.3990878	86.43101482
 152	16.226	62.345	0	15.27936146	22.91904219	10.94640821
 153	63.222	0	14.914	25.54161916	3.420752566	5.473204105
 154	80.449	13.446	0	44.1277081	6.271379704	7.981755986
 155	83.917	41.562	0	53.13568985	14.36716078	12.31470924
 156	100	60.448	46.3	89.05359179	32.61117446	32.61117446
 157	15.584	0	34.795	10.49030787	1.938426454	5.58722919
 158	17.144	65.121	100	18.47206385	44.81185861	79.24743444
 159	83.602	55.334	62.667	57.12656784	28.84834664	37.05815279
 160	0	82.19	14.22	26.68187001	44.58380844	21.55074116
 161	25.132	74.856	50.616	24.97149373	39.3386545	29.53249715
 162	0	13.769	100	2.622576967	19.72633979	67.38882554
 163	87.181	0	0	55.41619156	6.499429875	9.122006842
 164	0	100	39.19	45.83808438	74.68643101	40.47890536
 165	78.047	65.914	19.865	57.69669327	31.35689852	20.86659065
 166	100	63.961	15.865	92.01824401	33.40935006	24.97149373
 167	100	45.955	36.032	85.0627138	21.32269099	23.37514253
 168	15.926	100	16.89	44.24173318	73.09007982	35.11972634
 169	41.459	100	0	51.53933865	73.66020525	35.11972634
 170	48.707	37.288	48.139	18.01596351	11.74458381	16.64766249
 171	83.381	100	13.285	92.01824401	78.22120867	42.41733181
 172	78.129	25.303	75.621	47.54846066	17.10376283	40.9350057
 173	12.396	0	0	1.02622577	0.4561003421	0.5701254276
 174	37.607	48.336	83.346	15.96351197	25.1995439	47.89053592
 175	35.588	15.356	0	7.411630559	2.28050171	1.938426454
 176	61.245	100	100	66.70467503	93.27251995	103.5347777
 177	100	67.29	87.195	93.50057013	49.03078677	71.26567845
 178	0	0	30.615	0.5701254276	1.482326112	4.33295325
 179	35.187	81.789	83.323	33.18129989	56.55644242	62.48574686
 180	39.525	80.194	22.879	33.29532497	43.55758267	23.26111745
 181	50.634	34.593	0	18.70011403	7.867730901	5.473204105
 182	14.175	100	63.146	44.01368301	78.90535918	55.07411631
 183	83.493	17.728	34.574	50.17103763	8.779931585	14.02508552
 184	23.463	22.014	79.943	5.929304447	13.22690992	38.54047891
 185	18.066	31.847	0	5.017103763	5.359179019	2.964652223
 186	87.201	100	81.361	98.63169897	89.62371722	81.29988597
 187	0	100	87.95	44.24173318	86.08893957	80.61573546
 188	34.476	17.888	46.22	7.411630559	5.359179019	11.85860889
 189	18.277	0	67.39	2.622576967	7.297605473	24.97149373
 190	100	87.972	0	107.8677309	61.00342075	36.83010262
 191	82.925	34.85	100	53.81984036	30.44469783	77.76510832
 192	0	88.016	100	38.08437856	71.49372862	91.10604333
 193	36.104	85.655	100	37.40022805	68.5290764	90.19384265
 194	60.981	0	0	23.26111745	2.964652223	4.104903079
 195	51.466	61.826	78.106	29.53249715	33.63740023	47.89053592
 196	78.427	31.983	22.175	45.26795895	10.60433295	11.51653364
 197	66.017	44.321	0	35.68985177	13.68301026	9.578107184
 198	83.941	0	84.177	50.96921323	17.67388826	50.85518814
 199	20.158	46.612	23.269	9.122006842	12.42873432	8.323831243
 200	0	100	62.618	41.39110604	78.10718358	54.27594071
 201	33.832	0	13.933	9.692132269	1.254275941	2.166476625
 202	100	17.286	16.322	75.71265678	10.49030787	14.36716078
 203	0	42.204	83.926	7.867730901	21.09464082	46.40820981
 204	0	87.774	0	30.78677309	51.88141391	24.28734322
 205	64.988	0	59.017	27.82212087	8.323831243	22.69099202
 206	14.677	0	100	3.078677309	18.9281642	67.38882554
 207	88.934	82.673	35.021	83.23831243	52.56556442	35.68985177
 208	0	63.778	100	17.10376283	43.10148233	78.22120867
 209	83.429	17.674	100	51.1972634	25.88369441	75.48460661
 210	30.899	100	85.668	48.34663626	84.94868871	78.33523375
 211	83.68	0	41.016	48.34663626	7.981755986	15.84948689
 212	100	63.515	0	84.94868871	32.15507412	23.37514253
 213	85.074	69.987	0	69.21322691	36.03192702	22.46294185
 214	20.801	45.524	69.018	24.17331813	18.70011403	31.58494869
 215	21.382	82.482	73.017	29.64652223	53.59179019	51.65336374
 216	100	15.128	64.249	77.30900798	15.96351197	35.00570125
 217	36.522	0	58.427	14.48118586	5.929304447	18.58608894
 218	22.466	81.296	33.007	28.27822121	44.69783352	25.1995439
 219	62.531	87.152	0	51.65336374	54.38996579	27.93614595
 220	84.12	85.397	67.886	79.81755986	61.34549601	56.21436716
 221	18.87	27.336	45.389	4.675028506	6.841505131	11.85860889
 222	66.439	100	14.444	70.58152794	75.94070696	39.11060433
 223	41.636	22.147	19.003	16.30558723	4.218928164	4.561003421
 224	61.271	100	81.94	66.9327252	86.20296465	76.73888255
 225	86.013	100	0	96.92132269	78.90535918	42.30330673
 226	37.57	0	0	7.525655644	1.140250855	1.596351197
 227	100	16.132	84.102	76.62485747	21.77879133	55.41619156
 228	0	100	13.619	46.97833523	72.86202965	34.32155074
 229	38.905	100	56.471	50.74116306	78.22120867	51.31128848
 230	100	15.382	34.563	75.25655644	11.28848347	18.24401368
 231	36.656	14.908	100	9.692132269	20.75256556	68.41505131
 232	0	62.593	66.608	14.48118586	30.10262258	34.89167617
 233	66.347	12.528	100	30.78677309	22.8050171	72.17787913
 234	100	43.375	69.233	81.75598632	25.65564424	43.44355758
 235	100	56.36	61.236	86.31698974	32.04104903	40.47890536
 236	0	86.194	44.955	34.77765108	52.45153934	32.61117446
 237	64.527	87.262	100	58.15279361	72.86202965	94.86887115
 238	34.411	0	42.471	6.61345496	3.30672748	9.464082098
 239	80.23	59.707	85.12	57.58266819	38.08437856	60.77537058
 240	20.625	19.056	14.791	19.04218928	2.622576967	2.508551881
 241	15.341	34.221	100	6.61345496	24.97149373	69.89737742
 242	36.777	0	87.905	8.323831243	14.1391106	48.23261117
 243	34.598	56.247	100	18.70011403	37.62827822	76.28278221
 244	20.86	67.629	17.418	19.15621437	28.84834664	14.9372862
 245	44.958	60.843	18.054	23.94526796	23.26111745	13.45496009
 246	37.421	60.193	0	19.84036488	21.66476625	11.0604333
 247	84.011	33.849	42.612	53.36374002	13.91106043	19.27023945
 248	17.241	60.339	37.743	14.36716078	23.03306727	16.41961231
 249	50.65	17.261	53.278	16.30558723	7.297605473	17.21778791
 250	45.505	48.926	65.152	19.84036488	20.98061574	31.12884835
 251	44.567	84.081	39.649	38.31242873	49.48688712	30.672748
 252	100	86.339	72.054	108.3238312	67.50285063	65.22234892
 253	68.14	61.135	0	43.67160775	24.85746864	15.05131129
 254	17.93	66.986	81.403	22.12086659	38.54047891	51.65336374
 255	39.242	60.215	48.926	21.09464082	25.1995439	22.69099202
 256	20.099	18.77	62.967	4.789053592	8.095781072	22.23489168
 257	34.553	100	14.582	48.004561	73.77423033	35.34777651
 258	87.345	0	66.694	55.18814139	13.22690992	33.52337514
 259	0	43.714	39.842	6.499429875	12.08665906	11.97263398
 260	100	37.705	13.955	79.93158495	15.96351197	16.5336374
 261	31.265	86.993	0	35.34777651	51.31128848	24.51539339
 262	51.402	82.661	81.338	42.75940707	57.4686431	62.25769669
 263	100	100	12.984	119.1562144	81.18586089	46.63625998
 264	0	37.859	0	4.561003421	7.297605473	3.648802737
 265	62.092	58.215	100	36.48802737	41.04903079	79.81755986
 266	86.186	100	64.1	97.26339795	84.49258837	64.42417332
 267	100	35.251	85.898	80.27366021	27.36602052	59.97719498
 268	63.182	89.992	41.974	58.49486887	60.6613455	37.97035348
 269	13.504	100	0	43.67160775	72.86202965	33.8654504
 270	100	0	13.228	75.82668187	8.89395667	13.11288483
 271	63.881	40.826	100	37.97035348	30.55872292	75.25655644
 272	69.387	84.838	20.792	59.74914481	51.88141391	29.30444698
 273	0	70.279	45.136	18.70011403	33.52337514	24.05929304
 274	79.094	64.754	40.908	57.69669327	32.2690992	26.45381984
 275	62.385	54.099	17.396	35.68985177	19.49828962	13.11288483
 276	64.408	14.621	0	27.13797035	4.33295325	5.131128848
 277	70.028	15.606	44.651	33.29532497	7.753705815	15.27936146
 278	0	63.544	0	15.39338655	24.17331813	11.40250855
 279	83.475	47.274	20.502	55.07411631	18.01596351	15.39338655
 280	55.866	0	32.671	19.27023945	3.762827822	7.867730901
 281	58.007	0	100	22.34891676	21.20866591	70.46750285
 282	100	0	87.698	75.94070696	21.66476625	59.29304447
 283	0	13.792	67.215	1.824401368	7.981755986	25.08551881
 284	84.123	17.001	58.549	50.85518814	12.20068415	26.45381984
 285	59.579	32.873	15.966	25.42759407	8.323831243	7.411630559
 286	10.41	32.998	28.659	4.218928164	6.61345496	6.385404789
 287	17.231	40.031	85.65	7.525655644	20.86659065	48.23261117
 288	37.568	41.561	10.108	12.42873432	9.806157355	5.929304447
 289	0	69.015	85.092	18.58608894	41.61915621	57.01254276
 290	14.442	100	36.187	43.10148233	74.23033067	39.68072976
 291	100	40.549	0	80.04561003	16.98973774	16.19156214
 292	82.143	45.435	78.429	54.38996579	26.11174458	48.23261117
 293	52.674	0	67.3	16.98973774	9.007981756	27.5940707
 294	0	87.868	66.793	30.78677309	59.29304447	48.68871152
 295	86.53	100	40.524	96.80729761	80.84378563	49.82896237
 296	71.777	85.586	67.232	64.5381984	59.97719498	53.24971494
 297	43.216	100	31.671	52.7936146	75.02850627	39.68072976
 298	39.245	32.908	85.845	16.07753706	18.81413911	48.004561
 299	0	45.662	67.543	7.411630559	18.24401368	30.21664766
 300	12.161	100	100	44.69783352	91.22006842	100.4561003
 301	67.049	0	85.516	30.55872292	15.96351197	48.91676169
 302	100	89.041	100	109.8061574	81.18586089	104.2189282
 303	20.246	60.698	56.526	15.50741163	26.22576967	26.56784493
 304	52.177	55.457	40.416	26.56784493	21.55074116	18.35803877
 305	72.617	87.018	83.932	66.70467503	66.1345496	71.83580388
 306	40.512	16.723	66.475	10.94640821	9.350057013	26.33979475
 307	68.507	49.232	50.605	38.76852908	20.41049031	23.83124287
 308	65.622	100	54.525	70.01140251	79.93158495	53.47776511
 309	54.115	37.24	66.394	22.57696693	15.7354618	30.21664766
 310	100	76.138	31.267	97.6054732	46.97833523	33.97947548
 311	54.728	65.623	0	33.40935006	28.05017104	15.05131129
 312	63.126	12.526	64.37	26.45381984	10.03420753	26.7958951
 313	72.827	18.08	23.704	36.60205245	6.61345496	9.236031927
 314	23.268	15.278	34.947	7.069555302	3.192702395	6.61345496
 315	87.648	68.954	59.645	72.06385405	40.82098062	41.39110604
 316	0	85.595	85.198	30.10262258	61.23147092	66.59064994
 317	35.798	84.371	69.21	35.34777651	55.64424173	49.37286203
 318	36.062	47.494	35.919	14.25313569	14.59521095	12.54275941
 319	86.083	36.277	59.152	57.12656784	18.01596351	29.98859749
 320	58.21	100	30.361	63.16989738	76.16875713	40.9350057
 321	46.745	14.614	32.317	13.11288483	3.990877993	7.183580388
 322	81.573	73.869	86.954	66.9327252	52.90763968	69.55530217
 323	85.991	49.387	48.206	61.00342075	22.34891676	25.88369441
 324	28.062	87.906	19.654	37.28620296	53.36374002	26.68187001
 325	68.992	17.993	85.124	33.0672748	17.55986317	49.82896237
 326	100	66.147	100	92.9304447	53.59179019	91.3340935
 327	33.358	64.806	84.517	22.00684151	37.97035348	55.64424173
 328	41.351	17.736	80.522	11.63055872	13.45496009	40.1368301
 329	100	100	88.719	115.2793615	93.84264538	94.07069555
 330	66.336	0	44.32	40.59293044	6.157354618	14.02508552
 331	64.85	67.09	12.293	41.84720639	30.78677309	17.90193843
 332	15.262	31.268	63.277	5.131128848	10.94640821	23.71721779
 333	15.008	43.663	37.3	7.411630559	11.97263398	11.17445838
 334	0	57.895	38.078	11.63055872	21.09464082	15.62143672
 335	66.599	58.458	67.871	40.47890536	30.10262258	39.45267959
 336	59.191	18.651	15.215	22.91904219	4.675028506	5.58722919
 337	66.781	31.14	84.629	32.61117446	20.29646522	50.05701254
 338	88.033	85.158	52.14	84.2645382	58.15279361	44.81185861
 339	36.882	100	100	51.08323831	91.79019384	101.4823261
 340	26.102	33.094	17.006	7.525655644	6.385404789	4.675028506
 341	56.309	36.861	35.862	22.91904219	10.49030787	12.08665906
 342	45.839	65.587	67.033	27.36602052	34.32155074	38.65450399
 343	83.709	81.172	16.406	74.91448119	48.23261117	28.96237172
 344	0	48.132	13.005	21.32269099	12.65678449	6.61345496
 345	87.176	50.021	100	63.51197263	38.76852908	82.44013683
 346	51.219	84.244	13.73	42.5313569	48.57468643	24.97149373
 347	60.606	71.415	48.406	41.84720639	37.62827822	29.87457241
 348	0	11.359	12.718	5.245153934	1.140250855	1.368301026
 349	86.429	49.705	33.145	61.68757127	20.98061574	19.84036488
 350	34.056	40.958	100	13.22690992	28.16419612	72.4059293
 351	100	30.557	59.628	78.44925884	18.47206385	33.18129989
 352	88.497	26.902	13.449	60.09122007	10.2622577	11.63055872
 353	14.167	51.98	88.218	11.17445838	28.50627138	54.61801596
 354	13.784	12.983	49.37	2.052451539	4.446978335	12.31470924
 355	15.018	88.441	48.062	2.052451539	4.446978335	12.31470924
 356	87.79	25.769	89.215	2.052451539	4.446978335	49.6009122
 357	0	33.206	55.865	4.789053592	10.03420753	18.58608894
 358	74.324	76.029	35.536	58.49486887	42.41733181	28.84834664
 359	65.863	57.223	42.324	39.45267959	24.17331813	21.43671608
 360	30.893	54.646	13.136	20.52451539	17.55986317	9.464082098
 361	0	34.36	28.321	3.876852908	7.069555302	6.499429875
 362	15.443	77.087	85.116	25.08551881	50.74116306	62.25769669
 363	63.381	68.947	68.521	43.44355758	39.45267959	43.67160775
 364	69.733	27.566	42.917	34.43557583	9.92018244	15.62143672
 365	32.754	100	42.76	47.66248575	75.14253136	42.87343216
 366	47.096	29.481	34.829	15.16533637	7.297605473	9.464082098
 367	8.5451	71.948	62.695	20.06841505	38.19840365	35.68985177
 368	0	86.048	29.3	29.64652223	50.85518814	26.90992018
 369	53.697	51.572	85.367	26.45381984	28.96237172	53.47776511
 370	17.608	56.69	12.515	12.65678449	18.81413911	9.578107184
 371	90.638	14.414	49.227	56.89851767	11.17445838	21.89281642
 372	63.248	63.64	89.55	40.9350057	41.04903079	65.336374
 373	100	85.976	58.455	99.54389966	63.39794755	53.24971494
 374	9.8311	28.027	7.5567	21.66476625	4.33295325	2.508551881
 375	89.831	64.313	69.506	73.88825542	38.76852908	47.77651083
 376	31.754	12.995	25.543	5.929304447	2.508551881	4.446978335
 377	75.914	45.966	64.957	45.95210946	22.12086659	34.54960091
 378	7.5735	50.695	58.941	10.03420753	19.49828962	24.74344356
 379	100	69.835	58.912	91.90421893	43.78563284	44.69783352
 380	32.211	34.376	48.339	10.14823261	9.806157355	14.9372862
 381	13.901	12.159	73.555	2.508551881	9.464082098	30.90079818
 382	87.071	9.028	77.653	55.30216648	16.5336374	44.1277081
 383	23.272	85.409	84.29	33.18129989	60.6613455	65.336374
 384	93.289	39.48	26.145	67.7309008	15.96351197	16.98973774
 385	65.769	59.63	30.967	42.87343216	24.97149373	18.35803877
 386	100	32.265	41.803	78.10718358	16.07753706	22.8050171
 387	86.568	85.281	86.961	83.35233751	67.38882554	76.96693273
 388	52.577	86.83	30.016	46.40820981	53.81984036	30.10262258
 389	47.921	40.199	76.902	18.81413911	19.49828962	40.25085519
 390	22.36	86.619	61.58	32.72519954	56.6704675	44.01368301
 391	52.232	33.601	88.787	20.52451539	20.98061574	53.81984036
 392	0	28.523	86.267	3.762827822	16.64766249	46.75028506
 393	43.497	67.879	39.551	26.90992018	31.4709236	22.00684151
 394	39.877	45.261	0	14.9372862	11.85860889	6.61345496
 395	86.94	12.43	24.699	53.81984036	7.867730901	11.97263398
 396	28.363	55.339	90.398	16.07753706	32.2690992	59.74914481
 397	39.018	70.534	57.879	26.68187001	36.60205245	32.95324971
 398	12.833	28.519	78.828	4.33295325	14.36716078	37.97035348
 399	68.35	31.815	69.975	34.09350057	16.30558723	34.77765108
 400	56.52	26.226	41.626	21.66476625	7.981755986	12.88483466
 401	12.938	46.218	0	7.63968073	11.40250855	5.58722919
 402	8.6938	60.179	26.117	12.99885975	21.89281642	12.99885975
 403	51.995	89.429	96.608	47.43443558	73.54618016	89.05359179
 404	46.905	47.746	48.909	19.84036488	16.87571266	19.27023945
 405	14.352	81.814	19.479	27.02394527	44.24173318	22.23489168
 406	71.482	38.117	12.273	38.42645382	11.51653364	9.806157355
 407	86.616	60.785	10.012	65.336374	27.70809578	19.27023945
 408	71.811	88.979	52.186	66.9327252	61.57354618	44.1277081
 409	43.213	100	72.083	53.02166477	81.52793615	64.31014823
