data/calibration-001055.ti3
CTI3   
ORIGINATOR	"ColorHug Factory"
DESCRIPTOR	"Calibration Target chart information 3"
DEVICE_CLASS	"DISPLAY"
COLOR_REP	"RGB_XYZ"
TARGET_INSTRUMENT	"Hughski ColorHug"
INSTRUMENT_TYPE_SPECTRAL	"NO"
NORMALIZED_TO_Y_100	"NO"
NUMBER_OF_FIELDS	7
NUMBER_OF_SETS	15
BEGIN_DATA_FORMAT
 SAMPLE_ID	RGB_R	RGB_G	RGB_B	XYZ_X	XYZ_Y	XYZ_Z
END_DATA_FORMAT
BEGIN_DATA
 1	0	0	0	0	0	0
 2	1	1	1	51.63574219	35.06469727	40.69519043
 3	1	0	0	32.3638916	3.295898438	4.898071289
 4	0	1	0	17.12036133	24.90234375	11.53564453
 5	0	0	1	0.732421875	6.591796875	23.94104004
 6	0	0	0	0	0	0
 7	1	1	1	51.40686035	34.92736816	40.6036377
 8	1	0	0	32.31811523	3.295898438	4.898071289
 9	0	1	0	17.12036133	24.85656738	11.53564453
 10	0	0	1	0.732421875	6.591796875	23.80371094
 11	0	0	0	0	0	0
 12	1	1	1	51.40686035	34.8815918	40.51208496
 13	1	0	0	32.54699707	3.295898438	4.898071289
 14	0	1	0	17.12036133	24.94812012	11.48986816
 15	0	0	1	0.732421875	6.591796875	23.8494873
END_DATA
