data/calibration-000972.ti3
CTI3   
ORIGINATOR	"ColorHug Factory"
DESCRIPTOR	"Calibration Target chart information 3"
DEVICE_CLASS	"DISPLAY"
COLOR_REP	"RGB_XYZ"
TARGET_INSTRUMENT	"Hughski ColorHug"
INSTRUMENT_TYPE_SPECTRAL	"NO"
NORMALIZED_TO_Y_100	"NO"
NUMBER_OF_FIELDS	7
NUMBER_OF_SETS	15
BEGIN_DATA_FORMAT
 SAMPLE_ID	RGB_R	RGB_G	RGB_B	XYZ_X	XYZ_Y	XYZ_Z
END_DATA_FORMAT
BEGIN_DATA
 1	0	0	0	0.09155273438	0.09155273438	0.1373291016
 2	1	1	1	57.81555176	38.72680664	45.08972168
 3	1	0	0	36.52954102	3.799438477	5.722045898
 4	0	1	0	19.40917969	27.55737305	13.09204102
 5	0	0	1	0.9613037109	7.461547852	26.18408203
 6	0	0	0	0.09155273438	0.09155273438	0.1373291016
 7	1	1	1	57.76977539	38.72680664	45.08972168
 8	1	0	0	36.80419922	3.799438477	5.767822266
 9	0	1	0	19.40917969	27.64892578	13.09204102
 10	0	0	1	0.9613037109	7.461547852	26.27563477
 11	0	0	0	0.09155273438	0.09155273438	0.1373291016
 12	1	1	1	57.72399902	38.58947754	45.13549805
 13	1	0	0	36.71264648	3.799438477	5.722045898
 14	0	1	0	19.45495605	27.60314941	13.13781738
 15	0	0	1	0.9613037109	7.507324219	26.41296387
END_DATA
