data/calibration-000960.ti3
CTI3   
ORIGINATOR	"ColorHug Factory"
DESCRIPTOR	"Calibration Target chart information 3"
DEVICE_CLASS	"DISPLAY"
COLOR_REP	"RGB_XYZ"
TARGET_INSTRUMENT	"Hughski ColorHug"
INSTRUMENT_TYPE_SPECTRAL	"NO"
NORMALIZED_TO_Y_100	"NO"
NUMBER_OF_FIELDS	7
NUMBER_OF_SETS	15
BEGIN_DATA_FORMAT
 SAMPLE_ID	RGB_R	RGB_G	RGB_B	XYZ_X	XYZ_Y	XYZ_Z
END_DATA_FORMAT
BEGIN_DATA
 1	0	0	0	0.09155273438	0.04577636719	0.09155273438
 2	1	1	1	66.23840332	43.48754883	50.35400391
 3	1	0	0	42.25158691	4.119873047	6.17980957
 4	0	1	0	22.56774902	31.49414062	14.46533203
 5	0	0	1	1.052856445	8.285522461	29.7088623
 6	0	0	0	0.09155273438	0.04577636719	0.09155273438
 7	1	1	1	66.87927246	43.62487793	50.30822754
 8	1	0	0	42.52624512	4.119873047	6.17980957
 9	0	1	0	22.52197266	31.53991699	14.46533203
 10	0	0	1	1.052856445	8.285522461	29.7088623
 11	0	0	0	0.09155273438	0.04577636719	0.09155273438
 12	1	1	1	66.9708252	43.71643066	49.75891113
 13	1	0	0	42.57202148	4.119873047	6.134033203
 14	0	1	0	22.61352539	31.53991699	14.46533203
 15	0	0	1	1.052856445	8.285522461	29.66308594
END_DATA
