data/calibration-002324.ti3
CTI3   
ORIGINATOR	"ColorHug Factory"
CREATED	"Tue Jan 21 20:16:59 2014"
DESCRIPTOR	"Calibration Target chart information 3"
DEVICE_CLASS	"DISPLAY"
COLOR_REP	"RGB_XYZ"
TARGET_INSTRUMENT	"Hughski ColorHug"
INSTRUMENT_TYPE_SPECTRAL	"NO"
NORMALIZED_TO_Y_100	"NO"
NUMBER_OF_FIELDS	7
NUMBER_OF_SETS	15
BEGIN_DATA_FORMAT
 SAMPLE_ID	RGB_R	RGB_G	RGB_B	XYZ_X	XYZ_Y	XYZ_Z
END_DATA_FORMAT
BEGIN_DATA
 1.0	0.0	0.0	0.0	0.168487548828	0.123886108398	0.187225341797
 2.0	1.0	1.0	1.0	74.472717285156	32.251968383789	51.848098754883
 3.0	1.0	0.0	0.0	46.811416625977	3.580413818359	6.081649780273
 4.0	0.0	1.0	0.0	22.755554199219	20.739227294922	10.75065612793
 5.0	0.0	0.0	1.0	1.348251342773	7.922622680664	34.711853027344
 6.0	0.0	0.0	0.0	0.169235229492	0.124801635742	0.188598632812
 7.0	1.0	1.0	1.0	74.472717285156	32.379440307617	51.848098754883
 8.0	1.0	0.0	0.0	46.811416625977	3.585113525391	6.0771484375
 9.0	0.0	1.0	0.0	22.94677734375	20.686859130859	10.807373046875
 10.0	0.0	0.0	1.0	1.352920532227	7.922622680664	34.420166015625
 11.0	0.0	0.0	0.0	0.169967651367	0.12614440918	0.189666748047
 12.0	1.0	1.0	1.0	74.472717285156	32.507934570312	52.178329467773
 13.0	1.0	0.0	0.0	47.080459594727	3.581970214844	6.06364440918
 14.0	0.0	1.0	0.0	22.818939208984	20.739227294922	10.807373046875
 15.0	0.0	0.0	1.0	1.34846496582	7.930297851562	34.276138305664
END_DATA
