data/calibration-002484.ti3
CTI3   
ORIGINATOR	"ColorHug Factory"
CREATED	"Wed Jun 11 20:10:16 2014"
DESCRIPTOR	"Calibration Target chart information 3"
DEVICE_CLASS	"DISPLAY"
COLOR_REP	"RGB_XYZ"
TARGET_INSTRUMENT	"Hughski ColorHug"
INSTRUMENT_TYPE_SPECTRAL	"NO"
NORMALIZED_TO_Y_100	"NO"
NUMBER_OF_FIELDS	7
NUMBER_OF_SETS	15
BEGIN_DATA_FORMAT
 SAMPLE_ID	RGB_R	RGB_G	RGB_B	XYZ_X	XYZ_Y	XYZ_Z
END_DATA_FORMAT
BEGIN_DATA
 1.0	0.0	0.0	0.0	0.330429077148	0.304534912109	0.395111083984
 2.0	1.0	1.0	1.0	63.015380859375	31.386962890625	52.512817382812
 3.0	1.0	0.0	0.0	40.354675292969	3.521911621094	6.11799621582
 4.0	0.0	1.0	0.0	19.504760742188	19.184997558594	10.850326538086
 5.0	0.0	0.0	1.0	1.263793945312	8.569030761719	35.008544921875
 6.0	0.0	0.0	0.0	0.33332824707	0.307495117188	0.399932861328
 7.0	1.0	1.0	1.0	63.503875732422	31.148284912109	52.512817382812
 8.0	1.0	0.0	0.0	40.156860351562	3.497863769531	6.140914916992
 9.0	0.0	1.0	0.0	19.551300048828	19.184997558594	10.807373046875
 10.0	0.0	0.0	1.0	1.26692199707	8.641342163086	35.158798217773
 11.0	0.0	0.0	0.0	0.335250854492	0.310516357422	0.402542114258
 12.0	1.0	1.0	1.0	63.015380859375	31.148284912109	52.512817382812
 13.0	1.0	0.0	0.0	40.354675292969	3.518890380859	6.145523071289
 14.0	0.0	1.0	0.0	19.504760742188	19.275283813477	10.835968017578
 15.0	0.0	0.0	1.0	1.268692016602	8.632232666016	35.008544921875
END_DATA
