data/calibration-002551.ti3
CTI3   
ORIGINATOR	"ColorHug Factory"
CREATED	"Wed Dec 03 19:06:55 2014"
DESCRIPTOR	"Calibration Target chart information 3"
DEVICE_CLASS	"DISPLAY"
COLOR_REP	"RGB_XYZ"
TARGET_INSTRUMENT	"Hughski ColorHug"
INSTRUMENT_TYPE_SPECTRAL	"NO"
NORMALIZED_TO_Y_100	"NO"
NUMBER_OF_FIELDS	7
NUMBER_OF_SETS	15
BEGIN_DATA_FORMAT
 SAMPLE_ID	RGB_R	RGB_G	RGB_B	XYZ_X	XYZ_Y	XYZ_Z
END_DATA_FORMAT
BEGIN_DATA
 1.0	0.0	0.0	0.0	0.417327880859	0.458435058594	0.561630249023
 2.0	1.0	1.0	1.0	112.219177246094	107.789459228516	115.380279541016
 3.0	1.0	0.0	0.0	78.01904296875	7.123474121094	11.346252441406
 4.0	0.0	1.0	0.0	26.947357177734	75.851837158203	28.643356323242
 5.0	0.0	0.0	1.0	3.30989074707	21.005126953125	71.234771728516
 6.0	0.0	0.0	0.0	0.41877746582	0.460891723633	0.561889648438
 7.0	1.0	1.0	1.0	112.219177246094	107.789459228516	115.380279541016
 8.0	1.0	0.0	0.0	78.01904296875	7.123474121094	11.33056640625
 9.0	0.0	1.0	0.0	26.947357177734	75.851837158203	28.643356323242
 10.0	0.0	0.0	1.0	3.308547973633	21.005126953125	71.234771728516
 11.0	0.0	0.0	0.0	0.418548583984	0.460968017578	0.563125610352
 12.0	1.0	1.0	1.0	112.219177246094	107.789459228516	115.380279541016
 13.0	1.0	0.0	0.0	78.01904296875	7.123474121094	11.33056640625
 14.0	0.0	1.0	0.0	26.859008789062	75.851837158203	28.643356323242
 15.0	0.0	0.0	1.0	3.307220458984	21.005126953125	71.234771728516
END_DATA
