data/calibration-000985.ti3
CTI3   
ORIGINATOR	"ColorHug Factory"
DESCRIPTOR	"Calibration Target chart information 3"
DEVICE_CLASS	"DISPLAY"
COLOR_REP	"RGB_XYZ"
TARGET_INSTRUMENT	"Hughski ColorHug"
INSTRUMENT_TYPE_SPECTRAL	"NO"
NORMALIZED_TO_Y_100	"NO"
NUMBER_OF_FIELDS	7
NUMBER_OF_SETS	15
BEGIN_DATA_FORMAT
 SAMPLE_ID	RGB_R	RGB_G	RGB_B	XYZ_X	XYZ_Y	XYZ_Z
END_DATA_FORMAT
BEGIN_DATA
 1	0	0	0	0.04577636719	0.04577636719	0.04577636719
 2	1	1	1	51.86462402	36.11755371	42.66357422
 3	1	0	0	33.09631348	3.387451172	5.172729492
 4	0	1	0	17.578125	25.77209473	12.22229004
 5	0	0	1	0.8239746094	6.958007812	25.26855469
 6	0	0	0	0.04577636719	0.04577636719	0.04577636719
 7	1	1	1	51.91040039	36.11755371	42.70935059
 8	1	0	0	33.00476074	3.387451172	5.172729492
 9	0	1	0	17.578125	25.72631836	12.22229004
 10	0	0	1	0.8239746094	6.958007812	25.31433105
 11	0	0	0	0.04577636719	0.04577636719	0.04577636719
 12	1	1	1	51.81884766	36.11755371	42.66357422
 13	1	0	0	33.00476074	3.387451172	5.172729492
 14	0	1	0	17.578125	25.72631836	12.22229004
 15	0	0	1	0.8239746094	6.958007812	25.31433105
END_DATA
