data/calibration-001879.ti3
CTI3   
ORIGINATOR	"ColorHug Factory"
CREATED	"Wed Apr 10 09:53:22 2013"
DESCRIPTOR	"Calibration Target chart information 3"
DEVICE_CLASS	"DISPLAY"
COLOR_REP	"RGB_XYZ"
TARGET_INSTRUMENT	"Hughski ColorHug"
INSTRUMENT_TYPE_SPECTRAL	"NO"
NORMALIZED_TO_Y_100	"NO"
NUMBER_OF_FIELDS	7
NUMBER_OF_SETS	15
BEGIN_DATA_FORMAT
 SAMPLE_ID	RGB_R	RGB_G	RGB_B	XYZ_X	XYZ_Y	XYZ_Z
END_DATA_FORMAT
BEGIN_DATA
 1	0	0	0	0.1373291016	0.1831054688	0.1831054688
 2	1	1	1	43.44177246	38.31481934	48.01940918
 3	1	0	0	26.7791748	3.295898438	4.348754883
 4	0	1	0	15.42663574	26.73339844	12.54272461
 5	0	0	1	1.052856445	8.651733398	31.76879883
 6	0	0	0	0.1373291016	0.1831054688	0.2288818359
 7	1	1	1	43.25866699	38.2232666	48.24829102
 8	1	0	0	26.73339844	3.295898438	4.39453125
 9	0	1	0	15.42663574	26.55029297	12.54272461
 10	0	0	1	1.052856445	8.697509766	31.67724609
 11	0	0	0	0.1373291016	0.1831054688	0.2288818359
 12	1	1	1	43.62487793	38.2232666	47.74475098
 13	1	0	0	26.73339844	3.295898438	4.348754883
 14	0	1	0	15.42663574	26.41296387	12.58850098
 15	0	0	1	1.052856445	8.651733398	31.76879883
END_DATA
