data/calibration-001104.ti3
CTI3   
ORIGINATOR	"ColorHug Factory"
DESCRIPTOR	"Calibration Target chart information 3"
DEVICE_CLASS	"DISPLAY"
COLOR_REP	"RGB_XYZ"
TARGET_INSTRUMENT	"Hughski ColorHug"
INSTRUMENT_TYPE_SPECTRAL	"NO"
NORMALIZED_TO_Y_100	"NO"
NUMBER_OF_FIELDS	7
NUMBER_OF_SETS	15
BEGIN_DATA_FORMAT
 SAMPLE_ID	RGB_R	RGB_G	RGB_B	XYZ_X	XYZ_Y	XYZ_Z
END_DATA_FORMAT
BEGIN_DATA
 1	0	0	0	0	0.04577636719	0.04577636719
 2	1	1	1	31.03637695	35.38513184	40.14587402
 3	1	0	0	18.17321777	2.517700195	2.9296875
 4	0	1	0	11.26098633	25.45166016	10.94055176
 5	0	0	1	0.6866455078	7.00378418	26.0925293
 6	0	0	0	0	0.04577636719	0.04577636719
 7	1	1	1	31.17370605	35.4309082	40.23742676
 8	1	0	0	18.17321777	2.517700195	2.9296875
 9	0	1	0	11.26098633	25.68054199	10.94055176
 10	0	0	1	0.6866455078	7.00378418	26.04675293
 11	0	0	0	0	0.04577636719	0.04577636719
 12	1	1	1	31.12792969	35.33935547	40.10009766
 13	1	0	0	18.17321777	2.517700195	2.9296875
 14	0	1	0	11.16943359	25.58898926	10.89477539
 15	0	0	1	0.6866455078	7.00378418	25.9552002
END_DATA
