data/calibration-001539.ti3
CTI3   
ORIGINATOR	"ColorHug Factory"
DESCRIPTOR	"Calibration Target chart information 3"
DEVICE_CLASS	"DISPLAY"
COLOR_REP	"RGB_XYZ"
TARGET_INSTRUMENT	"Hughski ColorHug"
INSTRUMENT_TYPE_SPECTRAL	"NO"
NORMALIZED_TO_Y_100	"NO"
NUMBER_OF_FIELDS	7
NUMBER_OF_SETS	15
BEGIN_DATA_FORMAT
 SAMPLE_ID	RGB_R	RGB_G	RGB_B	XYZ_X	XYZ_Y	XYZ_Z
END_DATA_FORMAT
BEGIN_DATA
 1	0	0	0	0.2288818359	0.2288818359	0.2746582031
 2	1	1	1	37.44506836	39.09301758	48.43139648
 3	1	0	0	22.10998535	2.975463867	3.753662109
 4	0	1	0	13.22937012	27.60314941	12.68005371
 5	0	0	1	1.052856445	8.560180664	31.99768066
 6	0	0	0	0.2288818359	0.2288818359	0.2746582031
 7	1	1	1	37.30773926	39.04724121	48.43139648
 8	1	0	0	22.01843262	2.975463867	3.753662109
 9	0	1	0	13.22937012	27.69470215	12.68005371
 10	0	0	1	1.052856445	8.560180664	32.13500977
 11	0	0	0	0.2288818359	0.2288818359	0.2746582031
 12	1	1	1	37.44506836	39.04724121	48.43139648
 13	1	0	0	22.01843262	2.975463867	3.799438477
 14	0	1	0	13.22937012	27.32849121	12.68005371
 15	0	0	1	1.052856445	8.605957031	31.90612793
END_DATA
