data/calibration-001139.ti3
CTI3   
ORIGINATOR	"ColorHug Factory"
DESCRIPTOR	"Calibration Target chart information 3"
DEVICE_CLASS	"DISPLAY"
COLOR_REP	"RGB_XYZ"
TARGET_INSTRUMENT	"Hughski ColorHug"
INSTRUMENT_TYPE_SPECTRAL	"NO"
NORMALIZED_TO_Y_100	"NO"
NUMBER_OF_FIELDS	7
NUMBER_OF_SETS	15
BEGIN_DATA_FORMAT
 SAMPLE_ID	RGB_R	RGB_G	RGB_B	XYZ_X	XYZ_Y	XYZ_Z
END_DATA_FORMAT
BEGIN_DATA
 1	0	0	0	0.1373291016	0.1831054688	0.2288818359
 2	1	1	1	36.02600098	35.75134277	42.29736328
 3	1	0	0	21.69799805	2.792358398	3.616333008
 4	0	1	0	12.86315918	25.49743652	11.62719727
 5	0	0	1	0.8697509766	7.415771484	27.05383301
 6	0	0	0	0.1373291016	0.1831054688	0.2288818359
 7	1	1	1	35.75134277	35.4309082	41.97692871
 8	1	0	0	21.74377441	2.792358398	3.616333008
 9	0	1	0	12.81738281	25.54321289	11.67297363
 10	0	0	1	0.8697509766	7.415771484	27.00805664
 11	0	0	0	0.1373291016	0.1831054688	0.2288818359
 12	1	1	1	35.70556641	35.47668457	42.02270508
 13	1	0	0	21.60644531	2.792358398	3.616333008
 14	0	1	0	12.81738281	25.63476562	11.67297363
 15	0	0	1	0.8697509766	7.415771484	26.91650391
END_DATA
