data/calibration-000049.ti3
CTI3
DESCRIPTOR	"Calibration Target chart information 3"
ORIGINATOR	"ColorHug Factory"
DEVICE_CLASS	"DISPLAY"
COLOR_REP	"RGB_XYZ"
TARGET_INSTRUMENT	"ColorHug"
INSTRUMENT_TYPE_SPECTRAL	"NO"
LUMINANCE_XYZ_CDM2	"49.346924 38.406372 42.320251"
NORMALIZED_TO_Y_100	"YES"
NUMBER_OF_FIELDS	7
NUMBER_OF_SETS	836
BEGIN_DATA_FORMAT
 SAMPLE_ID	RGB_R	RGB_G	RGB_B	XYZ_X	XYZ_Y	XYZ_Z
END_DATA_FORMAT
BEGIN_DATA
 1	100	100	100	124.7619048	99.76190476	110
 2	100	100	100	129.5238095	99.88095238	110.1190476
 3	100	100	100	129.7619048	100	110
 4	100	100	100	129.2857143	99.88095238	110.1190476
 5	33.33	32.622	30.968	11.30952381	8.69047619	8.928571429
 6	100	0	100	82.38095238	27.02380952	77.97619048
 7	100	100	0	126.7857143	81.54761905	44.16666667
 8	0	100	100	58.21428571	91.42857143	97.97619048
 9	0	100	0	44.52380952	72.97619048	32.14285714
 10	0	0	100	2.5	18.57142857	66.42857143
 11	100	0	0	79.64285714	8.80952381	12.14285714
 12	0	0	0	73.21428571	0.4761904762	0.5952380952
 13	0	52.455	100	12.38095238	35.71428571	73.80952381
 14	100	0	50.3	81.30952381	12.61904762	25.83333333
 15	100	54.739	100	94.52380952	45.5952381	86.42857143
 16	100	52.128	0	91.42857143	25.23809524	19.4047619
 17	0	0	46.181	0.8333333333	3.452380952	11.42857143
 18	0	51.141	0	10.11904762	16.30952381	7.5
 19	0	100	51.348	45.23809524	77.02380952	46.42857143
 20	100	100	52.037	126.6666667	85.5952381	59.16666667
 21	49.216	0	0	16.54761905	2.142857143	2.857142857
 22	56.159	100	0	66.78571429	75.47619048	35.35714286
 23	49.226	100	100	62.85714286	93.21428571	100.4761905
 24	44.487	0	100	15.23809524	20	68.33333333
 25	100	44.498	52.029	88.69047619	24.88095238	32.02380952
 26	48.926	48.544	100	27.02380952	34.52380952	75.23809524
 27	51.368	100	47.25	62.97619048	78.45238095	46.9047619
 28	49.893	0	49.033	18.57142857	5.833333333	15.83333333
 29	53.109	51.372	0	29.4047619	18.33333333	10.23809524
 30	0	58.587	53.943	14.04761905	26.19047619	25.71428571
 31	100	28.065	100	85	31.66666667	80.47619048
 32	0	0	72.874	16.30952381	8.80952381	30.95238095
 33	0	26.758	100	4.642857143	22.61904762	68.33333333
 34	0	25.426	0	2.738095238	4.166666667	2.142857143
 35	72.508	0	100	39.64285714	22.61904762	72.02380952
 36	100	27.395	0	83.80952381	13.0952381	14.04761905
 37	74.47	100	100	87.14285714	95.47619048	103.9285714
 38	100	0	25.728	80.5952381	9.761904762	15.47619048
 39	73.862	0	0	40.23809524	4.642857143	6.30952381
 40	100	100	25.402	126.3095238	82.02380952	47.61904762
 41	0	75.751	100	25.83333333	56.66666667	83.21428571
 42	0	75.172	0	23.33333333	37.14285714	16.66666667
 43	0	100	25.864	44.52380952	74.04761905	35.47619048
 44	100	0	74.801	81.66666667	17.85714286	45
 45	0	100	75.421	45.95238095	82.26190476	65.95238095
 46	24.577	0	0	4.285714286	0.9523809524	1.19047619
 47	26.321	100	0	48.69047619	73.33333333	32.85714286
 48	100	75.835	0	105.7142857	46.9047619	29.04761905
 49	100	100	77.061	127.6190476	91.19047619	79.76190476
 50	71.263	100	0	81.78571429	77.38095238	37.61904762
 51	0	0	15.614	0.5952380952	0.8333333333	1.785714286
 52	0	30.049	70.936	4.404761905	13.57142857	31.54761905
 53	100	77.691	100	108.6904762	67.61904762	95.83333333
 54	24.486	100	100	50.47619048	91.78571429	98.80952381
 55	100	62.784	31.909	96.9047619	35.35714286	28.33333333
 56	29.552	0	100	7.738095238	19.16666667	67.14285714
 57	32.98	70.921	100	29.28571429	51.54761905	81.9047619
 58	0	27.681	40.241	3.452380952	7.142857143	10.71428571
 59	67.901	71.021	100	55.71428571	55.11904762	85.71428571
 60	28.154	100	67.829	50	80.47619048	59.52380952
 61	71.637	100	70.001	83.45238095	85	66.07142857
 62	58.822	58.763	53.586	38.33333333	28.57142857	28.92857143
 63	33.466	30.48	0	10.95238095	6.428571429	3.928571429
 64	100	73.795	71.277	104.8809524	52.61904762	57.38095238
 65	68.394	29.692	0	36.66666667	8.928571429	7.619047619
 66	70.399	0	29.039	36.07142857	5.476190476	9.880952381
 67	28.078	0	26.956	5.595238095	2.023809524	4.880952381
 68	28.532	72.339	0	26.54761905	35	16.19047619
 69	100	30.941	26.496	84.52380952	15.35714286	18.0952381
 70	34.597	0	73.611	9.523809524	9.880952381	32.97619048
 71	71.573	0	72.408	37.85714286	12.73809524	36.42857143
 72	0	71.029	29.412	20.95238095	34.4047619	19.28571429
 73	68.386	75.008	0	56.78571429	40.95238095	21.54761905
 74	68.088	27.309	100	37.5	26.42857143	72.85714286
 75	100	26.457	73.749	84.28571429	21.78571429	45.71428571
 76	74.344	100	27.392	85.71428571	78.45238095	41.9047619
 77	27.558	100	28.197	49.4047619	74.52380952	36.66666667
 78	31.196	27.465	100	10.95238095	23.69047619	69.04761905
 79	0	75.521	72.824	24.52380952	46.54761905	47.61904762
 80	0	50.93	25.553	10.11904762	17.02380952	10.71428571
 81	32.06	33.584	64.033	11.54761905	14.04761905	27.26190476
 82	81.666	55.38	0	62.38095238	24.52380952	16.07142857
 83	68.257	32.751	58.286	38.21428571	15.35714286	26.78571429
 84	0	55.248	81.585	13.0952381	30.47619048	48.92857143
 85	73.781	52.099	100	51.9047619	39.52380952	79.4047619
 86	100	50.537	82.952	91.9047619	36.07142857	61.07142857
 87	23.55	0	50.439	4.404761905	4.642857143	14.52380952
 88	31.335	62.746	31.114	22.14285714	27.38095238	17.14285714
 89	100	18.31	49.418	81.78571429	14.4047619	26.30952381
 90	26.498	48.404	0	13.57142857	15	7.380952381
 91	47.91	100	85.744	60.95238095	87.5	80.11904762
 92	71.829	47.313	31.811	46.42857143	19.28571429	17.02380952
 93	31.304	64.132	69.316	23.80952381	34.76190476	40.35714286
 94	80.403	0	54.321	48.80952381	10	23.57142857
 95	18.455	50.036	100	13.92857143	34.28571429	73.21428571
 96	50.653	100	16.345	61.9047619	75.23809524	36.19047619
 97	80.121	100	52.261	94.16666667	82.5	54.16666667
 98	0	22.54	19.289	2.380952381	3.928571429	3.80952381
 99	100	75.273	46.886	105.3571429	48.92857143	40.47619048
 100	0	78.618	56.625	26.42857143	46.54761905	36.19047619
 101	51.137	80.627	100	46.54761905	64.28571429	88.33333333
 102	48.446	0	17.864	16.07142857	2.619047619	4.523809524
 103	100	50.023	21.211	90.71428571	24.76190476	21.19047619
 104	50.115	20.118	0	18.80952381	4.642857143	4.047619048
 105	58.099	72.426	33.158	44.88095238	38.57142857	24.4047619
 106	19.364	100	50.197	47.61904762	76.9047619	46.42857143
 107	50.683	19.177	100	20.95238095	22.61904762	69.76190476
 108	53.37	0	81.576	20.95238095	13.69047619	43.80952381
 109	47.768	76.245	0	38.92857143	40.11904762	19.52380952
 110	0	18.927	55.503	2.380952381	7.261904762	18.0952381
 111	0	13.277	0	1.19047619	1.547619048	1.071428571
 112	72.862	72.473	75.625	60.47619048	47.97619048	55
 113	100	13.904	0	81.78571429	10	12.73809524
 114	86.349	0	100	58.80952381	24.76190476	74.64285714
 115	100	41.941	100	88.69047619	37.5	82.38095238
 116	100	81.785	16.464	110.2380952	54.28571429	33.45238095
 117	0	44.063	52.596	8.095238095	16.30952381	20.5952381
 118	0	0	58.917	1.19047619	5.714285714	19.4047619
 119	59.25	24.551	29.789	27.02380952	7.738095238	10
 120	82.73	82.874	100	82.5	70.71428571	94.28571429
 121	80.039	0	12.618	47.73809524	5.833333333	8.452380952
 122	60.957	47.729	77.817	35.71428571	26.9047619	46.19047619
 123	100	0	38.618	80.71428571	10.95238095	20
 124	0	40.09	100	8.095238095	28.21428571	70.35714286
 125	0	15.283	82.322	2.380952381	13.0952381	41.9047619
 126	17.592	81.726	100	32.02380952	64.16666667	86.66666667
 127	100	14.13	100	82.85714286	28.33333333	78.57142857
 128	15.261	100	82.059	47.14285714	84.28571429	73.69047619
 129	47.77	79.418	60.389	41.66666667	50	41.54761905
 130	18.768	16.429	0	3.69047619	2.380952381	1.666666667
 131	55.634	100	65.763	65.95238095	82.14285714	59.64285714
 132	100	100	38.541	126.7857143	83.33333333	52.14285714
 133	17.421	0	83.497	3.571428571	12.38095238	42.85714286
 134	17.237	16.758	100	5.119047619	20.47619048	67.61904762
 135	0	15.067	30.039	1.547619048	3.095238095	5.595238095
 136	0	0	86.505	2.023809524	13.0952381	46.54761905
 137	75.736	72.799	50.02	63.92857143	42.85714286	35.23809524
 138	100	83.323	85.529	112.5	68.33333333	78.21428571
 139	100	100	64.894	127.8571429	87.85714286	68.33333333
 140	81.98	84.914	0	82.02380952	54.76190476	29.4047619
 141	0	63.757	15.49	16.30952381	26.30952381	12.97619048
 142	49.514	66.135	100	35.83333333	48.33333333	81.19047619
 143	100	0	61.862	80.5952381	14.76190476	33.57142857
 144	24.308	45.41	49.831	12.5	16.9047619	19.88095238
 145	15.963	0	17.047	2.261904762	1.19047619	2.380952381
 146	87.497	100	100	105.7142857	97.14285714	106.7857143
 147	52.099	25.003	75.752	21.78571429	15.35714286	38.69047619
 148	14.909	81.162	0	29.04761905	44.4047619	20
 149	0	34.792	14.626	4.880952381	7.738095238	4.880952381
 150	48.39	45.075	22.552	23.57142857	14.88095238	10.71428571
 151	83.545	65.965	100	72.38095238	52.02380952	86.19047619
 152	16.226	62.345	0	17.26190476	24.88095238	11.42857143
 153	63.222	0	14.914	28.33333333	3.80952381	5.833333333
 154	80.449	13.446	0	49.28571429	6.666666667	8.095238095
 155	83.917	41.562	0	59.4047619	16.07142857	12.61904762
 156	100	60.448	46.3	96.30952381	35.11904762	34.04761905
 157	15.584	0	34.795	2.261904762	2.380952381	6.785714286
 158	17.144	65.121	100	20.83333333	46.30952381	78.69047619
 159	83.602	55.334	62.667	65.5952381	31.07142857	38.33333333
 160	0	82.19	14.22	28.57142857	46.07142857	21.54761905
 161	25.132	74.856	50.616	27.38095238	41.19047619	30.95238095
 162	0	13.769	100	2.857142857	19.88095238	66.78571429
 163	87.181	0	0	57.61904762	6.666666667	8.928571429
 164	0	100	39.19	45	74.64285714	40
 165	78.047	65.914	19.865	63.0952381	33.45238095	21.30952381
 166	100	63.961	15.865	97.5	35.11904762	25.11904762
 167	100	45.955	36.032	88.0952381	23.33333333	24.4047619
 168	15.926	100	16.89	46.66666667	73.57142857	33.80952381
 169	41.459	100	0	55.47619048	73.92857143	33.69047619
 170	48.707	37.288	48.139	21.78571429	13.80952381	18.92857143
 171	83.381	100	13.285	97.38095238	78.80952381	40.83333333
 172	78.129	25.303	75.621	48.33333333	18.33333333	42.5
 173	12.396	0	0	1.666666667	0.7142857143	0.8333333333
 174	37.607	48.336	83.346	19.28571429	27.38095238	50.83333333
 175	35.588	15.356	0	9.285714286	2.857142857	2.5
 176	61.245	100	100	72.14285714	93.92857143	101.9047619
 177	100	67.29	87.195	100.4761905	51.07142857	72.14285714
 178	0	0	30.615	0.7142857143	1.904761905	5.238095238
 179	35.187	81.789	83.323	37.14285714	58.45238095	64.04761905
 180	39.525	80.194	22.879	37.02380952	45.23809524	23.45238095
 181	50.634	34.593	0	22.14285714	9.285714286	6.19047619
 182	14.175	100	63.146	46.30952381	79.16666667	54.88095238
 183	83.493	17.728	34.574	53.57142857	9.523809524	15.11904762
 184	23.463	22.014	79.943	6.904761905	14.28571429	40.47619048
 185	18.066	31.847	0	6.30952381	6.547619048	3.452380952
 186	87.201	100	81.361	104.4047619	90	81.30952381
 187	0	100	87.95	45.71428571	86.30952381	80.71428571
 188	34.476	17.888	46.22	9.404761905	6.30952381	13.69047619
 189	18.277	0	67.39	3.333333333	7.857142857	26.42857143
 190	100	87.972	0	115.5952381	62.14285714	35.83333333
 191	82.925	34.85	100	57.61904762	31.42857143	77.38095238
 192	0	88.016	100	34.88095238	72.14285714	88.80952381
 193	36.104	85.655	100	41.42857143	69.52380952	89.76190476
 194	60.981	0	0	26.19047619	3.333333333	4.404761905
 195	51.466	61.826	78.106	34.16666667	36.78571429	50.35714286
 196	78.427	31.983	22.175	48.80952381	11.78571429	12.26190476
 197	66.017	44.321	0	38.57142857	15.5952381	10.23809524
 198	83.941	0	84.177	54.16666667	18.0952381	51.42857143
 199	20.158	46.612	23.269	11.07142857	14.52380952	9.404761905
 200	0	100	62.618	44.76190476	78.57142857	54.28571429
 201	33.832	0	13.933	7.738095238	1.666666667	2.738095238
 202	100	17.286	16.322	81.42857143	10.95238095	14.4047619
 203	0	42.204	83.926	8.214285714	23.0952381	48.33333333
 204	0	87.774	0	32.85714286	52.61904762	23.57142857
 205	64.988	0	59.017	30.71428571	8.928571429	24.04761905
 206	14.677	0	100	3.69047619	18.92857143	66.42857143
 207	88.934	82.673	35.021	89.28571429	54.16666667	36.07142857
 208	0	63.778	100	18.21428571	44.76190476	78.21428571
 209	83.429	17.674	100	55.35714286	25.95238095	75.23809524
 210	30.899	100	85.668	51.42857143	85.47619048	78.45238095
 211	83.68	0	41.016	53.21428571	8.452380952	17.02380952
 212	100	63.515	0	96.30952381	34.04761905	23.33333333
 213	85.074	69.987	0	74.4047619	37.5	22.26190476
 214	20.801	45.524	69.018	11.66666667	20.83333333	33.69047619
 215	21.382	82.482	73.017	32.5	55.47619048	52.5
 216	100	15.128	64.249	81.78571429	16.66666667	36.19047619
 217	36.522	0	58.427	9.642857143	6.547619048	20.35714286
 218	22.466	81.296	33.007	31.07142857	46.66666667	26.07142857
 219	62.531	87.152	0	59.52380952	55.35714286	27.26190476
 220	84.12	85.397	67.886	85.11904762	62.97619048	56.9047619
 221	18.87	27.336	45.389	5.833333333	8.095238095	13.57142857
 222	66.439	100	14.444	75.23809524	76.66666667	37.85714286
 223	41.636	22.147	19.003	14.16666667	5.119047619	5.357142857
 224	61.271	100	81.94	71.19047619	86.54761905	76.30952381
 225	86.013	100	0	100.7142857	78.33333333	40.35714286
 226	37.57	0	0	9.404761905	1.547619048	1.904761905
 227	100	16.132	84.102	82.26190476	22.38095238	56.66666667
 228	0	100	13.619	44.88095238	72.97619048	33.0952381
 229	38.905	100	56.471	54.64285714	78.57142857	50.95238095
 230	100	15.382	34.563	81.42857143	12.02380952	19.04761905
 231	36.656	14.908	100	11.54761905	20.95238095	68.69047619
 232	0	62.593	66.608	16.30952381	32.02380952	36.42857143
 233	66.347	12.528	100	33.92857143	22.97619048	71.78571429
 234	100	43.375	69.233	88.21428571	27.73809524	45
 235	100	56.36	61.236	93.33333333	34.28571429	42.14285714
 236	0	86.194	44.955	31.9047619	53.69047619	33.57142857
 237	64.527	87.262	100	63.45238095	73.92857143	93.80952381
 238	34.411	0	42.471	8.214285714	3.928571429	11.07142857
 239	80.23	59.707	85.12	62.61904762	40.47619048	62.38095238
 240	20.625	19.056	14.791	4.642857143	3.333333333	3.095238095
 241	15.341	34.221	100	7.976190476	25.83333333	69.76190476
 242	36.777	0	87.905	10.35714286	14.64285714	49.76190476
 243	34.598	56.247	100	22.02380952	39.16666667	76.30952381
 244	20.86	67.629	17.418	21.42857143	30.35714286	15.35714286
 245	44.958	60.843	18.054	28.21428571	25.5952381	14.4047619
 246	37.421	60.193	0	23.45238095	23.92857143	11.78571429
 247	84.011	33.849	42.612	57.97619048	15.47619048	20.83333333
 248	17.241	60.339	37.743	17.02380952	25.35714286	18.21428571
 249	50.65	17.261	53.278	19.4047619	8.452380952	19.28571429
 250	45.505	48.926	65.152	23.80952381	23.0952381	33.0952381
 251	44.567	84.081	39.649	43.0952381	52.02380952	31.78571429
 252	100	86.339	72.054	114.8809524	68.69047619	65
 253	68.14	61.135	0	47.73809524	26.9047619	15.47619048
 254	17.93	66.986	81.403	21.78571429	40.71428571	53.69047619
 255	39.242	60.215	48.926	24.88095238	27.61904762	24.76190476
 256	20.099	18.77	62.967	5	9.047619048	24.04761905
 257	34.553	100	14.582	51.66666667	73.80952381	34.4047619
 258	87.345	0	66.694	59.16666667	13.69047619	34.4047619
 259	0	43.714	39.842	7.857142857	14.28571429	13.80952381
 260	100	37.705	13.955	85.23809524	17.61904762	16.9047619
 261	31.265	86.993	0	38.33333333	52.5	24.04761905
 262	51.402	82.661	81.338	47.5	59.4047619	63.57142857
 263	100	100	12.984	126.547619	81.42857143	45
 264	0	37.859	0	5.714285714	8.80952381	4.285714286
 265	62.092	58.215	100	41.66666667	42.97619048	79.88095238
 266	86.186	100	64.1	102.0238095	85.11904762	64.04761905
 267	100	35.251	85.898	85.47619048	28.80952381	60.83333333
 268	63.182	89.992	41.974	62.97619048	62.14285714	38.45238095
 269	13.504	100	0	45.71428571	72.73809524	32.26190476
 270	100	0	13.228	79.88095238	9.166666667	13.0952381
 271	63.881	40.826	100	37.14285714	31.78571429	75.35714286
 272	69.387	84.838	20.792	64.4047619	53.80952381	29.28571429
 273	0	70.279	45.136	20.5952381	35.35714286	25.47619048
 274	79.094	64.754	40.908	62.85714286	34.4047619	27.85714286
 275	62.385	54.099	17.396	38.45238095	21.66666667	13.92857143
 276	64.408	14.621	0	30.23809524	5	5.476190476
 277	70.028	15.606	44.651	36.30952381	8.571428571	16.78571429
 278	0	63.544	0	16.30952381	25.83333333	11.78571429
 279	83.475	47.274	20.502	60.5952381	20.11904762	16.30952381
 280	55.866	0	32.671	22.02380952	4.285714286	9.166666667
 281	58.007	0	100	25.23809524	21.19047619	70.35714286
 282	100	0	87.698	81.78571429	22.14285714	60.11904762
 283	0	13.792	67.215	1.904761905	8.80952381	26.78571429
 284	84.123	17.001	58.549	54.28571429	13.0952381	27.97619048
 285	59.579	32.873	15.966	28.80952381	9.642857143	8.214285714
 286	10.41	32.998	28.659	5.476190476	8.095238095	7.619047619
 287	17.231	40.031	85.65	9.404761905	22.85714286	50.35714286
 288	37.568	41.561	10.108	15.71428571	11.78571429	7.023809524
 289	0	69.015	85.092	20.47619048	43.21428571	58.57142857
 290	14.442	100	36.187	45.83333333	74.88095238	39.16666667
 291	100	40.549	0	86.19047619	18.69047619	16.42857143
 292	82.143	45.435	78.429	59.28571429	28.21428571	50.35714286
 293	52.674	0	67.3	20	9.642857143	29.16666667
 294	0	87.868	66.793	33.80952381	60.71428571	49.28571429
 295	86.53	100	40.524	101.7857143	80.83333333	48.92857143
 296	71.777	85.586	67.232	69.04761905	61.66666667	53.92857143
 297	43.216	100	31.671	56.54761905	75.23809524	38.69047619
 298	39.245	32.908	85.845	15.5952381	20.47619048	50
 299	0	45.662	67.543	8.928571429	20.23809524	32.26190476
 300	12.161	100	100	47.38095238	91.42857143	98.57142857
 301	67.049	0	85.516	32.97619048	16.42857143	50.35714286
 302	100	89.041	100	116.6666667	82.02380952	102.6190476
 303	20.246	60.698	56.526	17.85714286	28.69047619	28.57142857
 304	52.177	55.457	40.416	30.71428571	23.80952381	20.23809524
 305	72.617	87.018	83.932	71.66666667	67.97619048	72.14285714
 306	40.512	16.723	66.475	12.85714286	10.35714286	27.97619048
 307	68.507	49.232	50.605	42.85714286	22.61904762	25.95238095
 308	65.622	100	54.525	75.5952381	80.83333333	53.0952381
 309	54.115	37.24	66.394	25.83333333	17.61904762	32.26190476
 310	100	76.138	31.267	105.5952381	48.45238095	34.04761905
 311	54.728	65.623	0	37.38095238	30	15.47619048
 312	63.126	12.526	64.37	29.16666667	10.95238095	28.69047619
 313	72.827	18.08	23.704	39.64285714	7.380952381	9.880952381
 314	23.268	15.278	34.947	5.119047619	4.047619048	7.976190476
 315	87.648	68.954	59.645	77.5	42.73809524	42.5
 316	0	85.595	85.198	32.38095238	62.73809524	67.38095238
 317	35.798	84.371	69.21	39.04761905	57.5	50.5952381
 318	36.062	47.494	35.919	17.5	16.9047619	14.4047619
 319	86.083	36.277	59.152	61.07142857	19.64285714	31.54761905
 320	58.21	100	30.361	67.73809524	76.30952381	40.35714286
 321	46.745	14.614	32.317	15.95238095	4.880952381	8.571428571
 322	81.573	73.869	86.954	73.80952381	54.16666667	70.5952381
 323	85.991	49.387	48.206	65.5952381	24.52380952	27.73809524
 324	28.062	87.906	19.654	38.33333333	54.88095238	26.66666667
 325	68.992	17.993	85.124	36.19047619	18.33333333	50.95238095
 326	100	66.147	100	99.52380952	55.23809524	90.95238095
 327	33.358	64.806	84.517	25.35714286	40	57.5
 328	41.351	17.736	80.522	13.92857143	14.52380952	42.5
 329	100	100	88.719	127.6190476	94.76190476	93.69047619
 330	66.336	0	44.32	31.78571429	6.785714286	15.5952381
 331	64.85	67.09	12.293	47.38095238	32.5	18.33333333
 332	15.262	31.268	63.277	6.19047619	12.61904762	25.83333333
 333	15.008	43.663	37.3	9.166666667	14.16666667	13.0952381
 334	0	57.895	38.078	13.45238095	23.33333333	17.26190476
 335	66.599	58.458	67.871	45.47619048	32.61904762	41.19047619
 336	59.191	18.651	15.215	25.71428571	5.476190476	6.30952381
 337	66.781	31.14	84.629	36.42857143	21.66666667	52.02380952
 338	88.033	85.158	52.14	90.71428571	60.23809524	45.83333333
 339	36.882	100	100	54.76190476	92.02380952	99.64285714
 340	26.102	33.094	17.006	8.69047619	7.738095238	5.595238095
 341	56.309	36.861	35.862	27.02380952	12.61904762	13.80952381
 342	45.839	65.587	67.033	31.66666667	36.78571429	40.35714286
 343	83.709	81.172	16.406	80	50.47619048	28.80952381
 344	0	48.132	13.005	9.047619048	14.64285714	7.738095238
 345	87.176	50.021	100	68.45238095	40.35714286	82.38095238
 346	51.219	84.244	13.73	47.38095238	50.35714286	25.11904762
 347	60.606	71.415	48.406	46.54761905	39.76190476	31.54761905
 348	0	11.359	12.718	1.19047619	1.666666667	1.904761905
 349	86.429	49.705	33.145	66.19047619	22.97619048	20.95238095
 350	34.056	40.958	100	15.83333333	29.52380952	72.26190476
 351	100	30.557	59.628	84.04761905	19.88095238	34.64285714
 352	88.497	26.902	13.449	62.26190476	11.19047619	12.14285714
 353	14.167	51.98	88.218	13.45238095	30.47619048	56.42857143
 354	13.784	12.983	49.37	2.976190476	5.357142857	14.16666667
 355	15.018	88.441	48.062	35.11904762	57.14285714	36.9047619
 356	87.79	25.769	89.215	62.38095238	24.4047619	60.83333333
 357	0	33.206	55.865	4.880952381	11.54761905	20.47619048
 358	74.324	76.029	35.536	64.28571429	44.28571429	29.52380952
 359	65.863	57.223	42.324	43.0952381	26.42857143	23.21428571
 360	30.893	54.646	13.136	17.97619048	19.76190476	10.47619048
 361	0	34.36	28.321	4.880952381	8.452380952	7.619047619
 362	15.443	77.087	85.116	27.5	52.02380952	62.5
 363	63.381	68.947	68.521	47.61904762	41.42857143	44.76190476
 364	69.733	27.566	42.917	37.85714286	11.30952381	17.38095238
 365	32.754	100	42.76	51.19047619	76.19047619	42.97619048
 366	47.096	29.481	34.829	18.57142857	8.928571429	11.19047619
 367	8.5451	71.948	62.695	22.5	40.35714286	37.61904762
 368	0	86.048	29.3	31.66666667	51.54761905	27.02380952
 369	53.697	51.572	85.367	31.07142857	31.42857143	55.5952381
 370	17.608	56.69	12.515	14.64285714	20.71428571	10.47619048
 371	90.638	14.414	49.227	64.04761905	12.14285714	23.45238095
 372	63.248	63.64	89.55	45.23809524	43.33333333	66.42857143
 373	100	85.976	58.455	113.3333333	64.64285714	53.69047619
 374	9.8311	28.027	7.5567	4.166666667	5.238095238	3.214285714
 375	89.831	64.313	69.506	79.04761905	40.83333333	49.28571429
 376	31.754	12.995	25.543	7.619047619	3.214285714	5.357142857
 377	75.914	45.966	64.957	50.11904762	24.28571429	36.42857143
 378	7.5735	50.695	58.941	11.07142857	21.78571429	26.78571429
 379	100	69.835	58.912	99.64285714	45.83333333	45.5952381
 380	32.211	34.376	48.339	11.9047619	11.54761905	17.14285714
 381	13.901	12.159	73.555	3.333333333	10.47619048	32.73809524
 382	87.071	9.028	77.653	58.57142857	17.14285714	45.83333333
 383	23.272	85.409	84.29	35.71428571	62.73809524	66.54761905
 384	93.289	39.48	26.145	73.0952381	17.61904762	17.85714286
 385	65.769	59.63	30.967	46.07142857	27.38095238	19.64285714
 386	100	32.265	41.803	83.80952381	17.5	24.04761905
 387	86.568	85.281	86.961	88.80952381	69.04761905	78.0952381
 388	52.577	86.83	30.016	50.71428571	55.5952381	30.47619048
 389	47.921	40.199	76.902	22.61904762	21.54761905	42.61904762
 390	22.36	86.619	61.58	35.71428571	58.0952381	45.11904762
 391	52.232	33.601	88.787	24.28571429	22.73809524	55.5952381
 392	0	28.523	86.267	4.523809524	17.85714286	48.33333333
 393	43.497	67.879	39.551	31.19047619	33.57142857	23.57142857
 394	39.877	45.261	0	18.33333333	13.80952381	7.5
 395	86.94	12.43	24.699	57.38095238	8.333333333	12.38095238
 396	28.363	55.339	90.398	18.69047619	34.28571429	61.42857143
 397	39.018	70.534	57.879	30.47619048	38.33333333	34.64285714
 398	12.833	28.519	78.828	5.476190476	15.5952381	40.35714286
 399	68.35	31.815	69.975	37.73809524	17.85714286	36.30952381
 400	56.52	26.226	41.626	25.83333333	9.285714286	14.76190476
 401	12.938	46.218	0	9.404761905	13.33333333	6.428571429
 402	8.6938	60.179	26.117	15.11904762	23.92857143	14.04761905
 403	51.995	89.429	96.608	53.92857143	74.64285714	88.45238095
 404	46.905	47.746	48.909	23.80952381	19.4047619	21.66666667
 405	14.352	81.814	19.479	29.4047619	46.07142857	22.38095238
 406	71.482	38.117	12.273	42.14285714	13.21428571	10.5952381
 407	86.616	60.785	10.012	71.66666667	30	19.64285714
 408	71.811	88.979	52.186	71.54761905	62.5	44.76190476
 409	43.213	100	72.083	57.14285714	82.14285714	64.64285714
 410	73.92	23.444	8.2853	41.42857143	7.976190476	8.214285714
 411	40.629	85.534	53.423	42.26190476	56.07142857	39.64285714
 412	38.955	52.128	22.885	20.47619048	18.69047619	11.9047619
 413	46.48	12.229	8.6707	15.35714286	3.214285714	3.69047619
 414	40.855	33.301	22.309	15.35714286	8.80952381	7.5
 415	76.365	66.787	61.06	61.07142857	39.16666667	40
 416	7.5076	12.025	20.59	1.785714286	2.142857143	3.333333333
 417	85.93	27.031	0	58.45238095	10.47619048	10.47619048
