data/calibration-001417.ti3
CTI3   
ORIGINATOR	"ColorHug Factory"
DESCRIPTOR	"Calibration Target chart information 3"
DEVICE_CLASS	"DISPLAY"
COLOR_REP	"RGB_XYZ"
TARGET_INSTRUMENT	"Hughski ColorHug"
INSTRUMENT_TYPE_SPECTRAL	"NO"
NORMALIZED_TO_Y_100	"NO"
NUMBER_OF_FIELDS	7
NUMBER_OF_SETS	15
BEGIN_DATA_FORMAT
 SAMPLE_ID	RGB_R	RGB_G	RGB_B	XYZ_X	XYZ_Y	XYZ_Z
END_DATA_FORMAT
BEGIN_DATA
 1	0	0	0	0.1831054688	0.2288818359	0.2746582031
 2	1	1	1	33.59985352	31.90612793	41.06140137
 3	1	0	0	20.32470703	2.471923828	3.433227539
 4	0	1	0	11.94763184	23.07128906	10.84899902
 5	0	0	1	0.8697509766	6.637573242	26.87072754
 6	0	0	0	0.1831054688	0.2288818359	0.2746582031
 7	1	1	1	33.50830078	31.72302246	41.015625
 8	1	0	0	20.27893066	2.471923828	3.433227539
 9	0	1	0	11.8560791	22.84240723	10.84899902
 10	0	0	1	0.8697509766	6.637573242	26.91650391
 11	0	0	0	0.1831054688	0.2288818359	0.2746582031
 12	1	1	1	33.55407715	31.86035156	41.015625
 13	1	0	0	20.27893066	2.471923828	3.433227539
 14	0	1	0	11.8560791	22.75085449	10.89477539
 15	0	0	1	0.8697509766	6.637573242	26.91650391
END_DATA
