data/calibration-002297.ti3
CTI3   
ORIGINATOR	"ColorHug Factory"
CREATED	"Tue Jan 21 19:57:32 2014"
DESCRIPTOR	"Calibration Target chart information 3"
DEVICE_CLASS	"DISPLAY"
COLOR_REP	"RGB_XYZ"
TARGET_INSTRUMENT	"Hughski ColorHug"
INSTRUMENT_TYPE_SPECTRAL	"NO"
NORMALIZED_TO_Y_100	"NO"
NUMBER_OF_FIELDS	7
NUMBER_OF_SETS	15
BEGIN_DATA_FORMAT
 SAMPLE_ID	RGB_R	RGB_G	RGB_B	XYZ_X	XYZ_Y	XYZ_Z
END_DATA_FORMAT
BEGIN_DATA
 1.0	0.0	0.0	0.0	0.289855957031	0.246322631836	0.344024658203
 2.0	1.0	1.0	1.0	71.859634399414	33.436721801758	52.851608276367
 3.0	1.0	0.0	0.0	44.765014648438	3.733810424805	6.005859375
 4.0	0.0	1.0	0.0	22.321517944336	21.614761352539	11.10026550293
 5.0	0.0	0.0	1.0	1.506988525391	8.454071044922	35.929809570312
 6.0	0.0	0.0	0.0	0.289672851562	0.2490234375	0.344375610352
 7.0	1.0	1.0	1.0	71.234771728516	33.573760986328	53.194793701172
 8.0	1.0	0.0	0.0	45.010986328125	3.745758056641	6.014678955078
 9.0	0.0	1.0	0.0	22.321517944336	21.614761352539	11.160751342773
 10.0	0.0	0.0	1.0	1.513671875	8.445358276367	35.617385864258
 11.0	0.0	0.0	0.0	0.289611816406	0.247802734375	0.34440612793
 12.0	1.0	1.0	1.0	71.234771728516	33.711929321289	53.194793701172
 13.0	1.0	0.0	0.0	45.259658813477	3.756072998047	5.970840454102
 14.0	0.0	1.0	0.0	22.260864257812	21.501312255859	11.130432128906
 15.0	0.0	0.0	1.0	1.505325317383	8.489105224609	35.772918701172
END_DATA
