data/calibration-001635.ti3
CTI3   
ORIGINATOR	"ColorHug Factory"
DESCRIPTOR	"Calibration Target chart information 3"
DEVICE_CLASS	"DISPLAY"
COLOR_REP	"RGB_XYZ"
TARGET_INSTRUMENT	"Hughski ColorHug"
INSTRUMENT_TYPE_SPECTRAL	"NO"
NORMALIZED_TO_Y_100	"NO"
NUMBER_OF_FIELDS	7
NUMBER_OF_SETS	15
BEGIN_DATA_FORMAT
 SAMPLE_ID	RGB_R	RGB_G	RGB_B	XYZ_X	XYZ_Y	XYZ_Z
END_DATA_FORMAT
BEGIN_DATA
 1	0	0	0	0.04577636719	0.04577636719	0.09155273438
 2	1	1	1	35.11047363	32.73010254	39.45922852
 3	1	0	0	21.19445801	2.655029297	3.616333008
 4	0	1	0	12.49694824	23.48327637	11.07788086
 5	0	0	1	0.7781982422	6.774902344	24.85656738
 6	0	0	0	0.04577636719	0.04577636719	0.09155273438
 7	1	1	1	34.97314453	32.77587891	39.50500488
 8	1	0	0	21.33178711	2.655029297	3.616333008
 9	0	1	0	12.54272461	23.39172363	11.07788086
 10	0	0	1	0.7781982422	6.820678711	24.90234375
 11	0	0	0	0.04577636719	0.09155273438	0.09155273438
 12	1	1	1	35.20202637	32.82165527	39.45922852
 13	1	0	0	21.33178711	2.655029297	3.616333008
 14	0	1	0	12.45117188	23.39172363	11.07788086
 15	0	0	1	0.7781982422	6.820678711	24.81079102
END_DATA
