data/calibration-002851.ti3
CTI3   
ORIGINATOR	"ColorHug Factory"
CREATED	"Tue May 05 22:00:56 2015"
DESCRIPTOR	"Calibration Target chart information 3"
DEVICE_CLASS	"DISPLAY"
COLOR_REP	"RGB_XYZ"
TARGET_INSTRUMENT	"Hughski ColorHug"
INSTRUMENT_TYPE_SPECTRAL	"NO"
NORMALIZED_TO_Y_100	"NO"
NUMBER_OF_FIELDS	7
NUMBER_OF_SETS	15
BEGIN_DATA_FORMAT
 SAMPLE_ID	RGB_R	RGB_G	RGB_B	XYZ_X	XYZ_Y	XYZ_Z
END_DATA_FORMAT
BEGIN_DATA
 1.0	0.0	0.0	0.0	0.40251159668	0.4501953125	0.54997253418
 2.0	1.0	1.0	1.0	105.025634765625	105.025634765625	115.380279541016
 3.0	1.0	0.0	0.0	72.495574951172	7.21125793457	11.10026550293
 4.0	0.0	1.0	0.0	27.215942382812	73.801788330078	29.361999511719
 5.0	0.0	0.0	1.0	3.493377685547	21.787231445312	71.859634399414
 6.0	0.0	0.0	0.0	0.40217590332	0.448211669922	0.547653198242
 7.0	1.0	1.0	1.0	105.025634765625	105.025634765625	115.380279541016
 8.0	1.0	0.0	0.0	71.859634399414	7.21125793457	11.085235595703
 9.0	0.0	1.0	0.0	27.215942382812	73.801788330078	29.361999511719
 10.0	0.0	0.0	1.0	3.493377685547	21.787231445312	71.859634399414
 11.0	0.0	0.0	0.0	0.401580810547	0.447296142578	0.547622680664
 12.0	1.0	1.0	1.0	105.025634765625	105.025634765625	115.380279541016
 13.0	1.0	0.0	0.0	71.859634399414	7.21125793457	11.085235595703
 14.0	0.0	1.0	0.0	27.215942382812	73.801788330078	29.361999511719
 15.0	0.0	0.0	1.0	3.491897583008	21.787231445312	71.859634399414
END_DATA
