data/calibration-002040.ti3
CTI3   
ORIGINATOR	"ColorHug Factory"
CREATED	"Sun May 26 11:29:28 2013"
DESCRIPTOR	"Calibration Target chart information 3"
DEVICE_CLASS	"DISPLAY"
COLOR_REP	"RGB_XYZ"
TARGET_INSTRUMENT	"Hughski ColorHug"
INSTRUMENT_TYPE_SPECTRAL	"NO"
NORMALIZED_TO_Y_100	"NO"
NUMBER_OF_FIELDS	7
NUMBER_OF_SETS	15
BEGIN_DATA_FORMAT
 SAMPLE_ID	RGB_R	RGB_G	RGB_B	XYZ_X	XYZ_Y	XYZ_Z
END_DATA_FORMAT
BEGIN_DATA
 1	0	0	0	0.091552734375	0	0
 2	1	1	1	31.9976806640625	35.064697265625	45.4559326171875
 3	1	0	0	19.134521484375	2.4261474609375	3.0670166015625
 4	0	1	0	11.6729736328125	24.810791015625	11.077880859375
 5	0	0	1	0.732421875	7.87353515625	31.494140625
 6	0	0	0	0	0	0
 7	1	1	1	32.135009765625	35.064697265625	45.5474853515625
 8	1	0	0	19.04296875	2.4261474609375	3.0670166015625
 9	0	1	0	11.6729736328125	24.71923828125	11.1236572265625
 10	0	0	1	0.732421875	7.87353515625	31.219482421875
 11	0	0	0	0.091552734375	0	0
 12	1	1	1	32.135009765625	35.064697265625	45.5474853515625
 13	1	0	0	19.1802978515625	2.4261474609375	3.0670166015625
 14	0	1	0	11.71875	24.8565673828125	11.077880859375
 15	0	0	1	0.732421875	7.8277587890625	31.494140625
END_DATA
