data/calibration-000976.ti3
CTI3   
ORIGINATOR	"ColorHug Factory"
DESCRIPTOR	"Calibration Target chart information 3"
DEVICE_CLASS	"DISPLAY"
COLOR_REP	"RGB_XYZ"
TARGET_INSTRUMENT	"Hughski ColorHug"
INSTRUMENT_TYPE_SPECTRAL	"NO"
NORMALIZED_TO_Y_100	"NO"
NUMBER_OF_FIELDS	7
NUMBER_OF_SETS	15
BEGIN_DATA_FORMAT
 SAMPLE_ID	RGB_R	RGB_G	RGB_B	XYZ_X	XYZ_Y	XYZ_Z
END_DATA_FORMAT
BEGIN_DATA
 1	0	0	0	0	0.04577636719	0.04577636719
 2	1	1	1	54.79431152	36.71264648	43.48754883
 3	1	0	0	34.42382812	3.387451172	5.310058594
 4	0	1	0	18.03588867	26.04675293	12.22229004
 5	0	0	1	0.8239746094	7.00378418	25.58898926
 6	0	0	0	0	0.04577636719	0.04577636719
 7	1	1	1	54.65698242	36.48376465	43.48754883
 8	1	0	0	34.28649902	3.387451172	5.310058594
 9	0	1	0	17.9901123	25.9552002	12.1307373
 10	0	0	1	0.8239746094	7.00378418	25.58898926
 11	0	0	0	0	0.04577636719	0.04577636719
 12	1	1	1	54.29077148	36.43798828	43.30444336
 13	1	0	0	34.28649902	3.387451172	5.310058594
 14	0	1	0	18.08166504	25.9552002	12.22229004
 15	0	0	1	0.8239746094	7.00378418	25.58898926
END_DATA
