data/calibration-000247.ti3
CTI3
DESCRIPTOR	"Calibration Target chart information 3"
ORIGINATOR	"ColorHug Factory"
DEVICE_CLASS	"DISPLAY"
COLOR_REP	"RGB_XYZ"
TARGET_INSTRUMENT	"ColorHug"
INSTRUMENT_TYPE_SPECTRAL	"NO"
LUMINANCE_XYZ_CDM2	"43.041229 33.279419 37.914276"
NORMALIZED_TO_Y_100	"YES"
NUMBER_OF_FIELDS	7
NUMBER_OF_SETS	836
BEGIN_DATA_FORMAT
 SAMPLE_ID	RGB_R	RGB_G	RGB_B	XYZ_X	XYZ_Y	XYZ_Z
END_DATA_FORMAT
BEGIN_DATA
 1	100	100	100	127.7854195	100	113.8927098
 2	100	100	100	130.261348	100	113.8927098
 3	100	100	100	129.7111417	100	114.0302613
 4	100	100	100	129.5735901	100	113.8927098
 5	33.33	32.622	30.968	11.41678129	8.665749656	9.215955983
 6	100	0	100	83.21870702	27.78541953	81.56808803
 7	100	100	0	129.4360385	81.43053645	44.7042641
 8	0	100	100	46.76753783	91.60935351	101.9257221
 9	0	100	0	45.11691884	73.03988996	32.5997249
 10	0	0	100	2.613480055	18.98211829	69.32599725
 11	100	0	0	81.56808803	8.94085282	12.37964237
 12	0	0	0	0.5502063274	0.5502063274	0.5502063274
 13	0	52.455	100	12.51719395	35.90096286	77.16643741
 14	100	0	50.3	82.39339752	12.92984869	26.68500688
 15	100	54.739	100	95.59834938	45.80467675	89.13342503
 16	100	52.128	0	92.15955983	25.17193948	19.6698762
 17	0	0	46.181	0.9628610729	3.576341128	11.96698762
 18	0	51.141	0	10.17881706	16.09353508	7.565337001
 19	0	100	51.348	44.97936726	76.61623109	47.31774415
 20	100	100	52.037	129.5735901	85.55708391	60.52269601
 21	49.216	0	0	16.6437414	2.200825309	2.888583219
 22	56.159	100	0	66.98762036	75.10316369	35.90096286
 23	49.226	100	100	62.8610729	92.98486933	103.7138927
 24	44.487	0	100	15.26822558	20.63273728	71.25171939
 25	100	44.498	52.029	89.68363136	24.89683631	32.87482806
 26	48.926	48.544	100	26.96011004	34.80055021	78.40440165
 27	51.368	100	47.25	62.31086657	78.26685007	47.7303989
 28	49.893	0	49.033	17.60660248	5.914718019	16.50618982
 29	53.109	51.372	0	29.43603851	18.1568088	10.31636864
 30	0	58.587	53.943	14.03026135	25.99724897	26.40990371
 31	100	28.065	100	85.69463549	32.04951857	83.49381018
 32	0	0	72.874	1.5130674	9.078404402	32.18707015
 33	0	26.758	100	4.676753783	23.10866575	71.25171939
 34	0	25.426	0	2.751031637	4.126547455	2.200825309
 35	72.508	0	100	39.88995873	23.10866575	75.37826685
 36	100	27.395	0	84.59422283	13.06740028	14.16781293
 37	74.47	100	100	88.30811554	96.01100413	107.8404402
 38	100	0	25.728	81.43053645	9.903713893	15.81843191
 39	73.862	0	0	39.88995873	4.676753783	6.327372765
 40	100	100	25.402	128.7482806	82.39339752	48.14305365
 41	0	75.751	100	25.7221458	56.53370014	85.96973865
 42	0	75.172	0	23.24621733	37.00137552	16.78129298
 43	0	100	25.864	44.7042641	73.59009629	35.90096286
 44	100	0	74.801	82.11829436	18.1568088	46.35488308
 45	0	100	75.421	45.66712517	81.98074278	68.08803301
 46	24.577	0	0	4.264099037	0.9628610729	1.100412655
 47	26.321	100	0	49.10591472	73.31499312	33.01237964
 48	100	75.835	0	106.1898212	46.62998624	29.43603851
 49	100	100	77.061	129.4360385	91.33425034	81.8431912
 50	71.263	100	0	82.53094911	76.06602476	37.96423659
 51	0	0	15.614	0.5502063274	0.8253094911	1.788170564
 52	0	30.049	70.936	4.401650619	13.6176066	32.5997249
 53	100	77.691	100	109.7661623	68.08803301	99.58734525
 54	24.486	100	100	50.06877579	91.47180193	102.0632737
 55	100	62.784	31.909	98.07427785	35.07565337	28.88583219
 56	29.552	0	100	7.840440165	19.6698762	70.15130674
 57	32.98	70.921	100	29.29848693	51.85694635	84.73177442
 58	0	27.681	40.241	3.438789546	7.015130674	11.00412655
 59	67.901	71.021	100	55.57083906	55.2957359	88.72077029
 60	28.154	100	67.829	50.48143054	80.60522696	60.24759285
 61	71.637	100	70.001	83.08115543	84.18156809	67.95048143
 62	58.822	58.763	53.586	37.82668501	28.61072902	29.5735901
 63	33.466	30.48	0	10.86657497	6.327372765	3.851444292
 64	100	73.795	71.277	105.914718	53.09491059	59.00962861
 65	68.394	29.692	0	36.72627235	8.803301238	7.565337001
 66	70.399	0	29.039	36.03851444	5.502063274	10.17881706
 67	28.078	0	26.956	5.639614856	2.063273728	4.951856946
 68	28.532	72.339	0	26.5474553	34.52544704	16.23108666
 69	100	30.941	26.496	84.869326	15.26822558	18.43191197
 70	34.597	0	73.611	8.94085282	10.17881706	34.52544704
 71	71.573	0	72.408	38.10178817	12.92984869	37.68913343
 72	0	71.029	29.412	20.77028886	34.25034388	19.53232462
 73	68.386	75.008	0	56.67125172	40.44016506	21.73314993
 74	68.088	27.309	100	37.68913343	26.82255846	76.34112792
 75	100	26.457	73.749	84.73177442	22.00825309	47.7303989
 76	74.344	100	27.392	86.51994498	78.26685007	42.64099037
 77	27.558	100	28.197	49.65612105	74.2778542	37.27647868
 78	31.196	27.465	100	11.00412655	24.07152682	72.35213205
 79	0	75.521	72.824	24.48418157	46.35488308	49.10591472
 80	0	50.93	25.553	10.17881706	16.78129298	10.86657497
 81	32.06	33.584	64.033	11.41678129	14.03026135	28.33562586
 82	81.666	55.38	0	62.17331499	24.34662999	16.09353508
 83	68.257	32.751	58.286	38.10178817	15.40577717	27.51031637
 84	0	55.248	81.585	12.92984869	30.39889959	50.7565337
 85	73.781	52.099	100	52.13204952	39.61485557	82.39339752
 86	100	50.537	82.952	92.29711142	36.03851444	63.27372765
 87	23.55	0	50.439	4.539202201	4.676753783	14.99312242
 88	31.335	62.746	31.114	22.14580468	26.96011004	17.46905089
 89	100	18.31	49.418	82.66850069	14.58046768	26.96011004
 90	26.498	48.404	0	13.48005502	14.71801926	7.42778542
 91	47.91	100	85.744	61.3480055	87.34525447	82.39339752
 92	71.829	47.313	31.811	45.94222834	19.11966988	17.19394773
 93	31.304	64.132	69.316	23.38376891	34.52544704	41.54057772
 94	80.403	0	54.321	49.10591472	10.17881706	24.2090784
 95	18.455	50.036	100	13.6176066	34.38789546	76.4786795
 96	50.653	100	16.345	62.31086657	74.9656121	36.45116919
 97	80.121	100	52.261	93.81017882	81.98074278	55.15818432
 98	0	22.54	19.289	2.338376891	3.851444292	3.851444292
 99	100	75.273	46.886	106.0522696	49.10591472	41.12792297
 100	0	78.618	56.625	26.13480055	46.07977992	36.86382393
 101	51.137	80.627	100	46.35488308	64.23658872	91.33425034
 102	48.446	0	17.864	15.95598349	2.613480055	4.539202201
 103	100	50.023	21.211	90.64649243	24.48418157	21.45804677
 104	50.115	20.118	0	18.43191197	4.539202201	3.988995873
 105	58.099	72.426	33.158	44.84181568	37.96423659	24.75928473
 106	19.364	100	50.197	46.90508941	76.61623109	47.04264099
 107	50.683	19.177	100	20.77028886	22.97111417	73.03988996
 108	53.37	0	81.576	20.90784044	13.89270977	45.66712517
 109	47.768	76.245	0	38.92709766	39.88995873	19.53232462
 110	0	18.927	55.503	2.200825309	7.290233838	18.56946355
 111	0	13.277	0	1.237964237	1.5130674	0.9628610729
 112	72.862	72.473	75.625	60.38514443	47.7303989	56.12104539
 113	100	13.904	0	81.70563961	10.04126547	12.79229711
 114	86.349	0	100	58.59697387	25.0343879	77.44154058
 115	100	41.941	100	89.13342503	37.96423659	85.96973865
 116	100	81.785	16.464	110.1788171	54.05777166	33.70013755
 117	0	44.063	52.596	7.977991747	16.09353508	21.04539202
 118	0	0	58.917	1.100412655	5.777166437	19.94497937
 119	59.25	24.551	29.789	26.96011004	7.565337001	10.04126547
 120	82.73	82.874	100	82.39339752	70.83906465	97.66162311
 121	80.039	0	12.618	48.00550206	5.777166437	8.528198074
 122	60.957	47.729	77.817	35.48830812	26.96011004	48.28060523
 123	100	0	38.618	81.29298487	11.14167813	20.35763411
 124	0	40.09	100	7.977991747	28.47317744	73.59009629
 125	0	15.283	82.322	2.338376891	13.20495186	43.74140303
 126	17.592	81.726	100	31.77441541	63.68638239	89.4085282
 127	100	14.13	100	83.08115543	28.88583219	81.56808803
 128	15.261	100	82.059	46.76753783	83.90646492	75.37826685
 129	47.77	79.418	60.389	41.81568088	49.2434663	42.36588721
 130	18.768	16.429	0	3.71389271	2.338376891	1.650618982
 131	55.634	100	65.763	66.43741403	81.8431912	61.48555708
 132	100	100	38.541	128.3356259	82.94360385	52.81980743
 133	17.421	0	83.497	3.576341128	12.51719395	44.84181568
 134	17.237	16.758	100	5.089408528	20.90784044	70.70151307
 135	0	15.067	30.039	1.5130674	3.163686382	5.777166437
 136	0	0	86.505	1.925722146	13.34250344	48.55570839
 137	75.736	72.799	50.02	64.3741403	42.77854195	36.03851444
 138	100	83.323	85.529	112.1045392	68.50068776	81.01788171
 139	100	100	64.894	128.7482806	87.8954608	69.60110041
 140	81.98	84.914	0	82.39339752	54.47042641	29.71114168
 141	0	63.757	15.49	16.23108666	25.85969739	13.06740028
 142	49.514	66.135	100	35.76341128	48.55570839	84.45667125
 143	100	0	61.862	81.70563961	14.99312242	34.52544704
 144	24.308	45.41	49.831	11.96698762	16.6437414	20.22008253
 145	15.963	0	17.047	2.200825309	1.100412655	2.338376891
 146	87.497	100	100	106.7400275	96.69876204	108.9408528
 147	52.099	25.003	75.752	21.73314993	15.40577717	40.1650619
 148	14.909	81.162	0	28.88583219	44.15405777	20.08253095
 149	0	34.792	14.626	4.814305365	7.565337001	4.814305365
 150	48.39	45.075	22.552	23.5213205	14.71801926	10.72902338
 151	83.545	65.965	100	72.35213205	52.2696011	89.54607978
 152	16.226	62.345	0	17.05639615	24.34662999	11.41678129
 153	63.222	0	14.914	28.33562586	3.851444292	5.914718019
 154	80.449	13.446	0	49.10591472	6.74002751	8.115543329
 155	83.917	41.562	0	59.00962861	15.81843191	12.65474553
 156	100	60.448	46.3	96.01100413	34.80055021	34.66299862
 157	15.584	0	34.795	2.338376891	2.338376891	7.015130674
 158	17.144	65.121	100	20.63273728	46.2173315	81.8431912
 159	83.602	55.334	62.667	65.61210454	30.81155433	39.33975241
 160	0	82.19	14.22	28.33562586	45.39202201	21.73314993
 161	25.132	74.856	50.616	27.2352132	40.85281981	31.49931224
 162	0	13.769	100	2.751031637	20.08253095	69.73865199
 163	87.181	0	0	58.45942228	6.602475928	8.94085282
 164	0	100	39.19	44.42916094	74.55295736	40.57771664
 165	78.047	65.914	19.865	62.72352132	33.14993122	21.45804677
 166	100	63.961	15.865	97.52407153	34.80055021	25.17193948
 167	100	45.955	36.032	89.13342503	23.24621733	24.62173315
 168	15.926	100	16.89	45.80467675	72.7647868	34.25034388
 169	41.459	100	0	55.2957359	73.4525447	33.97524072
 170	48.707	37.288	48.139	21.59559835	13.6176066	19.11966988
 171	83.381	100	13.285	98.07427785	78.40440165	41.26547455
 172	78.129	25.303	75.621	48.28060523	18.1568088	43.46629986
 173	12.396	0	0	1.650618982	0.6877579092	0.6877579092
 174	37.607	48.336	83.346	19.25722146	27.37276479	52.2696011
 175	35.588	15.356	0	9.353507565	2.751031637	2.338376891
 176	61.245	100	100	72.62723521	93.39752407	105.0894085
 177	100	67.29	87.195	100.6877579	51.03163686	74.82806052
 178	0	0	30.615	0.6877579092	1.788170564	5.364511692
 179	35.187	81.789	83.323	36.86382393	57.63411279	65.8872077
 180	39.525	80.194	22.879	36.72627235	44.84181568	23.5213205
 181	50.634	34.593	0	22.00825309	9.078404402	6.052269601
 182	14.175	100	63.146	45.94222834	79.09215956	55.98349381
 183	83.493	17.728	34.574	53.7826685	9.491059147	15.26822558
 184	23.463	22.014	79.943	6.74002751	14.30536451	42.22833563
 185	18.066	31.847	0	6.189821183	6.327372765	3.438789546
 186	87.201	100	81.361	105.3645117	89.68363136	83.3562586
 187	0	100	87.95	45.66712517	86.10729023	82.80605227
 188	34.476	17.888	46.22	9.353507565	6.327372765	14.03026135
 189	18.277	0	67.39	3.301237964	7.840440165	27.37276479
 190	100	87.972	0	116.3686382	61.89821183	36.31361761
 191	82.925	34.85	100	58.04676754	31.49931224	80.3301238
 192	0	88.016	100	34.80055021	72.21458047	93.25997249
 193	36.104	85.655	100	41.26547455	69.60110041	92.84731774
 194	60.981	0	0	25.99724897	3.301237964	4.264099037
 195	51.466	61.826	78.106	33.83768913	36.17606602	51.99449794
 196	78.427	31.983	22.175	48.83081155	11.69188446	12.24209078
 197	66.017	44.321	0	38.10178817	15.26822558	10.17881706
 198	83.941	0	84.177	54.60797799	18.29436039	53.50756534
 199	20.158	46.612	23.269	11.00412655	14.16781293	9.353507565
 200	0	100	62.618	44.84181568	78.26685007	55.2957359
 201	33.832	0	13.933	7.702888583	1.650618982	2.751031637
 202	100	17.286	16.322	82.11829436	11.00412655	14.44291609
 203	0	42.204	83.926	8.115543329	23.10866575	50.20632737
 204	0	87.774	0	32.5997249	52.68225585	23.65887208
 205	64.988	0	59.017	30.39889959	9.078404402	24.75928473
 206	14.677	0	100	3.576341128	19.11966988	69.46354883
 207	88.934	82.673	35.021	89.68363136	54.05777166	36.31361761
 208	0	63.778	100	17.74415406	44.42916094	80.3301238
 209	83.429	17.674	100	54.88308116	26.40990371	78.12929849
 210	30.899	100	85.668	51.58184319	85.96973865	81.01788171
 211	83.68	0	41.016	53.23246217	8.528198074	17.33149931
 212	100	63.515	0	96.56121045	33.70013755	23.5213205
 213	85.074	69.987	0	74.82806052	37.1389271	22.42090784
 214	20.801	45.524	69.018	11.55433287	20.63273728	34.66299862
 215	21.382	82.482	73.017	32.18707015	55.2957359	53.92022008
 216	100	15.128	64.249	82.39339752	16.78129298	37.00137552
 217	36.522	0	58.427	9.491059147	6.602475928	21.04539202
 218	22.466	81.296	33.007	30.94910591	46.07977992	26.27235213
 219	62.531	87.152	0	59.69738652	55.02063274	27.64786795
 220	84.12	85.397	67.886	85.41953232	62.72352132	57.90921596
 221	18.87	27.336	45.389	5.777166437	7.840440165	13.89270977
 222	66.439	100	14.444	75.92847318	76.20357634	38.10178817
 223	41.636	22.147	19.003	13.48005502	4.951856946	5.364511692
 224	61.271	100	81.94	71.66437414	86.79504814	78.95460798
 225	86.013	100	0	101.650619	78.40440165	40.99037139
 226	37.57	0	0	9.215955983	1.5130674	1.788170564
 227	100	16.132	84.102	82.39339752	22.696011	58.59697387
 228	0	100	13.619	44.42916094	72.48968363	33.28748281
 229	38.905	100	56.471	54.74552957	78.54195323	52.2696011
 230	100	15.382	34.563	81.8431912	11.96698762	19.25722146
 231	36.656	14.908	100	11.55433287	21.32049519	71.38927098
 232	0	62.593	66.608	16.09353508	31.63686382	37.41403026
 233	66.347	12.528	100	33.56258597	23.24621733	74.69050894
 234	100	43.375	69.233	88.72077029	27.64786795	45.80467675
 235	100	56.36	61.236	94.08528198	33.97524072	43.05364512
 236	0	86.194	44.955	31.77441541	53.50756534	33.83768913
 237	64.527	87.262	100	62.8610729	73.72764787	96.69876204
 238	34.411	0	42.471	8.115543329	3.988995873	11.27922971
 239	80.23	59.707	85.12	62.72352132	40.02751032	64.09903714
 240	20.625	19.056	14.791	4.539202201	3.163686382	3.163686382
 241	15.341	34.221	100	7.840440165	25.85969739	72.07702889
 242	36.777	0	87.905	10.17881706	14.85557084	51.85694635
 243	34.598	56.247	100	21.73314993	38.92709766	79.36726272
 244	20.86	67.629	17.418	21.1829436	29.84869326	15.40577717
 245	44.958	60.843	18.054	27.78541953	24.89683631	14.44291609
 246	37.421	60.193	0	23.24621733	23.24621733	11.69188446
 247	84.011	33.849	42.612	57.77166437	15.26822558	21.04539202
 248	17.241	60.339	37.743	16.23108666	24.75928473	18.29436039
 249	50.65	17.261	53.278	19.11966988	8.390646492	19.53232462
 250	45.505	48.926	65.152	23.5213205	22.83356259	33.83768913
 251	44.567	84.081	39.649	42.77854195	51.58184319	31.91196699
 252	100	86.339	72.054	114.3053645	67.81292985	66.29986245
 253	68.14	61.135	0	47.31774415	26.5474553	15.40577717
 254	17.93	66.986	81.403	21.04539202	40.02751032	54.88308116
 255	39.242	60.215	48.926	24.62173315	27.09766162	25.0343879
 256	20.099	18.77	62.967	4.951856946	8.94085282	24.62173315
 257	34.553	100	14.582	51.71939477	73.4525447	34.66299862
 258	87.345	0	66.694	58.3218707	13.75515818	35.48830812
 259	0	43.714	39.842	7.702888583	13.89270977	13.89270977
 260	100	37.705	13.955	85.55708391	17.33149931	16.91884457
 261	31.265	86.993	0	37.82668501	52.13204952	24.07152682
 262	51.402	82.661	81.338	47.18019257	58.73452545	65.61210454
 263	100	100	12.984	127.0976616	80.88033012	45.25447043
 264	0	37.859	0	5.639614856	8.528198074	4.126547455
 265	62.092	58.215	100	41.81568088	42.50343879	82.80605227
 266	86.186	100	64.1	102.3383769	84.73177442	65.19944979
 267	100	35.251	85.898	85.96973865	28.88583219	63.27372765
 268	63.182	89.992	41.974	62.72352132	61.62310867	38.92709766
 269	13.504	100	0	44.97936726	71.9394773	32.46217331
 270	100	0	13.228	79.77991747	9.078404402	13.20495186
 271	63.881	40.826	100	36.17606602	31.77441541	77.85419532
 272	69.387	84.838	20.792	64.64924347	53.09491059	29.43603851
 273	0	70.279	45.136	20.22008253	34.93810179	25.7221458
 274	79.094	64.754	40.908	63.27372765	33.97524072	28.0605227
 275	62.385	54.099	17.396	38.37689133	21.1829436	13.89270977
 276	64.408	14.621	0	29.98624484	4.814305365	5.364511692
 277	70.028	15.606	44.651	36.03851444	8.528198074	17.05639615
 278	0	63.544	0	15.95598349	25.30949106	11.69188446
 279	83.475	47.274	20.502	60.24759285	19.53232462	16.23108666
 280	55.866	0	32.671	21.59559835	4.264099037	9.215955983
 281	58.007	0	100	24.89683631	21.45804677	72.7647868
 282	100	0	87.698	81.29298487	22.28335626	62.31086657
 283	0	13.792	67.215	1.925722146	8.803301238	27.51031637
 284	84.123	17.001	58.549	54.33287483	13.06740028	28.61072902
 285	59.579	32.873	15.966	28.33562586	9.353507565	8.115543329
 286	10.41	32.998	28.659	5.364511692	7.840440165	7.702888583
 287	17.231	40.031	85.65	9.215955983	22.83356259	51.99449794
 288	37.568	41.561	10.108	15.54332875	11.41678129	6.877579092
 289	0	69.015	85.092	20.08253095	42.91609354	59.69738652
 290	14.442	100	36.187	45.39202201	73.72764787	39.33975241
 291	100	40.549	0	86.51994498	18.29436039	16.50618982
 292	82.143	45.435	78.429	59.14718019	28.19807428	51.30674003
 293	52.674	0	67.3	19.80742779	9.628610729	29.98624484
 294	0	87.868	66.793	33.56258597	59.8349381	50.34387895
 295	86.53	100	40.524	101.7881706	80.60522696	49.79367263
 296	71.777	85.586	67.232	69.05089409	61.21045392	54.74552957
 297	43.216	100	31.671	56.67125172	74.55295736	39.33975241
 298	39.245	32.908	85.845	15.26822558	20.22008253	51.85694635
 299	0	45.662	67.543	8.665749656	19.94497937	33.01237964
 300	12.161	100	100	46.76753783	90.50894085	101.5130674
 301	67.049	0	85.516	32.73727648	16.50618982	52.2696011
 302	100	89.041	100	117.8817056	81.43053645	105.5020633
 303	20.246	60.698	56.526	17.33149931	28.0605227	29.02338377
 304	52.177	55.457	40.416	30.39889959	23.24621733	20.35763411
 305	72.617	87.018	83.932	71.52682256	68.08803301	74.55295736
 306	40.512	16.723	66.475	12.65474553	10.31636864	28.88583219
 307	68.507	49.232	50.605	42.77854195	22.14580468	26.13480055
 308	65.622	100	54.525	75.65337001	80.19257221	53.92022008
 309	54.115	37.24	66.394	25.44704264	17.46905089	33.01237964
 310	100	76.138	31.267	104.6767538	47.7303989	34.38789546
 311	54.728	65.623	0	37.1389271	29.43603851	15.40577717
 312	63.126	12.526	64.37	28.88583219	11.00412655	29.29848693
 313	72.827	18.08	23.704	39.33975241	7.290233838	9.903713893
 314	23.268	15.278	34.947	4.951856946	3.988995873	8.115543329
 315	87.648	68.954	59.645	78.40440165	42.09078404	43.1911967
 316	0	85.595	85.198	32.18707015	62.44841816	69.18844567
 317	35.798	84.371	69.21	38.78954608	56.67125172	51.58184319
 318	36.062	47.494	35.919	17.05639615	16.50618982	14.58046768
 319	86.083	36.277	59.152	61.21045392	19.39477304	32.04951857
 320	58.21	100	30.361	67.53782669	75.7909216	40.57771664
 321	46.745	14.614	32.317	15.81843191	4.814305365	8.665749656
 322	81.573	73.869	86.954	73.4525447	54.33287483	72.48968363
 323	85.991	49.387	48.206	65.61210454	24.2090784	28.0605227
 324	28.062	87.906	19.654	37.68913343	54.19532325	26.5474553
 325	68.992	17.993	85.124	36.03851444	18.43191197	52.95735901
 326	100	66.147	100	100.1375516	54.88308116	93.53507565
 327	33.358	64.806	84.517	25.0343879	39.75240715	58.73452545
 328	41.351	17.736	80.522	13.6176066	14.44291609	43.46629986
 329	100	100	88.719	128.1980743	94.63548831	96.14855571
 330	66.336	0	44.32	31.36176066	6.74002751	15.81843191
 331	64.85	67.09	12.293	47.18019257	31.91196699	18.29436039
 332	15.262	31.268	63.277	6.052269601	12.37964237	26.40990371
 333	15.008	43.663	37.3	9.078404402	13.75515818	13.06740028
 334	0	57.895	38.078	13.20495186	22.83356259	17.33149931
 335	66.599	58.458	67.871	44.84181568	32.18707015	41.95323246
 336	59.191	18.651	15.215	25.30949106	5.364511692	6.189821183
 337	66.781	31.14	84.629	36.03851444	21.59559835	53.09491059
 338	88.033	85.158	52.14	90.37138927	59.69738652	46.2173315
 339	36.882	100	100	54.19532325	91.33425034	102.4759285
 340	26.102	33.094	17.006	8.528198074	7.42778542	5.502063274
 341	56.309	36.861	35.862	26.68500688	12.24209078	13.89270977
 342	45.839	65.587	67.033	31.49931224	36.03851444	40.99037139
 343	83.709	81.172	16.406	80.3301238	49.65612105	29.02338377
 344	0	48.132	13.005	8.94085282	14.16781293	7.565337001
 345	87.176	50.021	100	68.77579092	40.02751032	84.31911967
 346	51.219	84.244	13.73	46.76753783	49.79367263	25.17193948
 347	60.606	71.415	48.406	46.2173315	39.06464924	31.77441541
 348	0	11.359	12.718	1.100412655	1.650618982	1.925722146
 349	86.429	49.705	33.145	66.16231087	22.55845942	21.04539202
 350	34.056	40.958	100	15.40577717	29.5735901	74.69050894
 351	100	30.557	59.628	83.63136176	19.6698762	35.21320495
 352	88.497	26.902	13.449	62.17331499	11.00412655	12.1045392
 353	14.167	51.98	88.218	12.92984869	30.39889959	57.77166437
 354	13.784	12.983	49.37	2.888583219	5.364511692	14.44291609
 355	15.018	88.441	48.062	34.80055021	56.94635488	37.1389271
 356	87.79	25.769	89.215	62.03576341	24.34662999	62.72352132
 357	0	33.206	55.865	4.814305365	11.41678129	20.90784044
 358	74.324	76.029	35.536	63.54883081	43.87895461	29.71114168
 359	65.863	57.223	42.324	42.91609354	25.85969739	23.38376891
 360	30.893	54.646	13.136	17.60660248	19.11966988	10.45392022
 361	0	34.36	28.321	4.814305365	8.253094911	7.702888583
 362	15.443	77.087	85.116	27.2352132	51.85694635	64.92434663
 363	63.381	68.947	68.521	47.59284732	40.85281981	46.07977992
 364	69.733	27.566	42.917	37.55158184	11.14167813	17.46905089
 365	32.754	100	42.76	51.03163686	75.51581843	43.32874828
 366	47.096	29.481	34.829	18.29436039	8.665749656	11.14167813
 367	8.5451	71.948	62.695	22.14580468	39.75240715	38.10178817
 368	0	86.048	29.3	31.22420908	51.58184319	27.09766162
 369	53.697	51.572	85.367	30.53645117	31.0866575	56.94635488
 370	17.608	56.69	12.515	14.58046768	20.22008253	10.31636864
 371	90.638	14.414	49.227	64.3741403	11.96698762	23.93397524
 372	63.248	63.64	89.55	45.25447043	42.77854195	68.36313618
 373	100	85.976	58.455	113.7551582	64.64924347	54.60797799
 374	9.8311	28.027	7.5567	3.988995873	5.089408528	3.163686382
 375	89.831	64.313	69.506	79.36726272	40.30261348	50.34387895
 376	31.754	12.995	25.543	7.42778542	3.163686382	5.364511692
 377	75.914	45.966	64.957	50.48143054	24.2090784	37.1389271
 378	7.5735	50.695	58.941	10.86657497	21.32049519	27.37276479
 379	100	69.835	58.912	101.3755158	45.39202201	46.35488308
 380	32.211	34.376	48.339	11.41678129	11.27922971	17.33149931
 381	13.901	12.159	73.555	3.301237964	10.45392022	33.70013755
 382	87.071	9.028	77.653	59.28473177	17.33149931	46.76753783
 383	23.272	85.409	84.29	35.21320495	62.17331499	68.50068776
 384	93.289	39.48	26.145	73.03988996	17.46905089	17.88170564
 385	65.769	59.63	30.967	44.15405777	26.68500688	19.53232462
 386	100	32.265	41.803	83.63136176	17.33149931	24.34662999
 387	86.568	85.281	86.961	88.30811554	68.50068776	79.77991747
 388	52.577	86.83	30.016	50.48143054	54.33287483	30.67400275
 389	47.921	40.199	76.902	22.42090784	21.32049519	43.74140303
 390	22.36	86.619	61.58	35.21320495	57.08390646	45.66712517
 391	52.232	33.601	88.787	23.93397524	22.696011	57.35900963
 392	0	28.523	86.267	4.539202201	17.88170564	50.06877579
 393	43.497	67.879	39.551	30.81155433	33.14993122	23.65887208
 394	39.877	45.261	0	18.01925722	13.48005502	7.42778542
 395	86.94	12.43	24.699	57.49656121	8.253094911	12.37964237
 396	28.363	55.339	90.398	18.29436039	33.97524072	63.27372765
 397	39.018	70.534	57.879	30.26134801	37.96423659	34.93810179
 398	12.833	28.519	78.828	5.364511692	15.54332875	41.40302613
 399	68.35	31.815	69.975	37.41403026	17.74415406	37.41403026
 400	56.52	26.226	41.626	24.75928473	9.078404402	14.85557084
 401	12.938	46.218	0	9.215955983	12.92984869	6.189821183
 402	8.6938	60.179	26.117	14.85557084	23.5213205	13.89270977
 403	51.995	89.429	96.608	53.7826685	74.41540578	90.9215956
 404	46.905	47.746	48.909	23.5213205	18.84456671	21.87070151
 405	14.352	81.814	19.479	29.29848693	45.25447043	22.42090784
 406	71.482	38.117	12.273	42.09078404	12.92984869	10.5914718
 407	86.616	60.785	10.012	71.11416781	29.29848693	19.53232462
 408	71.811	88.979	52.186	71.11416781	62.17331499	45.39202201
 409	43.213	100	72.083	57.08390646	82.11829436	65.47455296
