data/calibration-000025.ti3
CTI3
DESCRIPTOR	"Calibration Target chart information 3"
ORIGINATOR	"ColorHug Factory"
DEVICE_CLASS	"DISPLAY"
COLOR_REP	"RGB_XYZ"
TARGET_INSTRUMENT	"ColorHug"
INSTRUMENT_TYPE_SPECTRAL	"NO"
LUMINANCE_XYZ_CDM2	"42.572021 34.847260 44.918060"
NORMALIZED_TO_Y_100	"YES"
NUMBER_OF_FIELDS	7
NUMBER_OF_SETS	836
BEGIN_DATA_FORMAT
 SAMPLE_ID	RGB_R	RGB_G	RGB_B	XYZ_X	XYZ_Y	XYZ_Z
END_DATA_FORMAT
BEGIN_DATA
 1	100	100	100	2.463054187	1.97044335	68.4729064
 2	100	100	100	121.182266	100	105.91133
 3	100	100	100	122.6600985	98.02955665	105.91133
 4	100	100	100	120.1970443	100	106.4039409
 5	33.33	32.622	30.968	11.8226601	8.374384236	8.866995074
 6	100	0	100	76.3546798	26.60098522	74.38423645
 7	100	100	0	119.2118227	81.77339901	44.33497537
 8	0	100	100	43.84236453	91.62561576	94.08866995
 9	0	100	0	42.85714286	73.39901478	32.01970443
 10	0	0	100	2.463054187	18.71921182	61.08374384
 11	100	0	0	72.4137931	8.866995074	12.31527094
 12	0	0	0	0.4926108374	0.4926108374	0.9852216749
 13	0	52.455	100	11.33004926	35.4679803	68.96551724
 14	100	0	50.3	74.87684729	12.80788177	25.12315271
 15	100	54.739	100	89.16256158	45.32019704	80.78817734
 16	100	52.128	0	86.20689655	24.63054187	19.21182266
 17	0	0	46.181	1.477832512	3.9408867	10.83743842
 18	0	51.141	0	9.359605911	16.25615764	7.389162562
 19	0	100	51.348	42.36453202	77.33990148	44.82758621
 20	100	100	52.037	120.6896552	84.72906404	57.63546798
 21	49.216	0	0	16.25615764	2.463054187	2.463054187
 22	56.159	100	0	62.56157635	75.36945813	34.97536946
 23	49.226	100	100	58.62068966	93.59605911	96.0591133
 24	44.487	0	100	14.28571429	19.7044335	64.5320197
 25	100	44.498	52.029	81.77339901	24.63054187	31.03448276
 26	48.926	48.544	100	25.12315271	34.48275862	70.44334975
 27	51.368	100	47.25	58.12807882	78.81773399	46.30541872
 28	49.893	0	49.033	16.74876847	5.911330049	14.77832512
 29	53.109	51.372	0	28.07881773	18.22660099	10.34482759
 30	0	58.587	53.943	13.30049261	26.10837438	24.63054187
 31	100	28.065	100	78.32512315	31.03448276	75.86206897
 32	0	0	72.874	1.477832512	8.866995074	29.55665025
 33	0	26.758	100	3.9408867	22.16748768	63.54679803
 34	0	25.426	0	2.955665025	4.433497537	1.97044335
 35	72.508	0	100	35.96059113	22.16748768	66.99507389
 36	100	27.395	0	77.83251232	12.80788177	14.28571429
 37	74.47	100	100	81.28078818	95.56650246	100.4926108
 38	100	0	25.728	75.86206897	9.852216749	14.77832512
 39	73.862	0	0	36.94581281	4.926108374	6.403940887
 40	100	100	25.402	119.2118227	82.75862069	47.29064039
 41	0	75.751	100	24.13793103	55.17241379	78.81773399
 42	0	75.172	0	21.67487685	37.93103448	16.74876847
 43	0	100	25.864	41.37931034	73.89162562	35.4679803
 44	100	0	74.801	74.87684729	18.22660099	42.85714286
 45	0	100	75.421	42.85714286	82.75862069	64.03940887
 46	24.577	0	0	4.433497537	0.9852216749	0.9852216749
 47	26.321	100	0	45.32019704	72.90640394	33.00492611
 48	100	75.835	0	99.50738916	47.29064039	28.57142857
 49	100	100	77.061	121.182266	89.65517241	77.33990148
 50	71.263	100	0	76.3546798	76.3546798	37.43842365
 51	0	0	15.614	0.4926108374	0.9852216749	1.97044335
 52	0	30.049	70.936	4.433497537	13.30049261	29.06403941
 53	100	77.691	100	101.4778325	67.48768473	91.13300493
 54	24.486	100	100	48.27586207	91.13300493	93.10344828
 55	100	62.784	31.909	92.1182266	34.97536946	27.5862069
 56	29.552	0	100	7.389162562	18.71921182	63.05418719
 57	32.98	70.921	100	27.5862069	50.73891626	78.32512315
 58	0	27.681	40.241	3.448275862	6.896551724	10.34482759
 59	67.901	71.021	100	49.75369458	54.18719212	81.77339901
 60	28.154	100	67.829	47.78325123	81.28078818	57.14285714
 61	71.637	100	70.001	78.32512315	83.74384236	64.03940887
 62	58.822	58.763	53.586	35.96059113	28.57142857	27.5862069
 63	33.466	30.48	0	10.34482759	6.403940887	3.9408867
 64	100	73.795	71.277	97.04433498	52.70935961	55.66502463
 65	68.394	29.692	0	34.48275862	8.866995074	7.389162562
 66	70.399	0	29.039	33.00492611	5.418719212	9.852216749
 67	28.078	0	26.956	5.418719212	1.97044335	4.926108374
 68	28.532	72.339	0	25.12315271	34.48275862	16.25615764
 69	100	30.941	26.496	78.32512315	15.27093596	17.73399015
 70	34.597	0	73.611	8.374384236	9.852216749	31.03448276
 71	71.573	0	72.408	33.99014778	12.80788177	34.48275862
 72	0	71.029	29.412	19.7044335	34.48275862	19.21182266
 73	68.386	75.008	0	52.70935961	40.39408867	21.18226601
 74	68.088	27.309	100	35.4679803	26.10837438	68.96551724
 75	100	26.457	73.749	78.81773399	21.67487685	43.84236453
 76	74.344	100	27.392	79.80295567	78.32512315	41.87192118
 77	27.558	100	28.197	47.29064039	74.87684729	35.96059113
 78	31.196	27.465	100	10.34482759	23.15270936	65.02463054
 79	0	75.521	72.824	23.15270936	46.79802956	45.81280788
 80	0	50.93	25.553	9.359605911	17.24137931	10.34482759
 81	32.06	33.584	64.033	10.83743842	14.28571429	25.61576355
 82	81.666	55.38	0	58.12807882	24.63054187	15.7635468
 83	68.257	32.751	58.286	34.97536946	15.7635468	25.61576355
 84	0	55.248	81.585	12.31527094	30.54187192	46.30541872
 85	73.781	52.099	100	48.76847291	38.42364532	74.87684729
 86	100	50.537	82.952	86.20689655	35.4679803	57.63546798
 87	23.55	0	50.439	4.433497537	4.433497537	13.79310345
 88	31.335	62.746	31.114	20.68965517	27.09359606	16.74876847
 89	100	18.31	49.418	76.84729064	14.28571429	25.12315271
 90	26.498	48.404	0	32.51231527	15.27093596	7.389162562
 91	47.91	100	85.744	57.14285714	87.68472906	76.3546798
 92	71.829	47.313	31.811	42.85714286	19.21182266	16.74876847
 93	31.304	64.132	69.316	22.16748768	34.97536946	37.93103448
 94	80.403	0	54.321	44.33497537	10.34482759	22.66009852
 95	18.455	50.036	100	13.30049261	33.99014778	67.98029557
 96	50.653	100	16.345	58.12807882	74.38423645	35.96059113
 97	80.121	100	52.261	87.68472906	82.75862069	52.70935961
 98	0	22.54	19.289	23.6453202	3.9408867	3.9408867
 99	100	75.273	46.886	93.59605911	48.76847291	38.91625616
 100	0	78.618	56.625	25.12315271	46.79802956	34.97536946
 101	51.137	80.627	100	43.34975369	63.05418719	83.74384236
 102	48.446	0	17.864	15.7635468	2.463054187	4.433497537
 103	100	50.023	21.211	83.25123153	24.63054187	20.68965517
 104	50.115	20.118	0	17.73399015	4.926108374	3.9408867
 105	58.099	72.426	33.158	41.37931034	38.91625616	23.6453202
 106	19.364	100	50.197	44.33497537	77.33990148	45.32019704
 107	50.683	19.177	100	19.21182266	22.66009852	65.51724138
 108	53.37	0	81.576	19.7044335	13.79310345	40.88669951
 109	47.768	76.245	0	35.96059113	40.39408867	19.7044335
 110	0	18.927	55.503	1.97044335	6.896551724	17.24137931
 111	0	13.277	0	0.9852216749	1.477832512	1.477832512
 112	72.862	72.473	75.625	55.17241379	47.78325123	52.70935961
 113	100	13.904	0	75.36945813	10.34482759	12.31527094
 114	86.349	0	100	58.12807882	24.13793103	69.95073892
 115	100	41.941	100	82.26600985	37.43842365	78.32512315
 116	100	81.785	16.464	104.4334975	54.18719212	32.51231527
 117	0	44.063	52.596	7.881773399	16.74876847	19.21182266
 118	0	0	58.917	0.9852216749	5.418719212	18.71921182
 119	59.25	24.551	29.789	19.7044335	7.881773399	9.852216749
 120	82.73	82.874	100	47.29064039	70.44334975	90.14778325
 121	80.039	0	12.618	48.27586207	5.911330049	8.374384236
 122	60.957	47.729	77.817	33.00492611	27.09359606	44.33497537
 123	100	0	38.618	75.36945813	11.33004926	18.71921182
 124	0	40.09	100	7.881773399	27.5862069	66.50246305
 125	0	15.283	82.322	2.463054187	12.80788177	39.90147783
 126	17.592	81.726	100	30.04926108	63.05418719	81.77339901
 127	100	14.13	100	77.83251232	27.5862069	73.89162562
 128	15.261	100	82.059	44.82758621	83.25123153	71.42857143
 129	47.77	79.418	60.389	39.408867	49.26108374	39.90147783
 130	18.768	16.429	0	3.448275862	2.955665025	1.477832512
 131	55.634	100	65.763	62.06896552	80.2955665	58.12807882
 132	100	100	38.541	118.226601	83.74384236	51.23152709
 133	17.421	0	83.497	3.448275862	12.31527094	40.39408867
 134	17.237	16.758	100	4.433497537	20.19704433	63.54679803
 135	0	15.067	30.039	1.477832512	2.955665025	5.418719212
 136	0	0	86.505	1.97044335	12.80788177	42.85714286
 137	75.736	72.799	50.02	58.62068966	43.34975369	34.48275862
 138	100	83.323	85.529	105.91133	66.99507389	75.86206897
 139	100	100	64.894	121.182266	88.1773399	65.51724138
 140	81.98	84.914	0	78.81773399	53.69458128	29.06403941
 141	0	63.757	15.49	15.27093596	25.61576355	13.30049261
 142	49.514	66.135	100	33.00492611	47.29064039	76.84729064
 143	100	0	61.862	75.36945813	14.77832512	32.01970443
 144	24.308	45.41	49.831	11.8226601	16.74876847	19.21182266
 145	15.963	0	17.047	2.463054187	0.9852216749	2.463054187
 146	87.497	100	100	97.04433498	96.55172414	102.4630542
 147	52.099	25.003	75.752	20.68965517	15.27093596	35.96059113
 148	14.909	81.162	0	27.5862069	44.33497537	19.21182266
 149	0	34.792	14.626	4.926108374	7.881773399	4.433497537
 150	48.39	45.075	22.552	21.67487685	14.77832512	10.83743842
 151	83.545	65.965	100	67.98029557	51.72413793	80.78817734
 152	16.226	62.345	0	16.74876847	25.12315271	10.83743842
 153	63.222	0	14.914	26.60098522	3.9408867	5.911330049
 154	80.449	13.446	0	44.82758621	6.896551724	7.881773399
 155	83.917	41.562	0	55.17241379	16.25615764	12.31527094
 156	100	60.448	46.3	89.65517241	34.97536946	32.51231527
 157	15.584	0	34.795	2.463054187	2.463054187	6.403940887
 158	17.144	65.121	100	18.71921182	45.81280788	73.39901478
 159	83.602	55.334	62.667	60.591133	31.03448276	36.94581281
 160	0	82.19	14.22	27.5862069	46.30541872	21.18226601
 161	25.132	74.856	50.616	26.10837438	41.37931034	29.55665025
 162	0	13.769	100	2.463054187	19.21182266	63.05418719
 163	87.181	0	0	51.72413793	6.896551724	8.374384236
 164	0	100	39.19	42.85714286	75.86206897	38.91625616
 165	78.047	65.914	19.865	59.11330049	33.49753695	20.68965517
 166	100	63.961	15.865	92.1182266	34.97536946	24.63054187
 167	100	45.955	36.032	82.75862069	23.15270936	23.6453202
 168	15.926	100	16.89	43.34975369	73.39901478	33.99014778
 169	41.459	100	0	51.72413793	73.39901478	33.99014778
 170	48.707	37.288	48.139	20.68965517	13.79310345	17.73399015
 171	83.381	100	13.285	91.62561576	78.32512315	40.39408867
 172	78.129	25.303	75.621	45.32019704	17.73399015	39.90147783
 173	12.396	0	0	1.477832512	0.9852216749	0.4926108374
 174	37.607	48.336	83.346	18.22660099	27.09359606	47.78325123
 175	35.588	15.356	0	8.866995074	2.955665025	2.463054187
 176	61.245	100	100	66.99507389	92.1182266	97.53694581
 177	100	67.29	87.195	93.59605911	50.73891626	68.96551724
 178	0	0	30.615	0.4926108374	1.477832512	4.926108374
 179	35.187	81.789	83.323	34.48275862	58.12807882	60.09852217
 180	39.525	80.194	22.879	34.97536946	45.32019704	23.15270936
 181	50.634	34.593	0	21.18226601	9.359605911	5.911330049
 182	14.175	100	63.146	43.34975369	79.31034483	53.69458128
 183	83.493	17.728	34.574	49.75369458	9.359605911	14.77832512
 184	23.463	22.014	79.943	6.403940887	14.28571429	38.42364532
 185	18.066	31.847	0	6.403940887	6.403940887	3.448275862
 186	87.201	100	81.361	99.01477833	90.14778325	77.33990148
 187	0	100	87.95	43.84236453	84.72906404	77.33990148
 188	34.476	17.888	46.22	8.866995074	6.403940887	12.80788177
 189	18.277	0	67.39	2.955665025	7.881773399	24.63054187
 190	100	87.972	0	107.3891626	62.56157635	35.4679803
 191	82.925	34.85	100	54.18719212	30.54187192	72.4137931
 192	0	88.016	100	33.00492611	70.93596059	86.20689655
 193	36.104	85.655	100	38.91625616	69.45812808	85.22167488
 194	60.981	0	0	24.13793103	3.448275862	4.433497537
 195	51.466	61.826	78.106	32.01970443	35.4679803	47.78325123
 196	78.427	31.983	22.175	45.32019704	11.8226601	11.8226601
 197	66.017	44.321	0	35.4679803	15.7635468	9.852216749
 198	83.941	0	84.177	51.23152709	17.73399015	48.27586207
 199	20.158	46.612	23.269	10.83743842	14.28571429	9.359605911
 200	0	100	62.618	42.36453202	78.81773399	51.72413793
 201	33.832	0	13.933	7.389162562	1.97044335	2.463054187
 202	100	17.286	16.322	75.36945813	10.83743842	13.79310345
 203	0	42.204	83.926	9.359605911	22.66009852	45.32019704
 204	0	87.774	0	31.03448276	53.69458128	23.15270936
 205	64.988	0	59.017	28.57142857	8.866995074	22.66009852
 206	14.677	0	100	3.448275862	18.22660099	62.06896552
 207	88.934	82.673	35.021	82.75862069	54.18719212	35.4679803
 208	0	63.778	100	17.24137931	44.33497537	72.4137931
 209	83.429	17.674	100	51.23152709	26.10837438	69.45812808
 210	30.899	100	85.668	49.26108374	84.72906404	75.36945813
 211	83.68	0	41.016	48.76847291	8.866995074	16.25615764
 212	100	63.515	0	71.42857143	33.00492611	22.66009852
 213	85.074	69.987	0	77.33990148	37.43842365	21.67487685
 214	20.801	45.524	69.018	12.80788177	20.68965517	31.5270936
 215	21.382	82.482	73.017	30.54187192	55.17241379	50.24630542
 216	100	15.128	64.249	75.86206897	16.74876847	33.99014778
 217	36.522	0	58.427	9.852216749	6.403940887	19.21182266
 218	22.466	81.296	33.007	29.06403941	46.79802956	25.61576355
 219	62.531	87.152	0	56.15763547	55.17241379	27.09359606
 220	84.12	85.397	67.886	77.33990148	62.56157635	54.18719212
 221	18.87	27.336	45.389	5.418719212	8.374384236	12.31527094
 222	66.439	100	14.444	68.4729064	76.84729064	36.94581281
 223	41.636	22.147	19.003	13.79310345	5.418719212	4.926108374
 224	61.271	100	81.94	66.50246305	85.22167488	73.89162562
 225	86.013	100	0	95.56650246	79.31034483	40.39408867
 226	37.57	0	0	10.34482759	1.477832512	1.97044335
 227	100	16.132	84.102	75.36945813	22.16748768	52.21674877
 228	0	100	13.619	42.36453202	73.39901478	33.00492611
 229	38.905	100	56.471	51.72413793	77.83251232	49.75369458
 230	100	15.382	34.563	75.86206897	11.8226601	18.71921182
 231	36.656	14.908	100	32.01970443	20.68965517	64.03940887
 232	0	62.593	66.608	14.28571429	31.5270936	34.48275862
 233	66.347	12.528	100	30.54187192	22.66009852	66.50246305
 234	100	43.375	69.233	82.75862069	27.5862069	42.36453202
 235	100	56.36	61.236	86.69950739	33.99014778	40.39408867
 236	0	86.194	44.955	30.54187192	53.20197044	32.51231527
 237	64.527	87.262	100	59.11330049	73.39901478	89.16256158
 238	34.411	0	42.471	16.74876847	3.9408867	10.34482759
 239	80.23	59.707	85.12	58.62068966	39.90147783	58.62068966
 240	20.625	19.056	14.791	4.433497537	3.448275862	2.955665025
 241	15.341	34.221	100	7.389162562	25.12315271	65.02463054
 242	36.777	0	87.905	9.852216749	14.28571429	46.79802956
 243	34.598	56.247	100	20.68965517	37.93103448	71.92118227
 244	20.86	67.629	17.418	20.19704433	30.04926108	15.27093596
 245	44.958	60.843	18.054	26.10837438	25.61576355	14.28571429
 246	37.421	60.193	0	22.16748768	23.6453202	11.8226601
 247	84.011	33.849	42.612	53.69458128	15.27093596	19.7044335
 248	17.241	60.339	37.743	15.7635468	25.12315271	17.73399015
 249	50.65	17.261	53.278	17.73399015	8.866995074	17.73399015
 250	45.505	48.926	65.152	22.16748768	22.66009852	31.03448276
 251	44.567	84.081	39.649	40.39408867	52.21674877	31.03448276
 252	100	86.339	72.054	61.57635468	66.99507389	63.05418719
 253	68.14	61.135	0	45.81280788	27.09359606	14.77832512
 254	17.93	66.986	81.403	21.18226601	39.90147783	51.23152709
 255	39.242	60.215	48.926	23.6453202	27.5862069	23.6453202
 256	20.099	18.77	62.967	4.926108374	8.866995074	22.66009852
 257	34.553	100	14.582	47.78325123	73.89162562	34.48275862
 258	87.345	0	66.694	54.67980296	13.79310345	32.01970443
 259	0	43.714	39.842	7.881773399	14.28571429	13.30049261
 260	100	37.705	13.955	79.31034483	17.73399015	16.74876847
 261	31.265	86.993	0	36.94581281	51.72413793	24.13793103
 262	51.402	82.661	81.338	44.33497537	58.62068966	60.591133
 263	100	100	12.984	116.2561576	81.77339901	44.82758621
 264	0	37.859	0	6.896551724	8.866995074	4.433497537
 265	62.092	58.215	100	39.408867	41.87192118	74.38423645
 266	86.186	100	64.1	95.07389163	84.2364532	62.56157635
 267	100	35.251	85.898	79.31034483	28.57142857	58.12807882
 268	63.182	89.992	41.974	60.09852217	61.57635468	36.94581281
 269	13.504	100	0	43.34975369	72.4137931	32.01970443
 270	100	0	13.228	74.38423645	9.359605911	12.80788177
 271	63.881	40.826	100	34.97536946	31.03448276	69.95073892
 272	69.387	84.838	20.792	60.591133	52.70935961	29.06403941
 273	0	70.279	45.136	19.7044335	35.4679803	24.63054187
 274	79.094	64.754	40.908	59.11330049	33.99014778	27.09359606
 275	62.385	54.099	17.396	35.96059113	21.67487685	13.79310345
 276	64.408	14.621	0	31.03448276	4.926108374	5.418719212
 277	70.028	15.606	44.651	33.99014778	8.866995074	15.7635468
 278	0	63.544	0	15.7635468	26.10837438	11.33004926
 279	83.475	47.274	20.502	42.85714286	20.19704433	15.7635468
 280	55.866	0	32.671	20.68965517	4.433497537	8.866995074
 281	58.007	0	100	23.6453202	20.68965517	65.51724138
 282	100	0	87.698	76.3546798	21.67487685	56.15763547
 283	0	13.792	67.215	1.97044335	8.866995074	24.63054187
 284	84.123	17.001	58.549	51.23152709	12.80788177	26.60098522
 285	59.579	32.873	15.966	27.5862069	9.852216749	7.881773399
 286	10.41	32.998	28.659	5.418719212	7.881773399	7.389162562
 287	17.231	40.031	85.65	8.866995074	22.66009852	46.30541872
 288	37.568	41.561	10.108	14.28571429	11.33004926	6.403940887
 289	0	69.015	85.092	19.21182266	42.85714286	55.17241379
 290	14.442	100	36.187	43.34975369	74.38423645	38.42364532
 291	100	40.549	0	80.78817734	18.71921182	15.7635468
 292	82.143	45.435	78.429	55.17241379	28.07881773	47.29064039
 293	52.674	0	67.3	18.71921182	9.359605911	27.09359606
 294	0	87.868	66.793	32.01970443	59.60591133	47.78325123
 295	86.53	100	40.524	97.04433498	80.78817734	47.78325123
 296	71.777	85.586	67.232	71.92118227	61.08374384	51.23152709
 297	43.216	100	31.671	53.69458128	74.38423645	38.91625616
 298	39.245	32.908	85.845	14.77832512	20.19704433	46.79802956
 299	0	45.662	67.543	9.852216749	20.19704433	30.04926108
 300	12.161	100	100	43.34975369	89.65517241	93.59605911
 301	67.049	0	85.516	30.54187192	16.25615764	47.78325123
 302	100	89.041	100	110.3448276	81.28078818	96.55172414
 303	20.246	60.698	56.526	17.73399015	28.07881773	27.09359606
 304	52.177	55.457	40.416	28.57142857	23.6453202	19.7044335
 305	72.617	87.018	83.932	67.48768473	67.48768473	68.4729064
 306	40.512	16.723	66.475	12.31527094	10.34482759	26.60098522
 307	68.507	49.232	50.605	39.90147783	22.66009852	24.13793103
 308	65.622	100	54.525	71.92118227	79.80295567	51.23152709
 309	54.115	37.24	66.394	24.13793103	17.24137931	30.54187192
 310	100	76.138	31.267	98.52216749	48.76847291	33.49753695
 311	54.728	65.623	0	35.4679803	29.55665025	15.7635468
 312	63.126	12.526	64.37	27.09359606	10.83743842	26.60098522
 313	72.827	18.08	23.704	37.43842365	7.389162562	9.359605911
 314	23.268	15.278	34.947	4.926108374	3.9408867	7.389162562
 315	87.648	68.954	59.645	72.4137931	41.87192118	40.88669951
 316	0	85.595	85.198	32.01970443	63.05418719	63.05418719
 317	35.798	84.371	69.21	36.45320197	57.14285714	48.76847291
 318	36.062	47.494	35.919	16.25615764	16.74876847	13.79310345
 319	86.083	36.277	59.152	56.65024631	19.7044335	30.04926108
 320	58.21	100	30.361	64.03940887	76.84729064	39.90147783
 321	46.745	14.614	32.317	15.27093596	4.926108374	8.374384236
 322	81.573	73.869	86.954	69.45812808	54.18719212	66.00985222
 323	85.991	49.387	48.206	61.08374384	24.13793103	26.10837438
 324	28.062	87.906	19.654	35.96059113	54.67980296	26.10837438
 325	68.992	17.993	85.124	33.99014778	18.22660099	47.29064039
 326	100	66.147	100	92.61083744	54.18719212	86.20689655
 327	33.358	64.806	84.517	24.13793103	39.90147783	53.69458128
 328	41.351	17.736	80.522	13.30049261	13.79310345	39.408867
 329	100	100	88.719	118.7192118	94.58128079	89.65517241
 330	66.336	0	44.32	30.04926108	6.896551724	14.77832512
 331	64.85	67.09	12.293	44.82758621	33.00492611	17.73399015
 332	15.262	31.268	63.277	9.852216749	12.31527094	24.13793103
 333	15.008	43.663	37.3	8.866995074	14.28571429	12.31527094
 334	0	57.895	38.078	12.80788177	23.15270936	16.74876847
 335	66.599	58.458	67.871	37.93103448	32.01970443	38.91625616
 336	59.191	18.651	15.215	24.13793103	5.418719212	5.911330049
 337	66.781	31.14	84.629	34.48275862	21.18226601	47.78325123
 338	88.033	85.158	52.14	84.2364532	59.60591133	44.33497537
 339	36.882	100	100	52.21674877	90.14778325	94.58128079
 340	26.102	33.094	17.006	8.374384236	7.881773399	5.418719212
 341	56.309	36.861	35.862	24.63054187	12.31527094	13.30049261
 342	45.839	65.587	67.033	29.55665025	36.45320197	37.93103448
 343	83.709	81.172	16.406	67.98029557	50.24630542	28.57142857
 344	0	48.132	13.005	8.866995074	14.77832512	7.389162562
 345	87.176	50.021	100	65.02463054	38.91625616	76.3546798
 346	51.219	84.244	13.73	44.82758621	50.24630542	24.63054187
 347	60.606	71.415	48.406	43.84236453	39.408867	30.04926108
 348	0	11.359	12.718	0.9852216749	1.97044335	1.97044335
 349	86.429	49.705	33.145	62.06896552	23.15270936	19.7044335
 350	34.056	40.958	100	15.27093596	29.06403941	67.48768473
 351	100	30.557	59.628	77.33990148	20.19704433	32.51231527
 352	88.497	26.902	13.449	57.63546798	11.33004926	11.8226601
 353	14.167	51.98	88.218	12.80788177	30.04926108	53.20197044
 354	13.784	12.983	49.37	2.955665025	5.418719212	13.30049261
 355	15.018	88.441	48.062	33.49753695	56.65024631	35.4679803
 356	87.79	25.769	89.215	57.63546798	24.13793103	56.65024631
 357	0	33.206	55.865	4.433497537	11.33004926	19.21182266
 358	74.324	76.029	35.536	59.11330049	43.84236453	28.07881773
 359	65.863	57.223	42.324	39.90147783	26.10837438	22.16748768
 360	30.893	54.646	13.136	17.24137931	19.7044335	9.852216749
 361	0	34.36	28.321	4.926108374	8.866995074	7.389162562
 362	15.443	77.087	85.116	26.10837438	50.73891626	59.11330049
 363	63.381	68.947	68.521	43.34975369	40.88669951	43.34975369
 364	69.733	27.566	42.917	35.4679803	11.33004926	16.25615764
 365	32.754	100	42.76	47.78325123	76.3546798	42.36453202
 366	47.096	29.481	34.829	17.73399015	8.866995074	10.34482759
 367	8.5451	71.948	62.695	21.18226601	39.408867	35.4679803
 368	0	86.048	29.3	29.55665025	52.21674877	26.10837438
 369	53.697	51.572	85.367	28.07881773	30.54187192	52.70935961
 370	17.608	56.69	12.515	14.28571429	20.68965517	9.852216749
 371	90.638	14.414	49.227	59.11330049	11.8226601	22.16748768
 372	63.248	63.64	89.55	42.85714286	42.85714286	61.57635468
 373	100	85.976	58.455	106.4039409	64.5320197	51.72413793
 374	9.8311	28.027	7.5567	3.9408867	5.418719212	2.955665025
 375	89.831	64.313	69.506	73.39901478	40.39408867	46.79802956
 376	31.754	12.995	25.543	6.896551724	2.955665025	5.418719212
 377	75.914	45.966	64.957	46.79802956	23.6453202	34.48275862
 378	7.5735	50.695	58.941	10.34482759	21.67487685	25.12315271
 379	100	69.835	58.912	93.59605911	45.32019704	43.34975369
 380	32.211	34.376	48.339	10.83743842	11.33004926	16.25615764
 381	13.901	12.159	73.555	2.955665025	10.34482759	30.04926108
 382	87.071	9.028	77.653	53.69458128	17.24137931	42.85714286
 383	23.272	85.409	84.29	33.49753695	62.06896552	62.06896552
 384	93.289	39.48	26.145	67.98029557	17.73399015	17.24137931
 385	65.769	59.63	30.967	41.87192118	26.60098522	18.71921182
 386	100	32.265	41.803	76.84729064	17.24137931	23.15270936
 387	86.568	85.281	86.961	82.26600985	67.98029557	74.38423645
 388	52.577	86.83	30.016	47.78325123	55.66502463	29.55665025
 389	47.921	40.199	76.902	43.84236453	21.18226601	39.90147783
 390	22.36	86.619	61.58	32.51231527	57.63546798	43.34975369
 391	52.232	33.601	88.787	22.16748768	22.16748768	52.21674877
 392	0	28.523	86.267	4.433497537	17.73399015	44.33497537
 393	43.497	67.879	39.551	28.57142857	33.00492611	23.15270936
 394	39.877	45.261	0	20.19704433	13.79310345	7.389162562
 395	86.94	12.43	24.699	53.20197044	8.374384236	11.8226601
 396	28.363	55.339	90.398	18.22660099	33.99014778	56.15763547
 397	39.018	70.534	57.879	28.57142857	37.93103448	33.00492611
 398	12.833	28.519	78.828	4.926108374	15.27093596	36.94581281
 399	68.35	31.815	69.975	34.48275862	17.73399015	34.48275862
 400	56.52	26.226	41.626	23.15270936	9.359605911	13.79310345
 401	12.938	46.218	0	8.866995074	13.30049261	6.403940887
 402	8.6938	60.179	26.117	14.28571429	24.13793103	13.30049261
 403	51.995	89.429	96.608	49.75369458	73.39901478	83.74384236
 404	46.905	47.746	48.909	21.67487685	19.21182266	20.68965517
 405	14.352	81.814	19.479	27.5862069	45.32019704	22.16748768
 406	71.482	38.117	12.273	36.94581281	13.30049261	10.34482759
 407	86.616	60.785	10.012	67.48768473	29.55665025	18.71921182
 408	71.811	88.979	52.186	67.48768473	62.06896552	43.34975369
 409	43.213	100	72.083	53.20197044	82.26600985	62.56157635
