data/calibration-001777.ti3
CTI3   
ORIGINATOR	"ColorHug Factory"
CREATED	"Tue Mar 26 20:10:34 2013"
DESCRIPTOR	"Calibration Target chart information 3"
DEVICE_CLASS	"DISPLAY"
COLOR_REP	"RGB_XYZ"
TARGET_INSTRUMENT	"Hughski ColorHug"
INSTRUMENT_TYPE_SPECTRAL	"NO"
NORMALIZED_TO_Y_100	"NO"
NUMBER_OF_FIELDS	7
NUMBER_OF_SETS	15
BEGIN_DATA_FORMAT
 SAMPLE_ID	RGB_R	RGB_G	RGB_B	XYZ_X	XYZ_Y	XYZ_Z
END_DATA_FORMAT
BEGIN_DATA
 1	0	0	0	0.04577636719	0.04577636719	0.04577636719
 2	1	1	1	45.86791992	39.18457031	50.12512207
 3	1	0	0	27.92358398	3.158569336	4.39453125
 4	0	1	0	15.83862305	27.37426758	12.81738281
 5	0	0	1	0.9155273438	8.560180664	32.54699707
 6	0	0	0	0.04577636719	0.04577636719	0.04577636719
 7	1	1	1	45.86791992	39.23034668	50.12512207
 8	1	0	0	28.06091309	3.158569336	4.39453125
 9	0	1	0	15.70129395	27.37426758	12.81738281
 10	0	0	1	0.9155273438	8.560180664	32.68432617
 11	0	0	0	0.04577636719	0.04577636719	0.04577636719
 12	1	1	1	46.14257812	38.86413574	49.75891113
 13	1	0	0	28.15246582	3.158569336	4.39453125
 14	0	1	0	15.83862305	27.37426758	12.77160645
 15	0	0	1	0.9155273438	8.560180664	32.68432617
END_DATA
