data/calibration-001393.ti3
CTI3   
ORIGINATOR	"ColorHug Factory"
DESCRIPTOR	"Calibration Target chart information 3"
DEVICE_CLASS	"DISPLAY"
COLOR_REP	"RGB_XYZ"
TARGET_INSTRUMENT	"Hughski ColorHug"
INSTRUMENT_TYPE_SPECTRAL	"NO"
NORMALIZED_TO_Y_100	"NO"
NUMBER_OF_FIELDS	7
NUMBER_OF_SETS	15
BEGIN_DATA_FORMAT
 SAMPLE_ID	RGB_R	RGB_G	RGB_B	XYZ_X	XYZ_Y	XYZ_Z
END_DATA_FORMAT
BEGIN_DATA
 1	0	0	0	0.1831054688	0.2288818359	0.3204345703
 2	1	1	1	32.6385498	33.18786621	40.8782959
 3	1	0	0	19.50073242	2.655029297	3.387451172
 4	0	1	0	11.76452637	23.98681641	10.89477539
 5	0	0	1	0.9155273438	7.141113281	26.82495117
 6	0	0	0	0.1831054688	0.2288818359	0.3204345703
 7	1	1	1	32.68432617	33.46252441	40.92407227
 8	1	0	0	19.40917969	2.655029297	3.387451172
 9	0	1	0	11.71875	23.89526367	10.94055176
 10	0	0	1	0.9155273438	7.141113281	27.00805664
 11	0	0	0	0.1831054688	0.2288818359	0.3204345703
 12	1	1	1	32.86743164	33.50830078	41.015625
 13	1	0	0	19.50073242	2.655029297	3.387451172
 14	0	1	0	11.71875	23.8494873	10.94055176
 15	0	0	1	0.9155273438	7.141113281	26.91650391
END_DATA
