data/calibration-002470.ti3
CTI3   
ORIGINATOR	"ColorHug Factory"
CREATED	"Wed Jun 11 20:01:00 2014"
DESCRIPTOR	"Calibration Target chart information 3"
DEVICE_CLASS	"DISPLAY"
COLOR_REP	"RGB_XYZ"
TARGET_INSTRUMENT	"Hughski ColorHug"
INSTRUMENT_TYPE_SPECTRAL	"NO"
NORMALIZED_TO_Y_100	"NO"
NUMBER_OF_FIELDS	7
NUMBER_OF_SETS	15
BEGIN_DATA_FORMAT
 SAMPLE_ID	RGB_R	RGB_G	RGB_B	XYZ_X	XYZ_Y	XYZ_Z
END_DATA_FORMAT
BEGIN_DATA
 1.0	0.0	0.0	0.0	0.135269165039	0.12419128418	0.254592895508
 2.0	1.0	1.0	1.0	75.851837158203	32.379440307617	55.351348876953
 3.0	1.0	0.0	0.0	47.90641784668	3.554000854492	6.234390258789
 4.0	0.0	1.0	0.0	23.272720336914	20.227157592773	10.807373046875
 5.0	0.0	0.0	1.0	1.344482421875	8.367721557617	37.925918579102
 6.0	0.0	0.0	0.0	0.136962890625	0.122985839844	0.255004882812
 7.0	1.0	1.0	1.0	75.851837158203	32.12548828125	55.727890014648
 8.0	1.0	0.0	0.0	48.188232421875	3.567932128906	6.210754394531
 9.0	0.0	1.0	0.0	23.141235351562	19.980484008789	10.778945922852
 10.0	0.0	0.0	1.0	1.346481323242	0.0	38.102325439453
 11.0	0.0	0.0	0.0	0.135025024414	0.123901367188	0.253677368164
 12.0	1.0	1.0	1.0	75.851837158203	32.251968383789	55.727890014648
 13.0	1.0	0.0	0.0	47.90641784668	3.557098388672	6.173309326172
 14.0	0.0	1.0	0.0	23.141235351562	20.078430175781	10.835968017578
 15.0	0.0	0.0	1.0	1.350692749023	8.33366394043	38.102325439453
END_DATA
