data/calibration-000353.ti3
CTI3
ORIGINATOR	"ColorHug Factory"
DESCRIPTOR	"Calibration Target chart information 3"
DEVICE_CLASS	"DISPLAY"
COLOR_REP	"RGB_XYZ"
TARGET_INSTRUMENT	"Hughski ColorHug"
INSTRUMENT_TYPE_SPECTRAL	"NO"
NORMALIZED_TO_Y_100	"NO"
NUMBER_OF_FIELDS	7
NUMBER_OF_SETS	15
BEGIN_DATA_FORMAT
 SAMPLE_ID	RGB_R	RGB_G	RGB_B	XYZ_X	XYZ_Y	XYZ_Z
END_DATA_FORMAT
BEGIN_DATA
 1	0	0	0	0.09155273438	0.09155273438	0.1831054688
 2	1	1	1	56.25915527	38.31481934	43.8079834
 3	1	0	0	35.38513184	3.753662109	5.218505859
 4	0	1	0	18.81408691	27.23693848	12.31384277
 5	0	0	1	0.9155273438	7.553100586	26.82495117
 6	0	0	0	0.09155273438	0.09155273438	0.1831054688
 7	1	1	1	55.98449707	38.4979248	44.0826416
 8	1	0	0	35.84289551	3.753662109	5.172729492
 9	0	1	0	18.81408691	27.09960938	12.35961914
 10	0	0	1	0.9155273438	7.553100586	26.82495117
 11	0	0	0	0.09155273438	0.09155273438	0.1831054688
 12	1	1	1	56.39648438	38.3605957	44.0826416
 13	1	0	0	35.75134277	3.707885742	5.172729492
 14	0	1	0	19.04296875	27.46582031	12.26806641
 15	0	0	1	0.9155273438	7.553100586	26.82495117
END_DATA
