data/calibration-001175.ti3
CTI3   
ORIGINATOR	"ColorHug Factory"
DESCRIPTOR	"Calibration Target chart information 3"
DEVICE_CLASS	"DISPLAY"
COLOR_REP	"RGB_XYZ"
TARGET_INSTRUMENT	"Hughski ColorHug"
INSTRUMENT_TYPE_SPECTRAL	"NO"
NORMALIZED_TO_Y_100	"NO"
NUMBER_OF_FIELDS	7
NUMBER_OF_SETS	15
BEGIN_DATA_FORMAT
 SAMPLE_ID	RGB_R	RGB_G	RGB_B	XYZ_X	XYZ_Y	XYZ_Z
END_DATA_FORMAT
BEGIN_DATA
 1	0	0	0	0.1831054688	0.1831054688	0.2746582031
 2	1	1	1	31.35681152	35.2935791	41.06140137
 3	1	0	0	18.53942871	2.746582031	3.25012207
 4	0	1	0	11.71875	25.45166016	11.35253906
 5	0	0	1	0.9613037109	7.369995117	26.91650391
 6	0	0	0	0.2288818359	0.1831054688	0.2746582031
 7	1	1	1	31.35681152	35.2935791	41.06140137
 8	1	0	0	18.44787598	2.746582031	3.25012207
 9	0	1	0	11.67297363	25.31433105	11.35253906
 10	0	0	1	0.9613037109	7.369995117	26.87072754
 11	0	0	0	0.2288818359	0.2288818359	0.2746582031
 12	1	1	1	31.49414062	35.38513184	41.19873047
 13	1	0	0	18.63098145	2.746582031	3.25012207
 14	0	1	0	11.67297363	25.36010742	11.39831543
 15	0	0	1	0.9613037109	7.369995117	26.91650391
END_DATA
