data/calibration-000230.ti3
CTI3
DESCRIPTOR	"Calibration Target chart information 3"
ORIGINATOR	"ColorHug Factory"
DEVICE_CLASS	"DISPLAY"
COLOR_REP	"RGB_XYZ"
TARGET_INSTRUMENT	"ColorHug"
INSTRUMENT_TYPE_SPECTRAL	"NO"
LUMINANCE_XYZ_CDM2	"52.139282 39.104462 44.906616"
NORMALIZED_TO_Y_100	"YES"
NUMBER_OF_FIELDS	7
NUMBER_OF_SETS	836
BEGIN_DATA_FORMAT
 SAMPLE_ID	RGB_R	RGB_G	RGB_B	XYZ_X	XYZ_Y	XYZ_Z
END_DATA_FORMAT
BEGIN_DATA
 1	100	100	100	130.7602339	99.76608187	114.8538012
 2	100	100	100	133.8011696	100	114.7368421
 3	100	100	100	134.1520468	99.88304094	114.8538012
 4	100	100	100	134.1520468	100	114.502924
 5	33.33	32.622	30.968	11.4619883	8.304093567	8.888888889
 6	100	0	100	85.26315789	27.83625731	81.52046784
 7	100	100	0	132.748538	81.28654971	46.19883041
 8	0	100	100	47.13450292	90.29239766	101.1695906
 9	0	100	0	45.49707602	72.28070175	32.74853801
 10	0	0	100	2.222222222	18.94736842	68.65497076
 11	100	0	0	83.97660819	8.888888889	12.86549708
 12	0	0	0	0.2339181287	0.2339181287	0.2339181287
 13	0	52.455	100	12.28070175	35.78947368	76.37426901
 14	100	0	50.3	84.21052632	12.74853801	27.01754386
 15	100	54.739	100	97.66081871	46.19883041	90.29239766
 16	100	52.128	0	94.50292398	25.02923977	20.35087719
 17	0	0	46.181	0.5847953216	3.274853801	11.4619883
 18	0	51.141	0	10.05847953	15.67251462	7.251461988
 19	0	100	51.348	45.84795322	75.78947368	47.13450292
 20	100	100	52.037	131.4619883	85.14619883	61.05263158
 21	49.216	0	0	16.84210526	1.988304094	2.807017544
 22	56.159	100	0	68.65497076	74.50292398	36.37426901
 23	49.226	100	100	64.56140351	93.0994152	104.4444444
 24	44.487	0	100	15.32163743	20.46783626	70.64327485
 25	100	44.498	52.029	92.04678363	24.79532164	33.4502924
 26	48.926	48.544	100	27.36842105	34.85380117	77.89473684
 27	51.368	100	47.25	64.32748538	77.19298246	47.71929825
 28	49.893	0	49.033	17.89473684	5.614035088	16.14035088
 29	53.109	51.372	0	30.05847953	17.89473684	10.40935673
 30	0	58.587	53.943	14.03508772	25.61403509	25.96491228
 31	100	28.065	100	88.1871345	32.39766082	83.85964912
 32	0	0	72.874	1.169590643	8.771929825	31.69590643
 33	0	26.758	100	4.32748538	23.04093567	70.99415205
 34	0	25.426	0	2.456140351	3.742690058	1.871345029
 35	72.508	0	100	41.16959064	23.15789474	74.73684211
 36	100	27.395	0	86.31578947	13.0994152	14.73684211
 37	74.47	100	100	90.40935673	95.55555556	108.3040936
 38	100	0	25.728	83.85964912	9.824561404	16.25730994
 39	73.862	0	0	41.16959064	4.444444444	6.432748538
 40	100	100	25.402	132.6315789	81.87134503	49.12280702
 41	0	75.751	100	25.96491228	57.07602339	86.43274854
 42	0	75.172	0	23.62573099	36.49122807	16.84210526
 43	0	100	25.864	45.73099415	72.86549708	36.37426901
 44	100	0	74.801	84.44444444	18.24561404	46.66666667
 45	0	100	75.421	46.43274854	81.6374269	68.1871345
 46	24.577	0	0	4.093567251	0.5847953216	0.8187134503
 47	26.321	100	0	50.29239766	72.51461988	33.4502924
 48	100	75.835	0	109.9415205	46.66666667	30.1754386
 49	100	100	77.061	132.0467836	90.87719298	82.80701754
 50	71.263	100	0	84.56140351	76.02339181	38.47953216
 51	0	0	15.614	0.2339181287	0.4678362573	1.520467836
 52	0	30.049	70.936	4.093567251	13.33333333	32.28070175
 53	100	77.691	100	112.6315789	68.30409357	100.2339181
 54	24.486	100	100	50.87719298	90.99415205	102.3391813
 55	100	62.784	31.909	100.5847953	35.20467836	29.59064327
 56	29.552	0	100	7.602339181	19.64912281	70.05847953
 57	32.98	70.921	100	29.8245614	51.69590643	84.56140351
 58	0	27.681	40.241	3.157894737	6.783625731	10.64327485
 59	67.901	71.021	100	57.19298246	55.32163743	89.12280702
 60	28.154	100	67.829	51.34502924	80.11695906	60.93567251
 61	71.637	100	70.001	85.26315789	84.32748538	68.42105263
 62	58.822	58.763	53.586	38.47953216	28.07017544	29.59064327
 63	33.466	30.48	0	10.76023392	6.081871345	3.742690058
 64	100	73.795	71.277	108.7719298	52.98245614	59.76608187
 65	68.394	29.692	0	37.77777778	8.65497076	7.719298246
 66	70.399	0	29.039	36.84210526	5.263157895	10.1754386
 67	28.078	0	26.956	5.380116959	1.754385965	4.678362573
 68	28.532	72.339	0	27.01754386	34.15204678	16.25730994
 69	100	30.941	26.496	87.13450292	15.20467836	18.94736842
 70	34.597	0	73.611	8.888888889	9.941520468	33.80116959
 71	71.573	0	72.408	38.94736842	12.86549708	37.66081871
 72	0	71.029	29.412	21.05263158	33.56725146	19.41520468
 73	68.386	75.008	0	58.71345029	40.35087719	22.10526316
 74	68.088	27.309	100	38.47953216	27.01754386	76.14035088
 75	100	26.457	73.749	87.01754386	22.10526316	48.1871345
 76	74.344	100	27.392	88.5380117	77.42690058	43.15789474
 77	27.558	100	28.197	50.87719298	73.80116959	37.66081871
 78	31.196	27.465	100	10.87719298	23.85964912	71.69590643
 79	0	75.521	72.824	24.79532164	45.96491228	48.77192982
 80	0	50.93	25.553	10.05847953	16.49122807	10.64327485
 81	32.06	33.584	64.033	11.4619883	13.80116959	27.95321637
 82	81.666	55.38	0	64.09356725	24.21052632	16.49122807
 83	68.257	32.751	58.286	38.94736842	15.20467836	27.36842105
 84	0	55.248	81.585	12.86549708	30.1754386	50.40935673
 85	73.781	52.099	100	53.4502924	39.64912281	82.69005848
 86	100	50.537	82.952	94.97076023	36.14035088	63.50877193
 87	23.55	0	50.439	4.210526316	4.444444444	14.73684211
 88	31.335	62.746	31.114	22.57309942	26.78362573	17.42690058
 89	100	18.31	49.418	85.38011696	14.50292398	27.48538012
 90	26.498	48.404	0	13.56725146	14.38596491	7.251461988
 91	47.91	100	85.744	62.45614035	86.66666667	82.57309942
 92	71.829	47.313	31.811	47.25146199	18.94736842	17.54385965
 93	31.304	64.132	69.316	23.85964912	34.38596491	41.40350877
 94	80.403	0	54.321	50.87719298	10.05847953	24.44444444
 95	18.455	50.036	100	13.68421053	34.26900585	76.25730994
 96	50.653	100	16.345	63.39181287	74.38596491	36.84210526
 97	80.121	100	52.261	96.49122807	81.87134503	56.37426901
 98	0	22.54	19.289	2.105263158	3.50877193	3.50877193
 99	100	75.273	46.886	108.4210526	48.77192982	42.10526316
 100	0	78.618	56.625	26.66666667	45.73099415	36.95906433
 101	51.137	80.627	100	47.95321637	64.09356725	91.8128655
 102	48.446	0	17.864	16.37426901	2.339181287	4.444444444
 103	100	50.023	21.211	93.80116959	24.56140351	22.10526316
 104	50.115	20.118	0	19.06432749	4.32748538	3.976608187
 105	58.099	72.426	33.158	45.96491228	37.66081871	24.9122807
 106	19.364	100	50.197	48.42105263	75.90643275	47.13450292
 107	50.683	19.177	100	21.16959064	22.92397661	72.74853801
 108	53.37	0	81.576	21.40350877	13.80116959	45.38011696
 109	47.768	76.245	0	39.88304094	39.41520468	19.76608187
 110	0	18.927	55.503	1.988304094	6.900584795	18.24561404
 111	0	13.277	0	0.9356725146	1.169590643	0.701754386
 112	72.862	72.473	75.625	62.33918129	47.60233918	56.84210526
 113	100	13.904	0	84.56140351	9.941520468	13.33333333
 114	86.349	0	100	60.70175439	25.26315789	78.01169591
 115	100	41.941	100	91.92982456	38.12865497	86.43274854
 116	100	81.785	16.464	114.3859649	53.91812865	34.97076023
 117	0	44.063	52.596	7.83625731	15.78947368	20.81871345
 118	0	0	58.917	0.8187134503	5.497076023	19.64912281
 119	59.25	24.551	29.789	27.71929825	7.368421053	10.05847953
 120	82.73	82.874	100	84.56140351	70.76023392	98.47953216
 121	80.039	0	12.618	49.23976608	5.614035088	8.65497076
 122	60.957	47.729	77.817	36.49122807	26.78362573	47.83625731
 123	100	0	38.618	83.97660819	11.11111111	20.81871345
 124	0	40.09	100	7.83625731	28.42105263	73.56725146
 125	0	15.283	82.322	2.105263158	13.0994152	43.15789474
 126	17.592	81.726	100	32.39766082	63.62573099	89.70760234
 127	100	14.13	100	86.19883041	29.12280702	82.57309942
 128	15.261	100	82.059	48.07017544	83.85964912	75.78947368
 129	47.77	79.418	60.389	42.92397661	49.35672515	42.57309942
 130	18.768	16.429	0	3.50877193	1.988304094	1.286549708
 131	55.634	100	65.763	67.95321637	81.75438596	61.98830409
 132	100	100	38.541	132.0467836	83.15789474	54.03508772
 133	17.421	0	83.497	3.274853801	12.39766082	44.44444444
 134	17.237	16.758	100	4.912280702	20.81871345	69.59064327
 135	0	15.067	30.039	1.169590643	2.807017544	5.380116959
 136	0	0	86.505	1.637426901	13.21637427	48.07017544
 137	75.736	72.799	50.02	66.19883041	42.57309942	36.25730994
 138	100	83.323	85.529	114.8538012	68.65497076	81.87134503
 139	100	100	64.894	132.3976608	87.95321637	70.76023392
 140	81.98	84.914	0	84.44444444	54.03508772	30.40935673
 141	0	63.757	15.49	16.37426901	25.61403509	12.98245614
 142	49.514	66.135	100	36.49122807	48.1871345	84.44444444
 143	100	0	61.862	83.85964912	14.97076023	35.0877193
 144	24.308	45.41	49.831	12.04678363	16.49122807	20.11695906
 145	15.963	0	17.047	1.988304094	0.8187134503	1.988304094
 146	87.497	100	100	108.8888889	97.54385965	111.2280702
 147	52.099	25.003	75.752	22.22222222	15.32163743	39.76608187
 148	14.909	81.162	0	29.47368421	43.62573099	20.23391813
 149	0	34.792	14.626	4.561403509	7.251461988	4.561403509
 150	48.39	45.075	22.552	23.97660819	14.38596491	10.76023392
 151	83.545	65.965	100	74.73684211	52.28070175	89.35672515
 152	16.226	62.345	0	17.30994152	23.97660819	11.34502924
 153	63.222	0	14.914	29.23976608	3.625730994	5.847953216
 154	80.449	13.446	0	50.76023392	6.549707602	8.304093567
 155	83.917	41.562	0	61.05263158	15.78947368	12.98245614
 156	100	60.448	46.3	99.29824561	34.85380117	35.32163743
 157	15.584	0	34.795	1.988304094	2.105263158	6.666666667
 158	17.144	65.121	100	20.93567251	46.08187135	81.6374269
 159	83.602	55.334	62.667	67.48538012	30.76023392	40
 160	0	82.19	14.22	28.88888889	45.38011696	21.75438596
 161	25.132	74.856	50.616	27.83625731	40.58479532	31.69590643
 162	0	13.769	100	2.456140351	20.11695906	69.59064327
 163	87.181	0	0	60.11695906	6.432748538	9.239766082
 164	0	100	39.19	45.26315789	74.03508772	40.81871345
 165	78.047	65.914	19.865	64.67836257	32.98245614	21.87134503
 166	100	63.961	15.865	100.8187135	34.97076023	25.96491228
 167	100	45.955	36.032	91.11111111	23.2748538	25.38011696
 168	15.926	100	16.89	47.25146199	72.28070175	34.61988304
 169	41.459	100	0	56.84210526	73.33333333	34.50292398
 170	48.707	37.288	48.139	22.22222222	13.4502924	19.06432749
 171	83.381	100	13.285	101.2865497	78.47953216	42.33918129
 172	78.129	25.303	75.621	49.70760234	18.3625731	43.62573099
 173	12.396	0	0	1.286549708	0.350877193	0.4678362573
 174	37.607	48.336	83.346	19.53216374	27.25146199	52.39766082
 175	35.588	15.356	0	9.239766082	2.456140351	2.222222222
 176	61.245	100	100	74.50292398	94.03508772	104.7953216
 177	100	67.29	87.195	103.2748538	50.87719298	74.97076023
 178	0	0	30.615	0.350877193	1.520467836	5.029239766
 179	35.187	81.789	83.323	37.89473684	57.89473684	65.73099415
 180	39.525	80.194	22.879	37.89473684	44.44444444	23.97660819
 181	50.634	34.593	0	22.57309942	8.888888889	6.081871345
 182	14.175	100	63.146	47.13450292	78.71345029	56.60818713
 183	83.493	17.728	34.574	55.32163743	9.356725146	15.55555556
 184	23.463	22.014	79.943	6.549707602	14.15204678	41.87134503
 185	18.066	31.847	0	6.081871345	6.081871345	3.157894737
 186	87.201	100	81.361	108.0701754	90.05847953	84.32748538
 187	0	100	87.95	46.66666667	86.31578947	83.2748538
 188	34.476	17.888	46.22	9.356725146	5.964912281	13.68421053
 189	18.277	0	67.39	3.040935673	7.602339181	27.01754386
 190	100	87.972	0	119.6491228	61.98830409	37.30994152
 191	82.925	34.85	100	59.53216374	31.8128655	80.35087719
 192	0	88.016	100	35.55555556	72.04678363	93.33333333
 193	36.104	85.655	100	41.75438596	69.47368421	92.86549708
 194	60.981	0	0	26.5497076	3.040935673	4.32748538
 195	51.466	61.826	78.106	34.73684211	36.37426901	51.69590643
 196	78.427	31.983	22.175	50.1754386	11.57894737	12.51461988
 197	66.017	44.321	0	39.41520468	15.0877193	10.29239766
 198	83.941	0	84.177	56.02339181	18.3625731	53.80116959
 199	20.158	46.612	23.269	10.99415205	13.91812865	9.239766082
 200	0	100	62.618	45.61403509	78.47953216	55.90643275
 201	33.832	0	13.933	7.602339181	1.286549708	2.456140351
 202	100	17.286	16.322	84.44444444	10.99415205	15.0877193
 203	0	42.204	83.926	7.83625731	22.92397661	49.8245614
 204	0	87.774	0	33.33333333	51.92982456	23.85964912
 205	64.988	0	59.017	31.22807018	8.888888889	24.67836257
 206	14.677	0	100	3.274853801	19.18128655	68.77192982
 207	88.934	82.673	35.021	92.39766082	54.15204678	37.07602339
 208	0	63.778	100	18.01169591	44.67836257	80.58479532
 209	83.429	17.674	100	56.84210526	26.5497076	78.01169591
 210	30.899	100	85.668	52.98245614	85.96491228	81.28654971
 211	83.68	0	41.016	54.61988304	8.421052632	17.54385965
 212	100	63.515	0	100.2339181	33.80116959	24.32748538
 213	85.074	69.987	0	77.19298246	36.95906433	22.92397661
 214	20.801	45.524	69.018	11.57894737	20.58479532	34.38596491
 215	21.382	82.482	73.017	33.0994152	55.0877193	54.15204678
 216	100	15.128	64.249	84.56140351	16.84210526	37.54385965
 217	36.522	0	58.427	9.473684211	6.432748538	20.81871345
 218	22.466	81.296	33.007	31.69590643	45.84795322	26.5497076
 219	62.531	87.152	0	61.6374269	54.73684211	27.95321637
 220	84.12	85.397	67.886	87.60233918	63.04093567	58.71345029
 221	18.87	27.336	45.389	5.614035088	7.602339181	13.56725146
 222	66.439	100	14.444	78.12865497	75.55555556	38.94736842
 223	41.636	22.147	19.003	13.68421053	4.678362573	5.263157895
 224	61.271	100	81.94	73.80116959	86.9005848	79.64912281
 225	86.013	100	0	104.6783626	78.3625731	41.87134503
 226	37.57	0	0	9.356725146	1.169590643	1.637426901
 227	100	16.132	84.102	85.26315789	22.92397661	58.71345029
 228	0	100	13.619	45.26315789	72.16374269	33.80116959
 229	38.905	100	56.471	56.02339181	78.12865497	52.39766082
 230	100	15.382	34.563	84.32748538	12.04678363	19.88304094
 231	36.656	14.908	100	11.57894737	21.40350877	70.64327485
 232	0	62.593	66.608	16.25730994	31.4619883	37.30994152
 233	66.347	12.528	100	34.73684211	23.39181287	73.91812865
 234	100	43.375	69.233	91.4619883	27.71929825	46.9005848
 235	100	56.36	61.236	96.7251462	34.03508772	43.62573099
 236	0	86.194	44.955	32.39766082	53.33333333	34.15204678
 237	64.527	87.262	100	64.79532164	74.26900585	97.66081871
 238	34.411	0	42.471	8.070175439	3.625730994	10.99415205
 239	80.23	59.707	85.12	64.67836257	40.46783626	64.56140351
 240	20.625	19.056	14.791	4.32748538	2.923976608	2.807017544
 241	15.341	34.221	100	7.719298246	25.96491228	72.74853801
 242	36.777	0	87.905	10.1754386	14.85380117	51.8128655
 243	34.598	56.247	100	22.22222222	38.94736842	78.94736842
 244	20.86	67.629	17.418	21.52046784	29.59064327	15.43859649
 245	44.958	60.843	18.054	28.5380117	24.9122807	14.50292398
 246	37.421	60.193	0	23.74269006	23.15789474	11.8128655
 247	84.011	33.849	42.612	59.41520468	15.20467836	21.40350877
 248	17.241	60.339	37.743	16.49122807	24.67836257	18.24561404
 249	50.65	17.261	53.278	19.64912281	8.187134503	19.53216374
 250	45.505	48.926	65.152	24.09356725	22.69005848	34.03508772
 251	44.567	84.081	39.649	43.97660819	51.22807018	32.39766082
 252	100	86.339	72.054	118.3625731	68.65497076	67.95321637
 253	68.14	61.135	0	48.65497076	26.5497076	15.78947368
 254	17.93	66.986	81.403	21.28654971	40.11695906	55.32163743
 255	39.242	60.215	48.926	25.14619883	27.13450292	25.14619883
 256	20.099	18.77	62.967	4.678362573	8.771929825	24.44444444
 257	34.553	100	14.582	52.86549708	73.33333333	35.32163743
 258	87.345	0	66.694	60.46783626	13.80116959	35.67251462
 259	0	43.714	39.842	7.485380117	13.68421053	13.80116959
 260	100	37.705	13.955	87.60233918	17.54385965	17.77777778
 261	31.265	86.993	0	38.83040936	52.04678363	24.44444444
 262	51.402	82.661	81.338	48.5380117	59.06432749	65.61403509
 263	100	100	12.984	131.2280702	81.28654971	46.66666667
 264	0	37.859	0	5.497076023	8.304093567	3.976608187
 265	62.092	58.215	100	42.92397661	42.92397661	82.80701754
 266	86.186	100	64.1	105.6140351	85.02923977	66.19883041
 267	100	35.251	85.898	88.77192982	29.23976608	64.21052632
 268	63.182	89.992	41.974	64.79532164	61.40350877	39.76608187
 269	13.504	100	0	46.08187135	72.16374269	32.98245614
 270	100	0	13.228	82.80701754	9.122807018	13.68421053
 271	63.881	40.826	100	37.30994152	32.04678363	78.47953216
 272	69.387	84.838	20.792	66.5497076	52.86549708	29.94152047
 273	0	70.279	45.136	20.58479532	34.97076023	25.84795322
 274	79.094	64.754	40.908	65.02923977	34.03508772	28.5380117
 275	62.385	54.099	17.396	39.64912281	21.05263158	14.15204678
 276	64.408	14.621	0	30.87719298	4.678362573	5.380116959
 277	70.028	15.606	44.651	37.54385965	8.421052632	17.07602339
 278	0	63.544	0	16.14035088	25.26315789	11.69590643
 279	83.475	47.274	20.502	62.69005848	19.64912281	16.7251462
 280	55.866	0	32.671	22.22222222	4.093567251	9.122807018
 281	58.007	0	100	25.61403509	21.52046784	72.98245614
 282	100	0	87.698	83.97660819	22.45614035	62.69005848
 283	0	13.792	67.215	1.520467836	8.65497076	27.13450292
 284	84.123	17.001	58.549	56.25730994	12.98245614	28.88888889
 285	59.579	32.873	15.966	29.23976608	9.239766082	8.187134503
 286	10.41	32.998	28.659	5.14619883	7.602339181	7.368421053
 287	17.231	40.031	85.65	9.239766082	22.69005848	52.04678363
 288	37.568	41.561	10.108	15.78947368	11.22807018	6.783625731
 289	0	69.015	85.092	20.46783626	43.04093567	60.23391813
 290	14.442	100	36.187	46.5497076	74.03508772	40.11695906
 291	100	40.549	0	89.59064327	18.47953216	17.19298246
 292	82.143	45.435	78.429	60.93567251	28.30409357	51.8128655
 293	52.674	0	67.3	20.23391813	9.590643275	29.94152047
 294	0	87.868	66.793	34.26900585	60.23391813	50.99415205
 295	86.53	100	40.524	105.8479532	80.81871345	51.34502924
 296	71.777	85.586	67.232	70.64327485	61.05263158	56.02339181
 297	43.216	100	31.671	58.24561404	75.0877193	39.88304094
 298	39.245	32.908	85.845	15.55555556	20.35087719	51.69590643
 299	0	45.662	67.543	8.65497076	19.88304094	32.98245614
 300	12.161	100	100	47.83625731	91.34502924	102.1052632
 301	67.049	0	85.516	33.80116959	16.49122807	52.63157895
 302	100	89.041	100	121.4035088	82.92397661	107.251462
 303	20.246	60.698	56.526	17.77777778	27.95321637	29.12280702
 304	52.177	55.457	40.416	31.34502924	23.2748538	20.46783626
 305	72.617	87.018	83.932	73.91812865	68.07017544	74.73684211
 306	40.512	16.723	66.475	12.86549708	10.1754386	28.5380117
 307	68.507	49.232	50.605	44.09356725	22.22222222	26.43274854
 308	65.622	100	54.525	77.42690058	80.23391813	54.97076023
 309	54.115	37.24	66.394	26.19883041	17.54385965	33.0994152
 310	100	76.138	31.267	108.4210526	48.07017544	35.55555556
 311	54.728	65.623	0	38.3625731	29.47368421	15.67251462
 312	63.126	12.526	64.37	29.94152047	10.87719298	29.23976608
 313	72.827	18.08	23.704	40.70175439	7.01754386	10.05847953
 314	23.268	15.278	34.947	4.795321637	3.742690058	7.83625731
 315	87.648	68.954	59.645	80.70175439	42.22222222	43.97660819
 316	0	85.595	85.198	32.74853801	62.80701754	69.23976608
 317	35.798	84.371	69.21	39.76608187	57.19298246	51.8128655
 318	36.062	47.494	35.919	17.42690058	16.37426901	14.38596491
 319	86.083	36.277	59.152	63.2748538	19.41520468	32.63157895
 320	58.21	100	30.361	69.94152047	75.90643275	41.40350877
 321	46.745	14.614	32.317	16.14035088	4.561403509	8.538011696
 322	81.573	73.869	86.954	75.67251462	54.50292398	73.21637427
 323	85.991	49.387	48.206	67.95321637	24.32748538	28.42105263
 324	28.062	87.906	19.654	38.47953216	54.15204678	27.01754386
 325	68.992	17.993	85.124	37.19298246	18.47953216	53.21637427
 326	100	66.147	100	103.0409357	55.55555556	94.73684211
 327	33.358	64.806	84.517	25.61403509	39.88304094	58.94736842
 328	41.351	17.736	80.522	13.68421053	14.38596491	43.50877193
 329	100	100	88.719	130.877193	94.85380117	97.66081871
 330	66.336	0	44.32	32.39766082	6.549707602	15.78947368
 331	64.85	67.09	12.293	48.65497076	32.04678363	18.71345029
 332	15.262	31.268	63.277	5.847953216	12.16374269	26.08187135
 333	15.008	43.663	37.3	9.005847953	13.4502924	12.98245614
 334	0	57.895	38.078	13.33333333	22.57309942	17.19298246
 335	66.599	58.458	67.871	46.5497076	32.16374269	42.22222222
 336	59.191	18.651	15.215	25.96491228	5.14619883	6.198830409
 337	66.781	31.14	84.629	37.07602339	21.6374269	53.33333333
 338	88.033	85.158	52.14	93.80116959	59.88304094	47.25146199
 339	36.882	100	100	56.14035088	92.04678363	103.2748538
 340	26.102	33.094	17.006	8.538011696	7.251461988	5.263157895
 341	56.309	36.861	35.862	27.36842105	12.16374269	13.91812865
 342	45.839	65.587	67.033	32.16374269	36.02339181	41.28654971
 343	83.709	81.172	16.406	82.57309942	49.59064327	29.8245614
 344	0	48.132	13.005	8.888888889	14.03508772	7.485380117
 345	87.176	50.021	100	71.22807018	40.58479532	85.38011696
 346	51.219	84.244	13.73	48.65497076	49.59064327	25.61403509
 347	60.606	71.415	48.406	47.25146199	39.29824561	32.16374269
 348	0	11.359	12.718	0.8187134503	1.286549708	1.520467836
 349	86.429	49.705	33.145	68.42105263	22.57309942	21.6374269
 350	34.056	40.958	100	15.55555556	29.8245614	75.0877193
 351	100	30.557	59.628	85.84795322	19.88304094	36.02339181
 352	88.497	26.902	13.449	64.44444444	10.99415205	12.51461988
 353	14.167	51.98	88.218	12.98245614	30.52631579	58.3625731
 354	13.784	12.983	49.37	2.573099415	5.029239766	14.15204678
 355	15.018	88.441	48.062	35.90643275	57.19298246	37.30994152
 356	87.79	25.769	89.215	63.39181287	24.56140351	62.80701754
 357	0	33.206	55.865	4.561403509	11.11111111	20.58479532
 358	74.324	76.029	35.536	65.73099415	43.97660819	30.29239766
 359	65.863	57.223	42.324	44.32748538	25.84795322	23.74269006
 360	30.893	54.646	13.136	18.01169591	19.06432749	10.40935673
 361	0	34.36	28.321	4.561403509	7.953216374	7.368421053
 362	15.443	77.087	85.116	27.71929825	51.92982456	64.56140351
 363	63.381	68.947	68.521	48.65497076	41.16959064	46.5497076
 364	69.733	27.566	42.917	38.59649123	10.99415205	17.66081871
 365	32.754	100	42.76	52.39766082	75.55555556	43.97660819
 366	47.096	29.481	34.829	18.71345029	8.421052632	11.11111111
 367	8.5451	71.948	62.695	22.45614035	39.41520468	38.12865497
 368	0	86.048	29.3	32.04678363	51.34502924	27.36842105
 369	53.697	51.572	85.367	31.57894737	31.11111111	57.42690058
 370	17.608	56.69	12.515	14.50292398	20	10.29239766
 371	90.638	14.414	49.227	66.08187135	12.04678363	24.21052632
 372	63.248	63.64	89.55	46.19883041	42.80701754	68.65497076
 373	100	85.976	58.455	115.5555556	64.21052632	55.78947368
 374	9.8311	28.027	7.5567	3.859649123	4.678362573	2.807017544
 375	89.831	64.313	69.506	81.87134503	40.70175439	50.64327485
 376	31.754	12.995	25.543	7.368421053	2.923976608	5.14619883
 377	75.914	45.966	64.957	51.69590643	24.09356725	37.42690058
 378	7.5735	50.695	58.941	10.87719298	21.05263158	27.13450292
 379	100	69.835	58.912	103.625731	45.38011696	47.01754386
 380	32.211	34.376	48.339	11.57894737	11.11111111	17.19298246
 381	13.901	12.159	73.555	2.923976608	10.1754386	33.4502924
 382	87.071	9.028	77.653	60.93567251	17.42690058	47.13450292
 383	23.272	85.409	84.29	35.67251462	61.75438596	68.5380117
 384	93.289	39.48	26.145	75.55555556	17.54385965	18.47953216
 385	65.769	59.63	30.967	45.49707602	26.78362573	19.88304094
 386	100	32.265	41.803	86.08187135	17.54385965	25.02923977
 387	86.568	85.281	86.961	91.4619883	69.00584795	80.70175439
 388	52.577	86.83	30.016	51.8128655	54.50292398	30.99415205
 389	47.921	40.199	76.902	22.92397661	21.40350877	43.74269006
 390	22.36	86.619	61.58	36.02339181	57.19298246	46.08187135
 391	52.232	33.601	88.787	24.56140351	22.69005848	57.77777778
 392	0	28.523	86.267	4.210526316	17.77777778	50.1754386
 393	43.497	67.879	39.551	31.69590643	32.98245614	23.85964912
 394	39.877	45.261	0	18.3625731	13.21637427	7.251461988
 395	86.94	12.43	24.699	59.76608187	8.304093567	12.74853801
 396	28.363	55.339	90.398	18.59649123	34.15204678	63.50877193
 397	39.018	70.534	57.879	30.76023392	37.77777778	35.0877193
 398	12.833	28.519	78.828	5.14619883	15.43859649	41.28654971
 399	68.35	31.815	69.975	38.83040936	17.77777778	37.54385965
 400	56.52	26.226	41.626	25.49707602	8.888888889	14.85380117
 401	12.938	46.218	0	9.239766082	12.63157895	6.081871345
 402	8.6938	60.179	26.117	14.97076023	23.2748538	13.91812865
 403	51.995	89.429	96.608	55.0877193	74.38596491	91.69590643
 404	46.905	47.746	48.909	24.09356725	18.94736842	21.87134503
 405	14.352	81.814	19.479	29.70760234	44.9122807	22.57309942
 406	71.482	38.117	12.273	43.50877193	12.86549708	10.64327485
 407	86.616	60.785	10.012	73.80116959	29.47368421	20.23391813
 408	71.811	88.979	52.186	73.4502924	62.22222222	46.19883041
 409	43.213	100	72.083	58.24561404	81.75438596	66.31578947
