data/calibration-002574.ti3
CTI3   
ORIGINATOR	"ColorHug Factory"
CREATED	"Wed Dec 03 19:27:34 2014"
DESCRIPTOR	"Calibration Target chart information 3"
DEVICE_CLASS	"DISPLAY"
COLOR_REP	"RGB_XYZ"
TARGET_INSTRUMENT	"Hughski ColorHug"
INSTRUMENT_TYPE_SPECTRAL	"NO"
NORMALIZED_TO_Y_100	"NO"
NUMBER_OF_FIELDS	7
NUMBER_OF_SETS	15
BEGIN_DATA_FORMAT
 SAMPLE_ID	RGB_R	RGB_G	RGB_B	XYZ_X	XYZ_Y	XYZ_Z
END_DATA_FORMAT
BEGIN_DATA
 1.0	0.0	0.0	0.0	0.336135864258	0.364242553711	0.467758178711
 2.0	1.0	1.0	1.0	112.219177246094	109.226654052734	120.470581054688
 3.0	1.0	0.0	0.0	78.769226074219	7.627548217773	12.820022583008
 4.0	0.0	1.0	0.0	26.425796508789	75.851837158203	30.567153930664
 5.0	0.0	0.0	1.0	3.268951416016	21.962463378906	71.859634399414
 6.0	0.0	0.0	0.0	0.339294433594	0.367553710938	0.470230102539
 7.0	1.0	1.0	1.0	112.219177246094	109.226654052734	120.470581054688
 8.0	1.0	0.0	0.0	78.769226074219	7.620452880859	12.820022583008
 9.0	0.0	1.0	0.0	26.425796508789	75.851837158203	30.567153930664
 10.0	0.0	0.0	1.0	3.267639160156	21.962463378906	71.859634399414
 11.0	0.0	0.0	0.0	0.339752197266	0.369567871094	0.47135925293
 12.0	1.0	1.0	1.0	112.219177246094	109.226654052734	120.470581054688
 13.0	1.0	0.0	0.0	78.01904296875	7.620452880859	12.799987792969
 14.0	0.0	1.0	0.0	26.425796508789	75.851837158203	30.567153930664
 15.0	0.0	0.0	1.0	3.266342163086	21.903732299805	71.859634399414
END_DATA
