data/calibration-000053.ti3
CTI3
DESCRIPTOR	"Calibration Target chart information 3"
ORIGINATOR	"ColorHug Factory"
DEVICE_CLASS	"DISPLAY"
COLOR_REP	"RGB_XYZ"
TARGET_INSTRUMENT	"ColorHug"
INSTRUMENT_TYPE_SPECTRAL	"NO"
LUMINANCE_XYZ_CDM2	"49.140930 37.525177 42.949677"
NORMALIZED_TO_Y_100	"YES"
NUMBER_OF_FIELDS	7
NUMBER_OF_SETS	836
BEGIN_DATA_FORMAT
 SAMPLE_ID	RGB_R	RGB_G	RGB_B	XYZ_X	XYZ_Y	XYZ_Z
END_DATA_FORMAT
BEGIN_DATA
 1	100	100	100	127.0631068	99.51456311	113.7135922
 2	100	100	100	130.3398058	99.02912621	113.7135922
 3	100	100	100	131.4320388	99.39320388	113.9563107
 4	100	100	100	132.2815534	100	114.0776699
 5	33.33	32.622	30.968	10.19417476	7.645631068	8.131067961
 6	100	0	100	81.31067961	27.30582524	80.7038835
 7	100	100	0	125.9708738	81.18932039	45.99514563
 8	0	100	100	46.72330097	90.89805825	101.092233
 9	0	100	0	44.2961165	71.84466019	33.13106796
 10	0	0	100	3.155339806	19.17475728	68.81067961
 11	100	0	0	80.2184466	9.101941748	12.98543689
 12	0	0	0	1.334951456	0.9708737864	1.09223301
 13	0	52.455	100	11.65048544	33.73786408	75.24271845
 14	100	0	50.3	76.69902913	12.37864078	24.87864078
 15	100	54.739	100	93.08252427	43.44660194	87.98543689
 16	100	52.128	0	90.41262136	23.17961165	19.41747573
 17	0	0	46.181	1.577669903	3.519417476	10.55825243
 18	0	51.141	0	9.466019417	14.44174757	7.281553398
 19	0	100	51.348	44.2961165	75.36407767	45.26699029
 20	100	100	52.037	129.1262136	84.83009709	59.10194175
 21	49.216	0	0	16.99029126	2.427184466	3.276699029
 22	56.159	100	0	64.32038835	74.51456311	36.16504854
 23	49.226	100	100	60.67961165	92.35436893	103.0339806
 24	44.487	0	100	13.95631068	20.38834951	70.63106796
 25	100	44.498	52.029	87.13592233	22.45145631	30.2184466
 26	48.926	48.544	100	24.51456311	32.64563107	76.5776699
 27	51.368	100	47.25	60.19417476	77.0631068	45.63106796
 28	49.893	0	49.033	16.1407767	5.582524272	14.5631068
 29	53.109	51.372	0	26.21359223	16.26213592	9.708737864
 30	0	58.587	53.943	13.22815534	23.4223301	23.30097087
 31	100	28.065	100	84.10194175	31.31067961	82.2815534
 32	0	0	72.874	1.941747573	8.737864078	29.61165049
 33	0	26.758	100	4.733009709	22.57281553	70.38834951
 34	0	25.426	0	2.912621359	3.883495146	2.427184466
 35	72.508	0	100	38.95631068	23.05825243	74.27184466
 36	100	27.395	0	83.00970874	12.5	14.5631068
 37	74.47	100	100	86.65048544	95.14563107	107.1601942
 38	100	0	25.728	80.7038835	9.830097087	15.77669903
 39	73.862	0	0	43.81067961	4.975728155	6.796116505
 40	100	100	25.402	129.1262136	81.55339806	48.78640777
 41	0	75.751	100	25.48543689	54.49029126	84.58737864
 42	0	75.172	0	22.57281553	35.07281553	16.62621359
 43	0	100	25.864	44.17475728	72.33009709	35.55825243
 44	100	0	74.801	78.27669903	17.47572816	43.81067961
 45	0	100	75.421	45.75242718	81.18932039	65.16990291
 46	24.577	0	0	4.368932039	1.334951456	1.577669903
 47	26.321	100	0	47.45145631	72.45145631	33.61650485
 48	100	75.835	0	105.0970874	44.17475728	29.24757282
 49	100	100	77.061	131.0679612	90.41262136	79.49029126
 50	71.263	100	0	81.18932039	76.33495146	38.71359223
 51	0	0	15.614	1.09223301	1.213592233	2.063106796
 52	0	30.049	70.936	4.247572816	12.37864078	29.73300971
 53	100	77.691	100	108.3737864	65.29126214	98.30097087
 54	24.486	100	100	49.15048544	91.1407767	101.3349515
 55	100	62.784	31.909	96.23786408	32.64563107	27.54854369
 56	29.552	0	100	13.34951456	19.66019417	69.53883495
 57	32.98	70.921	100	27.0631068	49.63592233	83.13106796
 58	0	27.681	40.241	3.519417476	6.432038835	9.708737864
 59	67.901	71.021	100	53.15533981	52.42718447	87.01456311
 60	28.154	100	67.829	49.15048544	78.88349515	58.25242718
 61	71.637	100	70.001	82.03883495	83.8592233	65.41262136
 62	58.822	58.763	53.586	34.95145631	25.72815534	26.45631068
 63	33.466	30.48	0	9.587378641	5.703883495	3.883495146
 64	100	73.795	71.277	103.3980583	49.63592233	55.94660194
 65	68.394	29.692	0	35.55825243	8.131067961	7.645631068
 66	70.399	0	29.039	35.07281553	5.461165049	9.830097087
 67	28.078	0	26.956	5.218446602	2.184466019	4.733009709
 68	28.532	72.339	0	24.63592233	32.2815534	15.77669903
 69	100	30.941	26.496	83.13106796	14.32038835	17.96116505
 70	34.597	0	73.611	8.859223301	9.587378641	31.67475728
 71	71.573	0	72.408	37.25728155	12.5	34.83009709
 72	0	71.029	29.412	20.14563107	31.7961165	18.2038835
 73	68.386	75.008	0	53.88349515	37.98543689	21.11650485
 74	68.088	27.309	100	36.04368932	25.72815534	74.63592233
 75	100	26.457	73.749	82.88834951	20.63106796	44.7815534
 76	74.344	100	27.392	85.31553398	78.03398058	42.35436893
 77	27.558	100	28.197	48.54368932	73.90776699	36.89320388
 78	31.196	27.465	100	9.951456311	23.4223301	71.11650485
 79	0	75.521	72.824	23.54368932	43.2038835	45.75242718
 80	0	50.93	25.553	9.466019417	15.04854369	9.951456311
 81	32.06	33.584	64.033	10.07281553	12.5	25.36407767
 82	81.666	55.38	0	60.19417476	22.33009709	15.77669903
 83	68.257	32.751	58.286	36.16504854	13.83495146	24.87864078
 84	0	55.248	81.585	12.37864078	27.66990291	46.60194175
 85	73.781	52.099	100	49.87864078	37.37864078	81.06796117
 86	100	50.537	82.952	90.53398058	33.25242718	59.22330097
 87	23.55	0	50.439	5.218446602	4.490291262	13.22815534
 88	31.335	62.746	31.114	20.14563107	24.75728155	15.89805825
 89	100	18.31	49.418	81.43203883	13.71359223	25.24271845
 90	26.498	48.404	0	12.13592233	13.10679612	6.917475728
 91	47.91	100	85.744	58.61650485	85.67961165	79.00485437
 92	71.829	47.313	31.811	44.05339806	16.99029126	15.77669903
 93	31.304	64.132	69.316	21.48058252	31.67475728	38.22815534
 94	80.403	0	54.321	47.81553398	9.708737864	22.45145631
 95	18.455	50.036	100	12.98543689	32.40291262	74.63592233
 96	50.653	100	16.345	59.34466019	74.39320388	36.65048544
 97	80.121	100	52.261	93.2038835	80.7038835	53.15533981
 98	0	22.54	19.289	2.548543689	3.762135922	3.762135922
 99	100	75.273	46.886	104.9757282	46.48058252	39.0776699
 100	0	78.618	56.625	26.82038835	43.32524272	34.22330097
 101	51.137	80.627	100	43.44660194	61.40776699	89.44174757
 102	48.446	0	17.864	14.5631068	2.791262136	4.490291262
 103	100	50.023	21.211	88.34951456	22.57281553	20.87378641
 104	50.115	20.118	0	17.47572816	4.368932039	4.247572816
 105	58.099	72.426	33.158	41.74757282	35.55825243	22.9368932
 106	19.364	100	50.197	46.60194175	75.36407767	45.26699029
 107	50.683	19.177	100	22.20873786	22.57281553	71.72330097
 108	53.37	0	81.576	19.17475728	13.10679612	42.23300971
 109	47.768	76.245	0	35.9223301	37.74271845	19.05339806
 110	0	18.927	55.503	2.427184466	6.674757282	16.74757282
 111	0	13.277	0	1.577669903	1.699029126	1.45631068
 112	72.862	72.473	75.625	58.73786408	44.66019417	52.54854369
 113	100	13.904	0	80.7038835	9.951456311	13.34951456
 114	86.349	0	100	58.61650485	25	77.0631068
 115	100	41.941	100	87.86407767	36.16504854	84.34466019
 116	100	81.785	16.464	110.0728155	51.33495146	33.49514563
 117	0	44.063	52.596	7.402912621	14.0776699	18.56796117
 118	0	0	58.917	1.577669903	5.703883495	18.32524272
 119	59.25	24.551	29.789	25.24271845	7.160194175	9.466019417
 120	82.73	82.874	100	79.85436893	67.47572816	95.87378641
 121	80.039	0	12.618	46.96601942	5.946601942	8.616504854
 122	60.957	47.729	77.817	32.88834951	24.15048544	43.93203883
 123	100	0	38.618	79.85436893	10.9223301	19.53883495
 124	0	40.09	100	7.888349515	27.18446602	72.33009709
 125	0	15.283	82.322	2.669902913	12.5	40.29126214
 126	17.592	81.726	100	30.82524272	61.40776699	88.22815534
 127	100	14.13	100	82.2815534	28.27669903	80.94660194
 128	15.261	100	82.059	47.08737864	83.49514563	72.69417476
 129	47.77	79.418	60.389	38.71359223	46.23786408	39.0776699
 130	18.768	16.429	0	3.640776699	2.427184466	1.941747573
 131	55.634	100	65.763	63.34951456	80.7038835	59.22330097
 132	100	100	38.541	126.8203883	83.13106796	52.18446602
 133	17.421	0	83.497	3.640776699	12.01456311	41.26213592
 134	17.237	16.758	100	5.097087379	20.75242718	69.41747573
 135	0	15.067	30.039	1.82038835	3.033980583	5.218446602
 136	0	0	86.505	2.427184466	12.98543689	45.26699029
 137	75.736	72.799	50.02	62.13592233	39.92718447	33.25242718
 138	100	83.323	85.529	111.6504854	65.16990291	77.0631068
 139	100	100	64.894	130.5825243	87.5	68.44660194
 140	81.98	84.914	0	79.85436893	51.33495146	29.24757282
 141	0	63.757	15.49	16.1407767	24.15048544	12.5
 142	49.514	66.135	100	32.76699029	45.75242718	82.40291262
 143	100	0	61.862	80.82524272	14.44174757	32.52427184
 144	24.308	45.41	49.831	11.16504854	14.5631068	17.83980583
 145	15.963	0	17.047	2.305825243	1.45631068	2.548543689
 146	87.497	100	100	106.9174757	96.84466019	108.9805825
 147	52.099	25.003	75.752	19.7815534	14.19902913	36.89320388
 148	14.909	81.162	0	27.66990291	41.99029126	19.7815534
 149	0	34.792	14.626	4.611650485	6.796116505	4.611650485
 150	48.39	45.075	22.552	20.63106796	12.86407767	9.830097087
 151	83.545	65.965	100	70.14563107	49.51456311	87.37864078
 152	16.226	62.345	0	16.74757282	22.57281553	11.16504854
 153	63.222	0	14.914	26.69902913	4.004854369	5.946601942
 154	80.449	13.446	0	47.81553398	6.553398058	8.495145631
 155	83.917	41.562	0	57.16019417	14.44174757	12.5
 156	100	60.448	46.3	94.90291262	31.91747573	32.2815534
 157	15.584	0	34.795	2.427184466	2.427184466	6.310679612
 158	17.144	65.121	100	19.53883495	43.81067961	80.2184466
 159	83.602	55.334	62.667	62.86407767	28.27669903	36.65048544
 160	0	82.19	14.22	27.79126214	43.44660194	20.99514563
 161	25.132	74.856	50.616	26.21359223	38.47087379	29.00485437
 162	0	13.769	100	4.247572816	20.02427184	68.56796117
 163	87.181	0	0	57.2815534	6.796116505	9.587378641
 164	0	100	39.19	44.7815534	73.90776699	39.5631068
 165	78.047	65.914	19.865	60.80097087	30.94660194	20.63106796
 166	100	63.961	15.865	96.60194175	32.76699029	24.75728155
 167	100	45.955	36.032	88.71359223	21.11650485	23.30097087
 168	15.926	100	16.89	46.23786408	72.45145631	34.34466019
 169	41.459	100	0	53.76213592	73.05825243	34.58737864
 170	48.707	37.288	48.139	19.2961165	11.89320388	16.74757282
 171	83.381	100	13.285	97.08737864	77.66990291	41.74757282
 172	78.129	25.303	75.621	46.96601942	16.99029126	40.29126214
 173	12.396	0	0	1.82038835	1.09223301	1.213592233
 174	37.607	48.336	83.346	16.86893204	24.63592233	47.69417476
 175	35.588	15.356	0	8.252427184	2.791262136	2.669902913
 176	61.245	100	100	70.75242718	93.81067961	104.8543689
 177	100	67.29	87.195	99.75728155	47.9368932	71.11650485
 178	0	0	30.615	1.213592233	2.063106796	4.975728155
 179	35.187	81.789	83.323	34.46601942	54.24757282	61.65048544
 180	39.525	80.194	22.879	34.46601942	42.47572816	22.57281553
 181	50.634	34.593	0	19.90291262	8.131067961	5.946601942
 182	14.175	100	63.146	45.63106796	77.79126214	53.51941748
 183	83.493	17.728	34.574	51.45631068	8.980582524	14.32038835
 184	23.463	22.014	79.943	10.07281553	13.22815534	38.47087379
 185	18.066	31.847	0	5.703883495	5.825242718	3.519417476
 186	87.201	100	81.361	104.0048544	88.34951456	79.97572816
 187	0	100	87.95	45.63106796	84.58737864	79.61165049
 188	34.476	17.888	46.22	8.252427184	5.703883495	12.25728155
 189	18.277	0	67.39	3.398058252	7.524271845	25.12135922
 190	100	87.972	0	115.776699	59.83009709	36.16504854
 191	82.925	34.85	100	55.46116505	29.97572816	77.66990291
 192	0	88.016	100	35.31553398	69.66019417	91.62621359
 193	36.104	85.655	100	38.47087379	66.26213592	90.04854369
 194	60.981	0	0	24.51456311	3.398058252	4.611650485
 195	51.466	61.826	78.106	30.58252427	32.76699029	47.33009709
 196	78.427	31.983	22.175	47.08737864	10.67961165	11.77184466
 197	66.017	44.321	0	36.04368932	13.59223301	9.830097087
 198	83.941	0	84.177	52.66990291	17.47572816	50.24271845
 199	20.158	46.612	23.269	9.830097087	12.5	8.616504854
 200	0	100	62.618	44.53883495	77.42718447	52.79126214
 201	33.832	0	13.933	6.917475728	1.82038835	2.791262136
 202	100	17.286	16.322	79.36893204	10.67961165	14.68446602
 203	0	42.204	83.926	8.009708738	20.63106796	46.23786408
 204	0	87.774	0	31.7961165	50.24271845	23.4223301
 205	64.988	0	59.017	28.88349515	8.616504854	22.57281553
 206	14.677	0	100	3.762135922	19.17475728	68.2038835
 207	88.934	82.673	35.021	87.74271845	50.72815534	34.58737864
 208	0	63.778	100	17.23300971	42.11165049	78.88349515
 209	83.429	17.674	100	53.03398058	25.84951456	76.33495146
 210	30.899	100	85.668	49.75728155	84.46601942	77.30582524
 211	83.68	0	41.016	51.45631068	8.252427184	16.1407767
 212	100	63.515	0	96.23786408	31.43203883	23.17961165
 213	85.074	69.987	0	72.45145631	34.70873786	21.96601942
 214	20.801	45.524	69.018	11.04368932	18.56796117	31.43203883
 215	21.382	82.482	73.017	30.33980583	52.0631068	50.36407767
 216	100	15.128	64.249	81.06796117	15.89805825	34.58737864
 217	36.522	0	58.427	9.101941748	6.310679612	18.93203883
 218	22.466	81.296	33.007	29.61165049	43.2038835	24.63592233
 219	62.531	87.152	0	56.18932039	52.54854369	27.18446602
 220	84.12	85.397	67.886	80.58252427	59.58737864	54.97572816
 221	18.87	27.336	45.389	6.189320388	7.160194175	12.25728155
 222	66.439	100	14.444	74.39320388	75.84951456	38.59223301
 223	41.636	22.147	19.003	12.37864078	4.733009709	5.218446602
 224	61.271	100	81.94	70.14563107	85.9223301	75.60679612
 225	86.013	100	0	102.6699029	78.27669903	41.86893204
 226	37.57	0	0	8.373786408	1.82038835	2.305825243
 227	100	16.132	84.102	81.55339806	21.72330097	55.58252427
 228	0	100	13.619	44.17475728	71.72330097	33.61650485
 229	38.905	100	56.471	52.91262136	77.42718447	50.48543689
 230	100	15.382	34.563	81.43203883	11.52912621	18.56796117
 231	36.656	14.908	100	10.80097087	21.11650485	70.26699029
 232	0	62.593	66.608	15.41262136	29.36893204	34.46601942
 233	66.347	12.528	100	32.52427184	23.05825243	73.66504854
 234	100	43.375	69.233	86.89320388	25.36407767	43.2038835
 235	100	56.36	61.236	92.7184466	31.55339806	40.41262136
 236	0	86.194	44.955	34.83009709	51.33495146	31.91747573
 237	64.527	87.262	100	61.04368932	71.96601942	95.50970874
 238	34.411	0	42.471	8.009708738	3.883495146	10.07281553
 239	80.23	59.707	85.12	60.55825243	37.25728155	60.4368932
 240	20.625	19.056	14.791	4.611650485	3.155339806	3.155339806
 241	15.341	34.221	100	7.402912621	25.12135922	71.72330097
 242	36.777	0	87.905	9.223300971	14.32038835	49.02912621
 243	34.598	56.247	100	19.7815534	37.13592233	77.66990291
 244	20.86	67.629	17.418	20.26699029	28.15533981	14.80582524
 245	44.958	60.843	18.054	25.24271845	22.81553398	13.47087379
 246	37.421	60.193	0	21.23786408	21.60194175	11.28640777
 247	84.011	33.849	42.612	55.7038835	13.95631068	19.53883495
 248	17.241	60.339	37.743	15.77669903	22.69417476	16.50485437
 249	50.65	17.261	53.278	17.47572816	7.645631068	17.47572816
 250	45.505	48.926	65.152	21.11650485	20.75242718	31.06796117
 251	44.567	84.081	39.649	37.37864078	48.78640777	30.09708738
 252	100	86.339	72.054	114.684466	65.89805825	64.0776699
 253	68.14	61.135	0	46.23786408	24.51456311	15.04854369
 254	17.93	66.986	81.403	20.38834951	37.62135922	50.84951456
 255	39.242	60.215	48.926	22.33009709	24.75728155	22.45145631
 256	20.099	18.77	62.967	4.733009709	8.373786408	22.45145631
 257	34.553	100	14.582	49.87864078	72.81553398	34.70873786
 258	87.345	0	66.694	57.88834951	13.34951456	33.61650485
 259	0	43.714	39.842	7.160194175	12.25728155	12.25728155
 260	100	37.705	13.955	84.46601942	16.01941748	16.86893204
 261	31.265	86.993	0	47.08737864	50.24271845	23.78640777
 262	51.402	82.661	81.338	44.53883495	56.06796117	60.80097087
 263	100	100	12.984	129.7330097	81.31067961	46.60194175
 264	0	37.859	0	5.825242718	7.645631068	4.247572816
 265	62.092	58.215	100	39.19902913	40.65533981	81.31067961
 266	86.186	100	64.1	102.6699029	84.70873786	63.59223301
 267	100	35.251	85.898	85.4368932	26.94174757	60.19417476
 268	63.182	89.992	41.974	60.9223301	59.46601942	37.13592233
 269	13.504	100	0	45.38834951	72.81553398	33.25242718
 270	100	0	13.228	80.33980583	9.223300971	13.71359223
 271	63.881	40.826	100	35.55825243	30.33980583	77.0631068
 272	69.387	84.838	20.792	62.37864078	50.36407767	28.6407767
 273	0	70.279	45.136	22.33009709	32.64563107	23.66504854
 274	79.094	64.754	40.908	60.9223301	31.67475728	26.21359223
 275	62.385	54.099	17.396	36.16504854	19.2961165	13.22815534
 276	64.408	14.621	0	28.76213592	4.733009709	5.703883495
 277	70.028	15.606	44.651	35.31553398	8.009708738	15.53398058
 278	0	63.544	0	15.53398058	23.90776699	11.40776699
 279	83.475	47.274	20.502	58.25242718	17.83980583	15.65533981
 280	55.866	0	32.671	20.87378641	4.247572816	8.373786408
 281	58.007	0	100	24.02912621	21.60194175	71.96601942
 282	100	0	87.698	81.55339806	21.60194175	59.58737864
 283	0	13.792	67.215	2.184466019	8.373786408	25.48543689
 284	84.123	17.001	58.549	52.18446602	12.37864078	26.5776699
 285	59.579	32.873	15.966	26.82038835	8.616504854	7.888349515
 286	10.41	32.998	28.659	4.975728155	7.160194175	6.917475728
 287	17.231	40.031	85.65	8.495145631	20.75242718	48.66504854
 288	37.568	41.561	10.108	13.59223301	10.07281553	6.432038835
 289	0	69.015	85.092	19.53883495	40.29126214	56.43203883
 290	14.442	100	36.187	45.14563107	73.54368932	38.71359223
 291	100	40.549	0	85.31553398	17.11165049	16.62621359
 292	82.143	45.435	78.429	56.91747573	25.72815534	47.69417476
 293	52.674	0	67.3	21.23786408	9.344660194	27.66990291
 294	0	87.868	66.793	33.00970874	58.37378641	48.05825243
 295	86.53	100	40.524	102.9126214	80.82524272	49.27184466
 296	71.777	85.586	67.232	67.47572816	58.25242718	51.82038835
 297	43.216	100	31.671	55.09708738	75	39.0776699
 298	39.245	32.908	85.845	13.95631068	18.81067961	48.05825243
 299	0	45.662	67.543	8.131067961	18.08252427	30.2184466
 300	12.161	100	100	46.48058252	90.65533981	100.9708738
 301	67.049	0	85.516	32.16019417	16.01941748	49.27184466
 302	100	89.041	100	116.868932	79.49029126	105.0970874
 303	20.246	60.698	56.526	19.53883495	25.72815534	26.45631068
 304	52.177	55.457	40.416	27.91262136	21.23786408	18.32524272
 305	72.617	87.018	83.932	69.90291262	65.65533981	71.11650485
 306	40.512	16.723	66.475	11.40776699	9.587378641	26.5776699
 307	68.507	49.232	50.605	40.41262136	20.02427184	23.66504854
 308	65.622	100	54.525	72.45145631	79.73300971	52.0631068
 309	54.115	37.24	66.394	23.54368932	15.65533981	30.09708738
 310	100	76.138	31.267	104.4902913	45.99514563	33.61650485
 311	54.728	65.623	0	37.37864078	27.18446602	14.92718447
 312	63.126	12.526	64.37	27.91262136	10.31553398	26.94174757
 313	72.827	18.08	23.704	38.71359223	7.038834951	9.708737864
 314	23.268	15.278	34.947	4.733009709	3.762135922	7.160194175
 315	87.648	68.954	59.645	77.0631068	39.5631068	40.53398058
 316	0	85.595	85.198	31.91747573	60.19417476	65.89805825
 317	35.798	84.371	69.21	36.65048544	54.00485437	48.66504854
 318	36.062	47.494	35.919	15.16990291	14.5631068	12.74271845
 319	86.083	36.277	59.152	60.19417476	17.83980583	29.97572816
 320	58.21	100	30.361	65.89805825	75.60679612	40.29126214
 321	46.745	14.614	32.317	14.5631068	4.490291262	7.766990291
 322	81.573	73.869	86.954	71.72330097	51.33495146	68.81067961
 323	85.991	49.387	48.206	64.32038835	22.08737864	25.84951456
 324	28.062	87.906	19.654	37.25728155	52.66990291	26.33495146
 325	68.992	17.993	85.124	34.83009709	17.47572816	50
 326	100	66.147	100	98.17961165	53.03398058	92.83980583
 327	33.358	64.806	84.517	23.54368932	37.25728155	55.2184466
 328	41.351	17.736	80.522	12.37864078	13.47087379	40.41262136
 329	100	100	88.719	130.0970874	94.53883495	94.2961165
 330	66.336	0	44.32	42.7184466	6.553398058	14.5631068
 331	64.85	67.09	12.293	44.7815534	30.2184466	17.7184466
 332	15.262	31.268	63.277	5.825242718	11.16504854	23.90776699
 333	15.008	43.663	37.3	8.252427184	12.13592233	11.52912621
 334	0	57.895	38.078	12.62135922	20.99514563	15.65533981
 335	66.599	58.458	67.871	42.7184466	29.61165049	38.71359223
 336	59.191	18.651	15.215	24.02912621	5.218446602	6.189320388
 337	66.781	31.14	84.629	34.95145631	20.14563107	50.24271845
 338	88.033	85.158	52.14	88.47087379	56.7961165	43.56796117
 339	36.882	100	100	53.27669903	91.1407767	101.9417476
 340	26.102	33.094	17.006	7.766990291	6.796116505	5.218446602
 341	56.309	36.861	35.862	24.15048544	10.80097087	12.5
 342	45.839	65.587	67.033	29.00485437	33.25242718	37.86407767
 343	83.709	81.172	16.406	78.27669903	47.81553398	28.51941748
 344	0	48.132	13.005	8.373786408	12.74271845	7.038834951
 345	87.176	50.021	100	67.59708738	38.34951456	83.61650485
 346	51.219	84.244	13.73	45.02427184	47.57281553	24.39320388
 347	60.606	71.415	48.406	43.68932039	36.65048544	29.12621359
 348	0	11.359	12.718	7.888349515	1.699029126	2.063106796
 349	86.429	49.705	33.145	64.32038835	20.75242718	19.7815534
 350	34.056	40.958	100	14.19902913	28.27669903	73.54368932
 351	100	30.557	59.628	83.49514563	18.44660194	33.25242718
 352	88.497	26.902	13.449	61.28640777	10.55825243	12.13592233
 353	14.167	51.98	88.218	12.25728155	28.03398058	54.61165049
 354	13.784	12.983	49.37	2.791262136	4.854368932	12.86407767
 355	15.018	88.441	48.062	34.10194175	54.61165049	35.07281553
 356	87.79	25.769	89.215	61.65048544	23.05825243	59.58737864
 357	0	33.206	55.865	4.854368932	10.19417476	18.68932039
 358	74.324	76.029	35.536	61.65048544	41.62621359	28.27669903
 359	65.863	57.223	42.324	42.35436893	23.90776699	21.3592233
 360	30.893	54.646	13.136	15.77669903	17.35436893	9.708737864
 361	0	34.36	28.321	4.611650485	7.402912621	7.038834951
 362	15.443	77.087	85.116	26.21359223	49.27184466	61.16504854
 363	63.381	68.947	68.521	45.26699029	38.34951456	43.32524272
 364	69.733	27.566	42.917	36.28640777	10.19417476	15.89805825
 365	32.754	100	42.76	49.27184466	75.48543689	42.35436893
 366	47.096	29.481	34.829	16.50485437	7.645631068	9.951456311
 367	8.5451	71.948	62.695	21.11650485	36.89320388	35.31553398
 368	0	86.048	29.3	30.94660194	50.24271845	26.33495146
 369	53.697	51.572	85.367	28.03398058	28.51941748	53.03398058
 370	17.608	56.69	12.515	13.47087379	18.68932039	9.830097087
 371	90.638	14.414	49.227	63.34951456	11.40776699	22.33009709
 372	63.248	63.64	89.55	43.32524272	39.92718447	64.92718447
 373	100	85.976	58.455	110.1941748	62.5	52.42718447
 374	9.8311	28.027	7.5567	4.368932039	4.733009709	3.155339806
 375	89.831	64.313	69.506	77.42718447	37.86407767	47.33009709
 376	31.754	12.995	25.543	6.917475728	3.033980583	5.097087379
 377	75.914	45.966	64.957	48.17961165	21.84466019	34.34466019
 378	7.5735	50.695	58.941	10.67961165	19.2961165	25
 379	100	69.835	58.912	100.9708738	42.7184466	44.2961165
 380	32.211	34.376	48.339	10.67961165	10.07281553	15.29126214
 381	13.901	12.159	73.555	3.155339806	9.830097087	31.06796117
 382	87.071	9.028	77.653	58.00970874	16.50485437	44.05339806
 383	23.272	85.409	84.29	34.10194175	59.34466019	64.68446602
 384	93.289	39.48	26.145	71.60194175	16.01941748	17.35436893
 385	65.769	59.63	30.967	43.32524272	24.63592233	18.2038835
 386	100	32.265	41.803	83.25242718	16.1407767	23.05825243
 387	86.568	85.281	86.961	87.5	65.89805825	76.21359223
 388	52.577	86.83	30.016	48.30097087	52.0631068	29.36893204
 389	47.921	40.199	76.902	20.14563107	19.2961165	40.16990291
 390	22.36	86.619	61.58	33.73786408	55.09708738	43.08252427
 391	52.232	33.601	88.787	21.96601942	20.99514563	53.51941748
 392	0	28.523	86.267	4.490291262	16.62621359	46.96601942
 393	43.497	67.879	39.551	27.91262136	30.94660194	21.72330097
 394	39.877	45.261	0	16.01941748	12.01456311	7.038834951
 395	86.94	12.43	24.699	57.2815534	8.131067961	12.5
 396	28.363	55.339	90.398	16.86893204	31.7961165	59.83009709
 397	39.018	70.534	57.879	28.03398058	35.67961165	32.2815534
 398	12.833	28.519	78.828	5.218446602	14.44174757	38.22815534
 399	68.35	31.815	69.975	36.28640777	16.26213592	34.46601942
 400	56.52	26.226	41.626	23.17961165	8.373786408	13.22815534
 401	12.938	46.218	0	8.373786408	11.52912621	6.067961165
 402	8.6938	60.179	26.117	13.95631068	21.60194175	12.98543689
 403	51.995	89.429	96.608	51.33495146	72.57281553	89.32038835
 404	46.905	47.746	48.909	21.3592233	16.74757282	19.41747573
 405	14.352	81.814	19.479	28.27669903	43.32524272	21.84466019
 406	71.482	38.117	12.273	40.41262136	11.77184466	10.19417476
 407	86.616	60.785	10.012	69.66019417	27.18446602	19.2961165
 408	71.811	88.979	52.186	70.14563107	60.31553398	43.2038835
 409	43.213	100	72.083	56.31067961	81.67475728	63.47087379
 410	73.92	23.444	8.2853	40.53398058	7.645631068	8.252427184
 411	40.629	85.534	53.423	39.44174757	52.91262136	37.62135922
