data/calibration-000893.ti3
CTI3   
ORIGINATOR	"ColorHug Factory"
DESCRIPTOR	"Calibration Target chart information 3"
DEVICE_CLASS	"DISPLAY"
COLOR_REP	"RGB_XYZ"
TARGET_INSTRUMENT	"Hughski ColorHug"
INSTRUMENT_TYPE_SPECTRAL	"NO"
NORMALIZED_TO_Y_100	"NO"
NUMBER_OF_FIELDS	7
NUMBER_OF_SETS	15
BEGIN_DATA_FORMAT
 SAMPLE_ID	RGB_R	RGB_G	RGB_B	XYZ_X	XYZ_Y	XYZ_Z
END_DATA_FORMAT
BEGIN_DATA
 1	0	0	0	0.1373291016	0.1373291016	0.1831054688
 2	1	1	1	55.48095703	37.30773926	43.35021973
 3	1	0	0	34.65270996	3.479003906	5.218505859
 4	0	1	0	18.40209961	26.41296387	12.22229004
 5	0	0	1	0.9613037109	7.278442383	25.72631836
 6	0	0	0	0.1373291016	0.1373291016	0.1831054688
 7	1	1	1	55.02319336	37.07885742	43.48754883
 8	1	0	0	34.8815918	3.479003906	5.218505859
 9	0	1	0	18.35632324	26.32141113	12.1307373
 10	0	0	1	0.9613037109	7.278442383	25.9552002
 11	0	0	0	0.1373291016	0.1373291016	0.1831054688
 12	1	1	1	55.06896973	37.12463379	43.39599609
 13	1	0	0	34.83581543	3.479003906	5.172729492
 14	0	1	0	18.26477051	26.41296387	12.1307373
 15	0	0	1	0.9613037109	7.32421875	26.00097656
END_DATA
