data/calibration-000007.ti3
CTI3
DESCRIPTOR	"Calibration Target chart information 3"
ORIGINATOR	"ColorHug Factory"
DEVICE_CLASS	"DISPLAY"
COLOR_REP	"RGB_XYZ"
TARGET_INSTRUMENT	"ColorHug"
INSTRUMENT_TYPE_SPECTRAL	"NO"
LUMINANCE_XYZ_CDM2	"41.027069 32.787323 37.651062"
NORMALIZED_TO_Y_100	"YES"
NUMBER_OF_FIELDS	7
NUMBER_OF_SETS	836
BEGIN_DATA_FORMAT
 SAMPLE_ID	RGB_R	RGB_G	RGB_B	XYZ_X	XYZ_Y	XYZ_Z
END_DATA_FORMAT
BEGIN_DATA
 1	100	100	100	121.3793103	98.62068966	111.7241379
 2	100	100	100	123.4482759	99.31034483	114.4827586
 3	100	100	100	126.2068966	97.24137931	113.7931034
 4	100	100	100	123.4482759	100	113.7931034
 5	33.33	32.622	30.968	12.4137931	8.965517241	10.34482759
 6	100	0	100	78.62068966	27.5862069	82.06896552
 7	100	100	0	122.7586207	82.06896552	45.51724138
 8	0	100	100	46.20689655	91.03448276	102.7586207
 9	0	100	0	44.13793103	73.10344828	33.79310345
 10	0	0	100	3.448275862	19.31034483	69.65517241
 11	100	0	0	76.55172414	8.965517241	13.10344828
 12	0	0	0	1.379310345	1.379310345	2.068965517
 13	0	52.455	100	12.4137931	35.86206897	76.55172414
 14	100	0	50.3	77.24137931	13.10344828	26.89655172
 15	100	54.739	100	91.72413793	45.51724138	88.27586207
 16	100	52.128	0	88.96551724	24.82758621	20
 17	0	0	46.181	2.068965517	4.137931034	12.4137931
 18	0	51.141	0	10.34482759	17.24137931	8.275862069
 19	0	100	51.348	44.13793103	75.86206897	48.96551724
 20	100	100	52.037	124.137931	85.51724138	59.31034483
 21	49.216	0	0	17.93103448	2.75862069	3.448275862
 22	56.159	100	0	60	74.48275862	37.24137931
 23	49.226	100	100	60.68965517	93.79310345	104.137931
 24	44.487	0	100	16.55172414	21.37931034	70.34482759
 25	100	44.498	52.029	82.75862069	25.51724138	33.10344828
 26	48.926	48.544	100	28.27586207	35.17241379	77.24137931
 27	51.368	100	47.25	60.68965517	77.93103448	48.96551724
 28	49.893	0	49.033	17.24137931	6.896551724	17.24137931
 29	53.109	51.372	0	27.5862069	18.62068966	11.72413793
 30	0	58.587	53.943	14.48275862	26.20689655	26.89655172
 31	100	28.065	100	82.06896552	32.4137931	82.75862069
 32	0	0	72.874	26.89655172	10.34482759	32.4137931
 33	0	26.758	100	5.517241379	23.44827586	71.03448276
 34	0	25.426	0	4.137931034	4.827586207	2.75862069
 35	72.508	0	100	37.24137931	23.44827586	75.86206897
 36	100	27.395	0	79.31034483	13.10344828	14.48275862
 37	74.47	100	100	85.51724138	95.86206897	106.2068966
 38	100	0	25.728	78.62068966	10.34482759	16.55172414
 39	73.862	0	0	39.31034483	5.517241379	6.896551724
 40	100	100	25.402	124.137931	82.06896552	48.27586207
 41	0	75.751	100	25.51724138	56.55172414	86.20689655
 42	0	75.172	0	23.44827586	37.93103448	17.93103448
 43	0	100	25.864	42.06896552	74.48275862	36.55172414
 44	100	0	74.801	79.31034483	17.93103448	46.20689655
 45	0	100	75.421	51.03448276	82.75862069	67.5862069
 46	24.577	0	0	11.03448276	2.068965517	2.068965517
 47	26.321	100	0	48.27586207	72.4137931	34.48275862
 48	100	75.835	0	102.7586207	46.89655172	29.65517241
 49	100	100	77.061	124.8275862	89.65517241	82.06896552
 50	71.263	100	0	81.37931034	76.55172414	38.62068966
 51	0	0	15.614	2.068965517	2.068965517	2.75862069
 52	0	30.049	70.936	2.75862069	14.48275862	33.10344828
 53	100	77.691	100	78.62068966	66.89655172	100
 54	24.486	100	100	48.96551724	91.72413793	102.0689655
 55	100	62.784	31.909	95.17241379	35.17241379	28.96551724
 56	29.552	0	100	24.13793103	20	70.34482759
 57	32.98	70.921	100	28.96551724	52.4137931	84.13793103
 58	0	27.681	40.241	10.34482759	8.275862069	11.72413793
 59	67.901	71.021	100	53.10344828	55.17241379	89.65517241
 60	28.154	100	67.829	49.65517241	80	61.37931034
 61	71.637	100	70.001	76.55172414	83.44827586	67.5862069
 62	58.822	58.763	53.586	49.65517241	28.96551724	30.34482759
 63	33.466	30.48	0	11.03448276	7.586206897	4.827586207
 64	100	73.795	71.277	100.6896552	52.4137931	58.62068966
 65	68.394	29.692	0	35.86206897	9.655172414	8.275862069
 66	70.399	0	29.039	34.48275862	6.206896552	10.34482759
 67	28.078	0	26.956	6.896551724	2.75862069	6.206896552
 68	28.532	72.339	0	26.20689655	35.17241379	17.24137931
 69	100	30.941	26.496	82.06896552	15.86206897	18.62068966
 70	34.597	0	73.611	23.44827586	11.03448276	35.17241379
 71	71.573	0	72.408	37.24137931	13.79310345	37.24137931
 72	0	71.029	29.412	23.44827586	34.48275862	20.68965517
 73	68.386	75.008	0	54.48275862	40.68965517	22.06896552
 74	68.088	27.309	100	37.24137931	26.89655172	75.17241379
 75	100	26.457	73.749	80	22.06896552	48.27586207
 76	74.344	100	27.392	84.13793103	77.93103448	42.75862069
 77	27.558	100	28.197	49.65517241	75.17241379	38.62068966
 78	31.196	27.465	100	11.72413793	24.82758621	73.10344828
 79	0	75.521	72.824	24.13793103	46.20689655	50.34482759
 80	0	50.93	25.553	11.03448276	17.24137931	11.72413793
 81	32.06	33.584	64.033	11.72413793	14.48275862	28.96551724
 82	81.666	55.38	0	59.31034483	24.82758621	16.55172414
 83	68.257	32.751	58.286	42.75862069	15.86206897	28.27586207
 84	0	55.248	81.585	13.79310345	31.03448276	51.03448276
 85	73.781	52.099	100	45.51724138	40	82.75862069
 86	100	50.537	82.952	77.93103448	35.86206897	63.44827586
 87	23.55	0	50.439	24.82758621	5.517241379	15.86206897
 88	31.335	62.746	31.114	22.06896552	28.27586207	18.62068966
 89	100	18.31	49.418	61.37931034	14.48275862	27.5862069
 90	26.498	48.404	0	15.17241379	15.17241379	8.275862069
 91	47.91	100	85.744	53.10344828	87.5862069	83.44827586
 92	71.829	47.313	31.811	45.51724138	19.31034483	18.62068966
 93	31.304	64.132	69.316	24.13793103	34.48275862	42.75862069
 94	80.403	0	54.321	42.06896552	11.03448276	24.13793103
 95	18.455	50.036	100	22.06896552	35.17241379	77.24137931
 96	50.653	100	16.345	53.79310345	75.86206897	37.24137931
 97	80.121	100	52.261	84.82758621	81.37931034	55.17241379
 98	0	22.54	19.289	8.965517241	4.827586207	4.827586207
 99	100	75.273	46.886	102.0689655	48.96551724	41.37931034
 100	0	78.618	56.625	31.03448276	46.20689655	37.93103448
 101	51.137	80.627	100	44.82758621	64.82758621	91.03448276
 102	48.446	0	17.864	16.55172414	3.448275862	5.517241379
 103	100	50.023	21.211	84.82758621	24.13793103	22.06896552
 104	50.115	20.118	0	19.31034483	5.517241379	4.827586207
 105	58.099	72.426	33.158	42.75862069	39.31034483	25.51724138
 106	19.364	100	50.197	46.20689655	75.86206897	48.27586207
 107	50.683	19.177	100	25.51724138	23.44827586	73.79310345
 108	53.37	0	81.576	21.37931034	14.48275862	45.51724138
 109	47.768	76.245	0	35.86206897	40.68965517	20.68965517
 110	0	18.927	55.503	3.448275862	8.275862069	19.31034483
 111	0	13.277	0	2.75862069	2.75862069	2.068965517
 112	72.862	72.473	75.625	42.06896552	48.27586207	56.55172414
 113	100	13.904	0	73.10344828	10.34482759	13.79310345
 114	86.349	0	100	60	24.82758621	77.24137931
 115	100	41.941	100	86.20689655	37.93103448	84.82758621
 116	100	81.785	16.464	106.8965517	53.10344828	34.48275862
 117	0	44.063	52.596	8.965517241	16.55172414	22.06896552
 118	0	0	58.917	2.068965517	6.896551724	20.68965517
 119	59.25	24.551	29.789	20.68965517	8.275862069	10.34482759
 120	82.73	82.874	100	79.31034483	71.03448276	98.62068966
 121	80.039	0	12.618	46.89655172	6.206896552	9.655172414
 122	60.957	47.729	77.817	39.31034483	27.5862069	47.5862069
 123	100	0	38.618	79.31034483	11.72413793	20
 124	0	40.09	100	8.965517241	28.96551724	73.10344828
 125	0	15.283	82.322	2.75862069	13.79310345	44.82758621
 126	17.592	81.726	100	31.72413793	64.82758621	91.03448276
 127	100	14.13	100	73.10344828	28.96551724	81.37931034
 128	15.261	100	82.059	46.89655172	85.51724138	75.86206897
 129	47.77	79.418	60.389	41.37931034	50.34482759	42.75862069
 130	18.768	16.429	0	4.827586207	3.448275862	2.75862069
 131	55.634	100	65.763	63.44827586	82.06896552	62.06896552
 132	100	100	38.541	124.8275862	83.44827586	53.10344828
 133	17.421	0	83.497	4.827586207	13.79310345	45.51724138
 134	17.237	16.758	100	5.517241379	22.06896552	69.65517241
 135	0	15.067	30.039	2.75862069	4.137931034	6.896551724
 136	0	0	86.505	3.448275862	13.79310345	48.96551724
 137	75.736	72.799	50.02	62.06896552	42.75862069	35.86206897
 138	100	83.323	85.529	107.5862069	68.96551724	80.68965517
 139	100	100	64.894	122.7586207	88.27586207	70.34482759
 140	81.98	84.914	0	79.31034483	54.48275862	30.34482759
 141	0	63.757	15.49	17.24137931	26.89655172	13.79310345
 142	49.514	66.135	100	33.79310345	48.96551724	84.82758621
 143	100	0	61.862	77.24137931	15.17241379	34.48275862
 144	24.308	45.41	49.831	12.4137931	17.24137931	20.68965517
 145	15.963	0	17.047	3.448275862	2.068965517	3.448275862
 146	87.497	100	100	102.0689655	97.93103448	110.3448276
 147	52.099	25.003	75.752	22.06896552	15.86206897	40.68965517
 148	14.909	81.162	0	28.96551724	44.82758621	21.37931034
 149	0	34.792	14.626	5.517241379	8.965517241	5.517241379
 150	48.39	45.075	22.552	23.44827586	15.17241379	11.72413793
 151	83.545	65.965	100	62.75862069	53.10344828	88.27586207
 152	16.226	62.345	0	17.93103448	25.51724138	12.4137931
 153	63.222	0	14.914	27.5862069	4.137931034	6.896551724
 154	80.449	13.446	0	39.31034483	6.896551724	8.275862069
 155	83.917	41.562	0	57.93103448	16.55172414	13.10344828
 156	100	60.448	46.3	94.48275862	34.48275862	35.17241379
 157	15.584	0	34.795	3.448275862	3.448275862	7.586206897
 158	17.144	65.121	100	20	46.20689655	82.06896552
 159	83.602	55.334	62.667	64.82758621	30.34482759	39.31034483
 160	0	82.19	14.22	28.27586207	46.20689655	22.75862069
 161	25.132	74.856	50.616	27.5862069	41.37931034	33.10344828
 162	0	13.769	100	4.137931034	20	70.34482759
 163	87.181	0	0	54.48275862	7.586206897	9.655172414
 164	0	100	39.19	44.82758621	75.17241379	41.37931034
 165	78.047	65.914	19.865	61.37931034	33.10344828	22.06896552
 166	100	63.961	15.865	93.79310345	35.17241379	26.20689655
 167	100	45.955	36.032	88.96551724	22.75862069	24.82758621
 168	15.926	100	16.89	46.20689655	73.79310345	35.17241379
 169	41.459	100	0	53.79310345	73.10344828	35.86206897
 170	48.707	37.288	48.139	22.06896552	14.48275862	20
 171	83.381	100	13.285	94.48275862	77.24137931	42.75862069
 172	78.129	25.303	75.621	47.5862069	18.62068966	43.44827586
 173	12.396	0	0	2.75862069	1.379310345	1.379310345
 174	37.607	48.336	83.346	19.31034483	27.5862069	52.4137931
 175	35.588	15.356	0	13.10344828	4.137931034	2.75862069
 176	61.245	100	100	69.65517241	93.79310345	106.8965517
 177	100	67.29	87.195	98.62068966	50.34482759	73.79310345
 178	0	0	30.615	2.068965517	2.75862069	6.206896552
 179	35.187	81.789	83.323	35.17241379	57.93103448	66.20689655
 180	39.525	80.194	22.879	37.24137931	45.51724138	24.13793103
 181	50.634	34.593	0	22.06896552	10.34482759	6.896551724
 182	14.175	100	63.146	45.51724138	80	57.24137931
 183	83.493	17.728	34.574	52.4137931	9.655172414	15.86206897
 184	23.463	22.014	79.943	7.586206897	15.17241379	42.06896552
 185	18.066	31.847	0	6.896551724	7.586206897	4.827586207
 186	87.201	100	81.361	102.0689655	88.27586207	83.44827586
 187	0	100	87.95	44.13793103	85.51724138	84.13793103
 188	34.476	17.888	46.22	10.34482759	7.586206897	14.48275862
 189	18.277	0	67.39	4.827586207	8.275862069	27.5862069
 190	100	87.972	0	111.7241379	62.75862069	36.55172414
 191	82.925	34.85	100	56.55172414	31.03448276	80.68965517
 192	0	88.016	100	33.79310345	71.72413793	94.48275862
 193	36.104	85.655	100	40.68965517	70.34482759	91.72413793
 194	60.981	0	0	26.20689655	4.137931034	5.517241379
 195	51.466	61.826	78.106	33.79310345	36.55172414	51.72413793
 196	78.427	31.983	22.175	48.27586207	12.4137931	13.10344828
 197	66.017	44.321	0	37.93103448	15.86206897	11.03448276
 198	83.941	0	84.177	52.4137931	17.93103448	53.79310345
 199	20.158	46.612	23.269	11.72413793	14.48275862	10.34482759
 200	0	100	62.618	44.13793103	80	55.86206897
 201	33.832	0	13.933	8.965517241	2.75862069	3.448275862
 202	100	17.286	16.322	78.62068966	11.72413793	14.48275862
 203	0	42.204	83.926	8.965517241	24.13793103	49.65517241
 204	0	87.774	0	31.72413793	53.10344828	25.51724138
 205	64.988	0	59.017	29.65517241	9.655172414	25.51724138
 206	14.677	0	100	4.827586207	20	70.34482759
 207	88.934	82.673	35.021	87.5862069	54.48275862	36.55172414
 208	0	63.778	100	18.62068966	45.51724138	80.68965517
 209	83.429	17.674	100	53.79310345	26.89655172	77.24137931
 210	30.899	100	85.668	51.72413793	86.89655172	80.68965517
 211	83.68	0	41.016	51.03448276	8.965517241	17.93103448
 212	100	63.515	0	93.10344828	34.48275862	24.13793103
 213	85.074	69.987	0	73.10344828	37.24137931	23.44827586
 214	20.801	45.524	69.018	13.10344828	21.37931034	35.17241379
 215	21.382	82.482	73.017	32.4137931	55.86206897	53.79310345
 216	100	15.128	64.249	79.31034483	17.24137931	37.24137931
 217	36.522	0	58.427	26.20689655	7.586206897	21.37931034
 218	22.466	81.296	33.007	31.03448276	46.20689655	27.5862069
 219	62.531	87.152	0	58.62068966	54.48275862	28.96551724
 220	84.12	85.397	67.886	82.75862069	62.06896552	58.62068966
 221	18.87	27.336	45.389	6.896551724	8.965517241	14.48275862
 222	66.439	100	14.444	74.48275862	75.17241379	39.31034483
 223	41.636	22.147	19.003	14.48275862	6.206896552	6.206896552
 224	61.271	100	81.94	71.03448276	86.89655172	78.62068966
 225	86.013	100	0	100	79.31034483	42.06896552
 226	37.57	0	0	10.34482759	2.75862069	2.75862069
 227	100	16.132	84.102	79.31034483	22.75862069	57.93103448
 228	0	100	13.619	44.13793103	73.79310345	35.17241379
 229	38.905	100	56.471	54.48275862	77.93103448	52.4137931
 230	100	15.382	34.563	78.62068966	12.4137931	20
 231	36.656	14.908	100	12.4137931	21.37931034	70.34482759
 232	0	62.593	66.608	16.55172414	32.4137931	38.62068966
 233	66.347	12.528	100	32.4137931	24.13793103	74.48275862
 234	100	43.375	69.233	86.20689655	28.27586207	45.51724138
 235	100	56.36	61.236	91.72413793	34.48275862	42.06896552
 236	0	86.194	44.955	31.03448276	53.79310345	35.17241379
 237	64.527	87.262	100	62.75862069	74.48275862	95.86206897
 238	34.411	0	42.471	8.965517241	4.827586207	11.72413793
 239	80.23	59.707	85.12	61.37931034	40	64.82758621
 240	20.625	19.056	14.791	5.517241379	4.137931034	3.448275862
 241	15.341	34.221	100	8.275862069	26.20689655	71.72413793
 242	36.777	0	87.905	10.34482759	15.17241379	52.4137931
 243	34.598	56.247	100	22.06896552	40	80
 244	20.86	67.629	17.418	22.06896552	31.03448276	16.55172414
 245	44.958	60.843	18.054	28.27586207	25.51724138	15.86206897
 246	37.421	60.193	0	23.44827586	24.13793103	13.10344828
 247	84.011	33.849	42.612	55.86206897	15.17241379	22.06896552
 248	17.241	60.339	37.743	16.55172414	25.51724138	19.31034483
 249	50.65	17.261	53.278	19.31034483	8.965517241	20.68965517
 250	45.505	48.926	65.152	24.13793103	23.44827586	34.48275862
 251	44.567	84.081	39.649	42.75862069	51.72413793	33.10344828
 252	100	86.339	72.054	111.7241379	67.5862069	66.89655172
 253	68.14	61.135	0	46.20689655	27.5862069	16.55172414
 254	17.93	66.986	81.403	22.06896552	40.68965517	55.17241379
 255	39.242	60.215	48.926	24.13793103	27.5862069	25.51724138
 256	20.099	18.77	62.967	5.517241379	9.655172414	25.51724138
 257	34.553	100	14.582	50.34482759	74.48275862	36.55172414
 258	87.345	0	66.694	56.55172414	14.48275862	35.86206897
 259	0	43.714	39.842	8.965517241	14.48275862	15.17241379
 260	100	37.705	13.955	79.31034483	17.93103448	17.93103448
 261	31.265	86.993	0	37.93103448	53.79310345	24.82758621
 262	51.402	82.661	81.338	46.89655172	60	64.82758621
 263	100	100	12.984	124.137931	80	46.20689655
 264	0	37.859	0	6.896551724	9.655172414	4.827586207
 265	62.092	58.215	100	42.06896552	42.06896552	82.75862069
 266	86.186	100	64.1	100.6896552	84.13793103	65.51724138
 267	100	35.251	85.898	82.75862069	28.27586207	64.13793103
 268	63.182	89.992	41.974	61.37931034	62.06896552	40
 269	13.504	100	0	45.51724138	72.4137931	33.79310345
 270	100	0	13.228	78.62068966	9.655172414	13.10344828
 271	63.881	40.826	100	36.55172414	32.4137931	78.62068966
 272	69.387	84.838	20.792	63.44827586	53.10344828	30.34482759
 273	0	70.279	45.136	20.68965517	35.86206897	26.89655172
 274	79.094	64.754	40.908	62.75862069	34.48275862	28.27586207
 275	62.385	54.099	17.396	37.93103448	22.06896552	15.17241379
 276	64.408	14.621	0	29.65517241	5.517241379	6.206896552
 277	70.028	15.606	44.651	35.17241379	8.965517241	17.24137931
 278	0	63.544	0	16.55172414	26.20689655	12.4137931
 279	83.475	47.274	20.502	57.93103448	20	17.24137931
 280	55.866	0	32.671	22.06896552	5.517241379	9.655172414
 281	58.007	0	100	25.51724138	22.06896552	73.79310345
 282	100	0	87.698	78.62068966	22.06896552	60.68965517
 283	0	13.792	67.215	2.75862069	9.655172414	28.27586207
 284	84.123	17.001	58.549	53.10344828	13.79310345	28.96551724
 285	59.579	32.873	15.966	28.96551724	10.34482759	8.965517241
 286	10.41	32.998	28.659	6.206896552	8.275862069	8.965517241
 287	17.231	40.031	85.65	9.655172414	24.13793103	51.72413793
 288	37.568	41.561	10.108	14.48275862	11.72413793	7.586206897
 289	0	69.015	85.092	20	44.13793103	60.68965517
 290	14.442	100	36.187	45.51724138	74.48275862	40.68965517
 291	100	40.549	0	84.82758621	18.62068966	17.24137931
 292	82.143	45.435	78.429	58.62068966	28.96551724	51.03448276
 293	52.674	0	67.3	20	11.03448276	30.34482759
 294	0	87.868	66.793	33.10344828	59.31034483	51.72413793
 295	86.53	100	40.524	99.31034483	81.37931034	50.34482759
 296	71.777	85.586	67.232	68.96551724	61.37931034	55.17241379
 297	43.216	100	31.671	56.55172414	74.48275862	40.68965517
 298	39.245	32.908	85.845	16.55172414	20.68965517	51.72413793
 299	0	45.662	67.543	9.655172414	20.68965517	33.79310345
 300	12.161	100	100	46.20689655	91.03448276	102.7586207
 301	67.049	0	85.516	33.10344828	17.24137931	51.72413793
 302	100	89.041	100	114.4827586	80.68965517	106.2068966
 303	20.246	60.698	56.526	17.93103448	28.96551724	30.34482759
 304	52.177	55.457	40.416	30.34482759	24.13793103	20.68965517
 305	72.617	87.018	83.932	71.03448276	66.89655172	74.48275862
 306	40.512	16.723	66.475	13.79310345	11.03448276	28.96551724
 307	68.507	49.232	50.605	41.37931034	23.44827586	26.89655172
 308	65.622	100	54.525	74.48275862	79.31034483	55.17241379
 309	54.115	37.24	66.394	25.51724138	17.93103448	33.79310345
 310	100	76.138	31.267	104.137931	48.96551724	34.48275862
 311	54.728	65.623	0	37.24137931	29.65517241	16.55172414
 312	63.126	12.526	64.37	28.27586207	11.72413793	30.34482759
 313	72.827	18.08	23.704	39.31034483	8.275862069	10.34482759
 314	23.268	15.278	34.947	5.517241379	4.827586207	8.965517241
 315	87.648	68.954	59.645	76.55172414	42.06896552	42.75862069
 316	0	85.595	85.198	31.72413793	63.44827586	70.34482759
 317	35.798	84.371	69.21	37.93103448	57.93103448	53.10344828
 318	36.062	47.494	35.919	17.93103448	17.24137931	15.17241379
 319	86.083	36.277	59.152	60.68965517	19.31034483	32.4137931
 320	58.21	100	30.361	66.89655172	77.24137931	41.37931034
 321	46.745	14.614	32.317	15.86206897	5.517241379	9.655172414
 322	81.573	73.869	86.954	71.72413793	53.79310345	73.10344828
 323	85.991	49.387	48.206	64.82758621	24.13793103	28.96551724
 324	28.062	87.906	19.654	37.24137931	55.17241379	28.27586207
 325	68.992	17.993	85.124	35.17241379	18.62068966	53.10344828
 326	100	66.147	100	98.62068966	54.48275862	93.10344828
 327	33.358	64.806	84.517	24.82758621	39.31034483	59.31034483
 328	41.351	17.736	80.522	14.48275862	15.17241379	44.13793103
 329	100	100	88.719	124.137931	95.17241379	96.55172414
 330	66.336	0	44.32	31.03448276	7.586206897	16.55172414
 331	64.85	67.09	12.293	46.20689655	33.10344828	19.31034483
 332	15.262	31.268	63.277	6.896551724	13.79310345	26.20689655
 333	15.008	43.663	37.3	9.655172414	15.17241379	13.79310345
 334	0	57.895	38.078	14.48275862	23.44827586	17.93103448
 335	66.599	58.458	67.871	44.13793103	33.10344828	42.75862069
 336	59.191	18.651	15.215	25.51724138	6.206896552	6.896551724
 337	66.781	31.14	84.629	35.86206897	22.06896552	53.10344828
 338	88.033	85.158	52.14	88.96551724	59.31034483	46.89655172
 339	36.882	100	100	53.79310345	92.4137931	102.7586207
 340	26.102	33.094	17.006	9.655172414	8.275862069	6.206896552
 341	56.309	36.861	35.862	26.89655172	13.10344828	14.48275862
 342	45.839	65.587	67.033	31.72413793	36.55172414	41.37931034
 343	83.709	81.172	16.406	77.24137931	50.34482759	30.34482759
 344	0	48.132	13.005	9.655172414	15.17241379	8.275862069
 345	87.176	50.021	100	67.5862069	39.31034483	84.82758621
 346	51.219	84.244	13.73	47.5862069	50.34482759	26.20689655
 347	60.606	71.415	48.406	44.82758621	39.31034483	33.10344828
 348	0	11.359	12.718	8.275862069	2.068965517	2.75862069
 349	86.429	49.705	33.145	62.75862069	22.75862069	22.06896552
 350	34.056	40.958	100	16.55172414	30.34482759	74.48275862
 351	100	30.557	59.628	80	20	35.86206897
 352	88.497	26.902	13.449	61.37931034	11.72413793	13.10344828
 353	14.167	51.98	88.218	13.79310345	31.72413793	57.93103448
 354	13.784	12.983	49.37	4.137931034	6.206896552	15.17241379
 355	15.018	88.441	48.062	35.17241379	57.93103448	37.93103448
 356	87.79	25.769	89.215	60.68965517	24.82758621	61.37931034
 357	0	33.206	55.865	5.517241379	12.4137931	21.37931034
 358	74.324	76.029	35.536	63.44827586	44.13793103	30.34482759
 359	65.863	57.223	42.324	43.44827586	26.89655172	23.44827586
 360	30.893	54.646	13.136	17.93103448	20.68965517	11.03448276
 361	0	34.36	28.321	5.517241379	9.655172414	8.275862069
 362	15.443	77.087	85.116	27.5862069	52.4137931	65.51724138
 363	63.381	68.947	68.521	46.89655172	41.37931034	46.20689655
 364	69.733	27.566	42.917	37.24137931	11.72413793	17.24137931
 365	32.754	100	42.76	50.34482759	74.48275862	44.82758621
 366	47.096	29.481	34.829	19.31034483	9.655172414	11.72413793
 367	8.5451	71.948	62.695	22.75862069	40	38.62068966
 368	0	86.048	29.3	31.72413793	51.72413793	28.27586207
 369	53.697	51.572	85.367	31.03448276	31.72413793	57.24137931
 370	17.608	56.69	12.515	15.17241379	21.37931034	11.72413793
 371	90.638	14.414	49.227	63.44827586	12.4137931	24.13793103
 372	63.248	63.64	89.55	44.82758621	42.06896552	68.96551724
 373	100	85.976	58.455	111.0344828	64.13793103	54.48275862
 374	9.8311	28.027	7.5567	4.827586207	6.206896552	4.137931034
 375	89.831	64.313	69.506	78.62068966	40.68965517	49.65517241
 376	31.754	12.995	25.543	8.275862069	3.448275862	6.206896552
 377	75.914	45.966	64.957	48.27586207	24.82758621	37.93103448
 378	7.5735	50.695	58.941	11.72413793	22.06896552	28.27586207
 379	100	69.835	58.912	98.62068966	44.82758621	46.89655172
 380	32.211	34.376	48.339	12.4137931	12.4137931	18.62068966
 381	13.901	12.159	73.555	4.827586207	11.03448276	34.48275862
 382	87.071	9.028	77.653	56.55172414	17.93103448	46.20689655
 383	23.272	85.409	84.29	35.17241379	62.06896552	68.96551724
 384	93.289	39.48	26.145	72.4137931	17.93103448	18.62068966
 385	65.769	59.63	30.967	44.13793103	26.89655172	20.68965517
 386	100	32.265	41.803	82.75862069	17.93103448	24.13793103
 387	86.568	85.281	86.961	88.27586207	68.27586207	79.31034483
 388	52.577	86.83	30.016	60	55.17241379	31.72413793
 389	47.921	40.199	76.902	23.44827586	22.06896552	44.13793103
 390	22.36	86.619	61.58	35.17241379	58.62068966	46.89655172
 391	52.232	33.601	88.787	24.82758621	22.75862069	57.93103448
 392	0	28.523	86.267	5.517241379	18.62068966	50.34482759
 393	43.497	67.879	39.551	30.34482759	33.10344828	24.82758621
 394	39.877	45.261	0	17.93103448	13.79310345	8.275862069
 395	86.94	12.43	24.699	55.86206897	8.965517241	13.79310345
 396	28.363	55.339	90.398	19.31034483	34.48275862	64.13793103
 397	39.018	70.534	57.879	30.34482759	38.62068966	35.86206897
 398	12.833	28.519	78.828	6.206896552	16.55172414	41.37931034
 399	68.35	31.815	69.975	34.48275862	18.62068966	37.24137931
 400	56.52	26.226	41.626	24.82758621	9.655172414	15.86206897
 401	12.938	46.218	0	11.03448276	13.79310345	7.586206897
 402	8.6938	60.179	26.117	15.86206897	24.82758621	14.48275862
 403	51.995	89.429	96.608	52.4137931	74.48275862	92.4137931
 404	46.905	47.746	48.909	24.13793103	20	22.06896552
 405	14.352	81.814	19.479	30.34482759	45.51724138	23.44827586
 406	71.482	38.117	12.273	42.06896552	13.79310345	11.03448276
 407	86.616	60.785	10.012	68.27586207	30.34482759	20.68965517
 408	71.811	88.979	52.186	71.03448276	62.75862069	45.51724138
 409	43.213	100	72.083	57.24137931	82.06896552	65.51724138
 410	73.92	23.444	8.2853	40	8.965517241	8.965517241
 411	40.629	85.534	53.423	41.37931034	55.86206897	40
 412	38.955	52.128	22.885	21.37931034	19.31034483	12.4137931
 413	46.48	12.229	8.6707	15.17241379	4.137931034	4.827586207
