data/calibration-002030.ti3
CTI3   
ORIGINATOR	"ColorHug Factory"
CREATED	"Sun May 26 11:29:25 2013"
DESCRIPTOR	"Calibration Target chart information 3"
DEVICE_CLASS	"DISPLAY"
COLOR_REP	"RGB_XYZ"
TARGET_INSTRUMENT	"Hughski ColorHug"
INSTRUMENT_TYPE_SPECTRAL	"NO"
NORMALIZED_TO_Y_100	"NO"
NUMBER_OF_FIELDS	7
NUMBER_OF_SETS	15
BEGIN_DATA_FORMAT
 SAMPLE_ID	RGB_R	RGB_G	RGB_B	XYZ_X	XYZ_Y	XYZ_Z
END_DATA_FORMAT
BEGIN_DATA
 1	0	0	0	0	0.0457763671875	0.0457763671875
 2	1	1	1	38.1317138671875	37.53662109375	51.81884765625
 3	1	0	0	22.8424072265625	2.7008056640625	3.6163330078125
 4	0	1	0	13.2293701171875	25.6805419921875	12.0391845703125
 5	0	0	1	0.8697509765625	8.880615234375	35.614013671875
 6	0	0	0	0	0.0457763671875	0.0457763671875
 7	1	1	1	37.8570556640625	37.5823974609375	51.910400390625
 8	1	0	0	22.8424072265625	2.7008056640625	3.6163330078125
 9	0	1	0	13.2293701171875	25.543212890625	12.1307373046875
 10	0	0	1	0.8697509765625	8.880615234375	35.6597900390625
 11	0	0	0	0	0.0457763671875	0.0457763671875
 12	1	1	1	38.177490234375	37.4908447265625	51.81884765625
 13	1	0	0	22.8424072265625	2.7008056640625	3.6163330078125
 14	0	1	0	13.2293701171875	25.543212890625	12.0391845703125
 15	0	0	1	0.8697509765625	8.880615234375	35.6597900390625
END_DATA
