data/calibration-002590.ti3
CTI3   
ORIGINATOR	"ColorHug Factory"
CREATED	"Wed Dec 03 19:35:53 2014"
DESCRIPTOR	"Calibration Target chart information 3"
DEVICE_CLASS	"DISPLAY"
COLOR_REP	"RGB_XYZ"
TARGET_INSTRUMENT	"Hughski ColorHug"
INSTRUMENT_TYPE_SPECTRAL	"NO"
NORMALIZED_TO_Y_100	"NO"
NUMBER_OF_FIELDS	7
NUMBER_OF_SETS	15
BEGIN_DATA_FORMAT
 SAMPLE_ID	RGB_R	RGB_G	RGB_B	XYZ_X	XYZ_Y	XYZ_Z
END_DATA_FORMAT
BEGIN_DATA
 1.0	0.0	0.0	0.0	0.214645385742	0.220733642578	0.309020996094
 2.0	1.0	1.0	1.0	167.183670043945	154.566024780273	163.839996337891
 3.0	1.0	0.0	0.0	112.219177246094	9.893707275391	14.197570800781
 4.0	0.0	1.0	0.0	40.554443359375	107.789459228516	38.102325439453
 5.0	0.0	0.0	1.0	5.110412597656	29.257141113281	103.696197509766
 6.0	0.0	0.0	0.0	0.212829589844	0.218826293945	0.307586669922
 7.0	1.0	1.0	1.0	167.183670043945	154.566024780273	163.839996337891
 8.0	1.0	0.0	0.0	112.219177246094	9.858001708984	14.148529052734
 9.0	0.0	1.0	0.0	40.554443359375	107.789459228516	38.102325439453
 10.0	0.0	0.0	1.0	5.091354370117	29.04963684082	102.399993896484
 11.0	0.0	0.0	0.0	0.211059570312	0.218353271484	0.307586669922
 12.0	1.0	1.0	1.0	167.183670043945	154.566024780273	163.839996337891
 13.0	1.0	0.0	0.0	110.702697753906	9.822540283203	14.075592041016
 14.0	0.0	1.0	0.0	40.354675292969	107.789459228516	37.925918579102
 15.0	0.0	0.0	1.0	5.07243347168	28.946990966797	102.399993896484
END_DATA
