data/calibration-002810.ti3
CTI3   
ORIGINATOR	"ColorHug Factory"
CREATED	"Tue May 05 21:27:25 2015"
DESCRIPTOR	"Calibration Target chart information 3"
DEVICE_CLASS	"DISPLAY"
COLOR_REP	"RGB_XYZ"
TARGET_INSTRUMENT	"Hughski ColorHug"
INSTRUMENT_TYPE_SPECTRAL	"NO"
NORMALIZED_TO_Y_100	"NO"
NUMBER_OF_FIELDS	7
NUMBER_OF_SETS	15
BEGIN_DATA_FORMAT
 SAMPLE_ID	RGB_R	RGB_G	RGB_B	XYZ_X	XYZ_Y	XYZ_Z
END_DATA_FORMAT
BEGIN_DATA
 1.0	0.0	0.0	0.0	0.501617431641	0.520080566406	0.632476806641
 2.0	1.0	1.0	1.0	122.268646240234	110.702697753906	122.268646240234
 3.0	1.0	0.0	0.0	87.14892578125	8.359176635742	13.861251831055
 4.0	0.0	1.0	0.0	28.15119934082	77.283004760742	30.453521728516
 5.0	0.0	0.0	1.0	3.990249633789	22.818939208984	75.155960083008
 6.0	0.0	0.0	0.0	0.505615234375	0.522338867188	0.632431030273
 7.0	1.0	1.0	1.0	120.470581054688	110.702697753906	122.268646240234
 8.0	1.0	0.0	0.0	87.14892578125	8.359176635742	13.861251831055
 9.0	0.0	1.0	0.0	28.15119934082	77.283004760742	30.453521728516
 10.0	0.0	0.0	1.0	3.9921875	22.818939208984	75.155960083008
 11.0	0.0	0.0	0.0	0.505447387695	0.522338867188	0.633163452148
 12.0	1.0	1.0	1.0	120.470581054688	110.702697753906	122.268646240234
 13.0	1.0	0.0	0.0	87.14892578125	8.350662231445	13.837829589844
 14.0	0.0	1.0	0.0	28.054794311523	77.283004760742	30.453521728516
 15.0	0.0	0.0	1.0	3.990249633789	22.818939208984	75.155960083008
END_DATA
