data/calibration-001266.ti3
CTI3   
ORIGINATOR	"ColorHug Factory"
DESCRIPTOR	"Calibration Target chart information 3"
DEVICE_CLASS	"DISPLAY"
COLOR_REP	"RGB_XYZ"
TARGET_INSTRUMENT	"Hughski ColorHug"
INSTRUMENT_TYPE_SPECTRAL	"NO"
NORMALIZED_TO_Y_100	"NO"
NUMBER_OF_FIELDS	7
NUMBER_OF_SETS	15
BEGIN_DATA_FORMAT
 SAMPLE_ID	RGB_R	RGB_G	RGB_B	XYZ_X	XYZ_Y	XYZ_Z
END_DATA_FORMAT
BEGIN_DATA
 1	0	0	0	0.09155273438	0.1373291016	0.2288818359
 2	1	1	1	33.27941895	31.58569336	38.17749023
 3	1	0	0	20.18737793	2.60925293	3.387451172
 4	0	1	0	11.94763184	22.75085449	10.57434082
 5	0	0	1	0.7781982422	6.546020508	24.58190918
 6	0	0	0	0.1373291016	0.1373291016	0.2288818359
 7	1	1	1	33.09631348	31.53991699	38.2232666
 8	1	0	0	20.14160156	2.60925293	3.387451172
 9	0	1	0	11.9934082	22.75085449	10.66589355
 10	0	0	1	0.7781982422	6.546020508	24.71923828
 11	0	0	0	0.1373291016	0.1373291016	0.2288818359
 12	1	1	1	33.09631348	31.40258789	38.2232666
 13	1	0	0	20.0958252	2.60925293	3.387451172
 14	0	1	0	12.08496094	22.75085449	10.57434082
 15	0	0	1	0.7781982422	6.546020508	24.67346191
END_DATA
