data/calibration-002392.ti3
CTI3   
ORIGINATOR	"ColorHug Factory"
CREATED	"Wed May 14 20:21:22 2014"
DESCRIPTOR	"Calibration Target chart information 3"
DEVICE_CLASS	"DISPLAY"
COLOR_REP	"RGB_XYZ"
TARGET_INSTRUMENT	"Hughski ColorHug"
INSTRUMENT_TYPE_SPECTRAL	"NO"
NORMALIZED_TO_Y_100	"NO"
NUMBER_OF_FIELDS	7
NUMBER_OF_SETS	15
BEGIN_DATA_FORMAT
 SAMPLE_ID	RGB_R	RGB_G	RGB_B	XYZ_X	XYZ_Y	XYZ_Z
END_DATA_FORMAT
BEGIN_DATA
 1.0	0.0	0.0	0.0	0.156967163086	0.152236938477	0.278350830078
 2.0	1.0	1.0	1.0	75.851837158203	36.571426391602	61.134323120117
 3.0	1.0	0.0	0.0	47.90641784668	3.965148925781	7.353668212891
 4.0	0.0	1.0	0.0	22.94677734375	22.818939208984	12.740264892578
 5.0	0.0	0.0	1.0	1.234649658203	9.717666625977	39.766983032227
 6.0	0.0	0.0	0.0	0.156646728516	0.153167724609	0.279647827148
 7.0	1.0	1.0	1.0	75.851837158203	36.571426391602	60.68147277832
 8.0	1.0	0.0	0.0	47.90641784668	3.944137573242	7.427017211914
 9.0	0.0	1.0	0.0	23.076049804688	22.755554199219	12.921127319336
 10.0	0.0	0.0	1.0	1.223770141602	9.683212280273	39.960968017578
 11.0	0.0	0.0	0.0	0.156967163086	0.153793334961	0.28271484375
 12.0	1.0	1.0	1.0	75.851837158203	36.571426391602	61.134323120117
 13.0	1.0	0.0	0.0	47.90641784668	3.965148925781	7.333923339844
 14.0	0.0	1.0	0.0	23.076049804688	22.629821777344	12.740264892578
 15.0	0.0	0.0	1.0	1.227264404297	9.740783691406	39.960968017578
END_DATA
