data/calibration-000808.ti3
CTI3   
ORIGINATOR	"ColorHug Factory"
DESCRIPTOR	"Calibration Target chart information 3"
DEVICE_CLASS	"DISPLAY"
COLOR_REP	"RGB_XYZ"
TARGET_INSTRUMENT	"Hughski ColorHug"
INSTRUMENT_TYPE_SPECTRAL	"NO"
NORMALIZED_TO_Y_100	"NO"
NUMBER_OF_FIELDS	7
NUMBER_OF_SETS	15
BEGIN_DATA_FORMAT
 SAMPLE_ID	RGB_R	RGB_G	RGB_B	XYZ_X	XYZ_Y	XYZ_Z
END_DATA_FORMAT
BEGIN_DATA
 1	0	0	0	0.04577636719	0	0.04577636719
 2	1	1	1	56.62536621	38.45214844	45.45593262
 3	1	0	0	35.4309082	3.524780273	5.126953125
 4	0	1	0	18.63098145	26.87072754	12.40539551
 5	0	0	1	0.8239746094	7.598876953	27.64892578
 6	0	0	0	0.04577636719	0	0.04577636719
 7	1	1	1	56.21337891	38.26904297	45.45593262
 8	1	0	0	35.70556641	3.524780273	5.126953125
 9	0	1	0	18.63098145	27.14538574	12.40539551
 10	0	0	1	0.8239746094	7.598876953	27.19116211
 11	0	0	0	0.04577636719	0	0.04577636719
 12	1	1	1	56.35070801	38.31481934	45.27282715
 13	1	0	0	35.52246094	3.524780273	5.126953125
 14	0	1	0	18.76831055	27.05383301	12.40539551
 15	0	0	1	0.8239746094	7.598876953	27.46582031
END_DATA
