data/calibration-001719.ti3
CTI3   
ORIGINATOR	"ColorHug Factory"
CREATED	"Wed Feb 20 20:15:55 2013"
DESCRIPTOR	"Calibration Target chart information 3"
DEVICE_CLASS	"DISPLAY"
COLOR_REP	"RGB_XYZ"
TARGET_INSTRUMENT	"Hughski ColorHug"
INSTRUMENT_TYPE_SPECTRAL	"NO"
NORMALIZED_TO_Y_100	"NO"
NUMBER_OF_FIELDS	7
NUMBER_OF_SETS	15
BEGIN_DATA_FORMAT
 SAMPLE_ID	RGB_R	RGB_G	RGB_B	XYZ_X	XYZ_Y	XYZ_Z
END_DATA_FORMAT
BEGIN_DATA
 1	0	0	0	0.09155273438	0.09155273438	0.1373291016
 2	1	1	1	40.42053223	36.43798828	46.4630127
 3	1	0	0	24.76501465	2.883911133	3.890991211
 4	0	1	0	14.19067383	25.77209473	11.8560791
 5	0	0	1	0.9155273438	7.965087891	30.71594238
 6	0	0	0	0.09155273438	0.09155273438	0.1373291016
 7	1	1	1	40.83251953	36.71264648	46.4630127
 8	1	0	0	24.76501465	2.883911133	3.890991211
 9	0	1	0	14.09912109	25.77209473	11.8560791
 10	0	0	1	0.9155273438	7.919311523	30.85327148
 11	0	0	0	0.09155273438	0.1373291016	0.1831054688
 12	1	1	1	40.55786133	36.52954102	46.50878906
 13	1	0	0	24.67346191	2.883911133	3.890991211
 14	0	1	0	14.09912109	25.86364746	11.8560791
 15	0	0	1	0.9155273438	7.965087891	30.76171875
END_DATA
