data/calibration-000806.ti3
CTI3   
ORIGINATOR	"ColorHug Factory"
DESCRIPTOR	"Calibration Target chart information 3"
DEVICE_CLASS	"DISPLAY"
COLOR_REP	"RGB_XYZ"
TARGET_INSTRUMENT	"Hughski ColorHug"
INSTRUMENT_TYPE_SPECTRAL	"NO"
NORMALIZED_TO_Y_100	"NO"
NUMBER_OF_FIELDS	7
NUMBER_OF_SETS	15
BEGIN_DATA_FORMAT
 SAMPLE_ID	RGB_R	RGB_G	RGB_B	XYZ_X	XYZ_Y	XYZ_Z
END_DATA_FORMAT
BEGIN_DATA
 1	0	0	0	0.04577636719	0.09155273438	0.1373291016
 2	1	1	1	48.88916016	33.32519531	40.42053223
 3	1	0	0	30.89904785	3.204345703	4.989624023
 4	0	1	0	16.47949219	23.62060547	11.5814209
 5	0	0	1	0.7781982422	6.591796875	24.03259277
 6	0	0	0	0.04577636719	0.09155273438	0.1373291016
 7	1	1	1	48.61450195	33.27941895	40.42053223
 8	1	0	0	30.99060059	3.204345703	4.989624023
 9	0	1	0	16.47949219	23.62060547	11.62719727
 10	0	0	1	0.7781982422	6.591796875	23.89526367
 11	0	0	0	0.04577636719	0.09155273438	0.1373291016
 12	1	1	1	48.66027832	33.41674805	40.51208496
 13	1	0	0	30.89904785	3.204345703	4.943847656
 14	0	1	0	16.47949219	23.7121582	11.71875
 15	0	0	1	0.7781982422	6.591796875	23.89526367
END_DATA
