data/calibration-002705.ti3
CTI3   
ORIGINATOR	"ColorHug Factory"
CREATED	"Thu Mar 26 20:22:48 2015"
DESCRIPTOR	"Calibration Target chart information 3"
DEVICE_CLASS	"DISPLAY"
COLOR_REP	"RGB_XYZ"
TARGET_INSTRUMENT	"Hughski ColorHug"
INSTRUMENT_TYPE_SPECTRAL	"NO"
NORMALIZED_TO_Y_100	"NO"
NUMBER_OF_FIELDS	7
NUMBER_OF_SETS	15
BEGIN_DATA_FORMAT
 SAMPLE_ID	RGB_R	RGB_G	RGB_B	XYZ_X	XYZ_Y	XYZ_Z
END_DATA_FORMAT
BEGIN_DATA
 1.0	0.0	0.0	0.0	0.311859130859	0.313598632812	0.38069152832
 2.0	1.0	1.0	1.0	58.09928894043	53.194793701172	55.351348876953
 3.0	1.0	0.0	0.0	42.445587158203	4.114501953125	6.622467041016
 4.0	0.0	1.0	0.0	13.979507446289	38.280364990234	14.654739379883
 5.0	0.0	0.0	1.0	2.001953125	10.489105224609	33.436721801758
 6.0	0.0	0.0	0.0	0.314163208008	0.314376831055	0.382614135742
 7.0	1.0	1.0	1.0	58.09928894043	53.194793701172	55.351348876953
 8.0	1.0	0.0	0.0	42.890045166016	4.098037719727	6.627822875977
 9.0	0.0	1.0	0.0	14.00341796875	38.824630737305	14.70735168457
 10.0	0.0	0.0	1.0	2.016235351562	10.475692749023	33.851226806641
 11.0	0.0	0.0	0.0	0.314605712891	0.315536499023	0.384353637695
 12.0	1.0	1.0	1.0	58.514282226562	53.194793701172	55.351348876953
 13.0	1.0	0.0	0.0	42.890045166016	4.10009765625	6.627822875977
 14.0	0.0	1.0	0.0	13.93196105957	38.280364990234	14.70735168457
 15.0	0.0	0.0	1.0	2.009811401367	10.502563476562	34.276138305664
END_DATA
