data/calibration-000273.ti3
CTI3
DESCRIPTOR	"Calibration Target chart information 3"
ORIGINATOR	"ColorHug Factory"
DEVICE_CLASS	"DISPLAY"
COLOR_REP	"RGB_XYZ"
TARGET_INSTRUMENT	"ColorHug"
INSTRUMENT_TYPE_SPECTRAL	"NO"
LUMINANCE_XYZ_CDM2	"53.707123 40.168762 45.547485"
NORMALIZED_TO_Y_100	"YES"
NUMBER_OF_FIELDS	7
NUMBER_OF_SETS	836
BEGIN_DATA_FORMAT
 SAMPLE_ID	RGB_R	RGB_G	RGB_B	XYZ_X	XYZ_Y	XYZ_Z
END_DATA_FORMAT
BEGIN_DATA
 1	100	100	100	127.5626424	99.88610478	113.3257403
 2	100	100	100	135.7630979	100	113.3257403
 3	100	100	100	135.4214123	99.88610478	113.3257403
 4	100	100	100	135.7630979	100	113.3257403
 5	33.33	32.622	30.968	11.50341686	8.428246014	8.883826879
 6	100	0	100	84.738041	27.90432802	79.95444191
 7	100	100	0	133.9407745	80.97949886	45.78587699
 8	0	100	100	47.38041002	90.54669704	99.88610478
 9	0	100	0	45.44419134	72.2095672	32.57403189
 10	0	0	100	2.391799544	19.02050114	67.53986333
 11	100	0	0	83.82687927	8.883826879	12.98405467
 12	0	0	0	0.2277904328	0.2277904328	0.3416856492
 13	0	52.455	100	12.5284738	35.64920273	74.94305239
 14	100	0	50.3	84.28246014	12.98405467	26.99316629
 15	100	54.739	100	98.29157175	46.35535308	88.38268793
 16	100	52.128	0	95.33029613	25.17084282	20.50113895
 17	0	0	46.181	0.569476082	3.302961276	11.38952164
 18	0	51.141	0	10.13667426	15.83143508	7.28929385
 19	0	100	51.348	46.35535308	76.08200456	47.03872437
 20	100	100	52.037	133.3712984	85.19362187	61.38952164
 21	49.216	0	0	16.97038724	1.936218679	2.84738041
 22	56.159	100	0	68.45102506	74.37357631	36.21867882
 23	49.226	100	100	64.5785877	92.93849658	102.7334852
 24	44.487	0	100	15.60364465	20.61503417	69.93166287
 25	100	44.498	52.029	92.71070615	24.94305239	33.48519362
 26	48.926	48.544	100	27.7904328	35.19362187	76.53758542
 27	51.368	100	47.25	64.5785877	77.56264237	47.9498861
 28	49.893	0	49.033	17.99544419	5.808656036	16.05922551
 29	53.109	51.372	0	30.18223235	17.99544419	10.36446469
 30	0	58.587	53.943	14.23690205	25.85421412	25.96810934
 31	100	28.065	100	89.06605923	32.68792711	82.91571754
 32	0	0	72.874	1.25284738	8.883826879	31.20728929
 33	0	26.758	100	4.555808656	23.34851936	69.58997722
 34	0	25.426	0	2.505694761	3.758542141	1.936218679
 35	72.508	0	100	41.34396355	23.46241458	73.57630979
 36	100	27.395	0	87.12984055	13.2118451	14.92027335
 37	74.47	100	100	90.20501139	95.67198178	106.7198178
 38	100	0	25.728	84.28246014	9.908883827	16.40091116
 39	73.862	0	0	41.11617312	4.555808656	6.492027335
 40	100	100	25.402	133.7129841	82.11845103	49.54441913
 41	0	75.751	100	26.30979499	56.71981777	84.96583144
 42	0	75.172	0	23.80410023	36.56036446	16.74259681
 43	0	100	25.864	45.89977221	73.00683371	35.87699317
 44	100	0	74.801	84.85193622	18.45102506	46.81093394
 45	0	100	75.421	47.03872437	81.66287016	67.42596811
 46	24.577	0	0	4.10022779	0.569476082	0.9111617312
 47	26.321	100	0	50.34168565	72.43735763	33.25740319
 48	100	75.835	0	109.5671982	46.35535308	30.18223235
 49	100	100	77.061	134.5102506	91.0022779	82.34624146
 50	71.263	100	0	84.62414579	76.19589977	38.38268793
 51	0	0	15.614	0.2277904328	0.569476082	1.480637813
 52	0	30.049	70.936	4.214123007	13.55353075	31.77676538
 53	100	77.691	100	113.5535308	67.88154897	98.74715262
 54	24.486	100	100	51.70842825	91.79954442	100.6833713
 55	100	62.784	31.909	101.0250569	35.19362187	29.61275626
 56	29.552	0	100	7.744874715	19.81776765	68.33712984
 57	32.98	70.921	100	30.06833713	52.0501139	83.48519362
 58	0	27.681	40.241	3.189066059	6.833712984	10.59225513
 59	67.901	71.021	100	56.60592255	55.46697039	87.92710706
 60	28.154	100	67.829	51.70842825	80.06833713	60.36446469
 61	71.637	100	70.001	85.53530752	84.51025057	67.99544419
 62	58.822	58.763	53.586	38.72437358	28.24601367	29.49886105
 63	33.466	30.48	0	10.82004556	6.150341686	3.758542141
 64	100	73.795	71.277	109.1116173	53.07517084	59.68109339
 65	68.394	29.692	0	37.81321185	8.769931663	7.744874715
 66	70.399	0	29.039	36.67425968	5.353075171	10.13667426
 67	28.078	0	26.956	5.466970387	1.822323462	4.669703872
 68	28.532	72.339	0	27.22095672	34.28246014	16.28701595
 69	100	30.941	26.496	87.81321185	15.48974943	19.13439636
 70	34.597	0	73.611	8.997722096	10.02277904	33.59908884
 71	71.573	0	72.408	39.17995444	12.98405467	37.24373576
 72	0	71.029	29.412	21.18451025	33.82687927	19.36218679
 73	68.386	75.008	0	58.65603645	40.20501139	22.09567198
 74	68.088	27.309	100	38.72437358	27.22095672	74.94305239
 75	100	26.457	73.749	87.12984055	22.43735763	48.06378132
 76	74.344	100	27.392	89.06605923	78.01822323	43.28018223
 77	27.558	100	28.197	50.56947608	74.03189066	37.58542141
 78	31.196	27.465	100	11.16173121	24.25968109	70.95671982
 79	0	75.521	72.824	25.05694761	46.35535308	48.40546697
 80	0	50.93	25.553	10.13667426	16.62870159	10.59225513
 81	32.06	33.584	64.033	11.61731207	14.00911162	27.7904328
 82	81.666	55.38	0	64.23690205	24.37357631	16.62870159
 83	68.257	32.751	58.286	39.29384966	15.48974943	27.44874715
 84	0	55.248	81.585	13.09794989	30.41002278	49.88610478
 85	73.781	52.099	100	53.64464692	39.97722096	81.09339408
 86	100	50.537	82.952	95.33029613	36.33257403	63.2118451
 87	23.55	0	50.439	4.214123007	4.44191344	14.5785877
 88	31.335	62.746	31.114	22.55125285	26.87927107	17.42596811
 89	100	18.31	49.418	85.4214123	14.69248292	27.33485194
 90	26.498	48.404	0	13.66742597	14.5785877	7.28929385
 91	47.91	100	85.744	62.5284738	86.7881549	81.43507973
 92	71.829	47.313	31.811	47.38041002	19.13439636	17.53986333
 93	31.304	64.132	69.316	23.80410023	34.28246014	41.11617312
 94	80.403	0	54.321	50.56947608	10.13667426	24.25968109
 95	18.455	50.036	100	13.8952164	34.62414579	74.94305239
 96	50.653	100	16.345	62.87015945	73.69020501	36.67425968
 97	80.121	100	52.261	96.81093394	81.66287016	55.80865604
 98	0	22.54	19.289	2.050113895	3.644646925	3.530751708
 99	100	75.273	46.886	108.8838269	48.86104784	42.14123007
 100	0	78.618	56.625	26.87927107	45.55808656	36.67425968
 101	51.137	80.627	100	47.83599089	64.35079727	90.20501139
 102	48.446	0	17.864	16.40091116	2.391799544	4.44191344
 103	100	50.023	21.211	93.7357631	24.60136674	22.2095672
 104	50.115	20.118	0	18.90660592	4.328018223	3.986332574
 105	58.099	72.426	33.158	46.01366743	37.92710706	24.82915718
 106	19.364	100	50.197	48.29157175	76.08200456	47.38041002
 107	50.683	19.177	100	21.29840547	23.34851936	71.5261959
 108	53.37	0	81.576	21.41230068	14.00911162	44.76082005
 109	47.768	76.245	0	39.97722096	39.29384966	19.70387244
 110	0	18.927	55.503	1.936218679	7.061503417	18.10933941
 111	0	13.277	0	0.9111617312	1.25284738	0.7972665148
 112	72.862	72.473	75.625	62.5284738	47.9498861	56.15034169
 113	100	13.904	0	84.738041	10.13667426	13.55353075
 114	86.349	0	100	60.70615034	25.51252847	77.22095672
 115	100	41.941	100	92.71070615	38.72437358	85.4214123
 116	100	81.785	16.464	114.9202733	54.10022779	35.07972665
 117	0	44.063	52.596	7.972665148	16.05922551	20.8428246
 118	0	0	58.917	0.9111617312	5.580865604	19.58997722
 119	59.25	24.551	29.789	27.7904328	7.517084282	10.13667426
 120	82.73	82.874	100	85.4214123	71.29840547	97.15261959
 121	80.039	0	12.618	49.43052392	5.69476082	8.769931663
 122	60.957	47.729	77.817	36.56036446	26.99316629	47.83599089
 123	100	0	38.618	83.37129841	11.27562642	20.8428246
 124	0	40.09	100	8.086560364	28.81548975	72.32346241
 125	0	15.283	82.322	2.164009112	13.32574032	42.48291572
 126	17.592	81.726	100	32.68792711	64.00911162	88.61047836
 127	100	14.13	100	86.21867882	29.27107062	81.20728929
 128	15.261	100	82.059	48.06378132	83.94077449	74.82915718
 129	47.77	79.418	60.389	42.82460137	49.43052392	42.02733485
 130	18.768	16.429	0	3.530751708	1.936218679	1.366742597
 131	55.634	100	65.763	68.22323462	81.54897494	61.38952164
 132	100	100	38.541	131.6628702	83.25740319	54.10022779
 133	17.421	0	83.497	3.416856492	12.5284738	43.7357631
 134	17.237	16.758	100	5.011389522	21.07061503	68.90660592
 135	0	15.067	30.039	1.25284738	2.84738041	5.353075171
 136	0	0	86.505	1.708428246	13.32574032	46.92482916
 137	75.736	72.799	50.02	66.17312073	42.71070615	35.99088838
 138	100	83.323	85.529	117.3120729	68.79271071	80.86560364
 139	100	100	64.894	133.4851936	87.92710706	70.61503417
 140	81.98	84.914	0	83.37129841	53.98633257	30.41002278
 141	0	63.757	15.49	16.40091116	25.74031891	12.98405467
 142	49.514	66.135	100	36.33257403	48.86104784	82.80182232
 143	100	0	61.862	83.82687927	15.14806378	34.738041
 144	24.308	45.41	49.831	12.07289294	16.51480638	19.93166287
 145	15.963	0	17.047	1.936218679	0.7972665148	2.050113895
 146	87.497	100	100	109.5671982	97.38041002	109.5671982
 147	52.099	25.003	75.752	22.2095672	15.37585421	39.52164009
 148	14.909	81.162	0	29.49886105	43.7357631	20.04555809
 149	0	34.792	14.626	4.669703872	7.403189066	4.555808656
 150	48.39	45.075	22.552	24.03189066	14.5785877	10.70615034
 151	83.545	65.965	100	74.71526196	52.84738041	88.83826879
 152	16.226	62.345	0	17.42596811	24.25968109	11.38952164
 153	63.222	0	14.914	28.92938497	3.644646925	5.922551253
 154	80.449	13.446	0	50.34168565	6.605922551	8.314350797
 155	83.917	41.562	0	61.38952164	15.9453303	13.09794989
 156	100	60.448	46.3	99.08883827	35.07972665	35.53530752
 157	15.584	0	34.795	2.050113895	2.164009112	6.719817768
 158	17.144	65.121	100	21.29840547	46.35535308	80.29612756
 159	83.602	55.334	62.667	67.76765376	31.20728929	39.52164009
 160	0	82.19	14.22	28.92938497	45.78587699	21.75398633
 161	25.132	74.856	50.616	28.13211845	40.88838269	31.43507973
 162	0	13.769	100	2.733485194	20.38724374	68.10933941
 163	87.181	0	0	60.02277904	6.605922551	9.339407745
 164	0	100	39.19	45.44419134	74.48747153	41.0022779
 165	78.047	65.914	19.865	64.69248292	33.25740319	21.86788155
 166	100	63.961	15.865	101.4806378	35.07972665	26.08200456
 167	100	45.955	36.032	92.3690205	23.69020501	25.62642369
 168	15.926	100	16.89	46.92482916	72.2095672	34.39635535
 169	41.459	100	0	57.17539863	73.46241458	34.39635535
 170	48.707	37.288	48.139	22.32346241	13.66742597	19.02050114
 171	83.381	100	13.285	100.7972665	78.4738041	42.02733485
 172	78.129	25.303	75.621	50.11389522	18.56492027	43.50797267
 173	12.396	0	0	1.25284738	0.3416856492	0.4555808656
 174	37.607	48.336	83.346	19.70387244	27.56264237	51.48063781
 175	35.588	15.356	0	9.225512528	2.505694761	2.164009112
 176	61.245	100	100	74.48747153	93.96355353	104.4419134
 177	100	67.29	87.195	104.5558087	51.3667426	74.48747153
 178	0	0	30.615	0.3416856492	1.480637813	4.897494305
 179	35.187	81.789	83.323	37.92710706	57.74487472	65.261959
 180	39.525	80.194	22.879	37.69931663	44.53302961	23.69020501
 181	50.634	34.593	0	22.32346241	8.883826879	6.036446469
 182	14.175	100	63.146	47.26651481	78.35990888	56.03644647
 183	83.493	17.728	34.574	55.23917995	9.453302961	15.48974943
 184	23.463	22.014	79.943	6.605922551	14.35079727	41.11617312
 185	18.066	31.847	0	6.036446469	6.150341686	3.189066059
 186	87.201	100	81.361	107.8587699	90.09111617	83.71298405
 187	0	100	87.95	46.46924829	85.76309795	81.89066059
 188	34.476	17.888	46.22	9.339407745	6.150341686	13.66742597
 189	18.277	0	67.39	3.075170843	7.744874715	26.76537585
 190	100	87.972	0	120.2733485	61.95899772	37.12984055
 191	82.925	34.85	100	59.56719818	32.00455581	79.1571754
 192	0	88.016	100	35.87699317	71.98177677	91.6856492
 193	36.104	85.655	100	42.3690205	69.70387244	91.34396355
 194	60.981	0	0	26.65148064	3.075170843	4.328018223
 195	51.466	61.826	78.106	34.738041	36.44646925	51.25284738
 196	78.427	31.983	22.175	50	11.73120729	12.5284738
 197	66.017	44.321	0	39.40774487	15.14806378	10.36446469
 198	83.941	0	84.177	56.03644647	18.67881549	53.18906606
 199	20.158	46.612	23.269	11.16173121	14.12300683	9.339407745
 200	0	100	62.618	46.01366743	78.58769932	55.5808656
 201	33.832	0	13.933	7.630979499	1.366742597	2.505694761
 202	100	17.286	16.322	83.59908884	11.16173121	15.14806378
 203	0	42.204	83.926	8.086560364	23.34851936	49.3166287
 204	0	87.774	0	33.48519362	52.39179954	23.91799544
 205	64.988	0	59.017	31.09339408	8.997722096	24.60136674
 206	14.677	0	100	3.416856492	19.36218679	67.99544419
 207	88.934	82.673	35.021	91.91343964	54.21412301	37.12984055
 208	0	63.778	100	18.33712984	44.87471526	78.81548975
 209	83.429	17.674	100	56.83371298	26.87927107	77.33485194
 210	30.899	100	85.668	52.96127563	85.76309795	80.523918
 211	83.68	0	41.016	54.32801822	8.54214123	17.53986333
 212	100	63.515	0	100.5694761	33.94077449	24.37357631
 213	85.074	69.987	0	76.99316629	37.12984055	23.12072893
 214	20.801	45.524	69.018	11.61731207	20.8428246	34.28246014
 215	21.382	82.482	73.017	33.25740319	55.23917995	53.64464692
 216	100	15.128	64.249	84.16856492	17.08428246	37.4715262
 217	36.522	0	58.427	9.453302961	6.492027335	20.61503417
 218	22.466	81.296	33.007	31.77676538	45.78587699	26.30979499
 219	62.531	87.152	0	61.38952164	54.78359909	27.90432802
 220	84.12	85.397	67.886	88.15489749	62.98405467	58.54214123
 221	18.87	27.336	45.389	5.580865604	7.744874715	13.55353075
 222	66.439	100	14.444	78.35990888	75.74031891	38.72437358
 223	41.636	22.147	19.003	13.66742597	4.783599089	5.239179954
 224	61.271	100	81.94	73.12072893	86.1047836	78.24601367
 225	86.013	100	0	105.3530752	78.24601367	41.6856492
 226	37.57	0	0	9.225512528	1.138952164	1.708428246
 227	100	16.132	84.102	85.19362187	23.12072893	57.74487472
 228	0	100	13.619	45.33029613	72.32346241	33.59908884
 229	38.905	100	56.471	56.15034169	78.24601367	52.16400911
 230	100	15.382	34.563	83.48519362	12.18678815	19.81776765
 231	36.656	14.908	100	11.61731207	21.5261959	70.04555809
 232	0	62.593	66.608	16.28701595	31.66287016	36.7881549
 233	66.347	12.528	100	34.62414579	23.69020501	73.46241458
 234	100	43.375	69.233	91.45785877	28.13211845	46.24145786
 235	100	56.36	61.236	96.81093394	34.39635535	43.39407745
 236	0	86.194	44.955	32.34624146	53.18906606	33.82687927
 237	64.527	87.262	100	65.03416856	74.48747153	96.12756264
 238	34.411	0	42.471	8.086560364	3.758542141	11.04783599
 239	80.23	59.707	85.12	64.69248292	40.77448747	64.00911162
 240	20.625	19.056	14.791	4.328018223	2.961275626	2.84738041
 241	15.341	34.221	100	7.972665148	26.30979499	71.41230068
 242	36.777	0	87.905	10.36446469	15.03416856	51.25284738
 243	34.598	56.247	100	22.43735763	39.74943052	78.24601367
 244	20.86	67.629	17.418	21.64009112	29.8405467	15.37585421
 245	44.958	60.843	18.054	28.70159453	25.17084282	14.5785877
 246	37.421	60.193	0	23.91799544	23.46241458	11.84510251
 247	84.011	33.849	42.612	59.45330296	15.48974943	21.5261959
 248	17.241	60.339	37.743	16.74259681	24.94305239	18.33712984
 249	50.65	17.261	53.278	19.70387244	8.314350797	19.58997722
 250	45.505	48.926	65.152	24.25968109	23.00683371	33.71298405
 251	44.567	84.081	39.649	43.96355353	51.48063781	32.23234624
 252	100	86.339	72.054	117.9954442	68.56492027	67.76765376
 253	68.14	61.135	0	48.74715262	26.65148064	15.83143508
 254	17.93	66.986	81.403	21.5261959	40.54669704	54.78359909
 255	39.242	60.215	48.926	25.39863326	27.33485194	25.17084282
 256	20.099	18.77	62.967	4.783599089	8.883826879	24.25968109
 257	34.553	100	14.582	53.30296128	72.66514806	35.07972665
 258	87.345	0	66.694	60.47835991	14.00911162	35.76309795
 259	0	43.714	39.842	7.630979499	13.8952164	13.78132118
 260	100	37.705	13.955	88.72437358	17.65375854	17.88154897
 261	31.265	86.993	0	38.83826879	52.16400911	24.37357631
 262	51.402	82.661	81.338	48.6332574	59.33940774	65.03416856
 263	100	100	12.984	131.4350797	80.523918	46.81093394
 264	0	37.859	0	5.466970387	8.428246014	3.986332574
 265	62.092	58.215	100	42.93849658	43.28018223	82.00455581
 266	86.186	100	64.1	105.9225513	85.30751708	65.9453303
 267	100	35.251	85.898	89.06605923	29.49886105	62.98405467
 268	63.182	89.992	41.974	64.5785877	61.84510251	39.52164009
 269	13.504	100	0	46.35535308	71.75398633	32.80182232
 270	100	0	13.228	82.91571754	9.225512528	13.78132118
 271	63.881	40.826	100	37.12984055	32.46013667	77.22095672
 272	69.387	84.838	20.792	66.17312073	52.96127563	29.8405467
 273	0	70.279	45.136	20.61503417	34.738041	25.62642369
 274	79.094	64.754	40.908	65.03416856	34.0546697	28.70159453
 275	62.385	54.099	17.396	39.29384966	21.07061503	14.12300683
 276	64.408	14.621	0	30.75170843	4.669703872	5.353075171
 277	70.028	15.606	44.651	37.12984055	8.54214123	17.08428246
 278	0	63.544	0	16.17312073	25.39863326	11.61731207
 279	83.475	47.274	20.502	62.41457859	19.81776765	16.62870159
 280	55.866	0	32.671	22.09567198	4.10022779	9.111617312
 281	58.007	0	100	25.74031891	21.75398633	71.75398633
 282	100	0	87.698	83.59908884	22.77904328	62.07289294
 283	0	13.792	67.215	1.59453303	8.769931663	26.99316629
 284	84.123	17.001	58.549	56.49202733	13.2118451	28.92938497
 285	59.579	32.873	15.966	29.1571754	9.339407745	8.200455581
 286	10.41	32.998	28.659	5.125284738	7.744874715	7.403189066
 287	17.231	40.031	85.65	9.339407745	23.12072893	51.13895216
 288	37.568	41.561	10.108	15.71753986	11.38952164	6.833712984
 289	0	69.015	85.092	20.61503417	43.28018223	59.79498861
 290	14.442	100	36.187	46.81093394	74.25968109	40.09111617
 291	100	40.549	0	89.52164009	18.67881549	17.31207289
 292	82.143	45.435	78.429	61.27562642	28.81548975	51.48063781
 293	52.674	0	67.3	20.38724374	9.681093394	29.72665148
 294	0	87.868	66.793	34.39635535	60.70615034	50.45558087
 295	86.53	100	40.524	105.808656	80.97949886	50.91116173
 296	71.777	85.586	67.232	71.5261959	61.73120729	55.46697039
 297	43.216	100	31.671	58.20045558	74.82915718	39.97722096
 298	39.245	32.908	85.845	15.83143508	20.61503417	51.02505695
 299	0	45.662	67.543	8.769931663	20.27334852	32.80182232
 300	12.161	100	100	48.06378132	91.79954442	101.0250569
 301	67.049	0	85.516	33.94077449	16.85649203	52.16400911
 302	100	89.041	100	122.5512528	83.02961276	106.0364465
 303	20.246	60.698	56.526	17.99544419	28.13211845	29.04328018
 304	52.177	55.457	40.416	31.32118451	23.46241458	20.50113895
 305	72.617	87.018	83.932	73.12072893	68.22323462	74.48747153
 306	40.512	16.723	66.475	12.87015945	10.25056948	28.4738041
 307	68.507	49.232	50.605	44.07744875	22.43735763	26.53758542
 308	65.622	100	54.525	77.90432802	80.41002278	54.66970387
 309	54.115	37.24	66.394	26.19589977	17.76765376	32.80182232
 310	100	76.138	31.267	109.1116173	48.29157175	35.53530752
 311	54.728	65.623	0	38.26879271	29.38496583	15.60364465
 312	63.126	12.526	64.37	29.72665148	11.04783599	29.1571754
 313	72.827	18.08	23.704	40.43280182	7.175398633	10.02277904
 314	23.268	15.278	34.947	4.783599089	3.758542141	7.744874715
 315	87.648	68.954	59.645	80.63781321	42.3690205	43.7357631
 316	0	85.595	85.198	32.91571754	62.5284738	68.56492027
 317	35.798	84.371	69.21	39.52164009	57.28929385	51.82232346
 318	36.062	47.494	35.919	17.42596811	16.51480638	14.35079727
 319	86.083	36.277	59.152	63.43963554	19.58997722	32.46013667
 320	58.21	100	30.361	69.24829157	75.96810934	41.11617312
 321	46.745	14.614	32.317	15.9453303	4.669703872	8.54214123
 322	81.573	73.869	86.954	75.39863326	54.44191344	72.32346241
 323	85.991	49.387	48.206	67.08428246	24.37357631	28.35990888
 324	28.062	87.906	19.654	38.38268793	53.75854214	26.87927107
 325	68.992	17.993	85.124	37.12984055	18.67881549	52.50569476
 326	100	66.147	100	103.4168565	56.03644647	93.50797267
 327	33.358	64.806	84.517	25.62642369	40.09111617	58.3143508
 328	41.351	17.736	80.522	13.78132118	14.5785877	42.93849658
 329	100	100	88.719	132.6879271	95.21640091	96.81093394
 330	66.336	0	44.32	32.23234624	6.605922551	15.83143508
 331	64.85	67.09	12.293	48.74715262	32.11845103	18.67881549
 332	15.262	31.268	63.277	5.922551253	12.41457859	26.08200456
 333	15.008	43.663	37.3	8.997722096	13.66742597	12.98405467
 334	0	57.895	38.078	13.43963554	22.8929385	17.31207289
 335	66.599	58.458	67.871	46.46924829	32.57403189	42.02733485
 336	59.191	18.651	15.215	26.19589977	5.239179954	6.264236902
 337	66.781	31.14	84.629	37.24373576	21.98177677	52.96127563
 338	88.033	85.158	52.14	93.96355353	60.36446469	46.92482916
 339	36.882	100	100	56.60592255	92.3690205	102.2779043
 340	26.102	33.094	17.006	8.54214123	7.28929385	5.353075171
 341	56.309	36.861	35.862	27.56264237	12.30068337	14.00911162
 342	45.839	65.587	67.033	32.46013667	36.33257403	41.0022779
 343	83.709	81.172	16.406	82.91571754	49.88610478	29.8405467
 344	0	48.132	13.005	8.997722096	14.23690205	7.517084282
 345	87.176	50.021	100	71.18451025	40.77448747	84.0546697
 346	51.219	84.244	13.73	48.40546697	49.54441913	25.62642369
 347	60.606	71.415	48.406	47.60820046	39.74943052	32.23234624
 348	0	11.359	12.718	0.7972665148	1.25284738	1.59453303
 349	86.429	49.705	33.145	68.33712984	22.8929385	21.64009112
 350	34.056	40.958	100	15.83143508	30.18223235	73.23462415
 351	100	30.557	59.628	86.44646925	20.1594533	35.99088838
 352	88.497	26.902	13.449	64.23690205	11.16173121	12.5284738
 353	14.167	51.98	88.218	13.2118451	30.75170843	57.17539863
 354	13.784	12.983	49.37	2.619589977	5.125284738	14.12300683
 355	15.018	88.441	48.062	35.76309795	57.06150342	37.12984055
 356	87.79	25.769	89.215	63.8952164	24.82915718	62.30068337
 357	0	33.206	55.865	4.669703872	11.38952164	20.38724374
 358	74.324	76.029	35.536	65.83143508	43.84965831	30.41002278
 359	65.863	57.223	42.324	44.19134396	26.08200456	23.69020501
 360	30.893	54.646	13.136	17.88154897	19.24829157	10.36446469
 361	0	34.36	28.321	4.555808656	8.086560364	7.403189066
 362	15.443	77.087	85.116	27.90432802	52.16400911	64.35079727
 363	63.381	68.947	68.521	48.6332574	41.23006834	45.89977221
 364	69.733	27.566	42.917	38.61047836	11.16173121	17.65375854
 365	32.754	100	42.76	52.39179954	75.39863326	43.7357631
 366	47.096	29.481	34.829	18.67881549	8.54214123	11.16173121
 367	8.5451	71.948	62.695	22.66514806	39.97722096	37.92710706
 368	0	86.048	29.3	32.11845103	51.3667426	27.22095672
 369	53.697	51.572	85.367	31.43507973	31.43507973	56.83371298
 370	17.608	56.69	12.515	14.69248292	19.93166287	10.25056948
 371	90.638	14.414	49.227	66.28701595	12.18678815	24.25968109
 372	63.248	63.64	89.55	46.35535308	43.28018223	68.22323462
 373	100	85.976	58.455	116.6287016	64.5785877	56.03644647
 374	9.8311	28.027	7.5567	3.872437358	4.783599089	2.84738041
 375	89.831	64.313	69.506	82.00455581	41.0022779	50.6833713
 376	31.754	12.995	25.543	7.403189066	2.961275626	5.125284738
 377	75.914	45.966	64.957	51.48063781	24.37357631	37.35763098
 378	7.5735	50.695	58.941	11.04783599	21.29840547	27.22095672
 379	100	69.835	58.912	104.7835991	45.89977221	47.26651481
 380	32.211	34.376	48.339	11.61731207	11.38952164	17.31207289
 381	13.901	12.159	73.555	3.075170843	10.36446469	33.25740319
 382	87.071	9.028	77.653	60.70615034	17.76765376	47.03872437
 383	23.272	85.409	84.29	36.33257403	62.18678815	67.88154897
 384	93.289	39.48	26.145	75.74031891	17.76765376	18.56492027
 385	65.769	59.63	30.967	45.67198178	26.99316629	19.93166287
 386	100	32.265	41.803	87.12984055	17.76765376	25.17084282
 387	86.568	85.281	86.961	91.91343964	69.476082	79.95444191
 388	52.577	86.83	30.016	52.0501139	54.78359909	30.97949886
 389	47.921	40.199	76.902	23.00683371	21.75398633	43.62186788
 390	22.36	86.619	61.58	36.44646925	57.28929385	45.89977221
 391	52.232	33.601	88.787	24.82915718	23.12072893	57.17539863
 392	0	28.523	86.267	4.328018223	18.10933941	49.54441913
 393	43.497	67.879	39.551	31.89066059	33.25740319	23.91799544
 394	39.877	45.261	0	18.45102506	13.43963554	7.28929385
 395	86.94	12.43	24.699	59.79498861	8.314350797	12.87015945
 396	28.363	55.339	90.398	18.90660592	34.62414579	62.64236902
 397	39.018	70.534	57.879	31.09339408	38.38268793	35.19362187
 398	12.833	28.519	78.828	5.353075171	15.71753986	40.88838269
 399	68.35	31.815	69.975	38.72437358	17.99544419	37.35763098
 400	56.52	26.226	41.626	25.39863326	9.111617312	14.80637813
 401	12.938	46.218	0	9.225512528	12.87015945	6.150341686
 402	8.6938	60.179	26.117	15.14806378	23.46241458	13.8952164
 403	51.995	89.429	96.608	55.35307517	75.05694761	90.20501139
 404	46.905	47.746	48.909	24.03189066	19.02050114	21.75398633
 405	14.352	81.814	19.479	30.06833713	45.33029613	22.55125285
 406	71.482	38.117	12.273	43.16628702	12.87015945	10.70615034
 407	86.616	60.785	10.012	73.34851936	29.49886105	20.1594533
 408	71.811	88.979	52.186	73.12072893	62.30068337	45.78587699
 409	43.213	100	72.083	58.3143508	82.11845103	65.71753986
