data/calibration-000121.ti3
CTI3
DESCRIPTOR	"Calibration Target chart information 3"
ORIGINATOR	"ColorHug Factory"
DEVICE_CLASS	"DISPLAY"
COLOR_REP	"RGB_XYZ"
TARGET_INSTRUMENT	"ColorHug"
INSTRUMENT_TYPE_SPECTRAL	"NO"
LUMINANCE_XYZ_CDM2	"50.445557 38.578033 43.579102"
NORMALIZED_TO_Y_100	"YES"
NUMBER_OF_FIELDS	7
NUMBER_OF_SETS	836
BEGIN_DATA_FORMAT
 SAMPLE_ID	RGB_R	RGB_G	RGB_B	XYZ_X	XYZ_Y	XYZ_Z
END_DATA_FORMAT
BEGIN_DATA
 1	100	100	100	128.7573964	99.64497041	112.6627219
 2	100	100	100	131.5976331	99.64497041	112.6627219
 3	100	100	100	131.1242604	100	112.5443787
 4	100	100	100	130.1775148	99.64497041	112.7810651
 5	33.33	32.622	30.968	22.72189349	8.520710059	8.99408284
 6	100	0	100	84.02366864	27.81065089	79.05325444
 7	100	100	0	129.704142	81.42011834	46.62721893
 8	0	100	100	47.33727811	91.12426036	99.28994083
 9	0	100	0	44.9704142	72.18934911	33.13609467
 10	0	0	100	2.485207101	18.93491124	65.79881657
 11	100	0	0	82.13017751	8.99408284	13.25443787
 12	0	0	0	0.4733727811	0.3550295858	0.4733727811
 13	0	52.455	100	12.4260355	35.85798817	73.96449704
 14	100	0	50.3	82.84023669	12.89940828	26.86390533
 15	100	54.739	100	96.09467456	46.15384615	87.92899408
 16	100	52.128	0	93.49112426	25.0887574	20.71005917
 17	0	0	46.181	0.8284023669	3.550295858	11.24260355
 18	0	51.141	0	10.17751479	15.97633136	7.573964497
 19	0	100	51.348	44.49704142	76.09467456	47.4556213
 20	100	100	52.037	129.9408284	85.20710059	61.18343195
 21	49.216	0	0	17.04142012	2.130177515	3.076923077
 22	56.159	100	0	67.33727811	74.79289941	36.68639053
 23	49.226	100	100	63.55029586	92.89940828	101.6568047
 24	44.487	0	100	15.26627219	20.47337278	68.75739645
 25	100	44.498	52.029	89.82248521	24.9704142	33.13609467
 26	48.926	48.544	100	27.33727811	34.9112426	75.50295858
 27	51.368	100	47.25	62.95857988	77.5147929	47.92899408
 28	49.893	0	49.033	17.98816568	5.917159763	15.85798817
 29	53.109	51.372	0	29.58579882	18.10650888	10.65088757
 30	0	58.587	53.943	14.08284024	25.91715976	25.68047337
 31	100	28.065	100	86.62721893	32.30769231	80.71005917
 32	0	0	72.874	1.893491124	8.99408284	30.65088757
 33	0	26.758	100	4.615384615	22.95857988	68.40236686
 34	0	25.426	0	2.721893491	3.905325444	2.130177515
 35	72.508	0	100	40.47337278	23.07692308	72.5443787
 36	100	27.395	0	84.61538462	13.13609467	15.0295858
 37	74.47	100	100	88.28402367	95.50295858	105.443787
 38	100	0	25.728	81.42011834	9.940828402	16.44970414
 39	73.862	0	0	40.47337278	4.615384615	6.74556213
 40	100	100	25.402	129.2307692	82.01183432	49.70414201
 41	0	75.751	100	25.79881657	56.68639053	83.43195266
 42	0	75.172	0	23.31360947	36.44970414	17.04142012
 43	0	100	25.864	44.73372781	72.89940828	36.21301775
 44	100	0	74.801	82.13017751	18.34319527	45.91715976
 45	0	100	75.421	45.79881657	81.53846154	66.86390533
 46	24.577	0	0	4.26035503	0.8284023669	1.065088757
 47	26.321	100	0	49.23076923	72.5443787	33.84615385
 48	100	75.835	0	106.6272189	46.50887574	30.65088757
 49	100	100	77.061	129.8224852	91.00591716	81.89349112
 50	71.263	100	0	82.95857988	76.44970414	39.05325444
 51	0	0	15.614	0.4733727811	0.7100591716	1.656804734
 52	0	30.049	70.936	4.378698225	13.49112426	31.24260355
 53	100	77.691	100	110.295858	67.81065089	97.63313609
 54	24.486	100	100	50.41420118	91.36094675	99.76331361
 55	100	62.784	31.909	98.69822485	35.14792899	29.82248521
 56	29.552	0	100	7.692307692	19.64497041	67.33727811
 57	32.98	70.921	100	29.46745562	51.71597633	81.89349112
 58	0	27.681	40.241	3.313609467	6.982248521	10.53254438
 59	67.901	71.021	100	55.38461538	55.26627219	86.50887574
 60	28.154	100	67.829	50.17751479	79.52662722	59.8816568
 61	71.637	100	70.001	84.02366864	84.26035503	67.33727811
 62	58.822	58.763	53.586	37.86982249	28.28402367	29.23076923
 63	33.466	30.48	0	10.76923077	6.272189349	3.905325444
 64	100	73.795	71.277	105.443787	52.89940828	58.69822485
 65	68.394	29.692	0	37.5147929	8.875739645	7.928994083
 66	70.399	0	29.039	36.09467456	5.443786982	10.29585799
 67	28.078	0	26.956	5.562130178	2.01183432	4.733727811
 68	28.532	72.339	0	26.50887574	34.20118343	16.44970414
 69	100	30.941	26.496	85.32544379	15.26627219	19.17159763
 70	34.597	0	73.611	9.230769231	10.0591716	32.78106509
 71	71.573	0	72.408	38.10650888	12.89940828	36.21301775
 72	0	71.029	29.412	20.82840237	33.72781065	19.52662722
 73	68.386	75.008	0	57.27810651	40.1183432	22.36686391
 74	68.088	27.309	100	37.86982249	26.86390533	73.37278107
 75	100	26.457	73.749	85.32544379	22.13017751	46.74556213
 76	74.344	100	27.392	86.86390533	77.75147929	43.43195266
 77	27.558	100	28.197	49.9408284	73.84615385	37.75147929
 78	31.196	27.465	100	11.12426036	24.14201183	69.23076923
 79	0	75.521	72.824	24.37869822	46.15384615	48.04733728
 80	0	50.93	25.553	10.0591716	16.56804734	10.65088757
 81	32.06	33.584	64.033	11.47928994	13.96449704	27.21893491
 82	81.666	55.38	0	62.72189349	24.37869822	16.80473373
 83	68.257	32.751	58.286	38.46153846	15.26627219	26.98224852
 84	0	55.248	81.585	12.89940828	30.17751479	48.99408284
 85	73.781	52.099	100	52.18934911	39.64497041	80.23668639
 86	100	50.537	82.952	91.95266272	35.97633136	62.01183432
 87	23.55	0	50.439	4.615384615	4.615384615	14.31952663
 88	31.335	62.746	31.114	22.24852071	26.86390533	17.3964497
 89	100	18.31	49.418	82.6035503	14.67455621	27.10059172
 90	26.498	48.404	0	13.49112426	14.55621302	7.455621302
 91	47.91	100	85.744	61.18343195	85.79881657	80.59171598
 92	71.829	47.313	31.811	46.86390533	19.05325444	17.3964497
 93	31.304	64.132	69.316	23.66863905	34.31952663	40.59171598
 94	80.403	0	54.321	49.11242604	10.0591716	23.90532544
 95	18.455	50.036	100	13.72781065	34.43786982	73.60946746
 96	50.653	100	16.345	61.89349112	74.08284024	37.27810651
 97	80.121	100	52.261	94.79289941	81.89349112	55.62130178
 98	0	22.54	19.289	2.24852071	3.786982249	3.668639053
 99	100	75.273	46.886	106.8639053	48.63905325	41.89349112
 100	0	78.618	56.625	26.62721893	45.56213018	36.44970414
 101	51.137	80.627	100	46.39053254	64.26035503	88.99408284
 102	48.446	0	17.864	16.33136095	2.603550296	4.49704142
 103	100	50.023	21.211	91.24260355	24.49704142	22.24852071
 104	50.115	20.118	0	18.81656805	4.49704142	4.142011834
 105	58.099	72.426	33.158	45.0887574	37.75147929	24.85207101
 106	19.364	100	50.197	47.69230769	75.97633136	47.10059172
 107	50.683	19.177	100	20.94674556	22.95857988	70.0591716
 108	53.37	0	81.576	21.06508876	13.84615385	43.66863905
 109	47.768	76.245	0	38.93491124	39.64497041	20
 110	0	18.927	55.503	2.130177515	7.100591716	17.75147929
 111	0	13.277	0	1.065088757	1.420118343	0.9467455621
 112	72.862	72.473	75.625	61.30177515	47.4556213	55.73964497
 113	100	13.904	0	82.24852071	10.0591716	13.60946746
 114	86.349	0	100	59.17159763	25.0887574	75.14792899
 115	100	41.941	100	89.70414201	37.75147929	83.19526627
 116	100	81.785	16.464	111.7159763	53.84615385	35.14792899
 117	0	44.063	52.596	7.928994083	15.97633136	20.35502959
 118	0	0	58.917	1.065088757	5.680473373	19.05325444
 119	59.25	24.551	29.789	27.21893491	7.573964497	10.0591716
 120	82.73	82.874	100	82.84023669	70.53254438	95.85798817
 121	80.039	0	12.618	48.04733728	5.798816568	8.875739645
 122	60.957	47.729	77.817	35.85798817	26.86390533	46.50887574
 123	100	0	38.618	81.42011834	11.12426036	20.82840237
 124	0	40.09	100	7.928994083	28.40236686	71.00591716
 125	0	15.283	82.322	2.24852071	13.25443787	41.53846154
 126	17.592	81.726	100	31.95266272	64.02366864	87.21893491
 127	100	14.13	100	83.55029586	28.87573964	79.76331361
 128	15.261	100	82.059	46.98224852	84.02366864	74.67455621
 129	47.77	79.418	60.389	42.24852071	48.99408284	41.89349112
 130	18.768	16.429	0	3.668639053	2.130177515	1.538461538
 131	55.634	100	65.763	66.62721893	81.42011834	60.82840237
 132	100	100	38.541	128.6390533	83.07692308	53.96449704
 133	17.421	0	83.497	4.142011834	12.4260355	42.6035503
 134	17.237	16.758	100	4.970414201	20.82840237	67.10059172
 135	0	15.067	30.039	1.420118343	2.958579882	5.443786982
 136	0	0	86.505	1.893491124	13.25443787	46.15384615
 137	75.736	72.799	50.02	64.37869822	42.4852071	35.97633136
 138	100	83.323	85.529	113.7278107	68.40236686	80.1183432
 139	100	100	64.894	129.5857988	87.69230769	70.17751479
 140	81.98	84.914	0	82.24852071	54.43786982	30.65088757
 141	0	63.757	15.49	16.21301775	25.79881657	13.13609467
 142	49.514	66.135	100	35.85798817	48.52071006	81.65680473
 143	100	0	61.862	81.30177515	14.9112426	34.20118343
 144	24.308	45.41	49.831	12.07100592	16.56804734	19.76331361
 145	15.963	0	17.047	2.130177515	1.065088757	2.24852071
 146	87.497	100	100	105.9171598	96.68639053	108.2840237
 147	52.099	25.003	75.752	22.01183432	15.26627219	38.46153846
 148	14.909	81.162	0	28.99408284	43.78698225	20.47337278
 149	0	34.792	14.626	4.852071006	7.455621302	4.733727811
 150	48.39	45.075	22.552	23.55029586	14.55621302	10.76923077
 151	83.545	65.965	100	72.78106509	52.4260355	87.33727811
 152	16.226	62.345	0	17.15976331	24.14201183	11.47928994
 153	63.222	0	14.914	28.40236686	3.786982249	6.035502959
 154	80.449	13.446	0	49.23076923	6.627218935	8.520710059
 155	83.917	41.562	0	59.76331361	15.85798817	13.25443787
 156	100	60.448	46.3	97.04142012	34.67455621	35.14792899
 157	15.584	0	34.795	2.485207101	2.24852071	6.627218935
 158	17.144	65.121	100	20.71005917	45.91715976	78.93491124
 159	83.602	55.334	62.667	65.79881657	30.88757396	38.93491124
 160	0	82.19	14.22	28.52071006	45.56213018	21.89349112
 161	25.132	74.856	50.616	27.4556213	40.59171598	31.24260355
 162	0	13.769	100	2.721893491	20.1183432	66.98224852
 163	87.181	0	0	58.57988166	6.627218935	9.585798817
 164	0	100	39.19	44.9704142	74.08284024	40.71005917
 165	78.047	65.914	19.865	63.55029586	32.89940828	22.01183432
 166	100	63.961	15.865	98.34319527	34.9112426	26.27218935
 167	100	45.955	36.032	89.9408284	23.19526627	25.44378698
 168	15.926	100	16.89	46.27218935	72.5443787	34.67455621
 169	41.459	100	0	55.73964497	73.25443787	34.79289941
 170	48.707	37.288	48.139	21.77514793	13.60946746	18.69822485
 171	83.381	100	13.285	98.81656805	78.10650888	42.4852071
 172	78.129	25.303	75.621	48.99408284	18.34319527	42.72189349
 173	12.396	0	0	1.538461538	0.5917159763	0.7100591716
 174	37.607	48.336	83.346	19.28994083	27.33727811	50.17751479
 175	35.588	15.356	0	9.230769231	2.721893491	2.366863905
 176	61.245	100	100	73.25443787	93.84615385	103.3136095
 177	100	67.29	87.195	101.4201183	50.65088757	73.25443787
 178	0	0	30.615	1.301775148	1.775147929	4.970414201
 179	35.187	81.789	83.323	36.92307692	57.75147929	64.61538462
 180	39.525	80.194	22.879	37.04142012	44.49704142	23.90532544
 181	50.634	34.593	0	22.13017751	8.99408284	6.272189349
 182	14.175	100	63.146	46.62721893	78.10650888	55.62130178
 183	83.493	17.728	34.574	53.84615385	9.467455621	15.50295858
 184	23.463	22.014	79.943	6.627218935	14.20118343	40.23668639
 185	18.066	31.847	0	6.153846154	6.272189349	3.431952663
 186	87.201	100	81.361	105.0887574	89.46745562	82.84023669
 187	0	100	87.95	45.91715976	85.20710059	81.18343195
 188	34.476	17.888	46.22	9.349112426	6.153846154	13.49112426
 189	18.277	0	67.39	3.195266272	7.810650888	26.03550296
 190	100	87.972	0	116.9230769	61.53846154	37.5147929
 191	82.925	34.85	100	58.34319527	31.47928994	77.75147929
 192	0	88.016	100	35.14792899	71.59763314	90.41420118
 193	36.104	85.655	100	41.06508876	68.75739645	89.9408284
 194	60.981	0	0	26.03550296	3.195266272	4.49704142
 195	51.466	61.826	78.106	34.08284024	35.97633136	50.65088757
 196	78.427	31.983	22.175	48.99408284	11.59763314	12.66272189
 197	66.017	44.321	0	38.22485207	15.14792899	10.53254438
 198	83.941	0	84.177	55.0295858	18.34319527	51.83431953
 199	20.158	46.612	23.269	11.12426036	14.08284024	9.349112426
 200	0	100	62.618	44.9704142	77.98816568	54.9112426
 201	33.832	0	13.933	7.692307692	1.538461538	2.603550296
 202	100	17.286	16.322	82.24852071	11.00591716	15.26627219
 203	0	42.204	83.926	8.047337278	22.95857988	47.92899408
 204	0	87.774	0	32.5443787	52.18934911	24.14201183
 205	64.988	0	59.017	30.65088757	8.99408284	24.02366864
 206	14.677	0	100	3.550295858	19.17159763	66.15384615
 207	88.934	82.673	35.021	90.0591716	53.84615385	36.92307692
 208	0	63.778	100	18.46153846	44.37869822	77.98816568
 209	83.429	17.674	100	55.62130178	26.50887574	75.73964497
 210	30.899	100	85.668	51.59763314	85.32544379	79.28994083
 211	83.68	0	41.016	53.25443787	8.520710059	17.3964497
 212	100	63.515	0	97.27810651	33.60946746	24.61538462
 213	85.074	69.987	0	74.55621302	37.15976331	23.19526627
 214	20.801	45.524	69.018	11.71597633	20.59171598	33.25443787
 215	21.382	82.482	73.017	32.30769231	55.0295858	52.89940828
 216	100	15.128	64.249	82.84023669	16.80473373	36.56804734
 217	36.522	0	58.427	9.822485207	6.50887574	20.1183432
 218	22.466	81.296	33.007	31.24260355	45.91715976	26.27218935
 219	62.531	87.152	0	59.64497041	54.55621302	28.16568047
 220	84.12	85.397	67.886	85.32544379	62.4852071	57.86982249
 221	18.87	27.336	45.389	6.035502959	7.810650888	13.25443787
 222	66.439	100	14.444	76.44970414	75.85798817	38.93491124
 223	41.636	22.147	19.003	14.08284024	4.970414201	5.325443787
 224	61.271	100	81.94	71.83431953	86.03550296	77.86982249
 225	86.013	100	0	102.3668639	77.98816568	42.13017751
 226	37.57	0	0	9.585798817	1.420118343	1.893491124
 227	100	16.132	84.102	83.31360947	22.72189349	56.80473373
 228	0	100	13.619	44.49704142	71.59763314	33.96449704
 229	38.905	100	56.471	54.9112426	78.10650888	52.30769231
 230	100	15.382	34.563	81.89349112	12.07100592	19.76331361
 231	36.656	14.908	100	11.71597633	21.30177515	68.16568047
 232	0	62.593	66.608	16.09467456	31.59763314	36.33136095
 233	66.347	12.528	100	34.08284024	23.31360947	71.95266272
 234	100	43.375	69.233	88.87573964	27.69230769	45.68047337
 235	100	56.36	61.236	94.55621302	34.08284024	42.6035503
 236	0	86.194	44.955	32.18934911	53.49112426	33.84615385
 237	64.527	87.262	100	63.78698225	73.84615385	94.79289941
 238	34.411	0	42.471	8.047337278	3.905325444	10.88757396
 239	80.23	59.707	85.12	62.95857988	39.8816568	62.4852071
 240	20.625	19.056	14.791	4.49704142	3.076923077	2.958579882
 241	15.341	34.221	100	7.810650888	25.91715976	69.9408284
 242	36.777	0	87.905	10.17751479	14.79289941	49.58579882
 243	34.598	56.247	100	21.89349112	39.17159763	76.56804734
 244	20.86	67.629	17.418	21.30177515	29.82248521	15.50295858
 245	44.958	60.843	18.054	28.04733728	24.9704142	14.67455621
 246	37.421	60.193	0	23.43195266	23.31360947	11.95266272
 247	84.011	33.849	42.612	57.98816568	15.26627219	21.30177515
 248	17.241	60.339	37.743	16.56804734	24.73372781	18.22485207
 249	50.65	17.261	53.278	19.28994083	8.284023669	19.05325444
 250	45.505	48.926	65.152	23.78698225	22.84023669	32.89940828
 251	44.567	84.081	39.649	43.07692308	51.12426036	32.30769231
 252	100	86.339	72.054	115.739645	68.04733728	66.74556213
 253	68.14	61.135	0	48.04733728	26.50887574	15.97633136
 254	17.93	66.986	81.403	21.18343195	39.76331361	53.37278107
 255	39.242	60.215	48.926	24.85207101	27.10059172	24.85207101
 256	20.099	18.77	62.967	4.852071006	8.875739645	23.55029586
 257	34.553	100	14.582	51.59763314	72.66272189	35.26627219
 258	87.345	0	66.694	59.05325444	13.72781065	34.79289941
 259	0	43.714	39.842	7.573964497	13.84615385	13.60946746
 260	100	37.705	13.955	86.15384615	17.3964497	17.86982249
 261	31.265	86.993	0	38.10650888	51.59763314	24.61538462
 262	51.402	82.661	81.338	47.4556213	59.28994083	64.14201183
 263	100	100	12.984	126.6272189	80.82840237	46.86390533
 264	0	37.859	0	6.035502959	8.402366864	4.142011834
 265	62.092	58.215	100	42.13017751	42.6035503	79.40828402
 266	86.186	100	64.1	103.0769231	84.61538462	65.20710059
 267	100	35.251	85.898	87.10059172	28.99408284	61.65680473
 268	63.182	89.992	41.974	63.55029586	61.42011834	39.52662722
 269	13.504	100	0	45.79881657	72.30769231	33.13609467
 270	100	0	13.228	80.71005917	9.230769231	13.96449704
 271	63.881	40.826	100	36.92307692	32.07100592	75.50295858
 272	69.387	84.838	20.792	65.32544379	52.78106509	30.17751479
 273	0	70.279	45.136	20.35502959	34.79289941	25.56213018
 274	79.094	64.754	40.908	62.72189349	33.84615385	28.40236686
 275	62.385	54.099	17.396	38.69822485	21.06508876	14.20118343
 276	64.408	14.621	0	30.29585799	4.852071006	5.562130178
 277	70.028	15.606	44.651	36.56804734	8.520710059	16.92307692
 278	0	63.544	0	16.09467456	25.32544379	11.83431953
 279	83.475	47.274	20.502	61.06508876	19.64497041	16.80473373
 280	55.866	0	32.671	21.89349112	4.26035503	9.112426036
 281	58.007	0	100	25.20710059	21.53846154	70.17751479
 282	100	0	87.698	81.30177515	22.36686391	60.47337278
 283	0	13.792	67.215	1.775147929	8.75739645	26.15384615
 284	84.123	17.001	58.549	55.14792899	13.01775148	28.28402367
 285	59.579	32.873	15.966	28.52071006	9.349112426	8.402366864
 286	10.41	32.998	28.659	5.207100592	7.810650888	7.455621302
 287	17.231	40.031	85.65	9.230769231	22.72189349	50.0591716
 288	37.568	41.561	10.108	15.62130178	11.36094675	6.982248521
 289	0	69.015	85.092	20.23668639	42.84023669	58.34319527
 290	14.442	100	36.187	45.91715976	74.20118343	39.76331361
 291	100	40.549	0	87.21893491	18.46153846	17.3964497
 292	82.143	45.435	78.429	59.76331361	28.16568047	50.0591716
 293	52.674	0	67.3	20.1183432	9.585798817	28.75739645
 294	0	87.868	66.793	33.84615385	59.8816568	50.0591716
 295	86.53	100	40.524	103.1952663	80.59171598	50.65088757
 296	71.777	85.586	67.232	69.58579882	61.06508876	54.79289941
 297	43.216	100	31.671	57.15976331	74.55621302	39.76331361
 298	39.245	32.908	85.845	15.38461538	20.35502959	49.58579882
 299	0	45.662	67.543	8.75739645	20	31.95266272
 300	12.161	100	100	46.86390533	90.53254438	99.28994083
 301	67.049	0	85.516	33.13609467	16.56804734	50.17751479
 302	100	89.041	100	119.0532544	82.13017751	104.260355
 303	20.246	60.698	56.526	17.63313609	28.04733728	28.52071006
 304	52.177	55.457	40.416	30.88757396	23.19526627	20.35502959
 305	72.617	87.018	83.932	71.71597633	67.5739645	73.13609467
 306	40.512	16.723	66.475	13.37278107	10.17751479	27.69230769
 307	68.507	49.232	50.605	43.07692308	22.24852071	26.15384615
 308	65.622	100	54.525	75.62130178	79.8816568	54.31952663
 309	54.115	37.24	66.394	25.91715976	17.3964497	32.07100592
 310	100	76.138	31.267	105.7988166	48.40236686	35.62130178
 311	54.728	65.623	0	37.63313609	29.23076923	15.85798817
 312	63.126	12.526	64.37	29.34911243	10.88757396	28.40236686
 313	72.827	18.08	23.704	39.64497041	7.218934911	10.0591716
 314	23.268	15.278	34.947	4.852071006	3.905325444	7.692307692
 315	87.648	68.954	59.645	78.69822485	42.13017751	43.07692308
 316	0	85.595	85.198	32.4260355	62.4852071	67.81065089
 317	35.798	84.371	69.21	38.93491124	56.68639053	50.65088757
 318	36.062	47.494	35.919	17.27810651	16.44970414	14.31952663
 319	86.083	36.277	59.152	61.77514793	19.40828402	31.95266272
 320	58.21	100	30.361	68.28402367	75.73964497	41.53846154
 321	46.745	14.614	32.317	15.85798817	4.733727811	8.520710059
 322	81.573	73.869	86.954	73.72781065	54.20118343	71.00591716
 323	85.991	49.387	48.206	66.27218935	24.26035503	28.04733728
 324	28.062	87.906	19.654	37.98816568	53.96449704	27.10059172
 325	68.992	17.993	85.124	36.44970414	18.46153846	51.36094675
 326	100	66.147	100	100.3550296	55.0295858	91.83431953
 327	33.358	64.806	84.517	25.44378698	39.52662722	57.27810651
 328	41.351	17.736	80.522	13.60946746	14.43786982	42.13017751
 329	100	100	88.719	128.2840237	94.55621302	95.38461538
 330	66.336	0	44.32	31.95266272	6.74556213	15.62130178
 331	64.85	67.09	12.293	47.92899408	31.95266272	18.93491124
 332	15.262	31.268	63.277	6.035502959	12.30769231	25.32544379
 333	15.008	43.663	37.3	8.99408284	13.72781065	12.89940828
 334	0	57.895	38.078	13.25443787	22.72189349	17.04142012
 335	66.599	58.458	67.871	45.0887574	32.07100592	41.42011834
 336	59.191	18.651	15.215	25.68047337	5.325443787	6.390532544
 337	66.781	31.14	84.629	36.44970414	21.53846154	51.83431953
 338	88.033	85.158	52.14	91.59763314	59.52662722	46.98224852
 339	36.882	100	100	55.14792899	91.83431953	100.591716
 340	26.102	33.094	17.006	8.520710059	7.455621302	5.443786982
 341	56.309	36.861	35.862	26.86390533	12.18934911	13.84615385
 342	45.839	65.587	67.033	31.71597633	35.97633136	40.23668639
 343	83.709	81.172	16.406	80.47337278	49.46745562	30.0591716
 344	0	48.132	13.005	8.875739645	14.20118343	7.573964497
 345	87.176	50.021	100	69.23076923	40.23668639	82.24852071
 346	51.219	84.244	13.73	47.10059172	49.70414201	25.91715976
 347	60.606	71.415	48.406	46.62721893	39.28994083	31.83431953
 348	0	11.359	12.718	0.9467455621	1.538461538	1.775147929
 349	86.429	49.705	33.145	66.50887574	22.4852071	21.53846154
 350	34.056	40.958	100	15.50295858	29.58579882	71.95266272
 351	100	30.557	59.628	84.26035503	19.8816568	35.26627219
 352	88.497	26.902	13.449	62.72189349	11.00591716	12.66272189
 353	14.167	51.98	88.218	13.01775148	30.17751479	55.62130178
 354	13.784	12.983	49.37	2.721893491	5.207100592	13.84615385
 355	15.018	88.441	48.062	35.14792899	56.80473373	36.92307692
 356	87.79	25.769	89.215	62.6035503	24.49704142	60.94674556
 357	0	33.206	55.865	4.733727811	11.24260355	20
 358	74.324	76.029	35.536	64.14201183	43.90532544	30.29585799
 359	65.863	57.223	42.324	43.66863905	25.91715976	23.43195266
 360	30.893	54.646	13.136	17.98816568	19.28994083	10.53254438
 361	0	34.36	28.321	4.733727811	8.165680473	7.455621302
 362	15.443	77.087	85.116	27.33727811	51.59763314	62.95857988
 363	63.381	68.947	68.521	47.69230769	40.94674556	45.32544379
 364	69.733	27.566	42.917	37.63313609	11.00591716	17.3964497
 365	32.754	100	42.76	51.24260355	75.50295858	43.78698225
 366	47.096	29.481	34.829	18.46153846	8.639053254	11.00591716
 367	8.5451	71.948	62.695	22.24852071	39.28994083	37.5147929
 368	0	86.048	29.3	31.59763314	51.12426036	27.4556213
 369	53.697	51.572	85.367	30.76923077	31.00591716	55.50295858
 370	17.608	56.69	12.515	14.43786982	20.1183432	10.41420118
 371	90.638	14.414	49.227	64.26035503	12.07100592	23.90532544
 372	63.248	63.64	89.55	45.32544379	42.95857988	66.74556213
 373	100	85.976	58.455	114.7928994	64.37869822	55.38461538
 374	9.8311	28.027	7.5567	3.905325444	4.970414201	2.958579882
 375	89.831	64.313	69.506	79.76331361	40.59171598	49.58579882
 376	31.754	12.995	25.543	7.455621302	3.076923077	5.207100592
 377	75.914	45.966	64.957	50.53254438	24.14201183	36.44970414
 378	7.5735	50.695	58.941	10.88757396	21.06508876	26.39053254
 379	100	69.835	58.912	101.8934911	45.32544379	46.62721893
 380	32.211	34.376	48.339	11.95266272	11.24260355	16.80473373
 381	13.901	12.159	73.555	3.076923077	10.29585799	32.30769231
 382	87.071	9.028	77.653	59.05325444	17.27810651	45.44378698
 383	23.272	85.409	84.29	35.14792899	61.65680473	66.39053254
 384	93.289	39.48	26.145	73.01775148	17.3964497	18.46153846
 385	65.769	59.63	30.967	44.73372781	26.62721893	20
 386	100	32.265	41.803	84.85207101	17.3964497	24.85207101
 387	86.568	85.281	86.961	89.34911243	68.75739645	78.46153846
 388	52.577	86.83	30.016	51.00591716	54.43786982	31.24260355
 389	47.921	40.199	76.902	22.6035503	21.42011834	42.36686391
 390	22.36	86.619	61.58	35.50295858	57.15976331	45.20710059
 391	52.232	33.601	88.787	24.14201183	22.6035503	55.50295858
 392	0	28.523	86.267	4.378698225	17.75147929	48.04733728
 393	43.497	67.879	39.551	31.12426036	33.01775148	23.66863905
 394	39.877	45.261	0	18.10650888	13.37278107	7.455621302
 395	86.94	12.43	24.699	57.98816568	8.284023669	12.89940828
 396	28.363	55.339	90.398	18.46153846	34.08284024	60.94674556
 397	39.018	70.534	57.879	30.29585799	37.98816568	34.55621302
 398	12.833	28.519	78.828	5.325443787	15.50295858	39.52662722
 399	68.35	31.815	69.975	37.86982249	17.63313609	36.56804734
 400	56.52	26.226	41.626	24.85207101	9.112426036	14.55621302
 401	12.938	46.218	0	9.230769231	12.78106509	6.272189349
 402	8.6938	60.179	26.117	14.9112426	23.43195266	13.96449704
 403	51.995	89.429	96.608	53.49112426	73.96449704	89.11242604
 404	46.905	47.746	48.909	23.78698225	18.93491124	21.42011834
 405	14.352	81.814	19.479	29.23076923	44.9704142	22.72189349
 406	71.482	38.117	12.273	42.24852071	12.89940828	10.88757396
 407	86.616	60.785	10.012	71.95266272	29.23076923	20.35502959
 408	71.811	88.979	52.186	71.83431953	62.13017751	45.68047337
 409	43.213	100	72.083	57.5147929	81.65680473	65.20710059
