data/calibration-001129.ti3
CTI3   
ORIGINATOR	"ColorHug Factory"
DESCRIPTOR	"Calibration Target chart information 3"
DEVICE_CLASS	"DISPLAY"
COLOR_REP	"RGB_XYZ"
TARGET_INSTRUMENT	"Hughski ColorHug"
INSTRUMENT_TYPE_SPECTRAL	"NO"
NORMALIZED_TO_Y_100	"NO"
NUMBER_OF_FIELDS	7
NUMBER_OF_SETS	15
BEGIN_DATA_FORMAT
 SAMPLE_ID	RGB_R	RGB_G	RGB_B	XYZ_X	XYZ_Y	XYZ_Z
END_DATA_FORMAT
BEGIN_DATA
 1	0	0	0	0	0	0
 2	1	1	1	37.99438477	40.46630859	48.06518555
 3	1	0	0	22.43041992	2.792358398	3.433227539
 4	0	1	0	13.64135742	29.34265137	12.81738281
 5	0	0	1	0.6866455078	8.193969727	31.26525879
 6	0	0	0	0	0	0
 7	1	1	1	38.0859375	40.64941406	48.15673828
 8	1	0	0	22.56774902	2.792358398	3.433227539
 9	0	1	0	13.59558105	29.25109863	12.72583008
 10	0	0	1	0.6866455078	8.193969727	31.26525879
 11	0	0	0	0	0	0
 12	1	1	1	38.0859375	40.6036377	48.06518555
 13	1	0	0	22.38464355	2.792358398	3.433227539
 14	0	1	0	13.54980469	29.20532227	12.72583008
 15	0	0	1	0.6866455078	8.193969727	31.35681152
END_DATA
