data/calibration-000730.ti3
CTI3
ORIGINATOR	"ColorHug Factory"
DESCRIPTOR	"Calibration Target chart information 3"
DEVICE_CLASS	"DISPLAY"
COLOR_REP	"RGB_XYZ"
TARGET_INSTRUMENT	"Hughski ColorHug"
INSTRUMENT_TYPE_SPECTRAL	"NO"
NORMALIZED_TO_Y_100	"NO"
NUMBER_OF_FIELDS	7
NUMBER_OF_SETS	15
BEGIN_DATA_FORMAT
 SAMPLE_ID	RGB_R	RGB_G	RGB_B	XYZ_X	XYZ_Y	XYZ_Z
END_DATA_FORMAT
BEGIN_DATA
 1	0	0	0	0.04577636719	0.04577636719	0.04577636719
 2	1	1	1	56.67114258	37.99438477	42.98400879
 3	1	0	0	35.93444824	3.524780273	5.081176758
 4	0	1	0	18.67675781	27.37426758	12.1307373
 5	0	0	1	0.8697509766	7.232666016	26.00097656
 6	0	0	0	0.04577636719	0.04577636719	0.04577636719
 7	1	1	1	56.67114258	37.99438477	42.98400879
 8	1	0	0	35.93444824	3.524780273	5.035400391
 9	0	1	0	18.85986328	27.19116211	12.03918457
 10	0	0	1	0.8697509766	7.186889648	25.86364746
 11	0	0	0	0.04577636719	0.04577636719	0.04577636719
 12	1	1	1	56.67114258	37.9486084	43.02978516
 13	1	0	0	35.93444824	3.524780273	5.081176758
 14	0	1	0	18.67675781	27.37426758	12.1307373
 15	0	0	1	0.8697509766	7.232666016	25.86364746
END_DATA
