data/calibration-001833.ti3
CTI3   
ORIGINATOR	"ColorHug Factory"
CREATED	"Wed Apr 10 08:54:27 2013"
DESCRIPTOR	"Calibration Target chart information 3"
DEVICE_CLASS	"DISPLAY"
COLOR_REP	"RGB_XYZ"
TARGET_INSTRUMENT	"Hughski ColorHug"
INSTRUMENT_TYPE_SPECTRAL	"NO"
NORMALIZED_TO_Y_100	"NO"
NUMBER_OF_FIELDS	7
NUMBER_OF_SETS	15
BEGIN_DATA_FORMAT
 SAMPLE_ID	RGB_R	RGB_G	RGB_B	XYZ_X	XYZ_Y	XYZ_Z
END_DATA_FORMAT
BEGIN_DATA
 1	0	0	0	0.09155273438	0.09155273438	0.1373291016
 2	1	1	1	37.26196289	36.20910645	47.2869873
 3	1	0	0	22.61352539	2.838134766	3.753662109
 4	0	1	0	13.18359375	24.94812012	11.8560791
 5	0	0	1	0.9155273438	8.239746094	31.53991699
 6	0	0	0	0.09155273438	0.09155273438	0.1373291016
 7	1	1	1	37.39929199	35.98022461	47.1496582
 8	1	0	0	22.56774902	2.838134766	3.753662109
 9	0	1	0	13.13781738	25.13122559	11.8560791
 10	0	0	1	0.9155273438	8.193969727	31.76879883
 11	0	0	0	0.09155273438	0.09155273438	0.1373291016
 12	1	1	1	37.39929199	36.20910645	47.1496582
 13	1	0	0	22.47619629	2.838134766	3.753662109
 14	0	1	0	13.22937012	25.26855469	11.94763184
 15	0	0	1	0.9155273438	8.239746094	31.53991699
END_DATA
