data/calibration-002046.ti3
CTI3   
ORIGINATOR	"ColorHug Factory"
CREATED	"Sun Sep 15 19:58:15 2013"
DESCRIPTOR	"Calibration Target chart information 3"
DEVICE_CLASS	"DISPLAY"
COLOR_REP	"RGB_XYZ"
TARGET_INSTRUMENT	"Hughski ColorHug"
INSTRUMENT_TYPE_SPECTRAL	"NO"
NORMALIZED_TO_Y_100	"NO"
NUMBER_OF_FIELDS	7
NUMBER_OF_SETS	15
BEGIN_DATA_FORMAT
 SAMPLE_ID	RGB_R	RGB_G	RGB_B	XYZ_X	XYZ_Y	XYZ_Z
END_DATA_FORMAT
BEGIN_DATA
 1	0	0	0	0.091552734375	0.091552734375	0.18310546875
 2	1	1	1	69.854736328125	35.8428955078125	51.8646240234375
 3	1	0	0	44.6319580078125	3.7078857421875	6.4544677734375
 4	0	1	0	21.7437744140625	23.4375	11.9476318359375
 5	0	0	1	1.0528564453125	8.331298828125	32.958984375
 6	0	0	0	0.091552734375	0.091552734375	0.18310546875
 7	1	1	1	69.9462890625	35.5682373046875	51.6815185546875
 8	1	0	0	44.5404052734375	3.7078857421875	6.4544677734375
 9	0	1	0	21.7437744140625	23.4375	11.9476318359375
 10	0	0	1	1.0528564453125	8.331298828125	33.0047607421875
 11	0	0	0	0.091552734375	0.091552734375	0.18310546875
 12	1	1	1	70.3582763671875	35.9344482421875	51.9561767578125
 13	1	0	0	44.7235107421875	3.7078857421875	6.4544677734375
 14	0	1	0	21.881103515625	23.4375	11.993408203125
 15	0	0	1	1.0528564453125	8.331298828125	33.050537109375
END_DATA
