data/calibration-001045.ti3
CTI3   
ORIGINATOR	"ColorHug Factory"
DESCRIPTOR	"Calibration Target chart information 3"
DEVICE_CLASS	"DISPLAY"
COLOR_REP	"RGB_XYZ"
TARGET_INSTRUMENT	"Hughski ColorHug"
INSTRUMENT_TYPE_SPECTRAL	"NO"
NORMALIZED_TO_Y_100	"NO"
NUMBER_OF_FIELDS	7
NUMBER_OF_SETS	15
BEGIN_DATA_FORMAT
 SAMPLE_ID	RGB_R	RGB_G	RGB_B	XYZ_X	XYZ_Y	XYZ_Z
END_DATA_FORMAT
BEGIN_DATA
 1	0	0	0	0.04577636719	0.04577636719	0.09155273438
 2	1	1	1	36.11755371	40.69519043	45.68481445
 3	1	0	0	21.51489258	2.975463867	3.524780273
 4	0	1	0	13.22937012	29.66308594	12.90893555
 5	0	0	1	0.7781982422	8.056640625	29.25109863
 6	0	0	0	0.04577636719	0.04577636719	0.09155273438
 7	1	1	1	36.02600098	40.51208496	45.73059082
 8	1	0	0	21.51489258	2.975463867	3.524780273
 9	0	1	0	13.18359375	29.47998047	12.86315918
 10	0	0	1	0.7781982422	8.056640625	29.25109863
 11	0	0	0	0.04577636719	0.04577636719	0.09155273438
 12	1	1	1	36.25488281	40.69519043	45.22705078
 13	1	0	0	21.46911621	2.975463867	3.524780273
 14	0	1	0	13.13781738	29.5715332	12.81738281
 15	0	0	1	0.7781982422	8.010864258	29.25109863
END_DATA
