data/calibration-000458.ti3
CTI3
ORIGINATOR	"ColorHug Factory"
DESCRIPTOR	"Calibration Target chart information 3"
DEVICE_CLASS	"DISPLAY"
COLOR_REP	"RGB_XYZ"
TARGET_INSTRUMENT	"Hughski ColorHug"
INSTRUMENT_TYPE_SPECTRAL	"NO"
NORMALIZED_TO_Y_100	"NO"
NUMBER_OF_FIELDS	7
NUMBER_OF_SETS	15
BEGIN_DATA_FORMAT
 SAMPLE_ID	RGB_R	RGB_G	RGB_B	XYZ_X	XYZ_Y	XYZ_Z
END_DATA_FORMAT
BEGIN_DATA
 1	0	0	0	0.09155273438	0.09155273438	0.09155273438
 2	1	1	1	62.94250488	41.24450684	45.91369629
 3	1	0	0	40.00854492	3.936767578	5.630493164
 4	0	1	0	21.10290527	29.84619141	13.22937012
 5	0	0	1	1.007080078	7.64465332	27.00805664
 6	0	0	0	0.09155273438	0.09155273438	0.09155273438
 7	1	1	1	62.34741211	41.10717773	45.91369629
 8	1	0	0	39.96276855	3.936767578	5.630493164
 9	0	1	0	21.05712891	29.89196777	13.22937012
 10	0	0	1	1.007080078	7.598876953	27.09960938
 11	0	0	0	0.09155273438	0.09155273438	0.09155273438
 12	1	1	1	62.62207031	41.24450684	45.73059082
 13	1	0	0	39.82543945	3.890991211	5.630493164
 14	0	1	0	21.05712891	29.84619141	13.22937012
 15	0	0	1	1.007080078	7.598876953	27.14538574
END_DATA
