data/calibration-001478.ti3
CTI3   
ORIGINATOR	"ColorHug Factory"
DESCRIPTOR	"Calibration Target chart information 3"
DEVICE_CLASS	"DISPLAY"
COLOR_REP	"RGB_XYZ"
TARGET_INSTRUMENT	"Hughski ColorHug"
INSTRUMENT_TYPE_SPECTRAL	"NO"
NORMALIZED_TO_Y_100	"NO"
NUMBER_OF_FIELDS	7
NUMBER_OF_SETS	15
BEGIN_DATA_FORMAT
 SAMPLE_ID	RGB_R	RGB_G	RGB_B	XYZ_X	XYZ_Y	XYZ_Z
END_DATA_FORMAT
BEGIN_DATA
 1	0	0	0	0	0.04577636719	0.04577636719
 2	1	1	1	26.91650391	32.45544434	38.45214844
 3	1	0	0	15.65551758	2.197265625	2.746582031
 4	0	1	0	9.93347168	23.3001709	10.66589355
 5	0	0	1	0.6408691406	6.774902344	25.22277832
 6	0	0	0	0	0.04577636719	0.04577636719
 7	1	1	1	26.91650391	32.40966797	38.90991211
 8	1	0	0	15.65551758	2.197265625	2.746582031
 9	0	1	0	9.93347168	23.48327637	10.62011719
 10	0	0	1	0.6408691406	6.729125977	25.17700195
 11	0	0	0	0	0.04577636719	0.04577636719
 12	1	1	1	27.00805664	32.40966797	38.4979248
 13	1	0	0	15.65551758	2.243041992	2.746582031
 14	0	1	0	9.93347168	23.48327637	10.66589355
 15	0	0	1	0.6408691406	6.729125977	25.26855469
END_DATA
