data/calibration-002838.ti3
CTI3   
ORIGINATOR	"ColorHug Factory"
CREATED	"Tue May 05 21:48:30 2015"
DESCRIPTOR	"Calibration Target chart information 3"
DEVICE_CLASS	"DISPLAY"
COLOR_REP	"RGB_XYZ"
TARGET_INSTRUMENT	"Hughski ColorHug"
INSTRUMENT_TYPE_SPECTRAL	"NO"
NORMALIZED_TO_Y_100	"NO"
NUMBER_OF_FIELDS	7
NUMBER_OF_SETS	15
BEGIN_DATA_FORMAT
 SAMPLE_ID	RGB_R	RGB_G	RGB_B	XYZ_X	XYZ_Y	XYZ_Z
END_DATA_FORMAT
BEGIN_DATA
 1.0	0.0	0.0	0.0	0.589935302734	0.577499389648	0.725646972656
 2.0	1.0	1.0	1.0	110.702697753906	96.37646484375	106.389602661133
 3.0	1.0	0.0	0.0	79.533966064453	7.092636108398	11.787048339844
 4.0	0.0	1.0	0.0	25.362228393555	68.84033203125	26.425796508789
 5.0	0.0	0.0	1.0	3.647369384766	19.692306518555	66.064514160156
 6.0	0.0	0.0	0.0	0.587997436523	0.576766967773	0.721313476562
 7.0	1.0	1.0	1.0	110.702697753906	96.37646484375	106.389602661133
 8.0	1.0	0.0	0.0	79.533966064453	7.092636108398	11.787048339844
 9.0	0.0	1.0	0.0	25.362228393555	68.84033203125	26.425796508789
 10.0	0.0	0.0	1.0	3.644119262695	19.692306518555	66.064514160156
 11.0	0.0	0.0	0.0	0.585678100586	0.574630737305	0.719024658203
 12.0	1.0	1.0	1.0	110.702697753906	96.37646484375	106.389602661133
 13.0	1.0	0.0	0.0	79.533966064453	7.086502075195	11.770111083984
 14.0	0.0	1.0	0.0	25.362228393555	68.84033203125	26.425796508789
 15.0	0.0	0.0	1.0	3.640884399414	19.692306518555	66.064514160156
END_DATA
