data/calibration-001379.ti3
CTI3   
ORIGINATOR	"ColorHug Factory"
DESCRIPTOR	"Calibration Target chart information 3"
DEVICE_CLASS	"DISPLAY"
COLOR_REP	"RGB_XYZ"
TARGET_INSTRUMENT	"Hughski ColorHug"
INSTRUMENT_TYPE_SPECTRAL	"NO"
NORMALIZED_TO_Y_100	"NO"
NUMBER_OF_FIELDS	7
NUMBER_OF_SETS	15
BEGIN_DATA_FORMAT
 SAMPLE_ID	RGB_R	RGB_G	RGB_B	XYZ_X	XYZ_Y	XYZ_Z
END_DATA_FORMAT
BEGIN_DATA
 1	0	0	0	0.09155273438	0.09155273438	0.1373291016
 2	1	1	1	36.20910645	38.40637207	45.91369629
 3	1	0	0	21.28601074	2.883911133	3.845214844
 4	0	1	0	13.04626465	27.37426758	12.81738281
 5	0	0	1	0.9155273438	7.873535156	29.1595459
 6	0	0	0	0.09155273438	0.09155273438	0.1373291016
 7	1	1	1	36.16333008	38.31481934	46.00524902
 8	1	0	0	21.19445801	2.883911133	3.845214844
 9	0	1	0	13.09204102	27.42004395	12.86315918
 10	0	0	1	0.9155273438	7.873535156	29.20532227
 11	0	0	0	0.09155273438	0.09155273438	0.1373291016
 12	1	1	1	36.11755371	38.13171387	45.45593262
 13	1	0	0	21.33178711	2.883911133	3.845214844
 14	0	1	0	13.04626465	27.32849121	12.81738281
 15	0	0	1	0.9155273438	7.873535156	29.20532227
END_DATA
