data/calibration-000582.ti3
CTI3
ORIGINATOR	"ColorHug Factory"
DESCRIPTOR	"Calibration Target chart information 3"
DEVICE_CLASS	"DISPLAY"
COLOR_REP	"RGB_XYZ"
TARGET_INSTRUMENT	"Hughski ColorHug"
INSTRUMENT_TYPE_SPECTRAL	"NO"
NORMALIZED_TO_Y_100	"NO"
NUMBER_OF_FIELDS	7
NUMBER_OF_SETS	15
BEGIN_DATA_FORMAT
 SAMPLE_ID	RGB_R	RGB_G	RGB_B	XYZ_X	XYZ_Y	XYZ_Z
END_DATA_FORMAT
BEGIN_DATA
 1	0	0	0	0	0.04577636719	0
 2	1	1	1	57.76977539	38.81835938	45.04394531
 3	1	0	0	36.57531738	3.616333008	5.355834961
 4	0	1	0	19.22607422	27.69470215	12.72583008
 5	0	0	1	0.8697509766	7.369995117	26.73339844
 6	0	0	0	0	0.04577636719	0
 7	1	1	1	57.86132812	38.90991211	45.04394531
 8	1	0	0	36.30065918	3.616333008	5.355834961
 9	0	1	0	19.08874512	27.78625488	12.77160645
 10	0	0	1	0.8697509766	7.369995117	26.6418457
 11	0	0	0	0	0.04577636719	0
 12	1	1	1	57.81555176	38.54370117	44.81506348
 13	1	0	0	36.43798828	3.616333008	5.355834961
 14	0	1	0	19.08874512	27.83203125	12.77160645
 15	0	0	1	0.8697509766	7.369995117	26.7791748
END_DATA
