data/calibration-002174.ti3
CTI3   
ORIGINATOR	"ColorHug Factory"
CREATED	"Wed Nov 20 20:35:41 2013"
DESCRIPTOR	"Calibration Target chart information 3"
DEVICE_CLASS	"DISPLAY"
COLOR_REP	"RGB_XYZ"
TARGET_INSTRUMENT	"Hughski ColorHug"
INSTRUMENT_TYPE_SPECTRAL	"NO"
NORMALIZED_TO_Y_100	"NO"
NUMBER_OF_FIELDS	7
NUMBER_OF_SETS	15
BEGIN_DATA_FORMAT
 SAMPLE_ID	RGB_R	RGB_G	RGB_B	XYZ_X	XYZ_Y	XYZ_Z
END_DATA_FORMAT
BEGIN_DATA
 1	0	0	0	0.091552734375	0.0457763671875	0.1373291015625
 2	1	1	1	66.10107421875	36.1175537109375	54.38232421875
 3	1	0	0	42.572021484375	3.6163330078125	5.4473876953125
 4	0	1	0	21.97265625	23.6663818359375	11.627197265625
 5	0	0	1	1.28173828125	8.7890625	37.2161865234375
 6	0	0	0	0.091552734375	0.0457763671875	0.1373291015625
 7	1	1	1	66.5130615234375	36.163330078125	53.924560546875
 8	1	0	0	42.4346923828125	3.6163330078125	5.4931640625
 9	0	1	0	21.97265625	23.8037109375	11.6729736328125
 10	0	0	1	1.28173828125	8.7890625	37.3992919921875
 11	0	0	0	0.091552734375	0.091552734375	0.1373291015625
 12	1	1	1	66.741943359375	36.3006591796875	54.473876953125
 13	1	0	0	42.205810546875	3.6163330078125	5.4931640625
 14	0	1	0	21.9268798828125	23.6663818359375	11.5814208984375
 15	0	0	1	1.28173828125	8.7890625	37.3992919921875
END_DATA
