data/calibration-000773.ti3
CTI3   
ORIGINATOR	"ColorHug Factory"
DESCRIPTOR	"Calibration Target chart information 3"
DEVICE_CLASS	"DISPLAY"
COLOR_REP	"RGB_XYZ"
TARGET_INSTRUMENT	"Hughski ColorHug"
INSTRUMENT_TYPE_SPECTRAL	"NO"
NORMALIZED_TO_Y_100	"NO"
NUMBER_OF_FIELDS	7
NUMBER_OF_SETS	15
BEGIN_DATA_FORMAT
 SAMPLE_ID	RGB_R	RGB_G	RGB_B	XYZ_X	XYZ_Y	XYZ_Z
END_DATA_FORMAT
BEGIN_DATA
 1	0	0	0	0	0.04577636719	0.04577636719
 2	1	1	1	57.08312988	39.50500488	45.18127441
 3	1	0	0	35.98022461	3.707885742	5.355834961
 4	0	1	0	18.90563965	27.60314941	12.54272461
 5	0	0	1	0.9155273438	7.461547852	26.3671875
 6	0	0	0	0	0.04577636719	0.04577636719
 7	1	1	1	56.25915527	39.00146484	44.44885254
 8	1	0	0	35.4309082	3.662109375	5.264282227
 9	0	1	0	18.67675781	27.64892578	12.54272461
 10	0	0	1	0.9155273438	7.507324219	26.18408203
 11	0	0	0	0	0.04577636719	0.04577636719
 12	1	1	1	55.75561523	38.81835938	44.26574707
 13	1	0	0	35.2935791	3.616333008	5.264282227
 14	0	1	0	18.63098145	27.60314941	12.49694824
 15	0	0	1	0.9155273438	7.461547852	26.2298584
END_DATA
