data/calibration-002471.ti3
CTI3   
ORIGINATOR	"ColorHug Factory"
CREATED	"Wed Jun 11 20:01:01 2014"
DESCRIPTOR	"Calibration Target chart information 3"
DEVICE_CLASS	"DISPLAY"
COLOR_REP	"RGB_XYZ"
TARGET_INSTRUMENT	"Hughski ColorHug"
INSTRUMENT_TYPE_SPECTRAL	"NO"
NORMALIZED_TO_Y_100	"NO"
NUMBER_OF_FIELDS	7
NUMBER_OF_SETS	15
BEGIN_DATA_FORMAT
 SAMPLE_ID	RGB_R	RGB_G	RGB_B	XYZ_X	XYZ_Y	XYZ_Z
END_DATA_FORMAT
BEGIN_DATA
 1.0	0.0	0.0	0.0	0.29052734375	0.260025024414	0.362152099609
 2.0	1.0	1.0	1.0	85.33332824707	36.247787475586	61.134323120117
 3.0	1.0	0.0	0.0	54.613327026367	4.10009765625	7.613372802734
 4.0	0.0	1.0	0.0	26.172515869141	22.755554199219	12.799987792969
 5.0	0.0	0.0	1.0	1.455825805664	9.581283569336	40.156860351562
 6.0	0.0	0.0	0.0	0.293228149414	0.264389038086	0.36848449707
 7.0	1.0	1.0	1.0	85.33332824707	36.408874511719	61.593978881836
 8.0	1.0	0.0	0.0	54.613327026367	4.104202270508	7.64892578125
 9.0	0.0	1.0	0.0	26.172515869141	22.629821777344	12.760116577148
 10.0	0.0	0.0	1.0	1.461547851562	9.536666870117	40.156860351562
 11.0	0.0	0.0	0.0	0.295303344727	0.265487670898	0.369369506836
 12.0	1.0	1.0	1.0	85.33332824707	36.571426391602	61.593978881836
 13.0	1.0	0.0	0.0	54.613327026367	4.126937866211	7.663223266602
 14.0	0.0	1.0	0.0	26.172515869141	22.692520141602	12.820022583008
 15.0	0.0	0.0	1.0	1.457382202148	9.547775268555	40.156860351562
END_DATA
