data/calibration-000199.ti3
CTI3
DESCRIPTOR	"Calibration Target chart information 3"
ORIGINATOR	"ColorHug Factory"
DEVICE_CLASS	"DISPLAY"
COLOR_REP	"RGB_XYZ"
TARGET_INSTRUMENT	"ColorHug"
INSTRUMENT_TYPE_SPECTRAL	"NO"
LUMINANCE_XYZ_CDM2	"57.174683 37.891388 43.144226"
NORMALIZED_TO_Y_100	"YES"
NUMBER_OF_FIELDS	7
NUMBER_OF_SETS	836
BEGIN_DATA_FORMAT
 SAMPLE_ID	RGB_R	RGB_G	RGB_B	XYZ_X	XYZ_Y	XYZ_Z
END_DATA_FORMAT
BEGIN_DATA
 1	100	100	100	150.1805054	99.39831528	113.3574007
 2	100	100	100	149.9398315	99.51865223	113.4777377
 3	100	100	100	151.022864	100	113.5980746
 4	100	100	100	150.0601685	99.51865223	113.2370638
 5	33.33	32.622	30.968	12.63537906	8.182912154	8.784596871
 6	100	0	100	96.02888087	28.39951865	81.10709988
 7	100	100	0	147.4127557	80.74608905	46.20938628
 8	0	100	100	51.74488568	89.53068592	99.03730445
 9	0	100	0	49.5788207	70.51744886	32.00962696
 10	0	0	100	2.286401925	19.01323706	67.14801444
 11	100	0	0	95.18652226	9.386281588	13.59807461
 12	0	0	0	0.1203369434	0.1203369434	0.2406738869
 13	0	52.455	100	13.23706378	35.49939832	74.84957882
 14	100	0	50.3	94.82551143	13.35740072	27.55716005
 15	100	54.739	100	110.1083032	46.57039711	89.29001203
 16	100	52.128	0	106.377858	25.39109507	20.93862816
 17	0	0	46.181	0.4813477738	3.249097473	11.31167268
 18	0	51.141	0	10.95066185	15.5234657	7.099879663
 19	0	100	51.348	49.93983153	75.69193742	46.69073406
 20	100	100	52.037	148.977136	84.71720818	61.01083032
 21	49.216	0	0	18.89290012	1.925391095	2.888086643
 22	56.159	100	0	75.81227437	73.16486161	35.49939832
 23	49.226	100	100	70.51744886	92.05776173	102.045728
 24	44.487	0	100	16.96750903	20.57761733	69.7954272
 25	100	44.498	52.029	103.3694344	25.39109507	33.81468111
 26	48.926	48.544	100	30.44524669	34.77737665	76.53429603
 27	51.368	100	47.25	71.35980746	76.89530686	47.29241877
 28	49.893	0	49.033	19.97593261	5.776173285	16.12515042
 29	53.109	51.372	0	33.69434416	17.80986763	10.34897714
 30	0	58.587	53.943	15.16245487	25.51143201	25.63176895
 31	100	28.065	100	98.31528279	32.9723225	83.27316486
 32	0	0	72.874	1.083032491	8.784596871	31.40794224
 33	0	26.758	100	4.572803851	23.10469314	68.83273165
 34	0	25.426	0	2.647412756	3.610108303	1.805054152
 35	72.508	0	100	46.08904934	23.46570397	73.88688327
 36	100	27.395	0	97.11191336	13.47773767	15.5234657
 37	74.47	100	100	100.2406739	95.18652226	106.1371841
 38	100	0	25.728	94.70517449	10.34897714	16.96750903
 39	73.862	0	0	46.32972323	4.693140794	6.738868833
 40	100	100	25.402	147.6534296	81.34777377	48.97713598
 41	0	75.751	100	28.15884477	56.07701564	84.4765343
 42	0	75.172	0	25.7521059	36.22141998	16.48616125
 43	0	100	25.864	49.45848375	71.60048135	35.37906137
 44	100	0	74.801	94.82551143	18.77256318	47.17208183
 45	0	100	75.421	50.90252708	80.74608905	66.42599278
 46	24.577	0	0	4.452466907	0.4813477738	0.8423586041
 47	26.321	100	0	54.39229844	70.75812274	32.61131167
 48	100	75.835	0	122.3826715	46.69073406	30.68592058
 49	100	100	77.061	148.1347774	90.37304452	82.31046931
 50	71.263	100	0	93.14079422	75.21058965	37.90613718
 51	0	0	15.614	0.2406738869	0.4813477738	1.444043321
 52	0	30.049	70.936	4.332129964	13.35740072	31.76895307
 53	100	77.691	100	125.0300842	67.99037304	99.1576414
 54	24.486	100	100	56.19735259	90.61371841	100
 55	100	62.784	31.909	112.3947052	35.13838748	30.08423586
 56	29.552	0	100	8.182912154	19.73525872	68.47172082
 57	32.98	70.921	100	32.49097473	51.62454874	82.91215403
 58	0	27.681	40.241	3.369434416	6.618531889	10.46931408
 59	67.901	71.021	100	63.17689531	54.99398315	87.60529483
 60	28.154	100	67.829	55.83634176	78.58002407	59.92779783
 61	71.637	100	70.001	95.06618532	83.87484958	67.62936221
 62	58.822	58.763	53.586	42.83995187	28.15884477	29.3622142
 63	33.466	30.48	0	11.9133574	5.896510229	3.610108303
 64	100	73.795	71.277	122.2623345	53.30926594	59.92779783
 65	68.394	29.692	0	42.23826715	8.664259928	7.942238267
 66	70.399	0	29.039	41.75691937	5.415162455	10.34897714
 67	28.078	0	26.956	5.896510229	1.684717208	4.572803851
 68	28.532	72.339	0	29.3622142	33.69434416	15.88447653
 69	100	30.941	26.496	98.55595668	15.64380265	19.73525872
 70	34.597	0	73.611	9.747292419	9.987966306	33.45367028
 71	71.573	0	72.408	43.80264741	13.23706378	37.6654633
 72	0	71.029	29.412	22.86401925	33.21299639	19.01323706
 73	68.386	75.008	0	64.98194946	39.95186522	22.02166065
 74	68.088	27.309	100	42.96028881	27.19614922	74.84957882
 75	100	26.457	73.749	98.0746089	22.62334537	48.37545126
 76	74.344	100	27.392	97.47292419	76.65463297	42.71961492
 77	27.558	100	28.197	55.23465704	72.5631769	36.70276775
 78	31.196	27.465	100	11.79302046	24.06738869	70.51744886
 79	0	75.521	72.824	26.71480144	45.84837545	48.01444043
 80	0	50.93	25.553	10.83032491	16.24548736	10.34897714
 81	32.06	33.584	64.033	12.63537906	13.71841155	27.67749699
 82	81.666	55.38	0	71.96149218	24.18772563	16.84717208
 83	68.257	32.751	58.286	43.44163658	15.40312876	27.4368231
 84	0	55.248	81.585	13.8387485	30.08423586	49.45848375
 85	73.781	52.099	100	59.32611312	39.71119134	81.34777377
 86	100	50.537	82.952	106.0168472	36.82310469	63.53790614
 87	23.55	0	50.439	4.572803851	4.332129964	14.44043321
 88	31.335	62.746	31.114	24.54873646	26.35379061	17.08784597
 89	100	18.31	49.418	95.78820698	15.04211793	27.91817088
 90	26.498	48.404	0	14.80144404	14.19975933	7.099879663
 91	47.91	100	85.744	68.83273165	86.04091456	81.10709988
 92	71.829	47.313	31.811	52.70758123	18.89290012	17.56919374
 93	31.304	64.132	69.316	26.11311673	34.05535499	40.55354994
 94	80.403	0	54.321	56.31768953	10.34897714	24.54873646
 95	18.455	50.036	100	14.6811071	34.05535499	74.36823105
 96	50.653	100	16.345	69.43441637	73.16486161	36.34175692
 97	80.121	100	52.261	107.3405535	80.86642599	55.47533093
 98	0	22.54	19.289	2.166064982	3.48977136	3.369434416
 99	100	75.273	46.886	121.5403129	48.85679904	41.99759326
 100	0	78.618	56.625	28.76052948	45.24669073	36.10108303
 101	51.137	80.627	100	52.3465704	63.77858002	89.41034898
 102	48.446	0	17.864	18.17087846	2.406738869	4.452466907
 103	100	50.023	21.211	104.8134777	24.66907341	22.62334537
 104	50.115	20.118	0	21.17930205	4.332129964	3.971119134
 105	58.099	72.426	33.158	50.54151625	37.42478941	24.78941035
 106	19.364	100	50.197	52.3465704	75.09025271	46.57039711
 107	50.683	19.177	100	23.34536703	23.10469314	71.11913357
 108	53.37	0	81.576	23.8267148	14.07942238	44.64500602
 109	47.768	76.245	0	44.16365824	39.10950662	19.37424789
 110	0	18.927	55.503	1.925391095	6.97954272	18.05054152
 111	0	13.277	0	0.8423586041	1.083032491	0.6016847172
 112	72.862	72.473	75.625	69.31407942	47.53309266	56.07701564
 113	100	13.904	0	93.86281588	10.46931408	14.07942238
 114	86.349	0	100	67.62936221	25.63176895	76.65463297
 115	100	41.941	100	102.8880866	38.62815884	85.3188929
 116	100	81.785	16.464	127.4368231	53.79061372	35.13838748
 117	0	44.063	52.596	8.423586041	15.64380265	20.57761733
 118	0	0	58.917	0.7220216606	5.535499398	19.37424789
 119	59.25	24.551	29.789	31.04693141	7.460890493	10.10830325
 120	82.73	82.874	100	94.10348977	70.51744886	97.11191336
 121	80.039	0	12.618	55.83634176	5.896510229	9.025270758
 122	60.957	47.729	77.817	40.433213	26.83513839	47.53309266
 123	100	0	38.618	93.86281588	11.55234657	21.41997593
 124	0	40.09	100	8.303249097	28.39951865	71.96149218
 125	0	15.283	82.322	2.045728039	13.23706378	42.59927798
 126	17.592	81.726	100	35.01805054	63.05655836	87.48495788
 127	100	14.13	100	95.90854392	29.60288809	81.58844765
 128	15.261	100	82.059	52.22623345	82.79181709	74.48856799
 129	47.77	79.418	60.389	47.05174489	48.37545126	41.39590854
 130	18.768	16.429	0	3.730445247	1.925391095	1.203369434
 131	55.634	100	65.763	74.60890493	80.62575211	60.52948255
 132	100	100	38.541	146.5703971	82.43080626	53.79061372
 133	17.421	0	83.497	3.48977136	12.51504212	43.56197353
 134	17.237	16.758	100	5.054151625	20.81829122	68.35138387
 135	0	15.067	30.039	1.203369434	2.767749699	5.294825511
 136	0	0	86.505	1.684717208	13.35740072	47.17208183
 137	75.736	72.799	50.02	73.16486161	42.35860409	36.22141998
 138	100	83.323	85.529	129.723225	68.71239471	81.58844765
 139	100	100	64.894	144.645006	87.00361011	70.39711191
 140	81.98	84.914	0	93.622142	53.30926594	30.32490975
 141	0	63.757	15.49	17.68953069	25.39109507	12.63537906
 142	49.514	66.135	100	39.71119134	48.49578821	82.67148014
 143	100	0	61.862	94.22382671	15.40312876	35.25872443
 144	24.308	45.41	49.831	12.99638989	16.24548736	19.85559567
 145	15.963	0	17.047	2.045728039	0.7220216606	2.045728039
 146	87.497	100	100	120.2166065	95.42719615	108.6642599
 147	52.099	25.003	75.752	24.54873646	15.40312876	39.22984356
 148	14.909	81.162	0	32.00962696	43.2009627	19.73525872
 149	0	34.792	14.626	4.933814681	7.099879663	4.452466907
 150	48.39	45.075	22.552	26.35379061	14.32009627	10.70998797
 151	83.545	65.965	100	82.91215403	52.3465704	88.68832732
 152	16.226	62.345	0	18.77256318	23.58604091	11.0709988
 153	63.222	0	14.914	32.49097473	3.730445247	6.137184116
 154	80.449	13.446	0	56.55836342	6.738868833	8.664259928
 155	83.917	41.562	0	68.11070999	16.00481348	13.35740072
 156	100	60.448	46.3	110.589651	34.8977136	35.7400722
 157	15.584	0	34.795	2.166064982	2.045728039	6.498194946
 158	17.144	65.121	100	22.62334537	46.08904934	80.14440433
 159	83.602	55.334	62.667	74.96991576	31.04693141	39.59085439
 160	0	82.19	14.22	31.40794224	44.64500602	21.29963899
 161	25.132	74.856	50.616	30.44524669	40.07220217	31.16726835
 162	0	13.769	100	2.527075812	20.2166065	67.74969916
 163	87.181	0	0	67.0276775	6.738868833	9.747292419
 164	0	100	39.19	48.97713598	72.08182912	39.95186522
 165	78.047	65.914	19.865	72.08182912	32.9723225	22.02166065
 166	100	63.961	15.865	112.3947052	34.8977136	26.47412756
 167	100	45.955	36.032	103.0084236	23.58604091	25.99277978
 168	15.926	100	16.89	50.78219013	71.4801444	33.69434416
 169	41.459	100	0	62.21419976	72.20216606	33.57400722
 170	48.707	37.288	48.139	24.42839952	13.47773767	19.01323706
 171	83.381	100	13.285	111.1913357	77.0156438	41.75691937
 172	78.129	25.303	75.621	55.47533093	18.65222623	43.80264741
 173	12.396	0	0	1.323706378	0.2406738869	0.3610108303
 174	37.607	48.336	83.346	21.29963899	27.19614922	51.02286402
 175	35.588	15.356	0	10.22864019	2.406738869	2.166064982
 176	61.245	100	100	81.7087846	92.77978339	103.4897714
 177	100	67.29	87.195	114.801444	51.02286402	74.48856799
 178	0	0	30.615	0.3610108303	1.444043321	4.813477738
 179	35.187	81.789	83.323	41.03489771	57.28038508	64.98194946
 180	39.525	80.194	22.879	41.15523466	43.56197353	23.34536703
 181	50.634	34.593	0	24.78941035	8.784596871	6.137184116
 182	14.175	100	63.146	51.02286402	76.77496992	55.23465704
 183	83.493	17.728	34.574	61.4921781	9.626955475	15.88447653
 184	23.463	22.014	79.943	6.97954272	14.19975933	40.91456077
 185	18.066	31.847	0	6.498194946	5.896510229	3.128760529
 186	87.201	100	81.361	118.7725632	88.9290012	83.15282792
 187	0	100	87.95	50.06016847	84.35619735	81.46811071
 188	34.476	17.888	46.22	10.22864019	6.016847172	13.59807461
 189	18.277	0	67.39	3.249097473	7.70156438	26.5944645
 190	100	87.972	0	132.6113117	61.37184116	37.18411552
 191	82.925	34.85	100	66.54632972	32.00962696	79.42238267
 192	0	88.016	100	38.26714801	70.87845969	90.8543923
 193	36.104	85.655	100	45.72803851	69.31407942	91.09506619
 194	60.981	0	0	29.60288809	3.128760529	4.452466907
 195	51.466	61.826	78.106	37.90613718	35.86040915	51.14320096
 196	78.427	31.983	22.175	55.9566787	11.79302046	12.755716
 197	66.017	44.321	0	43.44163658	15.04211793	10.34897714
 198	83.941	0	84.177	62.69554753	18.77256318	53.79061372
 199	20.158	46.612	23.269	11.9133574	13.71841155	9.145607702
 200	0	100	62.618	49.45848375	76.77496992	54.27196149
 201	33.832	0	13.933	8.303249097	1.323706378	2.527075812
 202	100	17.286	16.322	94.34416366	11.43200963	15.64380265
 203	0	42.204	83.926	8.423586041	22.74368231	48.97713598
 204	0	87.774	0	36.10108303	51.50421179	23.22503008
 205	64.988	0	59.017	34.53670277	9.025270758	24.66907341
 206	14.677	0	100	3.369434416	19.25391095	67.99037304
 207	88.934	82.673	35.021	102.045728	53.30926594	36.70276775
 208	0	63.778	100	19.37424789	44.28399519	79.18170878
 209	83.429	17.674	100	63.17689531	26.95547533	77.0156438
 210	30.899	100	85.668	57.16004813	84.4765343	79.54271961
 211	83.68	0	41.016	61.37184116	8.664259928	17.80986763
 212	100	63.515	0	111.4320096	33.69434416	24.78941035
 213	85.074	69.987	0	85.07821901	36.82310469	23.10469314
 214	20.801	45.524	69.018	12.39470517	20.33694344	33.93501805
 215	21.382	82.482	73.017	35.86040915	54.63297232	52.82791817
 216	100	15.128	64.249	94.22382671	17.32851986	38.02647413
 217	36.522	0	58.427	10.34897714	6.377858002	20.57761733
 218	22.466	81.296	33.007	34.41636582	45.36702768	25.87244284
 219	62.531	87.152	0	67.14801444	53.79061372	27.55716005
 220	84.12	85.397	67.886	97.11191336	62.09386282	58.36341757
 221	18.87	27.336	45.389	6.016847172	7.581227437	13.35740072
 222	66.439	100	14.444	85.67990373	74.96991576	38.02647413
 223	41.636	22.147	19.003	15.04211793	4.693140794	5.174488568
 224	61.271	100	81.94	80.86642599	85.43922984	77.85800241
 225	86.013	100	0	115.8844765	77.49699158	41.39590854
 226	37.57	0	0	10.10830325	1.203369434	1.684717208
 227	100	16.132	84.102	94.70517449	23.34536703	58.84476534
 228	0	100	13.619	49.09747292	70.51744886	32.85198556
 229	38.905	100	56.471	61.01083032	76.65463297	51.14320096
 230	100	15.382	34.563	94.10348977	12.51504212	20.33694344
 231	36.656	14.908	100	12.51504212	21.41997593	70.03610108
 232	0	62.593	66.608	17.4488568	31.16726835	36.82310469
 233	66.347	12.528	100	38.26714801	23.58604091	73.4055355
 234	100	43.375	69.233	101.0830325	28.15884477	46.45006017
 235	100	56.36	61.236	106.377858	34.17569194	43.80264741
 236	0	86.194	44.955	35.01805054	52.82791817	33.33333333
 237	64.527	87.262	100	71.11913357	73.28519856	95.30685921
 238	34.411	0	42.471	8.784596871	3.730445247	10.95066185
 239	80.23	59.707	85.12	72.20216606	40.55354994	64.2599278
 240	20.625	19.056	14.791	4.693140794	2.767749699	2.767749699
 241	15.341	34.221	100	8.182912154	25.99277978	70.99879663
 242	36.777	0	87.905	11.0709988	14.92178099	50.54151625
 243	34.598	56.247	100	24.18772563	39.22984356	77.49699158
 244	20.86	67.629	17.418	23.34536703	29.12154031	15.04211793
 245	44.958	60.843	18.054	31.52827918	24.66907341	14.32009627
 246	37.421	60.193	0	25.99277978	22.86401925	11.55234657
 247	84.011	33.849	42.612	66.18531889	15.5234657	21.66064982
 248	17.241	60.339	37.743	17.93020457	24.42839952	18.05054152
 249	50.65	17.261	53.278	21.66064982	8.303249097	19.49458484
 250	45.505	48.926	65.152	26.5944645	22.74368231	33.45367028
 251	44.567	84.081	39.649	48.13477738	50.54151625	31.88929001
 252	100	86.339	72.054	131.0469314	67.62936221	67.38868833
 253	68.14	61.135	0	53.79061372	26.35379061	15.76413959
 254	17.93	66.986	81.403	22.9843562	39.59085439	54.27196149
 255	39.242	60.215	48.926	27.55716005	26.95547533	25.03008424
 256	20.099	18.77	62.967	5.054151625	8.784596871	24.18772563
 257	34.553	100	14.582	57.76173285	71.23947052	34.29602888
 258	87.345	0	66.694	67.50902527	14.19975933	35.86040915
 259	0	43.714	39.842	8.062575211	13.47773767	13.47773767
 260	100	37.705	13.955	98.79663057	17.80986763	18.2912154
 261	31.265	86.993	0	42.23826715	50.66185319	23.94705174
 262	51.402	82.661	81.338	52.70758123	58.24308063	64.50060168
 263	100	100	12.984	143.5619735	80.50541516	46.811071
 264	0	37.859	0	5.776173285	8.182912154	3.85078219
 265	62.092	58.215	100	47.17208183	42.59927798	81.34777377
 266	86.186	100	64.1	116.8471721	83.99518652	65.94464501
 267	100	35.251	85.898	98.79663057	29.60288809	63.77858002
 268	63.182	89.992	41.974	71.23947052	60.28880866	38.98916968
 269	13.504	100	0	50.06016847	70.51744886	32.1299639
 270	100	0	13.228	92.41877256	9.506618532	14.44043321
 271	63.881	40.826	100	41.2755716	32.25030084	76.89530686
 272	69.387	84.838	20.792	73.04452467	51.86522262	29.48255114
 273	0	70.279	45.136	22.38267148	34.29602888	25.27075812
 274	79.094	64.754	40.908	71.72081829	33.69434416	28.5198556
 275	62.385	54.099	17.396	43.56197353	20.93862816	14.07942238
 276	64.408	14.621	0	34.29602888	4.693140794	5.535499398
 277	70.028	15.606	44.651	41.51624549	8.543922984	17.20818291
 278	0	63.544	0	17.4488568	24.78941035	11.31167268
 279	83.475	47.274	20.502	69.31407942	19.73525872	16.84717208
 280	55.866	0	32.671	24.90974729	4.091456077	9.145607702
 281	58.007	0	100	28.15884477	21.78098676	71.84115523
 282	100	0	87.698	93.98315283	23.10469314	62.21419976
 283	0	13.792	67.215	1.564380265	8.664259928	26.83513839
 284	84.123	17.001	58.549	62.81588448	13.35740072	29.12154031
 285	59.579	32.873	15.966	32.25030084	9.265944645	8.303249097
 286	10.41	32.998	28.659	5.415162455	7.460890493	7.34055355
 287	17.231	40.031	85.65	9.867629362	22.74368231	51.14320096
 288	37.568	41.561	10.108	17.20818291	11.0709988	6.738868833
 289	0	69.015	85.092	22.02166065	42.59927798	59.08543923
 290	14.442	100	36.187	50.54151625	72.5631769	38.86883273
 291	100	40.549	0	99.63898917	18.77256318	17.68953069
 292	82.143	45.435	78.429	67.50902527	28.64019254	51.26353791
 293	52.674	0	67.3	22.38267148	9.747292419	29.72322503
 294	0	87.868	66.793	37.30445247	59.20577617	49.5788207
 295	86.53	100	40.524	116.7268351	80.02406739	50.18050542
 296	71.777	85.586	67.232	78.21901324	60.28880866	54.87364621
 297	43.216	100	31.671	63.29723225	73.52587244	39.22984356
 298	39.245	32.908	85.845	16.96750903	20.33694344	51.26353791
 299	0	45.662	67.543	9.265944645	19.97593261	32.49097473
 300	12.161	100	100	51.62454874	90.13237064	99.51865223
 301	67.049	0	85.516	37.42478941	16.84717208	51.62454874
 302	100	89.041	100	134.5367028	82.31046931	105.5354994
 303	20.246	60.698	56.526	19.25391095	27.55716005	28.76052948
 304	52.177	55.457	40.416	34.65703971	23.22503008	20.33694344
 305	72.617	87.018	83.932	80.86642599	67.50902527	74.00722022
 306	40.512	16.723	66.475	14.07942238	10.22864019	28.39951865
 307	68.507	49.232	50.605	48.85679904	22.26233454	26.47412756
 308	65.622	100	54.525	85.19855596	79.18170878	54.03128761
 309	54.115	37.24	66.394	28.76052948	17.4488568	32.61131167
 310	100	76.138	31.267	120.3369434	48.01444043	35.49939832
 311	54.728	65.623	0	41.75691937	28.76052948	15.5234657
 312	63.126	12.526	64.37	33.09265945	11.0709988	29.24187726
 313	72.827	18.08	23.704	45.36702768	7.220216606	10.22864019
 314	23.268	15.278	34.947	5.174488568	3.610108303	7.70156438
 315	87.648	68.954	59.645	89.53068592	42.1179302	44.0433213
 316	0	85.595	85.198	35.37906137	61.97352587	68.11070999
 317	35.798	84.371	69.21	42.96028881	55.9566787	50.78219013
 318	36.062	47.494	35.919	19.13357401	16.24548736	14.19975933
 319	86.083	36.277	59.152	70.39711191	19.73525872	32.61131167
 320	58.21	100	30.361	76.1732852	74.60890493	40.433213
 321	46.745	14.614	32.317	17.68953069	4.572803851	8.543922984
 322	81.573	73.869	86.954	83.27316486	54.03128761	71.96149218
 323	85.991	49.387	48.206	75.33092659	24.54873646	28.64019254
 324	28.062	87.906	19.654	41.99759326	52.46690734	26.35379061
 325	68.992	17.993	85.124	41.2755716	18.77256318	52.82791817
 326	100	66.147	100	114.3200963	55.47533093	93.26113117
 327	33.358	64.806	84.517	27.79783394	39.47051745	58.00240674
 328	41.351	17.736	80.522	15.04211793	14.56077016	43.2009627
 329	100	100	88.719	145.4873646	93.86281588	96.26955475
 330	66.336	0	44.32	35.86040915	6.738868833	15.88447653
 331	64.85	67.09	12.293	53.91095066	31.64861613	18.65222623
 332	15.262	31.268	63.277	6.257521059	12.15403129	25.87244284
 333	15.008	43.663	37.3	9.626955475	13.35740072	12.755716
 334	0	57.895	38.078	14.32009627	22.38267148	16.96750903
 335	66.599	58.458	67.871	51.26353791	32.1299639	42.23826715
 336	59.191	18.651	15.215	29.00120337	5.294825511	6.257521059
 337	66.781	31.14	84.629	40.91456077	21.90132371	52.70758123
 338	88.033	85.158	52.14	103.2490975	59.80746089	46.811071
 339	36.882	100	100	60.40914561	90.8543923	100.9626955
 340	26.102	33.094	17.006	9.145607702	7.099879663	5.294825511
 341	56.309	36.861	35.862	30.32490975	12.15403129	13.95908544
 342	45.839	65.587	67.033	35.13838748	35.98074609	40.433213
 343	83.709	81.172	16.406	90.97472924	48.97713598	29.72322503
 344	0	48.132	13.005	9.506618532	13.71841155	7.220216606
 345	87.176	50.021	100	78.82069795	40.55354994	83.63417569
 346	51.219	84.244	13.73	52.70758123	49.09747292	25.15042118
 347	60.606	71.415	48.406	52.22623345	39.10950662	32.1299639
 348	0	11.359	12.718	0.7220216606	1.203369434	1.564380265
 349	86.429	49.705	33.145	75.81227437	22.74368231	21.78098676
 350	34.056	40.958	100	16.84717208	29.72322503	73.4055355
 351	100	30.557	59.628	96.75090253	20.33694344	36.46209386
 352	88.497	26.902	13.449	71.23947052	11.19133574	12.87605295
 353	14.167	51.98	88.218	14.07942238	30.32490975	57.03971119
 354	13.784	12.983	49.37	2.767749699	5.054151625	13.95908544
 355	15.018	88.441	48.062	38.38748496	56.43802647	36.70276775
 356	87.79	25.769	89.215	70.75812274	25.03008424	62.69554753
 357	0	33.206	55.865	4.813477738	11.19133574	20.33694344
 358	74.324	76.029	35.536	72.08182912	43.32129964	30.08423586
 359	65.863	57.223	42.324	48.97713598	25.99277978	23.46570397
 360	30.893	54.646	13.136	19.49458484	18.89290012	10.22864019
 361	0	34.36	28.321	4.813477738	7.821901324	7.220216606
 362	15.443	77.087	85.116	29.72322503	51.26353791	63.77858002
 363	63.381	68.947	68.521	53.91095066	40.55354994	45.72803851
 364	69.733	27.566	42.917	42.83995187	11.0709988	17.68953069
 365	32.754	100	42.76	56.91937425	73.88688327	42.96028881
 366	47.096	29.481	34.829	20.57761733	8.423586041	11.0709988
 367	8.5451	71.948	62.695	24.30806258	39.35018051	37.54512635
 368	0	86.048	29.3	34.65703971	50.06016847	26.83513839
 369	53.697	51.572	85.367	34.41636582	31.04693141	56.7990373
 370	17.608	56.69	12.515	15.76413959	19.73525872	10.10830325
 371	90.638	14.414	49.227	74.00722022	12.39470517	24.54873646
 372	63.248	63.64	89.55	50.66185319	43.08062575	67.62936221
 373	100	85.976	58.455	129.843562	64.38026474	55.59566787
 374	9.8311	28.027	7.5567	4.091456077	4.693140794	2.767749699
 375	89.831	64.313	69.506	90.49338147	40.79422383	50.54151625
 376	31.754	12.995	25.543	8.062575211	2.888086643	5.054151625
 377	75.914	45.966	64.957	57.40072202	24.42839952	37.42478941
 378	7.5735	50.695	58.941	11.67268351	20.93862816	26.95547533
 379	100	69.835	58.912	115.6438026	45.72803851	47.53309266
 380	32.211	34.376	48.339	12.63537906	11.0709988	17.08784597
 381	13.901	12.159	73.555	3.128760529	10.34897714	33.09265945
 382	87.071	9.028	77.653	67.50902527	17.80986763	47.17208183
 383	23.272	85.409	84.29	38.86883273	61.73285199	67.50902527
 384	93.289	39.48	26.145	83.87484958	17.68953069	18.77256318
 385	65.769	59.63	30.967	50.18050542	26.71480144	19.85559567
 386	100	32.265	41.803	95.90854392	17.93020457	25.63176895
 387	86.568	85.281	86.961	101.0830325	68.47172082	79.54271961
 388	52.577	86.83	30.016	56.91937425	53.54993983	30.68592058
 389	47.921	40.199	76.902	25.15042118	21.41997593	43.32129964
 390	22.36	86.619	61.58	38.86883273	56.19735259	45.24669073
 391	52.232	33.601	88.787	27.07581227	22.86401925	56.67870036
 392	0	28.523	86.267	4.452466907	17.80986763	48.85679904
 393	43.497	67.879	39.551	34.53670277	32.61131167	23.58604091
 394	39.877	45.261	0	20.09626955	13.11672684	7.220216606
 395	86.94	12.43	24.699	66.06498195	8.543922984	13.11672684
 396	28.363	55.339	90.398	20.09626955	33.93501805	62.09386282
 397	39.018	70.534	57.879	33.69434416	37.54512635	35.01805054
 398	12.833	28.519	78.828	5.535499398	15.40312876	40.79422383
 399	68.35	31.815	69.975	43.2009627	17.93020457	37.42478941
 400	56.52	26.226	41.626	28.03850782	9.025270758	14.80144404
 401	12.938	46.218	0	9.867629362	12.51504212	5.896510229
 402	8.6938	60.179	26.117	16.12515042	22.9843562	13.59807461
 403	51.995	89.429	96.608	59.80746089	73.64620939	89.77135981
 404	46.905	47.746	48.909	26.35379061	18.77256318	21.78098676
 405	14.352	81.814	19.479	32.25030084	44.40433213	22.02166065
 406	71.482	38.117	12.273	48.01444043	12.87605295	10.83032491
 407	86.616	60.785	10.012	80.98676294	29.12154031	20.33694344
 408	71.811	88.979	52.186	80.62575211	61.61251504	45.60770156
 409	43.213	100	72.083	63.77858002	80.74608905	65.22262335
