data/calibration-000801.ti3
CTI3   
ORIGINATOR	"ColorHug Factory"
DESCRIPTOR	"Calibration Target chart information 3"
DEVICE_CLASS	"DISPLAY"
COLOR_REP	"RGB_XYZ"
TARGET_INSTRUMENT	"Hughski ColorHug"
INSTRUMENT_TYPE_SPECTRAL	"NO"
NORMALIZED_TO_Y_100	"NO"
NUMBER_OF_FIELDS	7
NUMBER_OF_SETS	15
BEGIN_DATA_FORMAT
 SAMPLE_ID	RGB_R	RGB_G	RGB_B	XYZ_X	XYZ_Y	XYZ_Z
END_DATA_FORMAT
BEGIN_DATA
 1	0	0	0	0.04577636719	0.04577636719	0.09155273438
 2	1	1	1	50.94909668	37.30773926	43.16711426
 3	1	0	0	31.26525879	3.295898438	4.669189453
 4	0	1	0	16.70837402	26.32141113	11.71875
 5	0	0	1	0.8697509766	7.415771484	26.41296387
 6	0	0	0	0.04577636719	0.04577636719	0.09155273438
 7	1	1	1	50.58288574	37.12463379	43.07556152
 8	1	0	0	31.40258789	3.295898438	4.669189453
 9	0	1	0	16.70837402	26.2298584	11.71875
 10	0	0	1	0.8697509766	7.369995117	26.41296387
 11	0	0	0	0.04577636719	0.04577636719	0.09155273438
 12	1	1	1	50.67443848	37.26196289	43.12133789
 13	1	0	0	31.21948242	3.295898438	4.623413086
 14	0	1	0	16.66259766	26.32141113	11.81030273
 15	0	0	1	0.8697509766	7.415771484	26.27563477
END_DATA
