data/calibration-002035.ti3
CTI3   
ORIGINATOR	"ColorHug Factory"
CREATED	"Sun May 26 11:29:27 2013"
DESCRIPTOR	"Calibration Target chart information 3"
DEVICE_CLASS	"DISPLAY"
COLOR_REP	"RGB_XYZ"
TARGET_INSTRUMENT	"Hughski ColorHug"
INSTRUMENT_TYPE_SPECTRAL	"NO"
NORMALIZED_TO_Y_100	"NO"
NUMBER_OF_FIELDS	7
NUMBER_OF_SETS	15
BEGIN_DATA_FORMAT
 SAMPLE_ID	RGB_R	RGB_G	RGB_B	XYZ_X	XYZ_Y	XYZ_Z
END_DATA_FORMAT
BEGIN_DATA
 1	0	0	0	0.0457763671875	0.0457763671875	0.091552734375
 2	1	1	1	33.5540771484375	37.6739501953125	51.08642578125
 3	1	0	0	19.4549560546875	2.5177001953125	3.3416748046875
 4	0	1	0	11.90185546875	26.4129638671875	12.26806640625
 5	0	0	1	0.8697509765625	8.697509765625	35.2020263671875
 6	0	0	0	0.0457763671875	0.0457763671875	0.091552734375
 7	1	1	1	33.5540771484375	37.6739501953125	50.7659912109375
 8	1	0	0	19.4549560546875	2.5177001953125	3.3416748046875
 9	0	1	0	11.90185546875	26.3214111328125	12.2222900390625
 10	0	0	1	0.8697509765625	8.697509765625	35.2020263671875
 11	0	0	0	0.0457763671875	0.0457763671875	0.091552734375
 12	1	1	1	33.50830078125	37.7197265625	50.994873046875
 13	1	0	0	19.4549560546875	2.5177001953125	3.3416748046875
 14	0	1	0	11.9476318359375	26.3214111328125	12.2222900390625
 15	0	0	1	0.8697509765625	8.6517333984375	34.9273681640625
END_DATA
