data/calibration-000765.ti3
CTI3   
ORIGINATOR	"ColorHug Factory"
DESCRIPTOR	"Calibration Target chart information 3"
DEVICE_CLASS	"DISPLAY"
COLOR_REP	"RGB_XYZ"
TARGET_INSTRUMENT	"Hughski ColorHug"
INSTRUMENT_TYPE_SPECTRAL	"NO"
NORMALIZED_TO_Y_100	"NO"
NUMBER_OF_FIELDS	7
NUMBER_OF_SETS	15
BEGIN_DATA_FORMAT
 SAMPLE_ID	RGB_R	RGB_G	RGB_B	XYZ_X	XYZ_Y	XYZ_Z
END_DATA_FORMAT
BEGIN_DATA
 1	0	0	0	0.04577636719	0.04577636719	0.04577636719
 2	1	1	1	58.27331543	37.62817383	43.30444336
 3	1	0	0	36.30065918	3.524780273	5.355834961
 4	0	1	0	18.99719238	26.7791748	12.26806641
 5	0	0	1	0.8697509766	7.00378418	25.26855469
 6	0	0	0	0.04577636719	0.04577636719	0.04577636719
 7	1	1	1	57.81555176	37.58239746	43.02978516
 8	1	0	0	36.07177734	3.479003906	5.355834961
 9	0	1	0	19.04296875	26.82495117	12.26806641
 10	0	0	1	0.8697509766	7.049560547	25.08544922
 11	0	0	0	0.04577636719	0.04577636719	0.04577636719
 12	1	1	1	57.90710449	37.62817383	43.21289062
 13	1	0	0	36.02600098	3.479003906	5.355834961
 14	0	1	0	18.90563965	26.68762207	12.26806641
 15	0	0	1	0.8697509766	7.049560547	25.08544922
END_DATA
