data/calibration-001287.ti3
CTI3   
ORIGINATOR	"ColorHug Factory"
DESCRIPTOR	"Calibration Target chart information 3"
DEVICE_CLASS	"DISPLAY"
COLOR_REP	"RGB_XYZ"
TARGET_INSTRUMENT	"Hughski ColorHug"
INSTRUMENT_TYPE_SPECTRAL	"NO"
NORMALIZED_TO_Y_100	"NO"
NUMBER_OF_FIELDS	7
NUMBER_OF_SETS	15
BEGIN_DATA_FORMAT
 SAMPLE_ID	RGB_R	RGB_G	RGB_B	XYZ_X	XYZ_Y	XYZ_Z
END_DATA_FORMAT
BEGIN_DATA
 1	0	0	0	0.09155273438	0.09155273438	0.1373291016
 2	1	1	1	33.27941895	37.07885742	44.86083984
 3	1	0	0	19.54650879	2.792358398	3.433227539
 4	0	1	0	12.49694824	26.87072754	12.26806641
 5	0	0	1	0.8697509766	7.827758789	29.47998047
 6	0	0	0	0.09155273438	0.09155273438	0.1373291016
 7	1	1	1	33.41674805	37.21618652	44.90661621
 8	1	0	0	19.50073242	2.792358398	3.433227539
 9	0	1	0	12.40539551	26.6418457	12.22229004
 10	0	0	1	0.8697509766	7.827758789	29.38842773
 11	0	0	0	0.09155273438	0.09155273438	0.1373291016
 12	1	1	1	33.41674805	37.21618652	44.86083984
 13	1	0	0	19.72961426	2.792358398	3.433227539
 14	0	1	0	12.45117188	26.73339844	12.26806641
 15	0	0	1	0.8697509766	7.827758789	29.47998047
END_DATA
