data/calibration-001900.ti3
CTI3   
ORIGINATOR	"ColorHug Factory"
CREATED	"Sat May 25 16:56:51 2013"
DESCRIPTOR	"Calibration Target chart information 3"
DEVICE_CLASS	"DISPLAY"
COLOR_REP	"RGB_XYZ"
TARGET_INSTRUMENT	"Hughski ColorHug"
INSTRUMENT_TYPE_SPECTRAL	"NO"
NORMALIZED_TO_Y_100	"NO"
NUMBER_OF_FIELDS	7
NUMBER_OF_SETS	15
BEGIN_DATA_FORMAT
 SAMPLE_ID	RGB_R	RGB_G	RGB_B	XYZ_X	XYZ_Y	XYZ_Z
END_DATA_FORMAT
BEGIN_DATA
 1	0	0	0	0	0	0
 2	1	1	1	46.3714599609375	37.994384765625	52.55126953125
 3	1	0	0	28.7017822265625	2.9754638671875	4.3487548828125
 4	0	1	0	15.9759521484375	26.4129638671875	12.6800537109375
 5	0	0	1	0.8697509765625	8.8348388671875	35.2020263671875
 6	0	0	0	0	0	0
 7	1	1	1	46.600341796875	38.3148193359375	52.734375
 8	1	0	0	28.564453125	2.9754638671875	4.3487548828125
 9	0	1	0	15.838623046875	26.3214111328125	12.6800537109375
 10	0	0	1	0.8697509765625	8.8348388671875	35.15625
 11	0	0	0	0	0	0
 12	1	1	1	47.149658203125	38.4979248046875	52.91748046875
 13	1	0	0	28.6102294921875	2.9754638671875	4.3487548828125
 14	0	1	0	15.8843994140625	26.275634765625	12.5885009765625
 15	0	0	1	0.8697509765625	8.8348388671875	35.2020263671875
END_DATA
