data/calibration-000356.ti3
CTI3
ORIGINATOR	"ColorHug Factory"
DESCRIPTOR	"Calibration Target chart information 3"
DEVICE_CLASS	"DISPLAY"
COLOR_REP	"RGB_XYZ"
TARGET_INSTRUMENT	"Hughski ColorHug"
INSTRUMENT_TYPE_SPECTRAL	"NO"
NORMALIZED_TO_Y_100	"NO"
NUMBER_OF_FIELDS	7
NUMBER_OF_SETS	15
BEGIN_DATA_FORMAT
 SAMPLE_ID	RGB_R	RGB_G	RGB_B	XYZ_X	XYZ_Y	XYZ_Z
END_DATA_FORMAT
BEGIN_DATA
 1	0	0	0	0.04577636719	0.04577636719	0.09155273438
 2	1	1	1	51.13220215	34.28649902	40.23742676
 3	1	0	0	32.73010254	3.295898438	4.852294922
 4	0	1	0	17.1661377	24.49035645	11.53564453
 5	0	0	1	0.7781982422	6.591796875	23.89526367
 6	0	0	0	0.04577636719	0.04577636719	0.09155273438
 7	1	1	1	51.54418945	34.42382812	40.28320312
 8	1	0	0	32.5012207	3.295898438	4.852294922
 9	0	1	0	17.1661377	24.44458008	11.4440918
 10	0	0	1	0.7781982422	6.591796875	23.89526367
 11	0	0	0	0.04577636719	0.04577636719	0.09155273438
 12	1	1	1	51.36108398	34.37805176	40.32897949
 13	1	0	0	32.3638916	3.295898438	4.806518555
 14	0	1	0	17.07458496	24.49035645	11.53564453
 15	0	0	1	0.7781982422	6.591796875	23.89526367
END_DATA
