data/calibration-001466.ti3
CTI3   
ORIGINATOR	"ColorHug Factory"
DESCRIPTOR	"Calibration Target chart information 3"
DEVICE_CLASS	"DISPLAY"
COLOR_REP	"RGB_XYZ"
TARGET_INSTRUMENT	"Hughski ColorHug"
INSTRUMENT_TYPE_SPECTRAL	"NO"
NORMALIZED_TO_Y_100	"NO"
NUMBER_OF_FIELDS	7
NUMBER_OF_SETS	15
BEGIN_DATA_FORMAT
 SAMPLE_ID	RGB_R	RGB_G	RGB_B	XYZ_X	XYZ_Y	XYZ_Z
END_DATA_FORMAT
BEGIN_DATA
 1	0	0	0	0.09155273438	0.09155273438	0.1373291016
 2	1	1	1	37.35351562	35.61401367	43.8079834
 3	1	0	0	22.52197266	2.792358398	3.707885742
 4	0	1	0	13.22937012	25.45166016	11.71875
 5	0	0	1	0.8697509766	7.461547852	28.51867676
 6	0	0	0	0.09155273438	0.09155273438	0.1373291016
 7	1	1	1	37.62817383	35.75134277	43.39599609
 8	1	0	0	22.61352539	2.792358398	3.707885742
 9	0	1	0	13.18359375	25.45166016	11.71875
 10	0	0	1	0.8697509766	7.461547852	28.47290039
 11	0	0	0	0.09155273438	0.09155273438	0.1373291016
 12	1	1	1	37.53662109	35.75134277	43.62487793
 13	1	0	0	22.52197266	2.792358398	3.707885742
 14	0	1	0	13.22937012	25.31433105	11.71875
 15	0	0	1	0.8697509766	7.461547852	28.51867676
END_DATA
