data/calibration-000656.ti3
CTI3
ORIGINATOR	"ColorHug Factory"
DESCRIPTOR	"Calibration Target chart information 3"
DEVICE_CLASS	"DISPLAY"
COLOR_REP	"RGB_XYZ"
TARGET_INSTRUMENT	"Hughski ColorHug"
INSTRUMENT_TYPE_SPECTRAL	"NO"
NORMALIZED_TO_Y_100	"NO"
NUMBER_OF_FIELDS	7
NUMBER_OF_SETS	15
BEGIN_DATA_FORMAT
 SAMPLE_ID	RGB_R	RGB_G	RGB_B	XYZ_X	XYZ_Y	XYZ_Z
END_DATA_FORMAT
BEGIN_DATA
 1	0	0	0	0.04577636719	0.04577636719	0.04577636719
 2	1	1	1	57.90710449	38.40637207	43.76220703
 3	1	0	0	37.21618652	3.570556641	5.310058594
 4	0	1	0	19.22607422	27.60314941	12.26806641
 5	0	0	1	0.8239746094	7.186889648	25.86364746
 6	0	0	0	0.04577636719	0.04577636719	0.04577636719
 7	1	1	1	58.27331543	38.4979248	43.62487793
 8	1	0	0	37.12463379	3.570556641	5.310058594
 9	0	1	0	19.08874512	27.60314941	12.22229004
 10	0	0	1	0.8239746094	7.232666016	25.72631836
 11	0	0	0	0.04577636719	0.04577636719	0.04577636719
 12	1	1	1	58.27331543	38.4979248	43.6706543
 13	1	0	0	36.94152832	3.570556641	5.310058594
 14	0	1	0	19.08874512	27.55737305	12.26806641
 15	0	0	1	0.8239746094	7.232666016	25.68054199
END_DATA
