data/calibration-001607.ti3
CTI3   
ORIGINATOR	"ColorHug Factory"
DESCRIPTOR	"Calibration Target chart information 3"
DEVICE_CLASS	"DISPLAY"
COLOR_REP	"RGB_XYZ"
TARGET_INSTRUMENT	"Hughski ColorHug"
INSTRUMENT_TYPE_SPECTRAL	"NO"
NORMALIZED_TO_Y_100	"NO"
NUMBER_OF_FIELDS	7
NUMBER_OF_SETS	15
BEGIN_DATA_FORMAT
 SAMPLE_ID	RGB_R	RGB_G	RGB_B	XYZ_X	XYZ_Y	XYZ_Z
END_DATA_FORMAT
BEGIN_DATA
 1	0	0	0	0.1373291016	0.1373291016	0.1831054688
 2	1	1	1	40.28320312	40.8782959	51.58996582
 3	1	0	0	23.94104004	3.067016602	3.982543945
 4	0	1	0	14.05334473	28.74755859	13.18359375
 5	0	0	1	1.052856445	9.063720703	33.82873535
 6	0	0	0	0.1373291016	0.1373291016	0.1831054688
 7	1	1	1	40.42053223	41.1529541	51.63574219
 8	1	0	0	23.66638184	3.067016602	3.982543945
 9	0	1	0	13.96179199	28.51867676	13.22937012
 10	0	0	1	1.052856445	9.063720703	33.82873535
 11	0	0	0	0.1373291016	0.1373291016	0.1831054688
 12	1	1	1	40.37475586	41.1529541	51.68151855
 13	1	0	0	23.66638184	3.067016602	3.982543945
 14	0	1	0	13.96179199	28.61022949	13.32092285
 15	0	0	1	1.052856445	9.063720703	33.87451172
END_DATA
