data/calibration-000520.ti3
CTI3
ORIGINATOR	"ColorHug Factory"
DESCRIPTOR	"Calibration Target chart information 3"
DEVICE_CLASS	"DISPLAY"
COLOR_REP	"RGB_XYZ"
TARGET_INSTRUMENT	"Hughski ColorHug"
INSTRUMENT_TYPE_SPECTRAL	"NO"
NORMALIZED_TO_Y_100	"NO"
NUMBER_OF_FIELDS	7
NUMBER_OF_SETS	15
BEGIN_DATA_FORMAT
 SAMPLE_ID	RGB_R	RGB_G	RGB_B	XYZ_X	XYZ_Y	XYZ_Z
END_DATA_FORMAT
BEGIN_DATA
 1	0	0	0	0.04577636719	0	0.04577636719
 2	1	1	1	59.32617188	40.10009766	46.55456543
 3	1	0	0	37.53662109	3.753662109	5.493164062
 4	0	1	0	19.86694336	28.65600586	13.18359375
 5	0	0	1	0.9613037109	7.598876953	27.64892578
 6	0	0	0	0.04577636719	0	0.04577636719
 7	1	1	1	59.0057373	40.10009766	46.50878906
 8	1	0	0	37.53662109	3.753662109	5.493164062
 9	0	1	0	19.86694336	28.56445312	13.13781738
 10	0	0	1	0.9613037109	7.598876953	27.60314941
 11	0	0	0	0.04577636719	0.04577636719	0.04577636719
 12	1	1	1	59.41772461	39.68811035	46.32568359
 13	1	0	0	37.39929199	3.753662109	5.493164062
 14	0	1	0	19.91271973	28.33557129	13.09204102
 15	0	0	1	0.9613037109	7.598876953	27.64892578
END_DATA
