data/calibration-002702.ti3
CTI3   
ORIGINATOR	"ColorHug Factory"
CREATED	"Thu Mar 26 20:16:48 2015"
DESCRIPTOR	"Calibration Target chart information 3"
DEVICE_CLASS	"DISPLAY"
COLOR_REP	"RGB_XYZ"
TARGET_INSTRUMENT	"Hughski ColorHug"
INSTRUMENT_TYPE_SPECTRAL	"NO"
NORMALIZED_TO_Y_100	"NO"
NUMBER_OF_FIELDS	7
NUMBER_OF_SETS	15
BEGIN_DATA_FORMAT
 SAMPLE_ID	RGB_R	RGB_G	RGB_B	XYZ_X	XYZ_Y	XYZ_Z
END_DATA_FORMAT
BEGIN_DATA
 1.0	0.0	0.0	0.0	0.321990966797	0.383193969727	0.411529541016
 2.0	1.0	1.0	1.0	49.648483276367	53.54248046875	54.979858398438
 3.0	1.0	0.0	0.0	33.99169921875	3.678482055664	5.053665161133
 4.0	0.0	1.0	0.0	14.173004150391	39.384613037109	14.89453125
 5.0	0.0	0.0	1.0	2.011291503906	10.937240600586	35.158798217773
 6.0	0.0	0.0	0.0	0.322402954102	0.383758544922	0.411712646484
 7.0	1.0	1.0	1.0	49.349395751953	53.194793701172	54.979858398438
 8.0	1.0	0.0	0.0	33.851226806641	3.688415527344	5.053665161133
 9.0	0.0	1.0	0.0	14.051452636719	39.384613037109	14.89453125
 10.0	0.0	0.0	1.0	1.999984741211	10.951858520508	35.158798217773
 11.0	0.0	0.0	0.0	0.323226928711	0.384201049805	0.410934448242
 12.0	1.0	1.0	1.0	49.648483276367	53.54248046875	55.727890014648
 13.0	1.0	0.0	0.0	33.573760986328	3.686767578125	5.081878662109
 14.0	0.0	1.0	0.0	14.222213745117	39.384613037109	15.003662109375
 15.0	0.0	0.0	1.0	2.00390625	10.879135131836	34.859573364258
END_DATA
