data/calibration-002272.ti3
CTI3   
ORIGINATOR	"ColorHug Factory"
CREATED	"Tue Jan 21 19:31:23 2014"
DESCRIPTOR	"Calibration Target chart information 3"
DEVICE_CLASS	"DISPLAY"
COLOR_REP	"RGB_XYZ"
TARGET_INSTRUMENT	"Hughski ColorHug"
INSTRUMENT_TYPE_SPECTRAL	"NO"
NORMALIZED_TO_Y_100	"NO"
NUMBER_OF_FIELDS	7
NUMBER_OF_SETS	15
BEGIN_DATA_FORMAT
 SAMPLE_ID	RGB_R	RGB_G	RGB_B	XYZ_X	XYZ_Y	XYZ_Z
END_DATA_FORMAT
BEGIN_DATA
 1.0	0.0	0.0	0.0	0.295974731445	0.27653503418	0.31770324707
 2.0	1.0	1.0	1.0	74.472717285156	34.859573364258	53.894729614258
 3.0	1.0	0.0	0.0	47.352600097656	3.803146362305	6.0546875
 4.0	0.0	1.0	0.0	22.882675170898	22.382507324219	11.505615234375
 5.0	0.0	0.0	1.0	1.455307006836	8.724166870117	36.408874511719
 6.0	0.0	0.0	0.0	0.300094604492	0.280258178711	0.322402954102
 7.0	1.0	1.0	1.0	74.472717285156	34.859573364258	53.894729614258
 8.0	1.0	0.0	0.0	47.627899169922	3.833404541016	6.03239440918
 9.0	0.0	1.0	0.0	23.076049804688	22.567489624023	11.377777099609
 10.0	0.0	0.0	1.0	1.458419799805	8.770874023438	35.929809570312
 11.0	0.0	0.0	0.0	0.303619384766	0.283477783203	0.326263427734
 12.0	1.0	1.0	1.0	74.472717285156	34.711853027344	53.894729614258
 13.0	1.0	0.0	0.0	46.811416625977	3.81022644043	6.0771484375
 14.0	0.0	1.0	0.0	23.01123046875	22.443832397461	11.299301147461
 15.0	0.0	0.0	1.0	1.467559814453	8.742782592773	36.408874511719
END_DATA
