data/calibration-000873.ti3
CTI3   
ORIGINATOR	"ColorHug Factory"
DESCRIPTOR	"Calibration Target chart information 3"
DEVICE_CLASS	"DISPLAY"
COLOR_REP	"RGB_XYZ"
TARGET_INSTRUMENT	"Hughski ColorHug"
INSTRUMENT_TYPE_SPECTRAL	"NO"
NORMALIZED_TO_Y_100	"NO"
NUMBER_OF_FIELDS	7
NUMBER_OF_SETS	15
BEGIN_DATA_FORMAT
 SAMPLE_ID	RGB_R	RGB_G	RGB_B	XYZ_X	XYZ_Y	XYZ_Z
END_DATA_FORMAT
BEGIN_DATA
 1	0	0	0	0	0	0.04577636719
 2	1	1	1	53.92456055	37.26196289	42.57202148
 3	1	0	0	34.24072266	3.570556641	5.401611328
 4	0	1	0	17.94433594	26.55029297	12.26806641
 5	0	0	1	0.7781982422	7.141113281	24.58190918
 6	0	0	0	0	0	0.04577636719
 7	1	1	1	54.10766602	37.39929199	42.75512695
 8	1	0	0	34.19494629	3.570556641	5.401611328
 9	0	1	0	17.9901123	26.41296387	12.26806641
 10	0	0	1	0.7781982422	7.141113281	24.58190918
 11	0	0	0	0	0	0.04577636719
 12	1	1	1	54.24499512	37.49084473	42.70935059
 13	1	0	0	34.01184082	3.524780273	5.401611328
 14	0	1	0	18.08166504	26.45874023	12.22229004
 15	0	0	1	0.7781982422	7.186889648	24.62768555
END_DATA
