data/calibration-001993.ti3
CTI3   
ORIGINATOR	"ColorHug Factory"
CREATED	"Sun May 26 09:45:32 2013"
DESCRIPTOR	"Calibration Target chart information 3"
DEVICE_CLASS	"DISPLAY"
COLOR_REP	"RGB_XYZ"
TARGET_INSTRUMENT	"Hughski ColorHug"
INSTRUMENT_TYPE_SPECTRAL	"NO"
NORMALIZED_TO_Y_100	"NO"
NUMBER_OF_FIELDS	7
NUMBER_OF_SETS	15
BEGIN_DATA_FORMAT
 SAMPLE_ID	RGB_R	RGB_G	RGB_B	XYZ_X	XYZ_Y	XYZ_Z
END_DATA_FORMAT
BEGIN_DATA
 1	0	0	0	0	0.0457763671875	0.091552734375
 2	1	1	1	31.8603515625	38.63525390625	52.093505859375
 3	1	0	0	18.49365234375	2.655029296875	3.2958984375
 4	0	1	0	11.810302734375	26.458740234375	12.63427734375
 5	0	0	1	0.91552734375	9.429931640625	36.712646484375
 6	0	0	0	0	0.0457763671875	0.091552734375
 7	1	1	1	31.494140625	38.177490234375	52.5054931640625
 8	1	0	0	18.4478759765625	2.7008056640625	3.2958984375
 9	0	1	0	11.8560791015625	26.5960693359375	12.542724609375
 10	0	0	1	0.91552734375	9.3841552734375	36.3922119140625
 11	0	0	0	0	0.0457763671875	0.091552734375
 12	1	1	1	31.9061279296875	38.6810302734375	52.642822265625
 13	1	0	0	18.6309814453125	2.655029296875	3.2958984375
 14	0	1	0	11.8560791015625	26.5045166015625	12.5885009765625
 15	0	0	1	0.91552734375	9.429931640625	36.8499755859375
END_DATA
