data/calibration-001703.ti3
CTI3   
ORIGINATOR	"ColorHug Factory"
CREATED	"Thu Feb 14 23:25:41 2013"
DESCRIPTOR	"Calibration Target chart information 3"
DEVICE_CLASS	"DISPLAY"
COLOR_REP	"RGB_XYZ"
TARGET_INSTRUMENT	"Hughski ColorHug"
INSTRUMENT_TYPE_SPECTRAL	"NO"
NORMALIZED_TO_Y_100	"NO"
NUMBER_OF_FIELDS	7
NUMBER_OF_SETS	15
BEGIN_DATA_FORMAT
 SAMPLE_ID	RGB_R	RGB_G	RGB_B	XYZ_X	XYZ_Y	XYZ_Z
END_DATA_FORMAT
BEGIN_DATA
 1	0	0	0	0.1831054688	0.1831054688	0.2288818359
 2	1	1	1	33.82873535	33.05053711	42.93823242
 3	1	0	0	20.14160156	2.471923828	3.25012207
 4	0	1	0	11.71875	23.11706543	10.62011719
 5	0	0	1	0.8697509766	7.461547852	29.0222168
 6	0	0	0	0.1831054688	0.1831054688	0.2288818359
 7	1	1	1	33.82873535	33.05053711	42.98400879
 8	1	0	0	20.14160156	2.471923828	3.25012207
 9	0	1	0	11.71875	23.1628418	10.62011719
 10	0	0	1	0.8697509766	7.461547852	29.06799316
 11	0	0	0	0.1831054688	0.1831054688	0.2288818359
 12	1	1	1	33.59985352	33.05053711	43.02978516
 13	1	0	0	20.05004883	2.471923828	3.25012207
 14	0	1	0	11.76452637	23.1628418	10.57434082
 15	0	0	1	0.8697509766	7.461547852	28.93066406
END_DATA
