data/calibration-000235.ti3
CTI3
DESCRIPTOR	"Calibration Target chart information 3"
ORIGINATOR	"ColorHug Factory"
DEVICE_CLASS	"DISPLAY"
COLOR_REP	"RGB_XYZ"
TARGET_INSTRUMENT	"ColorHug"
INSTRUMENT_TYPE_SPECTRAL	"NO"
LUMINANCE_XYZ_CDM2	"59.852600 43.888092 48.362732"
NORMALIZED_TO_Y_100	"YES"
NUMBER_OF_FIELDS	7
NUMBER_OF_SETS	836
BEGIN_DATA_FORMAT
 SAMPLE_ID	RGB_R	RGB_G	RGB_B	XYZ_X	XYZ_Y	XYZ_Z
END_DATA_FORMAT
BEGIN_DATA
 1	100	100	100	130.0312826	99.89572471	110.0104275
 2	100	100	100	138.4775808	100	110.2189781
 3	100	100	100	138.4775808	100	110.2189781
 4	100	100	100	138.3733055	100	110.2189781
 5	33.33	32.622	30.968	10.84462982	7.924921794	8.133472367
 6	100	0	100	85.40145985	27.11157456	77.68508863
 7	100	100	0	135.8706986	81.54327424	44.31699687
 8	0	100	100	46.19395203	90.51094891	96.97601668
 9	0	100	0	43.89989572	70.90719499	31.28258603
 10	0	0	100	2.294056309	18.35245047	65.48488008
 11	100	0	0	83.62877998	8.863399374	12.20020855
 12	0	0	0	0.2085505735	0.2085505735	0.3128258603
 13	0	52.455	100	11.7831074	34.09801877	72.15849844
 14	100	0	50.3	83.10740355	12.51303441	24.92179353
 15	100	54.739	100	97.39311783	44.52554745	85.40145985
 16	100	52.128	0	95.09906152	24.19186653	19.08237748
 17	0	0	46.181	0.5213764338	3.023983316	10.42752868
 18	0	51.141	0	9.593326382	14.91136601	6.673618352
 19	0	100	51.348	44.21272158	75.18248175	44.62982273
 20	100	100	52.037	137.1220021	85.40145985	58.49843587
 21	49.216	0	0	16.16266945	1.876955162	2.502606882
 22	56.159	100	0	66.84045881	74.55683003	34.51511992
 23	49.226	100	100	62.87799791	92.49217935	99.47862357
 24	44.487	0	100	14.70281543	19.81230448	67.15328467
 25	100	44.498	52.029	92.28362878	23.87904067	30.96976017
 26	48.926	48.544	100	26.27737226	33.26381648	73.51407716
 27	51.368	100	47.25	62.9822732	77.1637122	45.35974974
 28	49.893	0	49.033	16.99687174	5.318039625	14.70281543
 29	53.109	51.372	0	28.57142857	16.89259645	9.489051095
 30	0	58.587	53.943	13.3472367	24.19186653	23.67049009
 31	100	28.065	100	87.59124088	31.69968717	79.87486966
 32	0	0	72.874	1.147028154	8.237747654	28.98852972
 33	0	26.758	100	4.275286757	22.31491137	66.73618352
 34	0	25.426	0	2.398331595	3.54535975	1.772679875
 35	72.508	0	100	39.41605839	22.52346194	70.90719499
 36	100	27.395	0	86.23566215	12.82586027	13.97288843
 37	74.47	100	100	89.15537018	95.3076121	103.649635
 38	100	0	25.728	83.31595412	9.801876955	15.32846715
 39	73.862	0	0	39.62460897	4.379562044	5.943691345
 40	100	100	25.402	136.9134515	82.6903024	47.86235662
 41	0	75.751	100	24.92179353	54.74452555	81.96037539
 42	0	75.172	0	22.41918665	34.93222106	15.53701773
 43	0	100	25.864	43.89989572	71.94994786	34.20229406
 44	100	0	74.801	84.35870699	17.62252346	43.48279458
 45	0	100	75.421	44.73409802	80.60479666	63.50364964
 46	24.577	0	0	3.85818561	0.5213764338	0.7299270073
 47	26.321	100	0	48.59228363	72.36704901	32.01251303
 48	100	75.835	0	111.1574557	45.04692388	28.57142857
 49	100	100	77.061	137.6433785	90.92805005	78.93639208
 50	71.263	100	0	83.21167883	76.32950991	37.33055266
 51	0	0	15.614	0.2085505735	0.5213764338	1.355578728
 52	0	30.049	70.936	3.962460897	12.6173097	29.50990615
 53	100	77.691	100	114.4942649	66.52763295	95.62043796
 54	24.486	100	100	49.94786236	91.03232534	98.01876955
 55	100	62.784	31.909	101.6684046	33.68091762	27.94577685
 56	29.552	0	100	7.40354536	19.08237748	66.73618352
 57	32.98	70.921	100	28.77997914	50.3649635	80.70907195
 58	0	27.681	40.241	3.023983316	6.360792492	9.801876955
 59	67.901	71.021	100	54.95307612	52.97184567	84.46298227
 60	28.154	100	67.829	49.73931178	79.77059437	57.14285714
 61	71.637	100	70.001	84.77580813	84.15015641	64.5464025
 62	58.822	58.763	53.586	37.0177268	26.90302398	27.00729927
 63	33.466	30.48	0	10.32325339	5.839416058	3.441084463
 64	100	73.795	71.277	110.2189781	51.1991658	56.10010428
 65	68.394	29.692	0	36.39207508	8.342022941	7.090719499
 66	70.399	0	29.039	35.4535975	5.109489051	9.384775808
 67	28.078	0	26.956	5.213764338	1.668404588	4.379562044
 68	28.532	72.339	0	25.86027112	32.53388947	15.01564129
 69	100	30.941	26.496	87.59124088	15.01564129	17.83107404
 70	34.597	0	73.611	8.446298227	9.384775808	31.38686131
 71	71.573	0	72.408	37.43482795	12.20020855	34.41084463
 72	0	71.029	29.412	20.22940563	32.42961418	17.93534932
 73	68.386	75.008	0	56.83003128	38.79040667	20.54223149
 74	68.088	27.309	100	37.43482795	26.27737226	72.78415016
 75	100	26.457	73.749	87.06986444	21.2721585	44.42127216
 76	74.344	100	27.392	88.00834202	78.10218978	41.08446298
 77	27.558	100	28.197	49.11366006	73.72262774	35.87069864
 78	31.196	27.465	100	10.53180396	23.35766423	68.82168926
 79	0	75.521	72.824	23.67049009	43.89989572	45.25547445
 80	0	50.93	25.553	9.593326382	15.64129301	9.697601668
 81	32.06	33.584	64.033	11.0531804	13.03441084	25.65172054
 82	81.666	55.38	0	62.77372263	23.35766423	15.43274244
 83	68.257	32.751	58.286	37.85192909	14.49426486	25.2346194
 84	0	55.248	81.585	12.40875912	28.57142857	46.81960375
 85	73.781	52.099	100	52.03336809	38.47758081	79.14494265
 86	100	50.537	82.952	95.3076121	34.72367049	59.12408759
 87	23.55	0	50.439	4.066736184	4.17101147	13.45151199
 88	31.335	62.746	31.114	21.58498436	25.44316997	16.05839416
 89	100	18.31	49.418	85.50573514	14.181439	25.65172054
 90	26.498	48.404	0	13.03441084	13.76433785	6.673618352
 91	47.91	100	85.744	61.00104275	86.44421272	78.10218978
 92	71.829	47.313	31.811	45.6725756	18.03962461	16.05839416
 93	31.304	64.132	69.316	22.8362878	32.63816475	38.26903024
 94	80.403	0	54.321	49.00938478	9.593326382	22.52346194
 95	18.455	50.036	100	13.13868613	33.26381648	72.78415016
 96	50.653	100	16.345	62.35662148	74.55683003	35.34932221
 97	80.121	100	52.261	96.8717414	81.96037539	53.28467153
 98	0	22.54	19.289	1.981230448	3.441084463	3.232533889
 99	100	75.273	46.886	110.3232534	47.86235662	39.52033368
 100	0	78.618	56.625	25.44316997	43.79562044	33.99374348
 101	51.137	80.627	100	45.88112617	62.14807091	87.27841502
 102	48.446	0	17.864	15.64129301	2.294056309	4.066736184
 103	100	50.023	21.211	94.26485923	23.67049009	20.95933264
 104	50.115	20.118	0	18.1438999	4.17101147	3.649635036
 105	58.099	72.426	33.158	44.42127216	35.97497393	22.94056309
 106	19.364	100	50.197	46.71532847	76.12095933	44.42127216
 107	50.683	19.177	100	20.33368092	22.41918665	69.44734098
 108	53.37	0	81.576	20.33368092	13.13868613	42.02294056
 109	47.768	76.245	0	38.16475495	38.06047967	18.35245047
 110	0	18.927	55.503	1.876955162	6.569343066	16.68404588
 111	0	13.277	0	0.8342022941	1.147028154	0.7299270073
 112	72.862	72.473	75.625	60.47966632	45.35974974	52.45046924
 113	100	13.904	0	84.15015641	9.906152242	12.72158498
 114	86.349	0	100	59.43691345	24.71324296	74.24400417
 115	100	41.941	100	91.97080292	37.22627737	82.89885297
 116	100	81.785	16.464	116.2669447	52.7632951	33.0552659
 117	0	44.063	52.596	7.507820647	14.91136601	19.08237748
 118	0	0	58.917	0.8342022941	5.213764338	17.93534932
 119	59.25	24.551	29.789	26.48592284	7.090719499	9.280500521
 120	82.73	82.874	100	83.83733055	69.23879041	93.84775808
 121	80.039	0	12.618	48.07090719	5.526590198	8.02919708
 122	60.957	47.729	77.817	34.72367049	25.54744526	44.21272158
 123	100	0	38.618	83.21167883	10.94890511	19.49947862
 124	0	40.09	100	7.612095933	27.63295099	70.17726799
 125	0	15.283	82.322	1.981230448	12.51303441	40.1459854
 126	17.592	81.726	100	31.17831074	62.46089677	86.02711157
 127	100	14.13	100	86.02711157	28.57142857	79.04066736
 128	15.261	100	82.059	46.61105318	82.79457769	71.84567258
 129	47.77	79.418	60.389	41.29301356	47.2367049	39.20750782
 130	18.768	16.429	0	3.336809176	1.876955162	1.251303441
 131	55.634	100	65.763	66.73618352	81.43899896	58.2898853
 132	100	100	38.541	136.7049009	84.15015641	52.55474453
 133	17.421	0	83.497	3.232533889	11.7831074	41.50156413
 134	17.237	16.758	100	4.796663191	20.33368092	66.84045881
 135	0	15.067	30.039	1.147028154	2.606882169	5.005213764
 136	0	0	86.505	1.668404588	12.6173097	44.83837331
 137	75.736	72.799	50.02	64.96350365	41.18873827	33.68091762
 138	100	83.323	85.529	119.0823775	67.67466111	77.68508863
 139	100	100	64.894	137.3305527	88.63399374	67.88321168
 140	81.98	84.914	0	83.62877998	53.18039625	28.57142857
 141	0	63.757	15.49	15.64129301	24.50469239	11.99165798
 142	49.514	66.135	100	35.03649635	46.81960375	80.60479666
 143	100	0	61.862	83.73305527	14.59854015	32.53388947
 144	24.308	45.41	49.831	11.47028154	15.64129301	18.45672576
 145	15.963	0	17.047	1.876955162	0.7299270073	1.876955162
 146	87.497	100	100	110.7403545	98.22732013	107.9249218
 147	52.099	25.003	75.752	21.37643379	14.59854015	37.12200209
 148	14.909	81.162	0	28.46715328	42.12721585	18.8738269
 149	0	34.792	14.626	4.379562044	6.986444213	4.17101147
 150	48.39	45.075	22.552	23.04483837	13.76433785	9.906152242
 151	83.545	65.965	100	73.30552659	51.40771637	86.54848801
 152	16.226	62.345	0	16.57977059	22.94056309	10.53180396
 153	63.222	0	14.914	27.94577685	3.54535975	5.422314911
 154	80.449	13.446	0	49.42648592	6.465067779	7.71637122
 155	83.917	41.562	0	60.06256517	15.32846715	12.20020855
 156	100	60.448	46.3	100	33.68091762	33.26381648
 157	15.584	0	34.795	1.981230448	1.981230448	6.152241919
 158	17.144	65.121	100	20.12513034	44.83837331	78.10218978
 159	83.602	55.334	62.667	66.42335766	29.50990615	36.91345151
 160	0	82.19	14.22	27.84150156	43.79562044	20.33368092
 161	25.132	74.856	50.616	26.90302398	38.89468196	29.19708029
 162	0	13.769	100	2.502606882	19.7080292	66.63190824
 163	87.181	0	0	58.70698644	6.465067779	8.759124088
 164	0	100	39.19	44.42127216	73.93117831	38.99895725
 165	78.047	65.914	19.865	62.77372263	31.80396246	20.4379562
 166	100	63.961	15.865	102.2940563	33.99374348	24.71324296
 167	100	45.955	36.032	92.70072993	22.73201251	24.08759124
 168	15.926	100	16.89	45.88112617	71.94994786	32.84671533
 169	41.459	100	0	55.68300313	73.40980188	32.95099062
 170	48.707	37.288	48.139	21.16788321	12.82586027	17.51824818
 171	83.381	100	13.285	101.459854	79.14494265	40.87591241
 172	78.129	25.303	75.621	48.17518248	17.51824818	40.87591241
 173	12.396	0	0	1.251303441	0.3128258603	0.417101147
 174	37.607	48.336	83.346	18.76955162	26.06882169	48.8008342
 175	35.588	15.356	0	8.863399374	2.398331595	1.981230448
 176	61.245	100	100	73.30552659	94.26485923	102.5026069
 177	100	67.29	87.195	105.3180396	49.6350365	71.42857143
 178	0	0	30.615	0.417101147	1.459854015	4.588112617
 179	35.187	81.789	83.323	36.49635036	55.78727842	61.93952033
 180	39.525	80.194	22.879	36.49635036	42.85714286	22.10636079
 181	50.634	34.593	0	21.48070907	8.446298227	5.630865485
 182	14.175	100	63.146	45.88112617	78.41501564	53.38894682
 183	83.493	17.728	34.574	53.91032325	9.176225235	14.38998957
 184	23.463	22.014	79.943	6.256517205	13.45151199	38.79040667
 185	18.066	31.847	0	5.839416058	5.839416058	2.919708029
 186	87.201	100	81.361	109.801877	90.61522419	80.60479666
 187	0	100	87.95	45.77685089	85.818561	78.93639208
 188	34.476	17.888	46.22	8.863399374	5.735140772	12.6173097
 189	18.277	0	67.39	2.919708029	7.194994786	24.92179353
 190	100	87.972	0	122.9405631	61.31386861	35.97497393
 191	82.925	34.85	100	58.49843587	31.28258603	77.58081335
 192	0	88.016	100	34.41084463	70.38581856	89.36392075
 193	36.104	85.655	100	40.87591241	68.5088634	89.67674661
 194	60.981	0	0	25.65172054	2.919708029	3.962460897
 195	51.466	61.826	78.106	33.36809176	34.41084463	48.27945777
 196	78.427	31.983	22.175	49.11366006	11.15745568	11.67883212
 197	66.017	44.321	0	37.85192909	14.49426486	9.593326382
 198	83.941	0	84.177	55.05735141	17.72679875	50.57351408
 199	20.158	46.612	23.269	10.53180396	13.24296142	8.550573514
 200	0	100	62.618	44.73409802	77.78936392	52.45046924
 201	33.832	0	13.933	7.299270073	1.251303441	2.294056309
 202	100	17.286	16.322	84.15015641	10.94890511	14.38998957
 203	0	42.204	83.926	7.612095933	22.00208551	46.61105318
 204	0	87.774	0	32.11678832	50.78206465	22.52346194
 205	64.988	0	59.017	29.9270073	8.550573514	22.8362878
 206	14.677	0	100	3.336809176	18.8738269	66.42335766
 207	88.934	82.673	35.021	93.22210636	52.86757039	35.03649635
 208	0	63.778	100	17.41397289	43.37851929	77.78936392
 209	83.429	17.674	100	55.57872784	26.27737226	75.39103233
 210	30.899	100	85.668	52.03336809	86.13138686	77.68508863
 211	83.68	0	41.016	53.18039625	8.237747654	16.37122002
 212	100	63.515	0	101.7726799	32.95099062	23.14911366
 213	85.074	69.987	0	75.91240876	35.97497393	21.68925965
 214	20.801	45.524	69.018	11.15745568	19.49947862	31.80396246
 215	21.382	82.482	73.017	31.80396246	53.28467153	50.57351408
 216	100	15.128	64.249	85.29718457	16.37122002	35.34932221
 217	36.522	0	58.427	9.071949948	6.047966632	19.18665276
 218	22.466	81.296	33.007	30.65693431	44.42127216	24.71324296
 219	62.531	87.152	0	59.95828989	53.49322211	26.38164755
 220	84.12	85.397	67.886	86.96558916	61.62669447	55.68300313
 221	18.87	27.336	45.389	5.318039625	7.299270073	12.6173097
 222	66.439	100	14.444	77.37226277	76.32950991	37.53910323
 223	41.636	22.147	19.003	13.13868613	4.588112617	4.900938478
 224	61.271	100	81.94	72.26277372	86.86131387	76.01668405
 225	86.013	100	0	106.8821689	79.45776851	40.9801877
 226	37.57	0	0	8.967674661	1.147028154	1.564129301
 227	100	16.132	84.102	85.61001043	22.52346194	55.78727842
 228	0	100	13.619	43.89989572	72.36704901	32.53388947
 229	38.905	100	56.471	54.84880083	78.62356621	50.3649635
 230	100	15.382	34.563	84.77580813	11.99165798	18.8738269
 231	36.656	14.908	100	11.26173097	21.06360792	68.40458811
 232	0	62.593	66.608	15.7455683	30.13555787	34.6193952
 233	66.347	12.528	100	33.68091762	23.14911366	71.637122
 234	100	43.375	69.233	91.76225235	27.21584984	43.79562044
 235	100	56.36	61.236	98.12304484	33.26381648	41.18873827
 236	0	86.194	44.955	31.38686131	51.92909281	31.80396246
 237	64.527	87.262	100	63.71220021	73.2012513	94.16058394
 238	34.411	0	42.471	7.71637122	3.54535975	10.32325339
 239	80.23	59.707	85.12	63.8164755	38.89468196	61.00104275
 240	20.625	19.056	14.791	4.17101147	2.815432742	2.606882169
 241	15.341	34.221	100	7.612095933	25.54744526	70.0729927
 242	36.777	0	87.905	9.906152242	14.38998957	48.69655892
 243	34.598	56.247	100	21.48070907	38.16475495	76.32950991
 244	20.86	67.629	17.418	20.75078206	28.57142857	14.38998957
 245	44.958	60.843	18.054	27.5286757	23.87904067	13.45151199
 246	37.421	60.193	0	22.8362878	22.31491137	10.94890511
 247	84.011	33.849	42.612	58.2898853	14.70281543	19.91657977
 248	17.241	60.339	37.743	15.95411887	23.67049009	16.99687174
 249	50.65	17.261	53.278	18.8738269	7.820646507	18.03962461
 250	45.505	48.926	65.152	23.14911366	21.79353493	31.4911366
 251	44.567	84.081	39.649	42.33576642	49.73931178	30.23983316
 252	100	86.339	72.054	122.2106361	67.46611053	64.65067779
 253	68.14	61.135	0	47.75808133	25.65172054	14.70281543
 254	17.93	66.986	81.403	20.64650678	38.47758081	52.03336809
 255	39.242	60.215	48.926	24.19186653	26.06882169	23.25338895
 256	20.099	18.77	62.967	4.588112617	8.342022941	22.62773723
 257	34.553	100	14.582	51.92909281	73.30552659	33.8894682
 258	87.345	0	66.694	59.74973931	13.3472367	33.36809176
 259	0	43.714	39.842	7.194994786	13.03441084	12.72158498
 260	100	37.705	13.955	89.46819604	17.10114703	16.99687174
 261	31.265	86.993	0	37.64337852	50.67778936	22.94056309
 262	51.402	82.661	81.338	47.34098019	57.76850886	61.4181439
 263	100	100	12.984	135.8706986	82.58602711	46.19395203
 264	0	37.859	0	5.213764338	7.924921794	3.649635036
 265	62.092	58.215	100	41.50156413	41.7101147	79.97914494
 266	86.186	100	64.1	107.2992701	85.71428571	63.50364964
 267	100	35.251	85.898	89.36392075	28.57142857	60.68821689
 268	63.182	89.992	41.974	63.50364964	60.58394161	37.22627737
 269	13.504	100	0	45.25547445	71.637122	31.80396246
 270	100	0	13.228	82.79457769	9.176225235	13.24296142
 271	63.881	40.826	100	36.49635036	31.59541189	75.70385819
 272	69.387	84.838	20.792	65.3806048	51.82481752	28.25860271
 273	0	70.279	45.136	19.7080292	33.36809176	23.98331595
 274	79.094	64.754	40.908	64.02502607	32.63816475	26.69447341
 275	62.385	54.099	17.396	38.16475495	20.22940563	13.13868613
 276	64.408	14.621	0	29.82273201	4.588112617	5.005213764
 277	70.028	15.606	44.651	35.97497393	8.133472367	15.95411887
 278	0	63.544	0	15.53701773	24.19186653	10.84462982
 279	83.475	47.274	20.502	61.52241919	18.97810219	15.64129301
 280	55.866	0	32.671	21.48070907	3.962460897	8.446298227
 281	58.007	0	100	24.81751825	21.37643379	70.49009385
 282	100	0	87.698	84.56725756	22.10636079	59.74973931
 283	0	13.792	67.215	1.564129301	8.237747654	25.2346194
 284	84.123	17.001	58.549	55.57872784	12.6173097	27.00729927
 285	59.579	32.873	15.966	28.15432742	8.863399374	7.612095933
 286	10.41	32.998	28.659	4.900938478	7.299270073	6.882168926
 287	17.231	40.031	85.65	8.863399374	21.79353493	48.90510949
 288	37.568	41.561	10.108	15.11991658	10.74035454	6.256517205
 289	0	69.015	85.092	19.81230448	41.50156413	56.51720542
 290	14.442	100	36.187	45.77685089	74.0354536	38.37330553
 291	100	40.549	0	90.09384776	18.03962461	16.47549531
 292	82.143	45.435	78.429	59.95828989	27.32012513	48.59228363
 293	52.674	0	67.3	19.49947862	9.176225235	27.84150156
 294	0	87.868	66.793	33.36809176	58.81126173	47.54953076
 295	86.53	100	40.524	107.5078206	81.75182482	49.21793535
 296	71.777	85.586	67.232	69.96871741	59.8540146	52.13764338
 297	43.216	100	31.671	56.725756	74.97393118	38.47758081
 298	39.245	32.908	85.845	15.01564129	19.49947862	49.00938478
 299	0	45.662	67.543	8.342022941	19.08237748	30.65693431
 300	12.161	100	100	47.02815433	92.17935349	99.68717414
 301	67.049	0	85.516	32.84671533	16.05839416	49.53076121
 302	100	89.041	100	125.1303441	82.37747654	104.4838373
 303	20.246	60.698	56.526	17.10114703	26.7987487	27.00729927
 304	52.177	55.457	40.416	30.23983316	22.31491137	19.08237748
 305	72.617	87.018	83.932	73.2012513	67.15328467	71.42857143
 306	40.512	16.723	66.475	12.40875912	9.697601668	26.69447341
 307	68.507	49.232	50.605	42.544317	21.2721585	24.60896767
 308	65.622	100	54.525	77.58081335	81.02189781	52.55474453
 309	54.115	37.24	66.394	25.33889468	16.68404588	30.76120959
 310	100	76.138	31.267	111.7831074	47.44525547	33.99374348
 311	54.728	65.623	0	37.33055266	28.05005214	14.59854015
 312	63.126	12.526	64.37	28.88425443	10.42752868	27.5286757
 313	72.827	18.08	23.704	39.31178311	6.882168926	9.384775808
 314	23.268	15.278	34.947	4.588112617	3.54535975	7.194994786
 315	87.648	68.954	59.645	80.91762252	41.29301356	41.50156413
 316	0	85.595	85.198	32.01251303	61.31386861	66.00625652
 317	35.798	84.371	69.21	38.5818561	55.68300313	49.00938478
 318	36.062	47.494	35.919	16.78832117	15.64129301	13.3472367
 319	86.083	36.277	59.152	62.9822732	18.76955162	30.44838373
 320	58.21	100	30.361	68.61313869	76.22523462	39.93743483
 321	46.745	14.614	32.317	15.64129301	4.483837331	7.924921794
 322	81.573	73.869	86.954	75.39103233	53.18039625	69.76016684
 323	85.991	49.387	48.206	67.04900938	23.46193952	26.69447341
 324	28.062	87.906	19.654	37.74765381	52.97184567	25.54744526
 325	68.992	17.993	85.124	36.1835245	17.93534932	50.46923879
 326	100	66.147	100	104.5881126	54.64025026	91.97080292
 327	33.358	64.806	84.517	24.71324296	38.68613139	56.10010428
 328	41.351	17.736	80.522	13.3472367	13.86861314	41.18873827
 329	100	100	88.719	138.5818561	96.8717414	94.89051095
 330	66.336	0	44.32	31.4911366	6.360792492	14.80709072
 331	64.85	67.09	12.293	47.86235662	30.86548488	17.51824818
 332	15.262	31.268	63.277	5.630865485	11.67883212	24.50469239
 333	15.008	43.663	37.3	8.654848801	13.03441084	12.09593326
 334	0	57.895	38.078	12.82586027	21.68925965	16.16266945
 335	66.599	58.458	67.871	45.25547445	30.96976017	39.72888425
 336	59.191	18.651	15.215	25.33889468	5.005213764	5.839416058
 337	66.781	31.14	84.629	36.49635036	21.06360792	50.57351408
 338	88.033	85.158	52.14	93.95203337	59.22836288	44.73409802
 339	36.882	100	100	55.26590198	93.11783107	101.0427529
 340	26.102	33.094	17.006	8.237747654	6.986444213	5.005213764
 341	56.309	36.861	35.862	26.69447341	11.67883212	12.93013556
 342	45.839	65.587	67.033	31.28258603	34.72367049	38.68613139
 343	83.709	81.172	16.406	82.6903024	49.11366006	28.57142857
 344	0	48.132	13.005	8.550573514	13.55578728	6.986444213
 345	87.176	50.021	100	70.90719499	39.93743483	83.00312826
 346	51.219	84.244	13.73	47.34098019	48.90510949	24.29614181
 347	60.606	71.415	48.406	46.61105318	38.06047967	30.13555787
 348	0	11.359	12.718	0.7299270073	1.251303441	1.459854015
 349	86.429	49.705	33.145	68.09176225	22.00208551	20.4379562
 350	34.056	40.958	100	15.22419187	29.40563087	72.78415016
 351	100	30.557	59.628	87.90406674	19.60375391	33.99374348
 352	88.497	26.902	13.449	63.8164755	10.84462982	11.88738269
 353	14.167	51.98	88.218	12.6173097	29.50990615	55.37017727
 354	13.784	12.983	49.37	2.502606882	4.796663191	13.24296142
 355	15.018	88.441	48.062	34.72367049	55.78727842	35.4535975
 356	87.79	25.769	89.215	63.29509906	24.08759124	60.16684046
 357	0	33.206	55.865	4.483837331	10.74035454	19.18665276
 358	74.324	76.029	35.536	64.44212722	42.85714286	28.67570386
 359	65.863	57.223	42.324	43.48279458	25.13034411	22.21063608
 360	30.893	54.646	13.136	17.3096976	18.35245047	9.697601668
 361	0	34.36	28.321	4.379562044	7.71637122	6.882168926
 362	15.443	77.087	85.116	26.90302398	50.99061522	61.93952033
 363	63.381	68.947	68.521	47.65380605	39.62460897	43.58706986
 364	69.733	27.566	42.917	37.85192909	10.74035454	16.47549531
 365	32.754	100	42.76	51.72054223	76.43378519	42.02294056
 366	47.096	29.481	34.829	18.24817518	8.237747654	10.42752868
 367	8.5451	71.948	62.695	21.79353493	38.37330553	35.87069864
 368	0	86.048	29.3	31.07403545	50.3649635	26.06882169
 369	53.697	51.572	85.367	30.65693431	30.13555787	54.64025026
 370	17.608	56.69	12.515	14.07716371	19.29092805	9.593326382
 371	90.638	14.414	49.227	66.21480709	11.88738269	22.8362878
 372	63.248	63.64	89.55	45.25547445	42.02294056	65.79770594
 373	100	85.976	58.455	121.3764338	64.33785193	53.80604797
 374	9.8311	28.027	7.5567	3.649635036	4.588112617	2.606882169
 375	89.831	64.313	69.506	81.96037539	39.62460897	48.38373306
 376	31.754	12.995	25.543	7.090719499	2.815432742	4.796663191
 377	75.914	45.966	64.957	51.30344108	23.35766423	35.14077164
 378	7.5735	50.695	58.941	10.53180396	20.33368092	25.33889468
 379	100	69.835	58.912	106.1522419	44.73409802	44.94264859
 380	32.211	34.376	48.339	11.26173097	10.74035454	16.16266945
 381	13.901	12.159	73.555	2.919708029	9.906152242	31.4911366
 382	87.071	9.028	77.653	60.27111575	17.10114703	44.73409802
 383	23.272	85.409	84.29	35.14077164	61.00104275	65.27632951
 384	93.289	39.48	26.145	76.01668405	17.20542231	17.62252346
 385	65.769	59.63	30.967	44.31699687	25.9645464	18.66527633
 386	100	32.265	41.803	88.2168926	17.3096976	23.87904067
 387	86.568	85.281	86.961	92.59645464	68.09176225	76.95516163
 388	52.577	86.83	30.016	50.78206465	53.80604797	29.50990615
 389	47.921	40.199	76.902	22.21063608	20.64650678	41.50156413
 390	22.36	86.619	61.58	35.24504692	56.62148071	43.274244
 391	52.232	33.601	88.787	23.98331595	22.21063608	54.95307612
 392	0	28.523	86.267	4.17101147	17.3096976	47.65380605
 393	43.497	67.879	39.551	30.76120959	31.80396246	22.31491137
 394	39.877	45.261	0	17.83107404	12.82586027	6.882168926
 395	86.94	12.43	24.699	59.43691345	8.237747654	12.20020855
 396	28.363	55.339	90.398	18.1438999	33.47236705	60.58394161
 397	39.018	70.534	57.879	29.9270073	36.80917623	33.0552659
 398	12.833	28.519	78.828	5.109489051	15.01564129	39.20750782
 399	68.35	31.815	69.975	37.64337852	17.20542231	35.34932221
 400	56.52	26.226	41.626	24.71324296	8.654848801	13.86861314
 401	12.938	46.218	0	8.863399374	12.30448384	5.735140772
 402	8.6938	60.179	26.117	14.49426486	22.52346194	13.03441084
 403	51.995	89.429	96.608	54.53597497	74.13972888	89.05109489
 404	46.905	47.746	48.909	23.46193952	18.24817518	20.4379562
 405	14.352	81.814	19.479	29.09280501	44.00417101	21.48070907
 406	71.482	38.117	12.273	42.544317	12.51303441	10.11470282
 407	86.616	60.785	10.012	73.61835245	28.67570386	19.18665276
 408	71.811	88.979	52.186	73.30552659	62.04379562	43.79562044
 409	43.213	100	72.083	57.66423358	82.89885297	63.60792492
