data/calibration-001291.ti3
CTI3   
ORIGINATOR	"ColorHug Factory"
DESCRIPTOR	"Calibration Target chart information 3"
DEVICE_CLASS	"DISPLAY"
COLOR_REP	"RGB_XYZ"
TARGET_INSTRUMENT	"Hughski ColorHug"
INSTRUMENT_TYPE_SPECTRAL	"NO"
NORMALIZED_TO_Y_100	"NO"
NUMBER_OF_FIELDS	7
NUMBER_OF_SETS	15
BEGIN_DATA_FORMAT
 SAMPLE_ID	RGB_R	RGB_G	RGB_B	XYZ_X	XYZ_Y	XYZ_Z
END_DATA_FORMAT
BEGIN_DATA
 1	0	0	0	0.04577636719	0.04577636719	0.09155273438
 2	1	1	1	36.16333008	36.39221191	42.98400879
 3	1	0	0	21.60644531	2.838134766	3.570556641
 4	0	1	0	13.18359375	26.18408203	11.9934082
 5	0	0	1	0.8239746094	7.461547852	27.60314941
 6	0	0	0	0.04577636719	0.04577636719	0.09155273438
 7	1	1	1	36.20910645	36.48376465	43.16711426
 8	1	0	0	21.56066895	2.838134766	3.616333008
 9	0	1	0	13.18359375	25.9552002	11.9934082
 10	0	0	1	0.8239746094	7.461547852	27.37426758
 11	0	0	0	0.04577636719	0.04577636719	0.09155273438
 12	1	1	1	36.20910645	36.48376465	43.16711426
 13	1	0	0	21.69799805	2.838134766	3.616333008
 14	0	1	0	13.22937012	26.18408203	12.08496094
 15	0	0	1	0.8239746094	7.507324219	27.55737305
END_DATA
