data/calibration-001472.ti3
CTI3   
ORIGINATOR	"ColorHug Factory"
DESCRIPTOR	"Calibration Target chart information 3"
DEVICE_CLASS	"DISPLAY"
COLOR_REP	"RGB_XYZ"
TARGET_INSTRUMENT	"Hughski ColorHug"
INSTRUMENT_TYPE_SPECTRAL	"NO"
NORMALIZED_TO_Y_100	"NO"
NUMBER_OF_FIELDS	7
NUMBER_OF_SETS	15
BEGIN_DATA_FORMAT
 SAMPLE_ID	RGB_R	RGB_G	RGB_B	XYZ_X	XYZ_Y	XYZ_Z
END_DATA_FORMAT
BEGIN_DATA
 1	0	0	0	0.04577636719	0.04577636719	0.09155273438
 2	1	1	1	34.01184082	33.18786621	40.46630859
 3	1	0	0	20.5078125	2.563476562	3.479003906
 4	0	1	0	12.17651367	23.80371094	11.3067627
 5	0	0	1	0.732421875	6.958007812	25.54321289
 6	0	0	0	0.04577636719	0.04577636719	0.09155273438
 7	1	1	1	33.96606445	33.09631348	40.46630859
 8	1	0	0	20.55358887	2.563476562	3.479003906
 9	0	1	0	12.1307373	23.7121582	11.3067627
 10	0	0	1	0.732421875	6.958007812	25.54321289
 11	0	0	0	0	0.04577636719	0.09155273438
 12	1	1	1	33.96606445	32.95898438	40.37475586
 13	1	0	0	20.5078125	2.563476562	3.479003906
 14	0	1	0	12.1307373	23.66638184	11.21520996
 15	0	0	1	0.732421875	6.958007812	25.58898926
END_DATA
