data/calibration-001958.ti3
CTI3   
ORIGINATOR	"ColorHug Factory"
CREATED	"Sun May 26 09:17:59 2013"
DESCRIPTOR	"Calibration Target chart information 3"
DEVICE_CLASS	"DISPLAY"
COLOR_REP	"RGB_XYZ"
TARGET_INSTRUMENT	"Hughski ColorHug"
INSTRUMENT_TYPE_SPECTRAL	"NO"
NORMALIZED_TO_Y_100	"NO"
NUMBER_OF_FIELDS	7
NUMBER_OF_SETS	15
BEGIN_DATA_FORMAT
 SAMPLE_ID	RGB_R	RGB_G	RGB_B	XYZ_X	XYZ_Y	XYZ_Z
END_DATA_FORMAT
BEGIN_DATA
 1	0	0	0	0.18310546875	0.18310546875	0.2288818359375
 2	1	1	1	39.825439453125	37.8570556640625	50.811767578125
 3	1	0	0	24.4903564453125	2.9754638671875	3.8909912109375
 4	0	1	0	14.2364501953125	26.275634765625	12.2222900390625
 5	0	0	1	1.0528564453125	8.97216796875	35.0189208984375
 6	0	0	0	0.18310546875	0.18310546875	0.2288818359375
 7	1	1	1	40.191650390625	37.9486083984375	50.9033203125
 8	1	0	0	24.444580078125	2.9754638671875	3.8909912109375
 9	0	1	0	14.2364501953125	26.2298583984375	12.2222900390625
 10	0	0	1	1.0528564453125	8.97216796875	35.1104736328125
 11	0	0	0	0.18310546875	0.18310546875	0.2288818359375
 12	1	1	1	40.1458740234375	37.90283203125	50.7659912109375
 13	1	0	0	24.4903564453125	2.9754638671875	3.8909912109375
 14	0	1	0	14.2364501953125	26.2298583984375	12.2222900390625
 15	0	0	1	1.0528564453125	8.97216796875	35.2020263671875
END_DATA
