data/calibration-000670.ti3
CTI3
ORIGINATOR	"ColorHug Factory"
DESCRIPTOR	"Calibration Target chart information 3"
DEVICE_CLASS	"DISPLAY"
COLOR_REP	"RGB_XYZ"
TARGET_INSTRUMENT	"Hughski ColorHug"
INSTRUMENT_TYPE_SPECTRAL	"NO"
NORMALIZED_TO_Y_100	"NO"
NUMBER_OF_FIELDS	7
NUMBER_OF_SETS	15
BEGIN_DATA_FORMAT
 SAMPLE_ID	RGB_R	RGB_G	RGB_B	XYZ_X	XYZ_Y	XYZ_Z
END_DATA_FORMAT
BEGIN_DATA
 1	0	0	0	0.09155273438	0.04577636719	0.09155273438
 2	1	1	1	58.27331543	38.54370117	44.81506348
 3	1	0	0	36.57531738	3.616333008	5.401611328
 4	0	1	0	19.22607422	27.51159668	12.72583008
 5	0	0	1	0.9155273438	7.278442383	26.3671875
 6	0	0	0	0.09155273438	0.04577636719	0.09155273438
 7	1	1	1	57.54089355	38.3605957	44.86083984
 8	1	0	0	36.25488281	3.616333008	5.401611328
 9	0	1	0	19.22607422	27.42004395	12.77160645
 10	0	0	1	0.9155273438	7.278442383	26.27563477
 11	0	0	0	0.09155273438	0.04577636719	0.09155273438
 12	1	1	1	58.13598633	38.3605957	44.81506348
 13	1	0	0	36.30065918	3.570556641	5.401611328
 14	0	1	0	19.08874512	27.60314941	12.72583008
 15	0	0	1	0.9155273438	7.278442383	26.41296387
END_DATA
