data/calibration-000500.ti3
CTI3
ORIGINATOR	"ColorHug Factory"
DESCRIPTOR	"Calibration Target chart information 3"
DEVICE_CLASS	"DISPLAY"
COLOR_REP	"RGB_XYZ"
TARGET_INSTRUMENT	"Hughski ColorHug"
INSTRUMENT_TYPE_SPECTRAL	"NO"
NORMALIZED_TO_Y_100	"NO"
NUMBER_OF_FIELDS	7
NUMBER_OF_SETS	15
BEGIN_DATA_FORMAT
 SAMPLE_ID	RGB_R	RGB_G	RGB_B	XYZ_X	XYZ_Y	XYZ_Z
END_DATA_FORMAT
BEGIN_DATA
 1	0	0	0	0.09155273438	0.09155273438	0.1373291016
 2	1	1	1	56.30493164	38.3605957	43.12133789
 3	1	0	0	35.06469727	3.479003906	5.081176758
 4	0	1	0	18.26477051	27.37426758	12.08496094
 5	0	0	1	0.9155273438	7.278442383	25.31433105
 6	0	0	0	0.09155273438	0.09155273438	0.1373291016
 7	1	1	1	56.53381348	38.31481934	43.16711426
 8	1	0	0	34.83581543	3.479003906	5.081176758
 9	0	1	0	18.31054688	27.37426758	12.1307373
 10	0	0	1	0.9155273438	7.278442383	25.31433105
 11	0	0	0	0.09155273438	0.09155273438	0.1373291016
 12	1	1	1	56.44226074	38.40637207	43.21289062
 13	1	0	0	34.97314453	3.479003906	5.081176758
 14	0	1	0	18.40209961	27.14538574	12.1307373
 15	0	0	1	0.9155273438	7.278442383	25.63476562
END_DATA
