data/calibration-000067.ti3
CTI3
DESCRIPTOR	"Calibration Target chart information 3"
ORIGINATOR	"ColorHug Factory"
DEVICE_CLASS	"DISPLAY"
COLOR_REP	"RGB_XYZ"
TARGET_INSTRUMENT	"ColorHug"
INSTRUMENT_TYPE_SPECTRAL	"NO"
LUMINANCE_XYZ_CDM2	"46.657562 35.270691 40.008545"
NORMALIZED_TO_Y_100	"YES"
NUMBER_OF_FIELDS	7
NUMBER_OF_SETS	836
BEGIN_DATA_FORMAT
 SAMPLE_ID	RGB_R	RGB_G	RGB_B	XYZ_X	XYZ_Y	XYZ_Z
END_DATA_FORMAT
BEGIN_DATA
 1	100	100	100	129.9610895	100	113.3592737
 2	100	100	100	133.07393	100	113.3592737
 3	100	100	100	132.6848249	99.74059663	113.3592737
 4	100	100	100	133.07393	100	113.3592737
 5	33.33	32.622	30.968	10.50583658	7.911802853	8.300907912
 6	100	0	100	84.43579767	28.14526589	79.76653696
 7	100	100	0	131.2581064	81.3229572	46.95201038
 8	0	100	100	47.98962387	91.43968872	100.2594034
 9	0	100	0	45.65499351	72.63294423	33.85214008
 10	0	0	100	3.242542153	19.5849546	67.70428016
 11	100	0	0	81.97146563	9.597924773	13.87808042
 12	0	0	0	31.38780804	1.297016861	1.297016861
 13	0	52.455	100	12.06225681	34.63035019	74.70817121
 14	100	0	50.3	83.1387808	12.97016861	25.81063554
 15	100	54.739	100	95.97924773	44.74708171	88.19714656
 16	100	52.128	0	93.12581064	23.99481193	20.62256809
 17	0	0	46.181	1.556420233	3.891050584	10.63553826
 18	0	51.141	0	9.987029831	15.04539559	7.522697795
 19	0	100	51.348	45.65499351	76.78339818	46.43320363
 20	100	100	52.037	131.1284047	85.21400778	60.18158236
 21	49.216	0	0	30.22049287	2.723735409	3.501945525
 22	56.159	100	0	65.36964981	75.22697795	37.09468223
 23	49.226	100	100	62.6459144	93.12581064	102.7237354
 24	44.487	0	100	14.39688716	20.88197147	69.64980545
 25	100	44.498	52.029	89.10505837	23.3463035	31.38780804
 26	48.926	48.544	100	25.68093385	33.46303502	75.7457847
 27	51.368	100	47.25	62.77561608	77.30220493	46.95201038
 28	49.893	0	49.033	16.8612192	5.966277562	14.78599222
 29	53.109	51.372	0	26.71854734	16.8612192	10.2464332
 30	0	58.587	53.943	13.74837873	24.2542153	23.99481193
 31	100	28.065	100	86.9001297	32.03631647	82.230869
 32	0	0	72.874	2.204928664	9.208819715	29.83138781
 33	0	26.758	100	4.928664073	23.08690013	69.39040208
 34	0	25.426	0	3.112840467	4.150453956	2.594033722
 35	72.508	0	100	39.68871595	23.60570687	74.05966278
 36	100	27.395	0	84.69520104	13.0998703	15.43450065
 37	74.47	100	100	89.23476005	95.84954604	106.8741894
 38	100	0	25.728	83.78728923	10.50583658	16.73151751
 39	73.862	0	0	43.19066148	5.447470817	7.392996109
 40	100	100	25.402	129.0531777	82.10116732	49.67574578
 41	0	75.751	100	26.32944228	55.38261997	83.78728923
 42	0	75.172	0	23.47600519	36.05706874	17.25032425
 43	0	100	25.864	45.39559014	73.02204929	36.4461738
 44	100	0	74.801	83.91699092	18.28793774	45.00648508
 45	0	100	75.421	51.88067445	81.84176394	65.88845655
 46	24.577	0	0	9.208819715	1.68612192	1.815823606
 47	26.321	100	0	47.60051881	72.63294423	34.37094682
 48	100	75.835	0	107.2632944	45.65499351	30.47989624
 49	100	100	77.061	130.998703	90.53177691	80.80415045
 50	71.263	100	0	96.62775616	76.52399481	39.81841764
 51	0	0	15.614	1.815823606	1.556420233	2.204928664
 52	0	30.049	70.936	4.539559014	12.84046693	30.22049287
 53	100	77.691	100	110.2464332	66.66666667	98.05447471
 54	24.486	100	100	55.64202335	91.5693904	100.6485084
 55	100	62.784	31.909	96.2386511	33.59273671	28.79377432
 56	29.552	0	100	22.04928664	20.23346304	68.09338521
 57	32.98	70.921	100	28.14526589	50.71335927	82.61997406
 58	0	27.681	40.241	3.761348898	6.874189364	9.857328145
 59	67.901	71.021	100	53.307393	53.69649805	86.9001297
 60	28.154	100	67.829	50.4539559	80.67444877	59.53307393
 61	71.637	100	70.001	84.82490272	84.04669261	66.66666667
 62	58.822	58.763	53.586	43.45006485	26.58884565	27.36705577
 63	33.466	30.48	0	10.11673152	6.225680934	4.150453956
 64	100	73.795	71.277	106.614786	51.23216602	57.45784695
 65	68.394	29.692	0	36.83527886	8.69001297	8.171206226
 66	70.399	0	29.039	36.70557717	6.095979248	10.37613489
 67	28.078	0	26.956	5.836575875	2.594033722	5.058365759
 68	28.532	72.339	0	25.68093385	33.33333333	16.34241245
 69	100	30.941	26.496	85.86251621	15.17509728	18.93644617
 70	34.597	0	73.611	9.857328145	10.2464332	32.03631647
 71	71.573	0	72.408	38.39169909	13.22957198	35.79766537
 72	0	71.029	29.412	21.01167315	32.81452659	18.93644617
 73	68.386	75.008	0	55.77172503	39.42931258	22.4383917
 74	68.088	27.309	100	38.00259403	26.84824903	74.57846952
 75	100	26.457	73.749	85.47341115	21.66018158	46.17380026
 76	74.344	100	27.392	87.41893645	78.4695201	43.70946822
 77	27.558	100	28.197	50.32425422	74.18936446	37.74319066
 78	31.196	27.465	100	12.71076524	23.86511025	70.42801556
 79	0	75.521	72.824	24.51361868	45.13618677	46.82230869
 80	0	50.93	25.553	9.987029831	15.69390402	10.2464332
 81	32.06	33.584	64.033	10.63553826	13.22957198	25.94033722
 82	81.666	55.38	0	61.73800259	23.3463035	16.73151751
 83	68.257	32.751	58.286	38.00259403	14.65629053	25.68093385
 84	0	55.248	81.585	13.0998703	28.66407263	47.34111543
 85	73.781	52.099	100	51.75097276	38.39169909	81.06355383
 86	100	50.537	82.952	92.86640726	34.50064851	60.31128405
 87	23.55	0	50.439	45.26588846	4.928664073	13.61867704
 88	31.335	62.746	31.114	20.88197147	25.55123217	16.60181582
 89	100	18.31	49.418	83.78728923	14.52658885	26.1997406
 90	26.498	48.404	0	20.75226978	13.61867704	7.392996109
 91	47.91	100	85.744	59.92217899	86.64072633	79.76653696
 92	71.829	47.313	31.811	45.91439689	17.769131	16.47211414
 93	31.304	64.132	69.316	22.30869001	32.94422827	38.91050584
 94	80.403	0	54.321	49.5460441	10.37613489	23.21660182
 95	18.455	50.036	100	15.04539559	33.33333333	74.31906615
 96	50.653	100	16.345	61.86770428	75.09727626	37.48378729
 97	80.121	100	52.261	95.46044099	81.45265888	54.47470817
 98	0	22.54	19.289	3.631647211	4.150453956	4.02075227
 99	100	75.273	46.886	105.5771725	47.60051881	40.59662776
 100	0	78.618	56.625	34.63035019	44.74708171	35.01945525
 101	51.137	80.627	100	43.57976654	62.6459144	89.36446174
 102	48.446	0	17.864	15.43450065	3.242542153	4.928664073
 103	100	50.023	21.211	90.01297017	23.47600519	22.04928664
 104	50.115	20.118	0	17.89883268	4.928664073	4.6692607
 105	58.099	72.426	33.158	41.89364462	36.57587549	23.99481193
 106	19.364	100	50.197	46.56290532	76.6536965	46.17380026
 107	50.683	19.177	100	20.49286641	23.21660182	71.46562905
 108	53.37	0	81.576	20.23346304	14.0077821	42.67185473
 109	47.768	76.245	0	37.48378729	38.65110246	19.97405966
 110	0	18.927	55.503	2.853437095	7.263294423	17.12062257
 111	0	13.277	0	1.945525292	2.204928664	1.68612192
 112	72.862	72.473	75.625	60.70038911	45.91439689	53.82619974
 113	100	13.904	0	83.65758755	10.63553826	14.26718547
 114	86.349	0	100	78.4695201	25.94033722	77.17250324
 115	100	41.941	100	90.27237354	37.3540856	85.0843061
 116	100	81.785	16.464	111.0246433	52.78858625	35.01945525
 117	0	44.063	52.596	7.911802853	14.78599222	19.06614786
 118	0	0	58.917	1.945525292	6.225680934	18.6770428
 119	59.25	24.551	29.789	26.58884565	7.782101167	9.987029831
 120	82.73	82.874	100	82.10116732	69.64980545	96.36835279
 121	80.039	0	12.618	49.15693904	6.614785992	9.338521401
 122	60.957	47.729	77.817	35.01945525	25.29182879	44.8767834
 123	100	0	38.618	82.74967575	11.67315175	20.49286641
 124	0	40.09	100	8.69001297	27.88586252	71.46562905
 125	0	15.283	82.322	2.983138781	13.22957198	40.72632944
 126	17.592	81.726	100	31.25810636	62.90531777	88.06744488
 127	100	14.13	100	83.39818418	29.31258106	81.3229572
 128	15.261	100	82.059	48.11932555	83.78728923	73.28145266
 129	47.77	79.418	60.389	40.33722438	48.11932555	40.46692607
 130	18.768	16.429	0	4.6692607	2.853437095	2.204928664
 131	55.634	100	65.763	64.98054475	81.45265888	60.44098573
 132	100	100	38.541	118.8067445	83.39818418	53.43709468
 133	17.421	0	83.497	20.23346304	12.71076524	41.76394293
 134	17.237	16.758	100	5.447470817	21.40077821	68.61219196
 135	0	15.067	30.039	2.33463035	3.501945525	5.577172503
 136	0	0	86.505	2.853437095	13.61867704	45.7846952
 137	75.736	72.799	50.02	63.03501946	41.24513619	34.37094682
 138	100	83.323	85.529	105.1880674	67.18547341	78.59922179
 139	100	100	64.894	130.8690013	87.8080415	69.77950713
 140	81.98	84.914	0	89.49416342	53.04798962	30.60959792
 141	0	63.757	15.49	26.71854734	24.90272374	13.0998703
 142	49.514	66.135	100	34.11154345	46.692607	81.71206226
 143	100	0	61.862	83.26848249	15.43450065	33.85214008
 144	24.308	45.41	49.831	16.08300908	15.30479896	18.28793774
 145	15.963	0	17.047	2.723735409	1.945525292	2.853437095
 146	87.497	100	100	107.2632944	96.88715953	109.5979248
 147	52.099	25.003	75.752	24.2542153	15.04539559	37.48378729
 148	14.909	81.162	0	28.40466926	42.93125811	20.62256809
 149	0	34.792	14.626	5.188067445	7.392996109	4.928664073
 150	48.39	45.075	22.552	21.66018158	13.61867704	10.37613489
 151	83.545	65.965	100	72.11413748	51.23216602	88.06744488
 152	16.226	62.345	0	16.99092088	23.60570687	11.67315175
 153	63.222	0	14.914	28.27496757	4.539559014	6.614785992
 154	80.449	13.446	0	48.37872892	7.263294423	9.208819715
 155	83.917	41.562	0	57.71725032	15.30479896	13.48897536
 156	100	60.448	46.3	96.36835279	33.33333333	33.85214008
 157	15.584	0	34.795	14.13748379	2.983138781	6.614785992
 158	17.144	65.121	100	20.23346304	44.8767834	79.37743191
 159	83.602	55.334	62.667	61.99740597	29.57198444	37.87289235
 160	0	82.19	14.22	28.79377432	44.61738003	22.04928664
 161	25.132	74.856	50.616	27.23735409	39.68871595	30.09079118
 162	0	13.769	100	3.761348898	20.75226978	68.35278859
 163	87.181	0	0	59.66277562	7.522697795	10.50583658
 164	0	100	39.19	49.02723735	74.57846952	40.72632944
 165	78.047	65.914	19.865	62.77561608	31.7769131	21.78988327
 166	100	63.961	15.865	98.83268482	34.24124514	26.1997406
 167	100	45.955	36.032	91.43968872	22.30869001	24.51361868
 168	15.926	100	16.89	47.21141375	73.28145266	35.538262
 169	41.459	100	0	55.38261997	73.67055772	35.40856031
 170	48.707	37.288	48.139	20.10376135	12.58106355	17.38002594
 171	83.381	100	13.285	98.18417639	78.4695201	43.06095979
 172	78.129	25.303	75.621	52.01037613	18.02853437	41.50453956
 173	12.396	0	0	2.204928664	1.556420233	1.556420233
 174	37.607	48.336	83.346	17.769131	25.68093385	48.6381323
 175	35.588	15.356	0	8.949416342	3.242542153	2.983138781
 176	61.245	100	100	70.55771725	94.03372244	104.539559
 177	100	67.29	87.195	101.6861219	49.67574578	72.11413748
 178	0	0	30.615	1.68612192	2.594033722	5.317769131
 179	35.187	81.789	83.323	35.14915694	56.0311284	62.38651102
 180	39.525	80.194	22.879	35.79766537	43.57976654	23.60570687
 181	50.634	34.593	0	20.75226978	8.819714656	6.485084306
 182	14.175	100	63.146	46.95201038	78.4695201	54.86381323
 183	83.493	17.728	34.574	54.2153048	9.727626459	15.17509728
 184	23.463	22.014	79.943	7.392996109	14.13748379	39.29961089
 185	18.066	31.847	0	6.35538262	6.35538262	3.891050584
 186	87.201	100	81.361	105.7068742	89.49416342	81.3229572
 187	0	100	87.95	47.47081712	85.86251621	80.80415045
 188	34.476	17.888	46.22	8.949416342	6.35538262	12.71076524
 189	18.277	0	67.39	3.891050584	8.430609598	25.81063554
 190	100	87.972	0	116.0830091	61.34889754	37.87289235
 191	82.925	34.85	100	58.36575875	31.25810636	78.85862516
 192	0	88.016	100	40.46692607	71.59533074	91.05058366
 193	36.104	85.655	100	40.07782101	68.48249027	91.18028534
 194	60.981	0	0	25.94033722	4.02075227	5.317769131
 195	51.466	61.826	78.106	32.29571984	34.37094682	48.76783398
 196	78.427	31.983	22.175	49.5460441	11.67315175	12.71076524
 197	66.017	44.321	0	38.91050584	14.52658885	10.63553826
 198	83.941	0	84.177	55.38261997	18.6770428	51.3618677
 199	20.158	46.612	23.269	10.63553826	13.35927367	9.208819715
 200	0	100	62.618	44.61738003	78.4695201	54.2153048
 201	33.832	0	13.933	11.15434501	2.33463035	3.242542153
 202	100	17.286	16.322	81.84176394	11.67315175	15.82360571
 203	0	42.204	83.926	9.727626459	21.91958495	47.34111543
 204	0	87.774	0	33.20363165	52.14007782	24.64332036
 205	64.988	0	59.017	30.73929961	9.468223087	23.60570687
 206	14.677	0	100	4.280155642	20.10376135	68.35278859
 207	88.934	82.673	35.021	88.45654994	52.78858625	36.31647211
 208	0	63.778	100	19.19584955	43.83916991	78.85862516
 209	83.429	17.674	100	55.90142672	26.97795071	76.52399481
 210	30.899	100	85.668	51.62127108	85.86251621	78.98832685
 211	83.68	0	41.016	52.52918288	9.079118029	17.12062257
 212	100	63.515	0	92.34760052	32.94422827	24.64332036
 213	85.074	69.987	0	75.09727626	36.57587549	23.3463035
 214	20.801	45.524	69.018	26.58884565	19.45525292	32.29571984
 215	21.382	82.482	73.017	32.03631647	53.69649805	51.88067445
 216	100	15.128	64.249	83.78728923	16.99092088	36.05706874
 217	36.522	0	58.427	16.99092088	7.003891051	19.45525292
 218	22.466	81.296	33.007	30.35019455	45.13618677	25.68093385
 219	62.531	87.152	0	55.77172503	54.47470817	28.66407263
 220	84.12	85.397	67.886	85.60311284	61.34889754	56.67963684
 221	18.87	27.336	45.389	5.966277562	7.782101167	12.71076524
 222	66.439	100	14.444	74.57846952	76.26459144	39.55901427
 223	41.636	22.147	19.003	18.28793774	5.317769131	5.577172503
 224	61.271	100	81.94	71.85473411	86.38132296	76.91309987
 225	86.013	100	0	104.0207523	78.85862516	43.06095979
 226	37.57	0	0	9.079118029	2.33463035	2.723735409
 227	100	16.132	84.102	83.00907912	22.82749676	56.16083009
 228	0	100	13.619	50.4539559	72.8923476	34.63035019
 229	38.905	100	56.471	54.34500649	78.33981842	51.23216602
 230	100	15.382	34.563	81.19325551	12.45136187	19.5849546
 231	36.656	14.908	100	11.28404669	21.78988327	69.52010376
 232	0	62.593	66.608	16.21271077	30.47989624	35.40856031
 233	66.347	12.528	100	33.72243839	23.99481193	73.15175097
 234	100	43.375	69.233	88.19714656	26.58884565	44.61738003
 235	100	56.36	61.236	94.16342412	32.81452659	41.50453956
 236	0	86.194	44.955	37.87289235	52.52918288	33.07392996
 237	64.527	87.262	100	63.03501946	73.28145266	95.59014267
 238	34.411	0	42.471	8.171206226	4.409857328	10.50583658
 239	80.23	59.707	85.12	62.6459144	38.65110246	61.60830091
 240	20.625	19.056	14.791	22.04928664	3.761348898	3.501945525
 241	15.341	34.221	100	7.911802853	25.81063554	70.94682231
 242	36.777	0	87.905	9.987029831	15.17509728	49.28664073
 243	34.598	56.247	100	20.75226978	38.26199741	77.17250324
 244	20.86	67.629	17.418	21.27107652	29.44228275	15.56420233
 245	44.958	60.843	18.054	26.32944228	23.86511025	14.26718547
 246	37.421	60.193	0	22.04928664	22.4383917	11.93255512
 247	84.011	33.849	42.612	58.10635538	14.9156939	20.49286641
 248	17.241	60.339	37.743	16.08300908	23.73540856	17.25032425
 249	50.65	17.261	53.278	18.54734112	8.430609598	18.15823606
 250	45.505	48.926	65.152	22.17898833	21.78988327	32.03631647
 251	44.567	84.081	39.649	41.24513619	50.32425422	31.12840467
 252	100	86.339	72.054	116.4721141	67.44487678	65.75875486
 253	68.14	61.135	0	47.34111543	25.68093385	15.95330739
 254	17.93	66.986	81.403	24.64332036	39.04020752	52.01037613
 255	39.242	60.215	48.926	23.3463035	25.81063554	23.3463035
 256	20.099	18.77	62.967	6.35538262	9.079118029	23.08690013
 257	34.553	100	14.582	51.49156939	73.67055772	35.92736706
 258	87.345	0	66.694	59.7924773	14.39688716	34.76005188
 259	0	43.714	39.842	7.911802853	13.0998703	12.84046693
 260	100	37.705	13.955	86.77042802	16.99092088	17.89883268
 261	31.265	86.993	0	38.26199741	51.49156939	25.03242542
 262	51.402	82.661	81.338	45.91439689	57.32814527	62.38651102
 263	100	100	12.984	129.4422827	81.71206226	47.60051881
 264	0	37.859	0	5.836575875	8.300907912	4.6692607
 265	62.092	58.215	100	39.29961089	41.76394293	81.19325551
 266	86.186	100	64.1	104.0207523	84.56549935	64.72114137
 267	100	35.251	85.898	87.15953307	28.40466926	61.34889754
 268	63.182	89.992	41.974	62.38651102	60.31128405	38.39169909
 269	13.504	100	0	46.17380026	72.76264591	33.98184176
 270	100	0	13.228	81.84176394	10.11673152	14.65629053
 271	63.881	40.826	100	41.1154345	31.25810636	76.13488975
 272	69.387	84.838	20.792	63.68352789	52.26977951	29.83138781
 273	0	70.279	45.136	20.62256809	33.85214008	24.51361868
 274	79.094	64.754	40.908	62.25680934	32.6848249	27.36705577
 275	62.385	54.099	17.396	38.78080415	20.23346304	14.0077821
 276	64.408	14.621	0	30.09079118	5.447470817	6.35538262
 277	70.028	15.606	44.651	36.31647211	8.819714656	16.34241245
 278	0	63.544	0	17.12062257	24.64332036	12.1919585
 279	83.475	47.274	20.502	59.66277562	18.80674449	16.60181582
 280	55.866	0	32.671	21.78988327	4.928664073	8.949416342
 281	58.007	0	100	24.90272374	22.30869001	71.9844358
 282	100	0	87.698	82.49027237	22.82749676	60.57068742
 283	0	13.792	67.215	3.112840467	9.079118029	26.07003891
 284	84.123	17.001	58.549	54.99351492	13.35927367	27.62645914
 285	59.579	32.873	15.966	28.14526589	9.338521401	8.560311284
 286	10.41	32.998	28.659	5.577172503	7.782101167	7.392996109
 287	17.231	40.031	85.65	9.079118029	21.91958495	49.02723735
 288	37.568	41.561	10.108	14.26718547	10.89494163	7.003891051
 289	0	69.015	85.092	20.49286641	41.89364462	57.45784695
 290	14.442	100	36.187	46.43320363	74.31906615	40.07782101
 291	100	40.549	0	87.54863813	18.02853437	17.769131
 292	82.143	45.435	78.429	59.01426719	27.1076524	49.15693904
 293	52.674	0	67.3	19.32555123	10.11673152	28.53437095
 294	0	87.868	66.793	33.20363165	59.53307393	49.41634241
 295	86.53	100	40.524	103.8910506	80.93385214	50.71335927
 296	71.777	85.586	67.232	69.39040208	60.44098573	53.69649805
 297	43.216	100	31.671	56.29053178	75.35667964	40.07782101
 298	39.245	32.908	85.845	17.63942931	19.84435798	49.28664073
 299	0	45.662	67.543	8.949416342	19.06614786	30.99870298
 300	12.161	100	100	47.98962387	91.5693904	100.9079118
 301	67.049	0	85.516	33.59273671	16.99092088	50.32425422
 302	100	89.041	100	118.9364462	81.71206226	105.1880674
 303	20.246	60.698	56.526	17.25032425	26.84824903	27.36705577
 304	52.177	55.457	40.416	29.18287938	22.4383917	19.19584955
 305	72.617	87.018	83.932	71.85473411	67.18547341	72.50324254
 306	40.512	16.723	66.475	12.84046693	10.50583658	27.23735409
 307	68.507	49.232	50.605	42.15304799	21.27107652	24.77302205
 308	65.622	100	54.525	74.57846952	79.89623865	53.69649805
 309	54.115	37.24	66.394	25.16212711	16.73151751	31.12840467
 310	100	76.138	31.267	106.3553826	47.21141375	34.88975357
 311	54.728	65.623	0	36.57587549	28.53437095	15.95330739
 312	63.126	12.526	64.37	29.31258106	11.15434501	27.75616083
 313	72.827	18.08	23.704	39.81841764	7.782101167	10.50583658
 314	23.268	15.278	34.947	8.819714656	4.409857328	7.652399481
 315	87.648	68.954	59.645	78.4695201	41.1154345	42.15304799
 316	0	85.595	85.198	32.42542153	61.34889754	67.05577173
 317	35.798	84.371	69.21	38.00259403	55.38261997	49.93514916
 318	36.062	47.494	35.919	16.08300908	15.43450065	13.35927367
 319	86.083	36.277	59.152	61.73800259	18.93644617	30.8690013
 320	58.21	100	30.361	67.57457847	76.13488975	41.37483787
 321	46.745	14.614	32.317	15.17509728	5.188067445	8.300907912
 322	81.573	73.869	86.954	71.9844358	53.17769131	70.42801556
 323	85.991	49.387	48.206	66.40726329	23.21660182	26.97795071
 324	28.062	87.906	19.654	40.33722438	53.307393	27.23735409
 325	68.992	17.993	85.124	36.31647211	18.54734112	50.71335927
 326	100	66.147	100	99.87029831	53.82619974	92.21789883
 327	33.358	64.806	84.517	24.12451362	38.52140078	56.0311284
 328	41.351	17.736	80.522	13.48897536	14.52658885	40.85603113
 329	100	100	88.719	124.383917	94.29312581	94.94163424
 330	66.336	0	44.32	45.13618677	7.392996109	15.30479896
 331	64.85	67.09	12.293	45.39559014	31.51750973	18.80674449
 332	15.262	31.268	63.277	6.485084306	11.93255512	24.51361868
 333	15.008	43.663	37.3	8.949416342	12.97016861	12.06225681
 334	0	57.895	38.078	13.35927367	21.91958495	16.47211414
 335	66.599	58.458	67.871	44.09857328	30.8690013	40.2075227
 336	59.191	18.651	15.215	25.55123217	5.966277562	6.744487678
 337	66.781	31.14	84.629	35.79766537	21.27107652	50.84306096
 338	88.033	85.158	52.14	91.18028534	58.36575875	45.7846952
 339	36.882	100	100	55.1232166	92.4773022	102.2049287
 340	26.102	33.094	17.006	9.079118029	7.522697795	5.836575875
 341	56.309	36.861	35.862	25.55123217	11.54345006	13.0998703
 342	45.839	65.587	67.033	29.96108949	34.76005188	39.04020752
 343	83.709	81.172	16.406	80.67444877	48.76783398	30.09079118
 344	0	48.132	13.005	23.47600519	13.61867704	7.652399481
 345	87.176	50.021	100	69.00129702	39.68871595	83.65758755
 346	51.219	84.244	13.73	46.04409857	48.89753567	25.55123217
 347	60.606	71.415	48.406	45.26588846	38.13229572	30.47989624
 348	0	11.359	12.718	5.577172503	2.33463035	2.464332036
 349	86.429	49.705	33.145	66.53696498	21.91958495	21.01167315
 350	34.056	40.958	100	15.04539559	29.31258106	73.15175097
 351	100	30.557	59.628	85.34370947	19.5849546	34.63035019
 352	88.497	26.902	13.449	65.88845655	11.41374838	13.0998703
 353	14.167	51.98	88.218	12.84046693	29.18287938	55.51232166
 354	13.784	12.983	49.37	3.372243839	5.577172503	13.35927367
 355	15.018	88.441	48.062	3.372243839	5.577172503	13.35927367
 356	87.79	25.769	89.215	3.372243839	5.577172503	51.3618677
 357	0	33.206	55.865	5.966277562	11.02464332	19.19584955
 358	74.324	76.029	35.536	63.03501946	42.80155642	29.70168612
 359	65.863	57.223	42.324	43.19066148	24.90272374	22.30869001
 360	30.893	54.646	13.136	22.82749676	18.28793774	10.37613489
 361	0	34.36	28.321	5.317769131	8.171206226	7.522697795
 362	15.443	77.087	85.116	27.23735409	50.97276265	62.51621271
 363	63.381	68.947	68.521	46.82230869	39.68871595	43.9688716
 364	69.733	27.566	42.917	37.74319066	11.02464332	16.73151751
 365	32.754	100	42.76	50.84306096	75.35667964	43.06095979
 366	47.096	29.481	34.829	17.25032425	8.430609598	10.50583658
 367	8.5451	71.948	62.695	22.04928664	38.52140078	36.31647211
 368	0	86.048	29.3	32.03631647	50.84306096	27.23735409
 369	53.697	51.572	85.367	29.18287938	29.83138781	54.34500649
 370	17.608	56.69	12.515	14.39688716	19.5849546	10.50583658
 371	90.638	14.414	49.227	62.12710765	12.45136187	23.3463035
 372	63.248	63.64	89.55	44.74708171	41.63424125	65.88845655
 373	100	85.976	58.455	107.6523995	63.68352789	53.82619974
 374	9.8311	28.027	7.5567	22.17898833	5.447470817	3.631647211
 375	89.831	64.313	69.506	79.37743191	39.55901427	48.76783398
 376	31.754	12.995	25.543	7.652399481	3.761348898	5.577172503
 377	75.914	45.966	64.957	50.19455253	23.08690013	35.79766537
 378	7.5735	50.695	58.941	11.67315175	20.36316472	25.68093385
 379	100	69.835	58.912	99.48119326	44.48767834	45.91439689
 380	32.211	34.376	48.339	11.67315175	10.89494163	15.95330739
 381	13.901	12.159	73.555	3.891050584	10.76523995	32.03631647
 382	87.071	9.028	77.653	60.70038911	17.769131	45.26588846
 383	23.272	85.409	84.29	35.92736706	60.95979248	65.75875486
 384	93.289	39.48	26.145	73.8002594	17.12062257	18.41763943
 385	65.769	59.63	30.967	46.82230869	25.68093385	19.32555123
 386	100	32.265	41.803	84.69520104	17.25032425	24.2542153
 387	86.568	85.281	86.961	89.62386511	67.44487678	77.95071336
 388	52.577	86.83	30.016	50.19455253	53.82619974	30.73929961
 389	47.921	40.199	76.902	21.14137484	20.49286641	41.1154345
 390	22.36	86.619	61.58	35.538262	56.80933852	44.22827497
 391	52.232	33.601	88.787	22.95719844	22.04928664	54.60440986
 392	0	28.523	86.267	5.188067445	17.63942931	47.85992218
 393	43.497	67.879	39.551	29.57198444	32.03631647	22.82749676
 394	39.877	45.261	0	16.99092088	12.84046693	7.782101167
 395	86.94	12.43	24.699	58.75486381	9.079118029	13.35927367
 396	28.363	55.339	90.398	18.02853437	33.07392996	60.31128405
 397	39.018	70.534	57.879	29.18287938	37.09468223	33.46303502
 398	12.833	28.519	78.828	5.836575875	15.43450065	39.04020752
 399	68.35	31.815	69.975	37.61348898	17.38002594	35.79766537
 400	56.52	26.226	41.626	24.38391699	9.208819715	14.0077821
 401	12.938	46.218	0	9.208819715	12.32166018	6.614785992
 402	8.6938	60.179	26.117	14.78599222	22.69779507	13.74837873
 403	51.995	89.429	96.608	51.10246433	73.41115435	89.49416342
 404	46.905	47.746	48.909	22.04928664	17.769131	20.10376135
 405	14.352	81.814	19.479	29.31258106	44.74708171	22.82749676
 406	71.482	38.117	12.273	41.89364462	12.58106355	11.02464332
 407	86.616	60.785	10.012	71.20622568	28.40466926	20.36316472
 408	71.811	88.979	52.186	71.59533074	61.73800259	44.48767834
 409	43.213	100	72.083	57.06874189	81.71206226	64.59143969
 410	73.92	23.444	8.2853	42.28274968	8.430609598	9.079118029
