data/calibration-002855.ti3
CTI3   
ORIGINATOR	"ColorHug Factory"
CREATED	"Tue May 05 22:00:57 2015"
DESCRIPTOR	"Calibration Target chart information 3"
DEVICE_CLASS	"DISPLAY"
COLOR_REP	"RGB_XYZ"
TARGET_INSTRUMENT	"Hughski ColorHug"
INSTRUMENT_TYPE_SPECTRAL	"NO"
NORMALIZED_TO_Y_100	"NO"
NUMBER_OF_FIELDS	7
NUMBER_OF_SETS	15
BEGIN_DATA_FORMAT
 SAMPLE_ID	RGB_R	RGB_G	RGB_B	XYZ_X	XYZ_Y	XYZ_Z
END_DATA_FORMAT
BEGIN_DATA
 1.0	0.0	0.0	0.0	0.844787597656	0.880859375	0.938690185547
 2.0	1.0	1.0	1.0	112.219177246094	98.698791503906	109.226654052734
 3.0	1.0	0.0	0.0	81.108901977539	8.10285949707	13.08625793457
 4.0	0.0	1.0	0.0	26.340835571289	69.423721313477	27.582489013672
 5.0	0.0	0.0	1.0	4.231399536133	20.739227294922	66.601623535156
 6.0	0.0	0.0	0.0	0.851547241211	0.889266967773	0.945404052734
 7.0	1.0	1.0	1.0	112.219177246094	98.698791503906	109.226654052734
 8.0	1.0	0.0	0.0	81.108901977539	8.110885620117	13.107192993164
 9.0	0.0	1.0	0.0	26.340835571289	70.01708984375	27.582489013672
 10.0	0.0	0.0	1.0	4.235778808594	20.739227294922	66.601623535156
 11.0	0.0	0.0	0.0	0.85725402832	0.895095825195	0.950897216797
 12.0	1.0	1.0	1.0	112.219177246094	98.698791503906	109.226654052734
 13.0	1.0	0.0	0.0	81.108901977539	8.118927001953	13.107192993164
 14.0	0.0	1.0	0.0	26.340835571289	70.01708984375	27.582489013672
 15.0	0.0	0.0	1.0	4.244552612305	20.739227294922	66.601623535156
END_DATA
