data/calibration-000642.ti3
CTI3
ORIGINATOR	"ColorHug Factory"
DESCRIPTOR	"Calibration Target chart information 3"
DEVICE_CLASS	"DISPLAY"
COLOR_REP	"RGB_XYZ"
TARGET_INSTRUMENT	"Hughski ColorHug"
INSTRUMENT_TYPE_SPECTRAL	"NO"
NORMALIZED_TO_Y_100	"NO"
NUMBER_OF_FIELDS	7
NUMBER_OF_SETS	15
BEGIN_DATA_FORMAT
 SAMPLE_ID	RGB_R	RGB_G	RGB_B	XYZ_X	XYZ_Y	XYZ_Z
END_DATA_FORMAT
BEGIN_DATA
 1	0	0	0	0.09155273438	0.09155273438	0.09155273438
 2	1	1	1	52.5970459	34.97314453	39.77966309
 3	1	0	0	33.46252441	3.387451172	4.943847656
 4	0	1	0	17.76123047	25.31433105	11.5814209
 5	0	0	1	0.8239746094	6.454467773	23.1628418
 6	0	0	0	0.09155273438	0.09155273438	0.09155273438
 7	1	1	1	53.05480957	35.11047363	39.77966309
 8	1	0	0	33.41674805	3.387451172	4.943847656
 9	0	1	0	17.76123047	25.26855469	11.62719727
 10	0	0	1	0.8239746094	6.454467773	23.1628418
 11	0	0	0	0.09155273438	0.09155273438	0.09155273438
 12	1	1	1	53.0090332	35.06469727	39.73388672
 13	1	0	0	33.46252441	3.387451172	4.943847656
 14	0	1	0	17.76123047	25.26855469	11.67297363
 15	0	0	1	0.8239746094	6.454467773	23.1628418
END_DATA
