data/calibration-000183.ti3
CTI3
DESCRIPTOR	"Calibration Target chart information 3"
ORIGINATOR	"ColorHug Factory"
DEVICE_CLASS	"DISPLAY"
COLOR_REP	"RGB_XYZ"
TARGET_INSTRUMENT	"ColorHug"
INSTRUMENT_TYPE_SPECTRAL	"NO"
LUMINANCE_XYZ_CDM2	"52.745819 37.948608 43.373108"
NORMALIZED_TO_Y_100	"YES"
NUMBER_OF_FIELDS	7
NUMBER_OF_SETS	836
BEGIN_DATA_FORMAT
 SAMPLE_ID	RGB_R	RGB_G	RGB_B	XYZ_X	XYZ_Y	XYZ_Z
END_DATA_FORMAT
BEGIN_DATA
 1	100	100	100	139.4705174	100	114.5607702
 2	100	100	100	137.6654633	99.63898917	113.9590854
 3	100	100	100	138.8688327	99.39831528	114.0794224
 4	100	100	100	138.6281588	100	113.4777377
 5	33.33	32.622	30.968	11.67268351	8.182912154	8.784596871
 6	100	0	100	88.68832732	27.91817088	79.90373045
 7	100	100	0	135.7400722	80.98676294	48.25511432
 8	0	100	100	48.49578821	90.13237064	100
 9	0	100	0	46.93140794	71.35980746	33.57400722
 10	0	0	100	2.286401925	18.77256318	66.42599278
 11	100	0	0	87.36462094	9.145607702	13.71841155
 12	0	0	0	0.1203369434	0.1203369434	0.1203369434
 13	0	52.455	100	12.51504212	35.49939832	74.48856799
 14	100	0	50.3	84.4765343	13.11672684	27.55716005
 15	100	54.739	100	100.9626955	46.32972323	89.04933815
 16	100	52.128	0	98.67629362	25.39109507	21.41997593
 17	0	0	46.181	0.4813477738	3.128760529	10.95066185
 18	0	51.141	0	10.34897714	15.5234657	7.460890493
 19	0	100	51.348	47.29241877	75.57160048	47.77376655
 20	100	100	52.037	137.0637786	85.07821901	62.93622142
 21	49.216	0	0	18.2912154	1.925391095	2.888086643
 22	56.159	100	0	70.87845969	74.00722022	37.18411552
 23	49.226	100	100	66.06498195	92.17809868	102.7677497
 24	44.487	0	100	15.76413959	20.33694344	68.47172082
 25	100	44.498	52.029	95.42719615	25.03008424	34.17569194
 26	48.926	48.544	100	28.39951865	34.77737665	75.93261131
 27	51.368	100	47.25	66.66666667	76.89530686	48.49578821
 28	49.893	0	49.033	18.53188929	5.655836342	15.88447653
 29	53.109	51.372	0	31.16726835	17.93020457	10.70998797
 30	0	58.587	53.943	14.32009627	25.63176895	25.7521059
 31	100	28.065	100	92.05776173	32.61131167	82.5511432
 32	0	0	72.874	1.083032491	8.664259928	30.68592058
 33	0	26.758	100	4.332129964	22.86401925	67.74969916
 34	0	25.426	0	2.527075812	3.610108303	1.805054152
 35	72.508	0	100	42.47894103	23.10469314	73.16486161
 36	100	27.395	0	90.25270758	13.35740072	15.76413959
 37	74.47	100	100	93.02045728	94.70517449	106.9795427
 38	100	0	25.728	87.244284	10.10830325	17.08784597
 39	73.862	0	0	42.47894103	4.572803851	6.859205776
 40	100	100	25.402	111.9133574	81.7087846	50.78219013
 41	0	75.751	100	26.71480144	56.7990373	84.35619735
 42	0	75.172	0	24.30806258	36.46209386	17.08784597
 43	0	100	25.864	47.05174489	72.44283995	37.06377858
 44	100	0	74.801	87.84596871	18.53188929	46.811071
 45	0	100	75.421	47.53309266	81.46811071	67.62936221
 46	24.577	0	0	4.091456077	0.4813477738	0.7220216606
 47	26.321	100	0	51.62454874	72.44283995	34.41636582
 48	100	75.835	0	113.8387485	46.57039711	31.64861613
 49	100	100	77.061	137.4247894	90.61371841	83.51383875
 50	71.263	100	0	87.84596871	75.93261131	39.83152828
 51	0	0	15.614	0.2406738869	0.4813477738	1.323706378
 52	0	30.049	70.936	4.21179302	13.23706378	31.40794224
 53	100	77.691	100	116.0048135	67.99037304	99.27797834
 54	24.486	100	100	52.58724428	90.61371841	100.9626955
 55	100	62.784	31.909	105.2948255	35.49939832	30.80625752
 56	29.552	0	100	7.70156438	19.37424789	67.50902527
 57	32.98	70.921	100	30.80625752	51.62454874	82.79181709
 58	0	27.681	40.241	3.128760529	6.618531889	10.34897714
 59	67.901	71.021	100	58.84476534	54.87364621	87.48495788
 60	28.154	100	67.829	52.70758123	79.42238267	61.01083032
 61	71.637	100	70.001	89.04933815	84.59687124	68.95306859
 62	58.822	58.763	53.586	39.95186522	28.15884477	29.60288809
 63	33.466	30.48	0	11.0709988	6.016847172	3.730445247
 64	100	73.795	71.277	111.7930205	52.82791817	59.80746089
 65	68.394	29.692	0	39.35018051	8.664259928	8.062575211
 66	70.399	0	29.039	38.38748496	5.294825511	10.34897714
 67	28.078	0	26.956	5.535499398	1.684717208	4.452466907
 68	28.532	72.339	0	27.79783394	34.05535499	16.72683514
 69	100	30.941	26.496	90.73405535	15.64380265	19.85559567
 70	34.597	0	73.611	9.025270758	9.867629362	32.73164862
 71	71.573	0	72.408	40.55354994	12.99638989	36.94344164
 72	0	71.029	29.412	24.78941035	33.45367028	19.73525872
 73	68.386	75.008	0	60.40914561	40.31287605	22.86401925
 74	68.088	27.309	100	40.31287605	26.83513839	74.12755716
 75	100	26.457	73.749	91.21540313	22.38267148	48.01444043
 76	74.344	100	27.392	91.6967509	77.37665463	44.40433213
 77	27.558	100	28.197	51.98555957	73.76654633	38.38748496
 78	31.196	27.465	100	11.19133574	23.94705174	69.43441637
 79	0	75.521	72.824	25.39109507	45.96871239	48.61612515
 80	0	50.93	25.553	10.22864019	16.36582431	10.58965102
 81	32.06	33.584	64.033	11.79302046	13.71841155	27.31648616
 82	81.666	55.38	0	66.54632972	24.42839952	17.32851986
 83	68.257	32.751	58.286	40.55354994	15.28279182	27.4368231
 84	0	55.248	81.585	13.11672684	29.96389892	49.09747292
 85	73.781	52.099	100	54.99398315	39.71119134	80.98676294
 86	100	50.537	82.952	99.1576414	36.34175692	63.29723225
 87	23.55	0	50.439	4.332129964	4.332129964	14.19975933
 88	31.335	62.746	31.114	23.10469314	26.5944645	17.4488568
 89	100	18.31	49.418	88.0866426	14.92178099	27.91817088
 90	26.498	48.404	0	13.95908544	14.32009627	7.34055355
 91	47.91	100	85.744	64.74127557	86.64259928	82.31046931
 92	71.829	47.313	31.811	48.97713598	19.01323706	17.80986763
 93	31.304	64.132	69.316	24.66907341	34.17569194	41.03489771
 94	80.403	0	54.321	52.22623345	10.10830325	24.30806258
 95	18.455	50.036	100	13.95908544	34.05535499	74.00722022
 96	50.653	100	16.345	65.1022864	74.00722022	37.90613718
 97	80.121	100	52.261	100.9626955	81.7087846	57.16004813
 98	0	22.54	19.289	2.045728039	3.48977136	3.369434416
 99	100	75.273	46.886	113.4777377	48.85679904	43.2009627
 100	0	78.618	56.625	27.31648616	45.72803851	36.94344164
 101	51.137	80.627	100	45.84837545	63.89891697	90.01203369
 102	48.446	0	17.864	16.84717208	2.286401925	4.452466907
 103	100	50.023	21.211	97.71359807	24.78941035	23.22503008
 104	50.115	20.118	0	19.73525872	4.332129964	4.091456077
 105	58.099	72.426	33.158	48.01444043	37.78580024	25.39109507
 106	19.364	100	50.197	49.45848375	75.57160048	47.89410349
 107	50.683	19.177	100	21.90132371	22.86401925	70.87845969
 108	53.37	0	81.576	22.02166065	13.71841155	44.0433213
 109	47.768	76.245	0	41.39590854	39.71119134	20.33694344
 110	0	18.927	55.503	1.925391095	6.859205776	17.56919374
 111	0	13.277	0	0.8423586041	1.083032491	0.6016847172
 112	72.862	72.473	75.625	64.86161252	47.77376655	56.67870036
 113	100	13.904	0	88.0866426	10.22864019	14.32009627
 114	86.349	0	100	62.93622142	25.39109507	76.53429603
 115	100	41.941	100	94.82551143	38.5078219	85.07821901
 116	100	81.785	16.464	117.9302046	53.91095066	36.34175692
 117	0	44.063	52.596	8.062575211	15.64380265	20.45728039
 118	0	0	58.917	0.7220216606	5.415162455	19.01323706
 119	59.25	24.551	29.789	28.64019254	7.460890493	10.10830325
 120	82.73	82.874	100	87.84596871	70.6377858	96.63056558
 121	80.039	0	12.618	51.38387485	5.776173285	9.145607702
 122	60.957	47.729	77.817	37.6654633	26.83513839	47.17208183
 123	100	0	38.618	87.48495788	11.43200963	21.54031288
 124	0	40.09	100	7.942238267	28.39951865	70.87845969
 125	0	15.283	82.322	2.045728039	12.99638989	41.63658243
 126	17.592	81.726	100	33.21299639	63.41756919	87.84596871
 127	100	14.13	100	88.9290012	29.3622142	80.86642599
 128	15.261	100	82.059	49.09747292	83.51383875	75.45126354
 129	47.77	79.418	60.389	44.28399519	48.97713598	42.47894103
 130	18.768	16.429	0	3.48977136	1.805054152	1.203369434
 131	55.634	100	65.763	70.75812274	81.10709988	61.97352587
 132	100	100	38.541	137.1841155	83.15282792	55.83634176
 133	17.421	0	83.497	3.249097473	12.27436823	42.96028881
 134	17.237	16.758	100	4.933814681	20.69795427	67.14801444
 135	0	15.067	30.039	1.083032491	2.647412756	5.174488568
 136	0	0	86.505	1.564380265	13.11672684	46.20938628
 137	75.736	72.799	50.02	68.71239471	42.47894103	37.06377858
 138	100	83.323	85.529	121.299639	69.07340554	81.82912154
 139	100	100	64.894	136.7027677	87.36462094	71.96149218
 140	81.98	84.914	0	87.48495788	54.39229844	31.64861613
 141	0	63.757	15.49	16.72683514	25.39109507	13.11672684
 142	49.514	66.135	100	37.90613718	48.37545126	82.67148014
 143	100	0	61.862	86.88327316	15.28279182	35.13838748
 144	24.308	45.41	49.831	12.27436823	16.36582431	19.73525872
 145	15.963	0	17.047	1.925391095	0.7220216606	1.925391095
 146	87.497	100	100	113.3574007	96.63056558	110.2286402
 147	52.099	25.003	75.752	22.9843562	15.28279182	38.86883273
 148	14.909	81.162	0	30.44524669	43.44163658	20.69795427
 149	0	34.792	14.626	4.693140794	7.220216606	4.452466907
 150	48.39	45.075	22.552	24.78941035	14.44043321	10.83032491
 151	83.545	65.965	100	77.25631769	52.22623345	88.32731649
 152	16.226	62.345	0	17.68953069	24.06738869	11.55234657
 153	63.222	0	14.914	30.32490975	3.610108303	6.016847172
 154	80.449	13.446	0	52.70758123	6.738868833	8.784596871
 155	83.917	41.562	0	63.53790614	16.00481348	13.8387485
 156	100	60.448	46.3	102.7677497	35.13838748	36.10108303
 157	15.584	0	34.795	1.925391095	1.925391095	6.377858002
 158	17.144	65.121	100	21.54031288	46.08904934	79.7833935
 159	83.602	55.334	62.667	70.39711191	31.04693141	39.95186522
 160	0	82.19	14.22	29.96389892	45.24669073	22.38267148
 161	25.132	74.856	50.616	28.76052948	40.55354994	31.64861613
 162	0	13.769	100	2.406738869	19.85559567	66.90734055
 163	87.181	0	0	62.57521059	6.618531889	9.867629362
 164	0	100	39.19	46.93140794	73.64620939	41.75691937
 165	78.047	65.914	19.865	67.26835138	33.09265945	22.62334537
 166	100	63.961	15.865	104.4524669	35.13838748	27.31648616
 167	100	45.955	36.032	96.02888087	23.58604091	26.35379061
 168	15.926	100	16.89	48.85679904	72.44283995	35.37906137
 169	41.459	100	0	58.84476534	72.44283995	35.49939832
 170	48.707	37.288	48.139	22.86401925	13.47773767	18.89290012
 171	83.381	100	13.285	105.1744886	78.21901324	43.80264741
 172	78.129	25.303	75.621	52.10589651	18.41155235	43.08062575
 173	12.396	0	0	1.203369434	0.2406738869	0.3610108303
 174	37.607	48.336	83.346	20.2166065	27.19614922	50.66185319
 175	35.588	15.356	0	9.506618532	2.406738869	2.166064982
 176	61.245	100	100	77.37665463	93.38146811	104.6931408
 177	100	67.29	87.195	107.9422383	51.02286402	74.36823105
 178	0	0	30.615	0.2406738869	1.444043321	4.693140794
 179	35.187	81.789	83.323	38.74849579	57.28038508	65.1022864
 180	39.525	80.194	22.879	39.10950662	44.52466907	24.30806258
 181	50.634	34.593	0	23.22503008	8.784596871	6.257521059
 182	14.175	100	63.146	48.49578821	77.85800241	56.7990373
 183	83.493	17.728	34.574	57.64139591	9.506618532	15.88447653
 184	23.463	22.014	79.943	6.618531889	14.07942238	40.19253911
 185	18.066	31.847	0	6.137184116	5.896510229	3.128760529
 186	87.201	100	81.361	112.1540313	89.53068592	84.11552347
 187	0	100	87.95	48.01444043	85.19855596	82.43080626
 188	34.476	17.888	46.22	9.506618532	5.896510229	13.35740072
 189	18.277	0	67.39	3.008423586	7.581227437	26.11311673
 190	100	87.972	0	123.8267148	61.97352587	38.86883273
 191	82.925	34.85	100	61.97352587	31.88929001	79.18170878
 192	0	88.016	100	36.58243081	71.35980746	91.09506619
 193	36.104	85.655	100	43.44163658	69.55475331	90.61371841
 194	60.981	0	0	27.67749699	3.008423586	4.452466907
 195	51.466	61.826	78.106	36.10108303	36.46209386	51.02286402
 196	78.427	31.983	22.175	52.22623345	11.67268351	12.99638989
 197	66.017	44.321	0	41.03489771	15.16245487	10.70998797
 198	83.941	0	84.177	58.48375451	18.53188929	52.70758123
 199	20.158	46.612	23.269	11.19133574	13.8387485	9.265944645
 200	0	100	62.618	47.41275572	78.09867629	55.9566787
 201	33.832	0	13.933	7.821901324	1.203369434	2.406738869
 202	100	17.286	16.322	88.44765343	11.31167268	15.88447653
 203	0	42.204	83.926	16.00481348	22.74368231	48.37545126
 204	0	87.774	0	34.41636582	51.74488568	24.54873646
 205	64.988	0	59.017	32.49097473	8.904933815	24.30806258
 206	14.677	0	100	3.249097473	19.01323706	67.0276775
 207	88.934	82.673	35.021	95.42719615	53.91095066	38.5078219
 208	0	63.778	100	18.53188929	44.16365824	78.70036101
 209	83.429	17.674	100	59.20577617	26.71480144	76.29362214
 210	30.899	100	85.668	54.39229844	85.3188929	80.50541516
 211	83.68	0	41.016	57.03971119	8.543922984	17.80986763
 212	100	63.515	0	104.33213	34.05535499	25.63176895
 213	85.074	69.987	0	80.02406739	37.30445247	24.18772563
 214	20.801	45.524	69.018	11.79302046	20.45728039	33.57400722
 215	21.382	82.482	73.017	33.93501805	54.51263538	53.30926594
 216	100	15.128	64.249	87.84596871	17.08784597	37.78580024
 217	36.522	0	58.427	9.747292419	6.257521059	20.09626955
 218	22.466	81.296	33.007	32.61131167	45.48736462	26.83513839
 219	62.531	87.152	0	63.17689531	54.87364621	29.00120337
 220	84.12	85.397	67.886	91.57641396	62.93622142	59.20577617
 221	18.87	27.336	45.389	5.655836342	7.460890493	13.11672684
 222	66.439	100	14.444	80.38507822	74.96991576	40.07220217
 223	41.636	22.147	19.003	14.07942238	4.693140794	5.174488568
 224	61.271	100	81.94	76.89530686	86.52226233	79.30204573
 225	86.013	100	0	109.3862816	77.85800241	43.56197353
 226	37.57	0	0	9.506618532	1.083032491	1.564380265
 227	100	16.132	84.102	88.9290012	22.9843562	58.60409146
 228	0	100	13.619	46.69073406	71.84115523	34.65703971
 229	38.905	100	56.471	57.8820698	78.09867629	52.94825511
 230	100	15.382	34.563	87.84596871	12.27436823	20.57761733
 231	36.656	14.908	100	11.9133574	21.17930205	68.47172082
 232	0	62.593	66.608	16.60649819	31.40794224	36.58243081
 233	66.347	12.528	100	36.10108303	23.34536703	72.5631769
 234	100	43.375	69.233	94.4645006	28.03850782	46.811071
 235	100	56.36	61.236	100.8423586	34.41636582	44.0433213
 236	0	86.194	44.955	33.21299639	52.70758123	34.29602888
 237	64.527	87.262	100	67.38868833	73.88688327	96.02888087
 238	34.411	0	42.471	8.303249097	3.610108303	10.70998797
 239	80.23	59.707	85.12	67.0276775	40.07220217	63.53790614
 240	20.625	19.056	14.791	4.452466907	2.767749699	2.767749699
 241	15.341	34.221	100	7.942238267	25.7521059	70.03610108
 242	36.777	0	87.905	10.46931408	14.6811071	49.81949458
 243	34.598	56.247	100	22.9843562	39.22984356	77.13598075
 244	20.86	67.629	17.418	22.14199759	29.60288809	15.64380265
 245	44.958	60.843	18.054	29.60288809	24.90974729	14.80144404
 246	37.421	60.193	0	24.54873646	23.22503008	12.15403129
 247	84.011	33.849	42.612	62.3345367	15.40312876	21.78098676
 248	17.241	60.339	37.743	16.96750903	24.54873646	18.2912154
 249	50.65	17.261	53.278	20.33694344	8.182912154	19.13357401
 250	45.505	48.926	65.152	25.15042118	22.74368231	33.33333333
 251	44.567	84.081	39.649	45.48736462	51.14320096	32.85198556
 252	100	86.339	72.054	123.345367	68.59205776	68.59205776
 253	68.14	61.135	0	50.90252708	26.47412756	16.36582431
 254	17.93	66.986	81.403	22.02166065	40.07220217	53.79061372
 255	39.242	60.215	48.926	26.11311673	27.07581227	25.03008424
 256	20.099	18.77	62.967	4.813477738	8.664259928	23.58604091
 257	34.553	100	14.582	54.87364621	72.5631769	36.22141998
 258	87.345	0	66.694	63.17689531	13.95908544	35.49939832
 259	0	43.714	39.842	7.70156438	13.47773767	13.47773767
 260	100	37.705	13.955	92.05776173	17.68953069	18.77256318
 261	31.265	86.993	0	40.07220217	51.62454874	25.15042118
 262	51.402	82.661	81.338	50.06016847	58.84476534	64.98194946
 263	100	100	12.984	136.22142	81.58844765	48.49578821
 264	0	37.859	0	5.535499398	8.182912154	3.971119134
 265	62.092	58.215	100	44.40433213	42.71961492	80.86642599
 266	86.186	100	64.1	110.2286402	84.59687124	66.66666667
 267	100	35.251	85.898	92.41877256	29.48255114	63.17689531
 268	63.182	89.992	41.974	67.26835138	61.37184116	40.19253911
 269	13.504	100	0	47.89410349	71.84115523	33.81468111
 270	100	0	13.228	86.40192539	9.506618532	14.6811071
 271	63.881	40.826	100	38.74849579	32.00962696	76.41395909
 272	69.387	84.838	20.792	69.07340554	53.30926594	31.04693141
 273	0	70.279	45.136	21.17930205	34.41636582	25.7521059
 274	79.094	64.754	40.908	68.11070999	34.05535499	29.12154031
 275	62.385	54.099	17.396	41.03489771	21.0589651	14.44043321
 276	64.408	14.621	0	32.00962696	4.693140794	5.655836342
 277	70.028	15.606	44.651	38.86883273	8.423586041	17.08784597
 278	0	63.544	0	16.72683514	25.03008424	11.9133574
 279	83.475	47.274	20.502	65.1022864	19.85559567	17.32851986
 280	55.866	0	32.671	23.10469314	3.971119134	9.025270758
 281	58.007	0	100	26.5944645	21.54031288	70.75812274
 282	100	0	87.698	87.72563177	22.86401925	61.73285199
 283	0	13.792	67.215	1.444043321	8.543922984	26.23345367
 284	84.123	17.001	58.549	58.60409146	13.23706378	29.00120337
 285	59.579	32.873	15.966	30.32490975	9.265944645	8.423586041
 286	10.41	32.998	28.659	5.174488568	7.460890493	7.220216606
 287	17.231	40.031	85.65	9.386281588	22.50300842	50.54151625
 288	37.568	41.561	10.108	16.24548736	11.0709988	6.859205776
 289	0	69.015	85.092	21.17930205	43.08062575	59.08543923
 290	14.442	100	36.187	48.13477738	73.52587244	40.67388688
 291	100	40.549	0	93.50180505	18.77256318	18.41155235
 292	82.143	45.435	78.429	63.17689531	28.39951865	51.02286402
 293	52.674	0	67.3	20.93862816	9.506618532	29.00120337
 294	0	87.868	66.793	35.49939832	59.92779783	50.66185319
 295	86.53	100	40.524	110.2286402	80.38507822	52.22623345
 296	71.777	85.586	67.232	73.88688327	61.01083032	56.07701564
 297	43.216	100	31.671	60.28880866	74.60890493	40.91456077
 298	39.245	32.908	85.845	16.00481348	20.2166065	50.06016847
 299	0	45.662	67.543	8.904933815	19.85559567	31.88929001
 300	12.161	100	100	49.69915764	90.25270758	100.4813478
 301	67.049	0	85.516	35.37906137	16.60649819	50.66185319
 302	100	89.041	100	125.511432	82.06979543	106.2575211
 303	20.246	60.698	56.526	18.2912154	27.91817088	28.64019254
 304	52.177	55.457	40.416	32.49097473	23.22503008	20.57761733
 305	72.617	87.018	83.932	76.53429603	67.99037304	74.60890493
 306	40.512	16.723	66.475	13.23706378	9.987966306	27.79783394
 307	68.507	49.232	50.605	45.84837545	22.26233454	26.5944645
 308	65.622	100	54.525	80.50541516	80.02406739	55.47533093
 309	54.115	37.24	66.394	27.19614922	17.32851986	32.49097473
 310	100	76.138	31.267	113.9590854	48.49578821	36.70276775
 311	54.728	65.623	0	39.71119134	29.24187726	16.12515042
 312	63.126	12.526	64.37	31.04693141	10.83032491	28.5198556
 313	72.827	18.08	23.704	42.23826715	7.099879663	10.22864019
 314	23.268	15.278	34.947	4.813477738	3.610108303	7.460890493
 315	87.648	68.954	59.645	83.75451264	42.47894103	44.52466907
 316	0	85.595	85.198	33.69434416	62.45487365	68.47172082
 317	35.798	84.371	69.21	41.15523466	56.67870036	51.62454874
 318	36.062	47.494	35.919	17.93020457	16.24548736	14.32009627
 319	86.083	36.277	59.152	65.94464501	19.49458484	32.49097473
 320	58.21	100	30.361	72.20216606	75.81227437	42.35860409
 321	46.745	14.614	32.317	16.60649819	4.572803851	8.423586041
 322	81.573	73.869	86.954	78.82069795	54.39229844	72.44283995
 323	85.991	49.387	48.206	70.87845969	24.42839952	28.88086643
 324	28.062	87.906	19.654	40.07220217	53.79061372	27.55716005
 325	68.992	17.993	85.124	38.74849579	18.53188929	51.74488568
 326	100	66.147	100	107.0998797	55.71600481	93.38146811
 327	33.358	64.806	84.517	26.35379061	39.95186522	57.8820698
 328	41.351	17.736	80.522	14.19975933	14.32009627	42.23826715
 329	100	100	88.719	137.4247894	94.70517449	97.2322503
 330	66.336	0	44.32	33.69434416	6.618531889	15.76413959
 331	64.85	67.09	12.293	50.90252708	32.1299639	19.37424789
 332	15.262	31.268	63.277	5.896510229	12.03369434	25.39109507
 333	15.008	43.663	37.3	9.145607702	13.47773767	12.755716
 334	0	57.895	38.078	13.59807461	22.50300842	17.20818291
 335	66.599	58.458	67.871	48.49578821	32.1299639	42.1179302
 336	59.191	18.651	15.215	27.19614922	5.174488568	6.377858002
 337	66.781	31.14	84.629	38.86883273	21.78098676	52.46690734
 338	88.033	85.158	52.14	97.35258724	60.40914561	47.89410349
 339	36.882	100	100	57.8820698	91.21540313	101.3237064
 340	26.102	33.094	17.006	8.664259928	7.099879663	5.294825511
 341	56.309	36.861	35.862	28.5198556	12.15403129	13.95908544
 342	45.839	65.587	67.033	33.57400722	35.7400722	40.55354994
 343	83.709	81.172	16.406	86.76293622	49.93983153	31.04693141
 344	0	48.132	13.005	9.025270758	13.95908544	7.460890493
 345	87.176	50.021	100	74.2478941	40.67388688	83.39350181
 346	51.219	84.244	13.73	50.18050542	49.93983153	26.35379061
 347	60.606	71.415	48.406	49.45848375	39.22984356	32.49097473
 348	0	11.359	12.718	0.7220216606	1.083032491	1.444043321
 349	86.429	49.705	33.145	71.60048135	22.74368231	22.26233454
 350	34.056	40.958	100	16.00481348	29.3622142	72.08182912
 351	100	30.557	59.628	90.8543923	20.2166065	36.10108303
 352	88.497	26.902	13.449	67.26835138	11.19133574	13.23706378
 353	14.167	51.98	88.218	13.35740072	30.32490975	56.43802647
 354	13.784	12.983	49.37	2.527075812	4.933814681	13.59807461
 355	15.018	88.441	48.062	37.06377858	57.03971119	37.54512635
 356	87.79	25.769	89.215	66.42599278	24.66907341	62.3345367
 357	0	33.206	55.865	4.693140794	11.0709988	19.85559567
 358	74.324	76.029	35.536	68.47172082	43.80264741	31.04693141
 359	65.863	57.223	42.324	46.08904934	25.99277978	23.94705174
 360	30.893	54.646	13.136	18.53188929	19.01323706	10.46931408
 361	0	34.36	28.321	4.572803851	7.821901324	7.220216606
 362	15.443	77.087	85.116	28.64019254	51.62454874	64.01925391
 363	63.381	68.947	68.521	51.14320096	40.91456077	46.08904934
 364	69.733	27.566	42.917	40.07220217	11.0709988	17.56919374
 365	32.754	100	42.76	54.15162455	75.09025271	44.40433213
 366	47.096	29.481	34.829	19.49458484	8.423586041	10.95066185
 367	8.5451	71.948	62.695	23.10469314	39.22984356	37.54512635
 368	0	86.048	29.3	33.09265945	51.14320096	27.91817088
 369	53.697	51.572	85.367	32.61131167	31.04693141	56.07701564
 370	17.608	56.69	12.515	15.04211793	19.97593261	10.46931408
 371	90.638	14.414	49.227	69.7954272	12.27436823	24.54873646
 372	63.248	63.64	89.55	48.01444043	43.08062575	67.50902527
 373	100	85.976	58.455	122.2623345	64.98194946	56.91937425
 374	9.8311	28.027	7.5567	3.85078219	4.572803851	2.767749699
 375	89.831	64.313	69.506	85.19855596	40.79422383	50.78219013
 376	31.754	12.995	25.543	7.581227437	2.767749699	4.933814681
 377	75.914	45.966	64.957	54.03128761	24.18772563	37.06377858
 378	7.5735	50.695	58.941	11.19133574	21.0589651	26.5944645
 379	100	69.835	58.912	107.4608905	45.84837545	47.89410349
 380	32.211	34.376	48.339	11.9133574	11.0709988	16.84717208
 381	13.901	12.159	73.555	2.888086643	10.10830325	32.25030084
 382	87.071	9.028	77.653	63.65824308	17.56919374	46.69073406
 383	23.272	85.409	84.29	37.18411552	61.61251504	67.50902527
 384	93.289	39.48	26.145	78.82069795	17.68953069	19.25391095
 385	65.769	59.63	30.967	47.53309266	26.71480144	20.45728039
 386	100	32.265	41.803	90.8543923	17.80986763	25.87244284
 387	86.568	85.281	86.961	94.70517449	68.83273165	80.38507822
 388	52.577	86.83	30.016	54.15162455	54.39229844	31.76895307
 389	47.921	40.199	76.902	23.70637786	21.29963899	42.47894103
 390	22.36	86.619	61.58	37.42478941	57.03971119	45.84837545
 391	52.232	33.601	88.787	25.63176895	22.62334537	55.9566787
 392	0	28.523	86.267	4.21179302	17.56919374	48.13477738
 393	43.497	67.879	39.551	32.85198556	32.9723225	23.94705174
 394	39.877	45.261	0	19.01323706	13.23706378	7.460890493
 395	86.94	12.43	24.699	62.21419976	8.423586041	13.35740072
 396	28.363	55.339	90.398	19.25391095	34.05535499	61.4921781
 397	39.018	70.534	57.879	32.00962696	38.02647413	34.8977136
 398	12.833	28.519	78.828	5.294825511	15.28279182	39.71119134
 399	68.35	31.815	69.975	40.31287605	17.68953069	36.82310469
 400	56.52	26.226	41.626	26.35379061	8.904933815	14.6811071
 401	12.938	46.218	0	9.386281588	12.63537906	6.137184116
 402	8.6938	60.179	26.117	15.40312876	23.22503008	13.95908544
 403	51.995	89.429	96.608	57.16004813	74.2478941	89.77135981
 404	46.905	47.746	48.909	25.03008424	18.77256318	21.66064982
 405	14.352	81.814	19.479	30.80625752	45.12635379	22.9843562
 406	71.482	38.117	12.273	45.24669073	12.87605295	11.19133574
 407	86.616	60.785	10.012	76.1732852	29.3622142	21.17930205
 408	71.811	88.979	52.186	76.1732852	62.21419976	46.93140794
 409	43.213	100	72.083	60.52948255	81.58844765	65.94464501
