data/calibration-001831.ti3
CTI3   
ORIGINATOR	"ColorHug Factory"
CREATED	"Wed Apr 10 08:54:26 2013"
DESCRIPTOR	"Calibration Target chart information 3"
DEVICE_CLASS	"DISPLAY"
COLOR_REP	"RGB_XYZ"
TARGET_INSTRUMENT	"Hughski ColorHug"
INSTRUMENT_TYPE_SPECTRAL	"NO"
NORMALIZED_TO_Y_100	"NO"
NUMBER_OF_FIELDS	7
NUMBER_OF_SETS	15
BEGIN_DATA_FORMAT
 SAMPLE_ID	RGB_R	RGB_G	RGB_B	XYZ_X	XYZ_Y	XYZ_Z
END_DATA_FORMAT
BEGIN_DATA
 1	0	0	0	0	0	0
 2	1	1	1	40.64941406	40.8782959	53.28369141
 3	1	0	0	24.21569824	2.883911133	3.799438477
 4	0	1	0	14.14489746	28.24401855	12.90893555
 5	0	0	1	0.8239746094	9.063720703	35.98022461
 6	0	0	0	0	0.09155273438	0
 7	1	1	1	40.7409668	40.6036377	53.10058594
 8	1	0	0	24.21569824	2.883911133	3.753662109
 9	0	1	0	14.09912109	28.15246582	12.95471191
 10	0	0	1	0.8239746094	9.063720703	35.93444824
 11	0	0	0	0	0.09155273438	0
 12	1	1	1	40.78674316	40.8782959	53.19213867
 13	1	0	0	24.12414551	2.883911133	3.753662109
 14	0	1	0	14.14489746	28.33557129	13.00048828
 15	0	0	1	0.8239746094	9.063720703	35.98022461
END_DATA
