data/calibration-000867.ti3
CTI3   
ORIGINATOR	"ColorHug Factory"
DESCRIPTOR	"Calibration Target chart information 3"
DEVICE_CLASS	"DISPLAY"
COLOR_REP	"RGB_XYZ"
TARGET_INSTRUMENT	"Hughski ColorHug"
INSTRUMENT_TYPE_SPECTRAL	"NO"
NORMALIZED_TO_Y_100	"NO"
NUMBER_OF_FIELDS	7
NUMBER_OF_SETS	15
BEGIN_DATA_FORMAT
 SAMPLE_ID	RGB_R	RGB_G	RGB_B	XYZ_X	XYZ_Y	XYZ_Z
END_DATA_FORMAT
BEGIN_DATA
 1	0	0	0	0.04577636719	0.04577636719	0.04577636719
 2	1	1	1	55.84716797	35.52246094	43.25866699
 3	1	0	0	35.5682373	3.341674805	5.310058594
 4	0	1	0	18.63098145	24.99389648	11.94763184
 5	0	0	1	0.8239746094	7.00378418	25.86364746
 6	0	0	0	0.04577636719	0.04577636719	0.04577636719
 7	1	1	1	55.8013916	35.38513184	43.02978516
 8	1	0	0	35.15625	3.341674805	5.310058594
 9	0	1	0	18.40209961	24.81079102	11.8560791
 10	0	0	1	0.8239746094	6.958007812	25.63476562
 11	0	0	0	0.04577636719	0.04577636719	0.04577636719
 12	1	1	1	55.8013916	35.47668457	43.21289062
 13	1	0	0	35.5682373	3.295898438	5.264282227
 14	0	1	0	18.63098145	25.03967285	11.8560791
 15	0	0	1	0.8239746094	6.958007812	25.77209473
END_DATA
