data/calibration-001221.ti3
CTI3   
ORIGINATOR	"ColorHug Factory"
DESCRIPTOR	"Calibration Target chart information 3"
DEVICE_CLASS	"DISPLAY"
COLOR_REP	"RGB_XYZ"
TARGET_INSTRUMENT	"Hughski ColorHug"
INSTRUMENT_TYPE_SPECTRAL	"NO"
NORMALIZED_TO_Y_100	"NO"
NUMBER_OF_FIELDS	7
NUMBER_OF_SETS	15
BEGIN_DATA_FORMAT
 SAMPLE_ID	RGB_R	RGB_G	RGB_B	XYZ_X	XYZ_Y	XYZ_Z
END_DATA_FORMAT
BEGIN_DATA
 1	0	0	0	0.1373291016	0.1373291016	0.1831054688
 2	1	1	1	33.14208984	37.58239746	45.68481445
 3	1	0	0	18.81408691	2.700805664	3.295898438
 4	0	1	0	11.67297363	26.73339844	12.03918457
 5	0	0	1	0.9155273438	8.056640625	30.16662598
 6	0	0	0	0.1373291016	0.1373291016	0.1831054688
 7	1	1	1	33.14208984	37.76550293	45.95947266
 8	1	0	0	18.95141602	2.700805664	3.295898438
 9	0	1	0	11.71875	26.73339844	12.08496094
 10	0	0	1	0.9155273438	8.056640625	30.25817871
 11	0	0	0	0.1373291016	0.1373291016	0.1831054688
 12	1	1	1	33.18786621	37.85705566	45.91369629
 13	1	0	0	18.85986328	2.700805664	3.295898438
 14	0	1	0	11.67297363	26.6418457	12.1307373
 15	0	0	1	0.9613037109	8.102416992	30.21240234
END_DATA
