data/calibration-002384.ti3
CTI3   
ORIGINATOR	"ColorHug Factory"
CREATED	"Wed May 14 20:16:22 2014"
DESCRIPTOR	"Calibration Target chart information 3"
DEVICE_CLASS	"DISPLAY"
COLOR_REP	"RGB_XYZ"
TARGET_INSTRUMENT	"Hughski ColorHug"
INSTRUMENT_TYPE_SPECTRAL	"NO"
NORMALIZED_TO_Y_100	"NO"
NUMBER_OF_FIELDS	7
NUMBER_OF_SETS	15
BEGIN_DATA_FORMAT
 SAMPLE_ID	RGB_R	RGB_G	RGB_B	XYZ_X	XYZ_Y	XYZ_Z
END_DATA_FORMAT
BEGIN_DATA
 1.0	0.0	0.0	0.0	0.300186157227	0.297500610352	0.403030395508
 2.0	1.0	1.0	1.0	70.620681762695	34.420166015625	57.690139770508
 3.0	1.0	0.0	0.0	44.521728515625	3.858688354492	7.104934692383
 4.0	0.0	1.0	0.0	21.389022827148	21.059112548828	12.190475463867
 5.0	0.0	0.0	1.0	1.310287475586	9.383728027344	37.75114440918
 6.0	0.0	0.0	0.0	0.303802490234	0.301620483398	0.40495300293
 7.0	1.0	1.0	1.0	70.01708984375	34.276138305664	57.286712646484
 8.0	1.0	0.0	0.0	44.521728515625	3.864135742188	7.031753540039
 9.0	0.0	1.0	0.0	21.33332824707	21.005126953125	12.226852416992
 10.0	0.0	0.0	1.0	1.311965942383	9.351593017578	37.925918579102
 11.0	0.0	0.0	0.0	0.305328369141	0.303802490234	0.40788269043
 12.0	1.0	1.0	1.0	70.620681762695	34.276138305664	58.09928894043
 13.0	1.0	0.0	0.0	44.521728515625	3.855056762695	7.086502075195
 14.0	0.0	1.0	0.0	21.501312255859	21.059112548828	12.226852416992
 15.0	0.0	0.0	1.0	1.311553955078	9.383728027344	37.75114440918
END_DATA
