data/calibration-000434.ti3
CTI3
ORIGINATOR	"ColorHug Factory"
DESCRIPTOR	"Calibration Target chart information 3"
DEVICE_CLASS	"DISPLAY"
COLOR_REP	"RGB_XYZ"
TARGET_INSTRUMENT	"Hughski ColorHug"
INSTRUMENT_TYPE_SPECTRAL	"NO"
NORMALIZED_TO_Y_100	"NO"
NUMBER_OF_FIELDS	7
NUMBER_OF_SETS	15
BEGIN_DATA_FORMAT
 SAMPLE_ID	RGB_R	RGB_G	RGB_B	XYZ_X	XYZ_Y	XYZ_Z
END_DATA_FORMAT
BEGIN_DATA
 1	0	0	0	0.04577636719	0.04577636719	0.09155273438
 2	1	1	1	61.6607666	38.86413574	44.17419434
 3	1	0	0	39.27612305	3.616333008	5.53894043
 4	0	1	0	20.2331543	28.24401855	12.72583008
 5	0	0	1	0.8239746094	7.00378418	25.86364746
 6	0	0	0	0.04577636719	0.04577636719	0.09155273438
 7	1	1	1	60.92834473	38.81835938	44.0826416
 8	1	0	0	39.09301758	3.616333008	5.53894043
 9	0	1	0	20.14160156	28.19824219	12.68005371
 10	0	0	1	0.8239746094	7.00378418	25.86364746
 11	0	0	0	0.04577636719	0.04577636719	0.09155273438
 12	1	1	1	60.74523926	38.63525391	44.17419434
 13	1	0	0	39.32189941	3.616333008	5.53894043
 14	0	1	0	20.27893066	28.19824219	12.68005371
 15	0	0	1	0.8239746094	7.00378418	25.81787109
END_DATA
