data/calibration-002514.ti3
CTI3   
ORIGINATOR	"ColorHug Factory"
CREATED	"Wed Oct 22 09:41:23 2014"
DESCRIPTOR	"Calibration Target chart information 3"
DEVICE_CLASS	"DISPLAY"
COLOR_REP	"RGB_XYZ"
TARGET_INSTRUMENT	"Hughski ColorHug"
INSTRUMENT_TYPE_SPECTRAL	"NO"
NORMALIZED_TO_Y_100	"NO"
NUMBER_OF_FIELDS	7
NUMBER_OF_SETS	15
BEGIN_DATA_FORMAT
 SAMPLE_ID	RGB_R	RGB_G	RGB_B	XYZ_X	XYZ_Y	XYZ_Z
END_DATA_FORMAT
BEGIN_DATA
 1.0	0.0	0.0	0.0	0.159622192383	0.165542602539	0.215103149414
 2.0	1.0	1.0	1.0	101.135787963867	94.160919189453	92.044937133789
 3.0	1.0	0.0	0.0	68.84033203125	6.296691894531	8.875396728516
 4.0	0.0	1.0	0.0	25.842269897461	68.84033203125	23.744918823242
 5.0	0.0	0.0	1.0	2.973495483398	16.960647583008	56.888885498047
 6.0	0.0	0.0	0.0	0.159957885742	0.166641235352	0.215560913086
 7.0	1.0	1.0	1.0	101.135787963867	94.160919189453	92.044937133789
 8.0	1.0	0.0	0.0	68.84033203125	6.296691894531	8.875396728516
 9.0	0.0	1.0	0.0	25.761001586914	68.84033203125	23.883377075195
 10.0	0.0	0.0	1.0	2.970260620117	16.995849609375	56.888885498047
 11.0	0.0	0.0	0.0	0.159622192383	0.166275024414	0.21647644043
 12.0	1.0	1.0	1.0	101.135787963867	95.255813598633	92.044937133789
 13.0	1.0	0.0	0.0	68.84033203125	6.296691894531	8.875396728516
 14.0	0.0	1.0	0.0	25.842269897461	68.84033203125	23.744918823242
 15.0	0.0	0.0	1.0	2.978897094727	16.995849609375	56.888885498047
END_DATA
