data/calibration-001057.ti3
CTI3   
ORIGINATOR	"ColorHug Factory"
DESCRIPTOR	"Calibration Target chart information 3"
DEVICE_CLASS	"DISPLAY"
COLOR_REP	"RGB_XYZ"
TARGET_INSTRUMENT	"Hughski ColorHug"
INSTRUMENT_TYPE_SPECTRAL	"NO"
NORMALIZED_TO_Y_100	"NO"
NUMBER_OF_FIELDS	7
NUMBER_OF_SETS	15
BEGIN_DATA_FORMAT
 SAMPLE_ID	RGB_R	RGB_G	RGB_B	XYZ_X	XYZ_Y	XYZ_Z
END_DATA_FORMAT
BEGIN_DATA
 1	0	0	0	0	0	0.04577636719
 2	1	1	1	33.59985352	35.79711914	39.27612305
 3	1	0	0	20.00427246	2.700805664	3.112792969
 4	0	1	0	12.08496094	25.9552002	11.03210449
 5	0	0	1	0.6866455078	7.049560547	25.26855469
 6	0	0	0	0	0	0.04577636719
 7	1	1	1	33.50830078	35.93444824	39.50500488
 8	1	0	0	19.86694336	2.700805664	3.112792969
 9	0	1	0	12.1307373	25.9552002	11.03210449
 10	0	0	1	0.6866455078	7.049560547	25.08544922
 11	0	0	0	0	0	0.04577636719
 12	1	1	1	33.50830078	35.79711914	39.45922852
 13	1	0	0	20.14160156	2.700805664	3.112792969
 14	0	1	0	12.1307373	26.0925293	11.07788086
 15	0	0	1	0.6866455078	7.049560547	25.03967285
END_DATA
