data/calibration-002427.ti3
CTI3   
ORIGINATOR	"ColorHug Factory"
CREATED	"Wed Jun 11 19:32:21 2014"
DESCRIPTOR	"Calibration Target chart information 3"
DEVICE_CLASS	"DISPLAY"
COLOR_REP	"RGB_XYZ"
TARGET_INSTRUMENT	"Hughski ColorHug"
INSTRUMENT_TYPE_SPECTRAL	"NO"
NORMALIZED_TO_Y_100	"NO"
NUMBER_OF_FIELDS	7
NUMBER_OF_SETS	15
BEGIN_DATA_FORMAT
 SAMPLE_ID	RGB_R	RGB_G	RGB_B	XYZ_X	XYZ_Y	XYZ_Z
END_DATA_FORMAT
BEGIN_DATA
 1.0	0.0	0.0	0.0	72.495574951172	30.681640625	50.567886352539
 2.0	1.0	1.0	1.0	76.560745239258	33.032257080078	54.251647949219
 3.0	1.0	0.0	0.0	49.05387878418	3.871444702148	6.627822875977
 4.0	0.0	1.0	0.0	23.540222167969	20.428924560547	11.040420532227
 5.0	0.0	0.0	1.0	1.469940185547	8.427978515625	36.247787475586
 6.0	0.0	0.0	0.0	0.227188110352	0.196685791016	0.276565551758
 7.0	1.0	1.0	1.0	77.283004760742	32.767990112305	54.251647949219
 8.0	1.0	0.0	0.0	48.761901855469	3.882461547852	6.617111206055
 9.0	0.0	1.0	0.0	23.676300048828	20.37809753418	11.10026550293
 10.0	0.0	0.0	1.0	1.474166870117	8.427978515625	35.929809570312
 11.0	0.0	0.0	0.0	0.228713989258	0.199005126953	0.279602050781
 12.0	1.0	1.0	1.0	78.01904296875	32.899597167969	54.251647949219
 13.0	1.0	0.0	0.0	48.761901855469	3.875106811523	6.665573120117
 14.0	0.0	1.0	0.0	23.676300048828	20.37809753418	11.115325927734
 15.0	0.0	0.0	1.0	1.465469360352	8.427978515625	36.088104248047
END_DATA
