data/calibration-001162.ti3
CTI3   
ORIGINATOR	"ColorHug Factory"
DESCRIPTOR	"Calibration Target chart information 3"
DEVICE_CLASS	"DISPLAY"
COLOR_REP	"RGB_XYZ"
TARGET_INSTRUMENT	"Hughski ColorHug"
INSTRUMENT_TYPE_SPECTRAL	"NO"
NORMALIZED_TO_Y_100	"NO"
NUMBER_OF_FIELDS	7
NUMBER_OF_SETS	15
BEGIN_DATA_FORMAT
 SAMPLE_ID	RGB_R	RGB_G	RGB_B	XYZ_X	XYZ_Y	XYZ_Z
END_DATA_FORMAT
BEGIN_DATA
 1	0	0	0	0.1373291016	0.1373291016	0.1831054688
 2	1	1	1	38.54370117	38.54370117	46.55456543
 3	1	0	0	23.0255127	2.9296875	3.753662109
 4	0	1	0	13.68713379	27.78625488	12.54272461
 5	0	0	1	0.9155273438	8.148193359	30.16662598
 6	0	0	0	0.1373291016	0.1373291016	0.1831054688
 7	1	1	1	38.4979248	38.72680664	46.37145996
 8	1	0	0	22.84240723	2.9296875	3.753662109
 9	0	1	0	13.73291016	27.60314941	12.54272461
 10	0	0	1	0.9155273438	8.148193359	30.16662598
 11	0	0	0	0.1373291016	0.1373291016	0.1831054688
 12	1	1	1	38.3605957	38.40637207	46.37145996
 13	1	0	0	22.97973633	2.9296875	3.753662109
 14	0	1	0	13.73291016	27.64892578	12.58850098
 15	0	0	1	0.9155273438	8.148193359	30.39550781
END_DATA
