data/calibration-000651.ti3
CTI3
ORIGINATOR	"ColorHug Factory"
DESCRIPTOR	"Calibration Target chart information 3"
DEVICE_CLASS	"DISPLAY"
COLOR_REP	"RGB_XYZ"
TARGET_INSTRUMENT	"Hughski ColorHug"
INSTRUMENT_TYPE_SPECTRAL	"NO"
NORMALIZED_TO_Y_100	"NO"
NUMBER_OF_FIELDS	7
NUMBER_OF_SETS	15
BEGIN_DATA_FORMAT
 SAMPLE_ID	RGB_R	RGB_G	RGB_B	XYZ_X	XYZ_Y	XYZ_Z
END_DATA_FORMAT
BEGIN_DATA
 1	0	0	0	0.04577636719	0.04577636719	0.09155273438
 2	1	1	1	58.68530273	38.58947754	44.54040527
 3	1	0	0	36.94152832	3.707885742	5.355834961
 4	0	1	0	19.40917969	27.83203125	12.45117188
 5	0	0	1	0.9155273438	7.415771484	26.5045166
 6	0	0	0	0.04577636719	0.04577636719	0.09155273438
 7	1	1	1	58.68530273	38.90991211	44.67773438
 8	1	0	0	36.98730469	3.707885742	5.355834961
 9	0	1	0	19.31762695	27.60314941	12.45117188
 10	0	0	1	0.9155273438	7.415771484	26.45874023
 11	0	0	0	0.04577636719	0.04577636719	0.09155273438
 12	1	1	1	58.68530273	39.09301758	44.72351074
 13	1	0	0	36.71264648	3.707885742	5.355834961
 14	0	1	0	19.27185059	27.60314941	12.49694824
 15	0	0	1	0.9155273438	7.415771484	26.45874023
END_DATA
