data/calibration-000833.ti3
CTI3   
ORIGINATOR	"ColorHug Factory"
DESCRIPTOR	"Calibration Target chart information 3"
DEVICE_CLASS	"DISPLAY"
COLOR_REP	"RGB_XYZ"
TARGET_INSTRUMENT	"Hughski ColorHug"
INSTRUMENT_TYPE_SPECTRAL	"NO"
NORMALIZED_TO_Y_100	"NO"
NUMBER_OF_FIELDS	7
NUMBER_OF_SETS	15
BEGIN_DATA_FORMAT
 SAMPLE_ID	RGB_R	RGB_G	RGB_B	XYZ_X	XYZ_Y	XYZ_Z
END_DATA_FORMAT
BEGIN_DATA
 1	0	0	0	0.04577636719	0	0.09155273438
 2	1	1	1	60.74523926	40.32897949	49.3927002
 3	1	0	0	38.63525391	3.662109375	5.813598633
 4	0	1	0	20.0958252	28.61022949	13.50402832
 5	0	0	1	0.9155273438	8.010864258	29.89196777
 6	0	0	0	0.04577636719	0	0.09155273438
 7	1	1	1	60.79101562	40.32897949	49.34692383
 8	1	0	0	38.54370117	3.662109375	5.767822266
 9	0	1	0	20.05004883	28.15246582	13.41247559
 10	0	0	1	0.9155273438	8.056640625	30.16662598
 11	0	0	0	0.04577636719	0	0.09155273438
 12	1	1	1	60.19592285	40.23742676	49.34692383
 13	1	0	0	38.13171387	3.662109375	5.767822266
 14	0	1	0	20.05004883	28.56445312	13.54980469
 15	0	0	1	0.9155273438	8.010864258	30.07507324
END_DATA
