data/calibration-001645.ti3
CTI3   
ORIGINATOR	"ColorHug Factory"
CREATED	"Thu Feb 14 22:37:27 2013"
DESCRIPTOR	"Calibration Target chart information 3"
DEVICE_CLASS	"DISPLAY"
COLOR_REP	"RGB_XYZ"
TARGET_INSTRUMENT	"Hughski ColorHug"
INSTRUMENT_TYPE_SPECTRAL	"NO"
NORMALIZED_TO_Y_100	"NO"
NUMBER_OF_FIELDS	7
NUMBER_OF_SETS	15
BEGIN_DATA_FORMAT
 SAMPLE_ID	RGB_R	RGB_G	RGB_B	XYZ_X	XYZ_Y	XYZ_Z
END_DATA_FORMAT
BEGIN_DATA
 1	0	0	0	0	0.04577636719	0
 2	1	1	1	33.46252441	34.7442627	44.90661621
 3	1	0	0	19.86694336	2.517700195	3.158569336
 4	0	1	0	11.5814209	24.07836914	10.84899902
 5	0	0	1	0.5950927734	7.873535156	30.07507324
 6	0	0	0	0	0.04577636719	0
 7	1	1	1	33.64562988	34.65270996	44.86083984
 8	1	0	0	19.86694336	2.517700195	3.158569336
 9	0	1	0	11.5814209	24.12414551	10.89477539
 10	0	0	1	0.5950927734	7.919311523	30.48706055
 11	0	0	0	0	0.04577636719	0
 12	1	1	1	33.64562988	34.7442627	44.86083984
 13	1	0	0	19.82116699	2.517700195	3.158569336
 14	0	1	0	11.5814209	24.16992188	10.89477539
 15	0	0	1	0.5950927734	7.873535156	30.34973145
END_DATA
