data/calibration-000348.ti3
CTI3
ORIGINATOR	"ColorHug Factory"
DESCRIPTOR	"Calibration Target chart information 3"
DEVICE_CLASS	"DISPLAY"
COLOR_REP	"RGB_XYZ"
TARGET_INSTRUMENT	"Hughski ColorHug"
INSTRUMENT_TYPE_SPECTRAL	"NO"
NORMALIZED_TO_Y_100	"NO"
NUMBER_OF_FIELDS	7
NUMBER_OF_SETS	15
BEGIN_DATA_FORMAT
 SAMPLE_ID	RGB_R	RGB_G	RGB_B	XYZ_X	XYZ_Y	XYZ_Z
END_DATA_FORMAT
BEGIN_DATA
 1	0	0	0	0	0.04577636719	0.04577636719
 2	1	1	1	53.51257324	36.98730469	42.06848145
 3	1	0	0	33.50830078	3.387451172	4.852294922
 4	0	1	0	17.66967773	26.55029297	11.94763184
 5	0	0	1	0.7781982422	6.958007812	25.13122559
 6	0	0	0	0	0.04577636719	0.04577636719
 7	1	1	1	53.51257324	37.17041016	42.29736328
 8	1	0	0	33.46252441	3.387451172	4.852294922
 9	0	1	0	17.62390137	26.59606934	11.8560791
 10	0	0	1	0.7781982422	6.912231445	25.13122559
 11	0	0	0	0	0.04577636719	0.04577636719
 12	1	1	1	53.0090332	37.07885742	42.20581055
 13	1	0	0	33.46252441	3.341674805	4.852294922
 14	0	1	0	17.578125	26.55029297	11.94763184
 15	0	0	1	0.7781982422	6.958007812	25.13122559
END_DATA
