data/calibration-001022.ti3
CTI3   
ORIGINATOR	"ColorHug Factory"
DESCRIPTOR	"Calibration Target chart information 3"
DEVICE_CLASS	"DISPLAY"
COLOR_REP	"RGB_XYZ"
TARGET_INSTRUMENT	"Hughski ColorHug"
INSTRUMENT_TYPE_SPECTRAL	"NO"
NORMALIZED_TO_Y_100	"NO"
NUMBER_OF_FIELDS	7
NUMBER_OF_SETS	15
BEGIN_DATA_FORMAT
 SAMPLE_ID	RGB_R	RGB_G	RGB_B	XYZ_X	XYZ_Y	XYZ_Z
END_DATA_FORMAT
BEGIN_DATA
 1	0	0	0	0.04577636719	0.04577636719	0.09155273438
 2	1	1	1	36.16333008	38.3605957	43.48754883
 3	1	0	0	21.51489258	2.838134766	3.387451172
 4	0	1	0	13.00048828	28.10668945	12.08496094
 5	0	0	1	0.7781982422	7.32421875	27.87780762
 6	0	0	0	0.04577636719	0.04577636719	0.09155273438
 7	1	1	1	36.11755371	38.31481934	43.21289062
 8	1	0	0	21.51489258	2.838134766	3.387451172
 9	0	1	0	13.00048828	28.15246582	12.08496094
 10	0	0	1	0.7781982422	7.32421875	27.87780762
 11	0	0	0	0.04577636719	0.04577636719	0.09155273438
 12	1	1	1	36.02600098	38.2232666	43.30444336
 13	1	0	0	21.51489258	2.838134766	3.387451172
 14	0	1	0	13.09204102	28.06091309	12.08496094
 15	0	0	1	0.7781982422	7.369995117	27.87780762
END_DATA
