data/calibration-000220.ti3
CTI3
DESCRIPTOR	"Calibration Target chart information 3"
ORIGINATOR	"ColorHug Factory"
DEVICE_CLASS	"DISPLAY"
COLOR_REP	"RGB_XYZ"
TARGET_INSTRUMENT	"ColorHug"
INSTRUMENT_TYPE_SPECTRAL	"NO"
LUMINANCE_XYZ_CDM2	"55.366516 37.376404 43.601990"
NORMALIZED_TO_Y_100	"YES"
NUMBER_OF_FIELDS	7
NUMBER_OF_SETS	836
BEGIN_DATA_FORMAT
 SAMPLE_ID	RGB_R	RGB_G	RGB_B	XYZ_X	XYZ_Y	XYZ_Z
END_DATA_FORMAT
BEGIN_DATA
 1	100	100	100	138.6780906	99.87760098	116.6462668
 2	100	100	100	151.5299878	100	116.5238678
 3	100	100	100	151.5299878	99.87760098	116.6462668
 4	100	100	100	150.4283966	100	116.5238678
 5	33.33	32.622	30.968	12.97429621	8.567931457	9.547123623
 6	100	0	100	98.04161567	28.27417381	83.84332925
 7	100	100	0	150.1835985	81.64014688	47.98041616
 8	0	100	100	52.75397797	90.69767442	102.8151775
 9	0	100	0	51.04039168	72.09302326	33.29253366
 10	0	0	100	2.203182375	18.8494492	69.4002448
 11	100	0	0	96.32802938	9.547123623	14.19828641
 12	0	0	0	0.1223990208	0.1223990208	0.3671970624
 13	0	52.455	100	13.58629131	35.74051408	77.60097919
 14	100	0	50.3	96.94002448	13.58629131	29.00856793
 15	100	54.739	100	111.627907	46.87882497	92.04406365
 16	100	52.128	0	108.0783354	25.94859241	21.90942472
 17	0	0	46.181	0.4895960832	3.304773562	12.11750306
 18	0	51.141	0	11.26070991	16.03427173	7.711138311
 19	0	100	51.348	51.28518972	75.64259486	48.95960832
 20	100	100	52.037	150.1835985	85.43451652	63.64749082
 21	49.216	0	0	19.46144431	2.080783354	3.182374541
 22	56.159	100	0	76.86658507	74.41860465	37.33170135
 23	49.226	100	100	72.09302326	92.53365973	105.5079559
 24	44.487	0	100	17.50305998	20.44063647	71.60342717
 25	100	44.498	52.029	105.5079559	25.70379437	35.61811506
 26	48.926	48.544	100	31.21175031	35.00611995	79.06976744
 27	51.368	100	47.25	72.3378213	77.35618115	49.44920441
 28	49.893	0	49.033	20.5630355	5.875152999	17.13586291
 29	53.109	51.372	0	34.27172583	18.2374541	11.01591187
 30	0	58.587	53.943	15.66707466	25.94859241	27.0501836
 31	100	28.065	100	100.6119951	33.04773562	85.43451652
 32	0	0	72.874	1.101591187	8.935128519	32.80293758
 33	0	26.758	100	4.52876377	22.88861689	70.99143207
 34	0	25.426	0	2.692778458	3.794369645	2.080783354
 35	72.508	0	100	47.12362301	23.25581395	75.76499388
 36	100	27.395	0	99.26560588	13.83108935	16.15667075
 37	74.47	100	100	100.8567931	95.47123623	109.6695226
 38	100	0	25.728	96.08323133	10.52631579	17.74785802
 39	73.862	0	0	47.36842105	4.773561812	7.099143207
 40	100	100	25.402	149.2044064	82.374541	50.91799266
 41	0	75.751	100	28.64137087	56.79314565	87.14810282
 42	0	75.172	0	26.31578947	36.71970624	17.25826193
 43	0	100	25.864	50.55079559	73.07221542	37.20930233
 44	100	0	74.801	97.0624235	19.09424725	49.20440636
 45	0	100	75.421	51.65238678	81.1505508	69.4002448
 46	24.577	0	0	4.651162791	0.611995104	0.9791921665
 47	26.321	100	0	55.81395349	72.58261934	34.14932681
 48	100	75.835	0	124.4798042	47.12362301	31.82374541
 49	100	100	77.061	150.3059976	90.94247246	85.3121175
 50	71.263	100	0	95.34883721	76.13219094	39.77968176
 51	0	0	15.614	0.2447980416	0.4895960832	1.713586291
 52	0	30.049	70.936	4.52876377	13.58629131	33.41493268
 53	100	77.691	100	127.5397797	68.42105263	102.2031824
 54	24.486	100	100	56.91554468	90.82007344	103.4271726
 55	100	62.784	31.909	114.5654835	35.74051408	31.33414933
 56	29.552	0	100	8.445532436	19.58384333	70.37943696
 57	32.98	70.921	100	33.41493268	51.65238678	85.43451652
 58	0	27.681	40.241	3.427172583	6.976744186	11.26070991
 59	67.901	71.021	100	64.38188494	55.32435741	90.5752754
 60	28.154	100	67.829	57.28274174	80.29375765	62.54589963
 61	71.637	100	70.001	95.83843329	84.57772338	70.37943696
 62	58.822	58.763	53.586	44.06364749	28.64137087	31.21175031
 63	33.466	30.48	0	12.3623011	6.242350061	4.039167687
 64	100	73.795	71.277	123.623011	53.85556916	62.42350061
 65	68.394	29.692	0	43.20685435	9.05752754	8.445532436
 66	70.399	0	29.039	42.3500612	5.630354957	11.13831089
 67	28.078	0	26.956	6.11995104	1.835985312	5.140758874
 68	28.532	72.339	0	30.35495716	34.27172583	16.89106487
 69	100	30.941	26.496	100	16.03427173	20.5630355
 70	34.597	0	73.611	10.03671971	10.15911873	35.25091799
 71	71.573	0	72.408	44.79804162	13.34149327	39.29008568
 72	0	71.029	29.412	23.500612	33.90452876	20.19583843
 73	68.386	75.008	0	65.97307222	40.75887393	23.13341493
 74	68.088	27.309	100	44.30844553	27.29498164	77.47858017
 75	100	26.457	73.749	99.51040392	23.01101591	50.55079559
 76	74.344	100	27.392	99.87760098	78.09057528	44.67564259
 77	27.558	100	28.197	56.79314565	73.92900857	38.67809058
 78	31.196	27.465	100	12.23990208	23.99020808	72.46022032
 79	0	75.521	72.824	27.41738066	46.38922889	50.30599755
 80	0	50.93	25.553	11.13831089	16.64626683	11.13831089
 81	32.06	33.584	64.033	12.97429621	14.07588739	29.13096695
 82	81.666	55.38	0	73.31701346	24.7246022	17.625459
 83	68.257	32.751	58.286	44.92044064	15.78947368	29.13096695
 84	0	55.248	81.585	14.19828641	30.47735618	51.89718482
 85	73.781	52.099	100	61.07711138	40.0244798	84.08812729
 86	100	50.537	82.952	107.3439412	36.84210526	66.09547124
 87	23.55	0	50.439	4.773561812	4.52876377	15.42227662
 88	31.335	62.746	31.114	25.45899633	27.0501836	18.2374541
 89	100	18.31	49.418	96.81762546	15.42227662	29.37576499
 90	26.498	48.404	0	15.2998776	14.6878825	7.711138311
 91	47.91	100	85.744	69.64504284	86.78090575	84.45532436
 92	71.829	47.313	31.811	54.22276622	19.46144431	18.60465116
 93	31.304	64.132	69.316	26.80538556	34.63892289	42.9620563
 94	80.403	0	54.321	58.01713586	10.52631579	25.94859241
 95	18.455	50.036	100	15.05507956	34.27172583	77.23378213
 96	50.653	100	16.345	71.35862913	74.17380661	37.82129743
 97	80.121	100	52.261	109.0575275	82.00734394	58.01713586
 98	0	22.54	19.289	2.203182375	3.671970624	3.794369645
 99	100	75.273	46.886	122.6438188	49.32680539	44.30844553
 100	0	78.618	56.625	29.74296206	45.77723378	38.31089351
 101	51.137	80.627	100	53.12117503	64.1370869	92.65605875
 102	48.446	0	17.864	18.8494492	2.570379437	4.895960832
 103	100	50.023	21.211	106.9767442	25.33659731	23.74541004
 104	50.115	20.118	0	21.66462668	4.52876377	4.406364749
 105	58.099	72.426	33.158	51.89718482	38.18849449	26.07099143
 106	19.364	100	50.197	53.85556916	75.52019584	48.71481028
 107	50.683	19.177	100	23.99020808	23.01101591	74.05140759
 108	53.37	0	81.576	24.35740514	14.07588739	47.00122399
 109	47.768	76.245	0	44.79804162	39.53488372	20.44063647
 110	0	18.927	55.503	1.958384333	7.099143207	19.21664627
 111	0	13.277	0	0.8567931457	1.223990208	0.8567931457
 112	72.862	72.473	75.625	70.50183599	48.2252142	58.75152999
 113	100	13.904	0	96.57282742	10.64871481	14.6878825
 114	86.349	0	100	68.91064871	25.58139535	79.31456548
 115	100	41.941	100	104.2839657	38.67809058	87.88249694
 116	100	81.785	16.464	128.2741738	54.22276622	36.59730722
 117	0	44.063	52.596	8.690330477	16.15667075	21.7870257
 118	0	0	58.917	0.7343941248	5.630354957	20.5630355
 119	59.25	24.551	29.789	31.70134639	7.711138311	10.89351285
 120	82.73	82.874	100	95.47123623	70.99143207	100
 121	80.039	0	12.618	56.54834761	6.11995104	9.547123623
 122	60.957	47.729	77.817	41.37086903	27.29498164	49.44920441
 123	100	0	38.618	95.59363525	11.750306	22.52141983
 124	0	40.09	100	8.445532436	28.51897185	74.17380661
 125	0	15.283	82.322	2.080783354	13.21909425	44.30844553
 126	17.592	81.726	100	35.98531212	63.76988984	91.06487148
 127	100	14.13	100	97.42962056	29.62056304	84.21052632
 128	15.261	100	82.059	53.12117503	83.72093023	77.47858017
 129	47.77	79.418	60.389	48.10281518	49.32680539	43.69645043
 130	18.768	16.429	0	3.916768666	1.958384333	1.46878825
 131	55.634	100	65.763	76.25458996	81.1505508	63.28029376
 132	100	100	38.541	148.4700122	83.59853121	55.93635251
 133	17.421	0	83.497	3.549571603	12.48470012	45.65483476
 134	17.237	16.758	100	5.140758874	20.68543452	71.11383109
 135	0	15.067	30.039	1.223990208	2.815177479	5.752753978
 136	0	0	86.505	1.591187271	13.21909425	49.20440636
 137	75.736	72.799	50.02	74.78580171	42.83965728	38.06609547
 138	100	83.323	85.529	131.2117503	69.15544676	84.45532436
 139	100	100	64.894	148.5924113	88.12729498	73.19461444
 140	81.98	84.914	0	94.61444308	54.34516524	31.70134639
 141	0	63.757	15.49	18.2374541	25.82619339	13.58629131
 142	49.514	66.135	100	40.88127295	48.10281518	85.06731946
 143	100	0	61.862	95.83843329	15.66707466	36.96450428
 144	24.308	45.41	49.831	13.46389229	16.76866585	21.1750306
 145	15.963	0	17.047	2.080783354	0.8567931457	2.325581395
 146	87.497	100	100	122.7662179	97.30722154	113.0966952
 147	52.099	25.003	75.752	25.21419829	15.54467564	41.61566707
 148	14.909	81.162	0	32.80293758	43.81884945	20.80783354
 149	0	34.792	14.626	5.018359853	7.466340269	4.895960832
 150	48.39	45.075	22.552	27.17258262	14.81028152	11.38310894
 151	83.545	65.965	100	84.33292534	52.63157895	91.55446756
 152	16.226	62.345	0	19.33904529	24.35740514	11.750306
 153	63.222	0	14.914	33.17013464	3.794369645	6.487148103
 154	80.449	13.446	0	57.77233782	6.976744186	9.05752754
 155	83.917	41.562	0	69.4002448	16.27906977	14.07588739
 156	100	60.448	46.3	112.3623011	35.61811506	37.45410037
 157	15.584	0	34.795	2.203182375	2.080783354	7.099143207
 158	17.144	65.121	100	23.13341493	46.02203182	82.86413709
 159	83.602	55.334	62.667	76.62178703	31.57894737	41.86046512
 160	0	82.19	14.22	31.94614443	45.16523868	22.39902081
 161	25.132	74.856	50.616	30.96695226	40.51407589	32.80293758
 162	0	13.769	100	2.447980416	20.07343941	70.50183599
 163	87.181	0	0	68.78824969	6.976744186	10.28151775
 164	0	100	39.19	50.18359853	73.43941248	41.98286414
 165	78.047	65.914	19.865	72.9498164	33.29253366	23.01101591
 166	100	63.961	15.865	114.1982864	35.61811506	27.6621787
 167	100	45.955	36.032	104.0391677	24.1126071	27.17258262
 168	15.926	100	16.89	52.14198286	71.84822521	35.12851897
 169	41.459	100	0	63.15789474	73.07221542	35.12851897
 170	48.707	37.288	48.139	25.21419829	13.83108935	20.19583843
 171	83.381	100	13.285	113.2190942	78.2129743	43.45165239
 172	78.129	25.303	75.621	56.79314565	18.8494492	45.77723378
 173	12.396	0	0	1.346389229	0.3671970624	0.611995104
 174	37.607	48.336	83.346	21.90942472	27.41738066	53.85556916
 175	35.588	15.356	0	10.52631579	2.570379437	2.447980416
 176	61.245	100	100	82.86413709	93.26805386	107.3439412
 177	100	67.29	87.195	117.380661	51.40758874	77.47858017
 178	0	0	30.615	0.3671970624	1.591187271	5.385556916
 179	35.187	81.789	83.323	41.98286414	57.6499388	67.68665851
 180	39.525	80.194	22.879	42.10526316	44.67564259	24.60220318
 181	50.634	34.593	0	25.58139535	9.05752754	6.609547124
 182	14.175	100	63.146	51.89718482	77.60097919	58.01713586
 183	83.493	17.728	34.574	63.03549572	9.914320685	16.76866585
 184	23.463	22.014	79.943	7.221542228	14.32068543	42.71725826
 185	18.066	31.847	0	6.731946144	6.242350061	3.427172583
 186	87.201	100	81.361	120.3182375	90.08567931	86.53610771
 187	0	100	87.95	50.91799266	84.82252142	84.33292534
 188	34.476	17.888	46.22	10.52631579	6.242350061	14.56548348
 189	18.277	0	67.39	3.304773562	7.833537332	28.02937576
 190	100	87.972	0	134.7613219	62.17870257	38.8004896
 191	82.925	34.85	100	67.19706242	32.06854345	82.12974296
 192	0	88.016	100	39.04528764	71.60342717	94.36964504
 193	36.104	85.655	100	46.51162791	69.27784578	94.36964504
 194	60.981	0	0	30.47735618	3.182374541	4.773561812
 195	51.466	61.826	78.106	39.04528764	36.71970624	53.73317013
 196	78.427	31.983	22.175	57.52753978	11.99510404	13.58629131
 197	66.017	44.321	0	44.55324357	15.42227662	11.13831089
 198	83.941	0	84.177	63.76988984	18.8494492	55.81395349
 199	20.158	46.612	23.269	12.3623011	14.19828641	9.791921665
 200	0	100	62.618	50.30599755	77.60097919	57.16034272
 201	33.832	0	13.933	8.690330477	1.346389229	2.815177479
 202	100	17.286	16.322	96.08323133	11.62790698	16.40146879
 203	0	42.204	83.926	8.567931457	23.13341493	51.65238678
 204	0	87.774	0	37.0869033	51.89718482	24.60220318
 205	64.988	0	59.017	35.49571603	9.302325581	26.19339045
 206	14.677	0	100	3.427172583	19.09424725	70.13463892
 207	88.934	82.673	35.021	103.1823745	54.34516524	38.92288862
 208	0	63.778	100	19.82864137	44.79804162	82.12974296
 209	83.429	17.674	100	64.62668299	26.80538556	79.68176255
 210	30.899	100	85.668	58.2619339	85.67931457	83.23133415
 211	83.68	0	41.016	62.42350061	8.935128519	18.8494492
 212	100	63.515	0	113.5862913	34.51652387	25.82619339
 213	85.074	69.987	0	85.92411261	37.57649939	24.1126071
 214	20.801	45.524	69.018	12.85189718	20.93023256	35.74051408
 215	21.382	82.482	73.017	36.71970624	54.34516524	55.93635251
 216	100	15.128	64.249	96.69522644	17.625459	39.53488372
 217	36.522	0	58.427	10.64871481	6.609547124	21.7870257
 218	22.466	81.296	33.007	35.12851897	45.65483476	27.41738066
 219	62.531	87.152	0	68.78824969	54.7123623	28.88616891
 220	84.12	85.397	67.886	98.40881273	63.03549572	60.83231334
 221	18.87	27.336	45.389	6.11995104	7.833537332	14.44308446
 222	66.439	100	14.444	87.6376989	75.03059976	39.90208078
 223	41.636	22.147	19.003	15.66707466	4.895960832	5.752753978
 224	61.271	100	81.94	82.49694002	86.41370869	81.51774786
 225	86.013	100	0	117.625459	77.84577723	43.08445532
 226	37.57	0	0	10.64871481	1.223990208	1.958384333
 227	100	16.132	84.102	96.08323133	23.62301102	61.1995104
 228	0	100	13.619	49.69400245	71.35862913	34.27172583
 229	38.905	100	56.471	61.93390453	77.84577723	54.34516524
 230	100	15.382	34.563	94.85924113	12.72949816	21.41982864
 231	36.656	14.908	100	12.97429621	21.41982864	72.58261934
 232	0	62.593	66.608	17.99265606	31.57894737	38.8004896
 233	66.347	12.528	100	39.29008568	23.62301102	76.37698898
 234	100	43.375	69.233	103.0599755	28.64137087	49.20440636
 235	100	56.36	61.236	108.5679315	35.00611995	46.02203182
 236	0	86.194	44.955	35.49571603	52.63157895	35.00611995
 237	64.527	87.262	100	72.58261934	73.56181151	99.02080783
 238	34.411	0	42.471	9.179926561	3.794369645	11.87270502
 239	80.23	59.707	85.12	73.19461444	40.75887393	66.95226438
 240	20.625	19.056	14.791	4.773561812	2.937576499	3.182374541
 241	15.341	34.221	100	8.445532436	25.94859241	73.19461444
 242	36.777	0	87.905	11.38310894	14.93268054	52.75397797
 243	34.598	56.247	100	24.60220318	39.4124847	80.53855569
 244	20.86	67.629	17.418	23.86780906	29.49816401	15.91187271
 245	44.958	60.843	18.054	32.19094247	25.09179927	15.17747858
 246	37.421	60.193	0	26.68298654	23.37821297	12.3623011
 247	84.011	33.849	42.612	67.44186047	15.78947368	22.88861689
 248	17.241	60.339	37.743	18.48225214	24.84700122	19.09424725
 249	50.65	17.261	53.278	22.27662179	8.445532436	20.68543452
 250	45.505	48.926	65.152	27.17258262	23.01101591	35.37331701
 251	44.567	84.081	39.649	49.32680539	51.04039168	33.41493268
 252	100	86.339	72.054	133.1701346	68.17625459	70.0122399
 253	68.14	61.135	0	54.7123623	26.80538556	16.64626683
 254	17.93	66.986	81.403	23.500612	39.90208078	56.54834761
 255	39.242	60.215	48.926	28.27417381	27.53977968	26.43818849
 256	20.099	18.77	62.967	5.263157895	8.935128519	25.58139535
 257	34.553	100	14.582	58.13953488	71.84822521	35.98531212
 258	87.345	0	66.694	69.15544676	14.44308446	37.69889841
 259	0	43.714	39.842	8.323133415	13.83108935	14.56548348
 260	100	37.705	13.955	100.6119951	18.11505508	19.09424725
 261	31.265	86.993	0	43.08445532	51.40758874	24.96940024
 262	51.402	82.661	81.338	54.34516524	59.24112607	67.56425949
 263	100	100	12.984	147.246022	81.02815177	48.71481028
 264	0	37.859	0	5.99755202	8.445532436	4.283965728
 265	62.092	58.215	100	48.34761322	42.71725826	84.21052632
 266	86.186	100	64.1	117.747858	84.7001224	68.54345165
 267	100	35.251	85.898	100.7343941	29.86536108	66.58506732
 268	63.182	89.992	41.974	72.58261934	60.83231334	41.12607099
 269	13.504	100	0	51.04039168	71.35862913	33.78212974
 270	100	0	13.228	93.88004896	9.791921665	15.05507956
 271	63.881	40.826	100	42.3500612	32.31334149	79.80416157
 272	69.387	84.838	20.792	75.15299878	53.36597307	30.96695226
 273	0	70.279	45.136	22.76621787	34.63892289	26.92778458
 274	79.094	64.754	40.908	74.05140759	34.63892289	30.23255814
 275	62.385	54.099	17.396	44.55324357	21.29742962	14.93268054
 276	64.408	14.621	0	35.37331701	4.895960832	5.99755202
 277	70.028	15.606	44.651	42.59485924	8.812729498	18.35985312
 278	0	63.544	0	17.99265606	25.33659731	12.11750306
 279	83.475	47.274	20.502	70.74663403	20.07343941	17.87025704
 280	55.866	0	32.671	25.58139535	4.283965728	9.914320685
 281	58.007	0	100	29.13096695	21.7870257	74.17380661
 282	100	0	87.698	95.10403917	23.13341493	64.99388005
 283	0	13.792	67.215	1.591187271	8.812729498	28.51897185
 284	84.123	17.001	58.549	64.25948592	13.70869033	30.84455324
 285	59.579	32.873	15.966	33.17013464	9.547123623	8.935128519
 286	10.41	32.998	28.659	5.630354957	7.711138311	7.955936353
 287	17.231	40.031	85.65	10.03671971	22.88861689	53.24357405
 288	37.568	41.561	10.108	17.74785802	11.38310894	7.221542228
 289	0	69.015	85.092	22.52141983	43.08445532	61.93390453
 290	14.442	100	36.187	51.65238678	73.80660955	40.88127295
 291	100	40.549	0	100.7343941	19.09424725	18.60465116
 292	82.143	45.435	78.429	68.66585067	28.64137087	53.61077111
 293	52.674	0	67.3	23.01101591	9.914320685	31.33414933
 294	0	87.868	66.793	37.69889841	60.34271726	52.01958384
 295	86.53	100	40.524	118.2374541	79.92656059	52.50917993
 296	71.777	85.586	67.232	79.19216646	61.68910649	57.89473684
 297	43.216	100	31.671	64.25948592	74.17380661	40.88127295
 298	39.245	32.908	85.845	17.50305998	20.5630355	53.12117503
 299	0	45.662	67.543	9.547123623	20.19583843	34.14932681
 300	12.161	100	100	52.50917993	90.08567931	103.4271726
 301	67.049	0	85.516	38.43329253	16.89106487	54.34516524
 302	100	89.041	100	136.2301102	82.12974296	109.3023256
 303	20.246	60.698	56.526	19.70624235	28.15177479	30.35495716
 304	52.177	55.457	40.416	35.37331701	23.500612	21.54222766
 305	72.617	87.018	83.932	81.7625459	67.80905753	77.11138311
 306	40.512	16.723	66.475	14.56548348	10.40391677	29.86536108
 307	68.507	49.232	50.605	49.32680539	22.52141983	27.90697674
 308	65.622	100	54.525	85.92411261	79.19216646	56.05875153
 309	54.115	37.24	66.394	29.49816401	17.74785802	34.39412485
 310	100	76.138	31.267	122.5214198	48.95960832	37.20930233
 311	54.728	65.623	0	42.71725826	29.49816401	16.40146879
 312	63.126	12.526	64.37	33.90452876	11.26070991	30.96695226
 313	72.827	18.08	23.704	46.14443084	7.466340269	10.89351285
 314	23.268	15.278	34.947	5.385556916	3.794369645	8.323133415
 315	87.648	68.954	59.645	90.45287638	42.83965728	45.77723378
 316	0	85.595	85.198	35.98531212	61.93390453	71.11383109
 317	35.798	84.371	69.21	44.43084455	56.91554468	53.61077111
 318	36.062	47.494	35.919	19.46144431	16.52386781	15.2998776
 319	86.083	36.277	59.152	72.21542228	19.95104039	34.27172583
 320	58.21	100	30.361	77.47858017	75.03059976	42.59485924
 321	46.745	14.614	32.317	18.35985312	4.773561812	9.179926561
 322	81.573	73.869	86.954	84.82252142	54.58996328	75.39779682
 323	85.991	49.387	48.206	76.499388	24.84700122	30.11015912
 324	28.062	87.906	19.654	42.83965728	53.73317013	27.53977968
 325	68.992	17.993	85.124	42.22766218	18.8494492	54.83476132
 326	100	66.147	100	115.7894737	55.81395349	96.81762546
 327	33.358	64.806	84.517	28.39657283	39.90208078	60.70991432
 328	41.351	17.736	80.522	15.42227662	14.6878825	45.16523868
 329	100	100	88.719	146.6340269	94.61444308	100
 330	66.336	0	44.32	36.71970624	6.976744186	17.01346389
 331	64.85	67.09	12.293	54.7123623	32.06854345	19.58384333
 332	15.262	31.268	63.277	6.364749082	12.3623011	27.41738066
 333	15.008	43.663	37.3	9.914320685	13.70869033	13.70869033
 334	0	57.895	38.078	14.6878825	22.64381885	18.11505508
 335	66.599	58.458	67.871	52.14198286	32.68053856	44.18604651
 336	59.191	18.651	15.215	29.74296206	5.385556916	6.854345165
 337	66.781	31.14	84.629	42.3500612	22.03182375	55.56915545
 338	88.033	85.158	52.14	105.0183599	60.34271726	49.08200734
 339	36.882	100	100	61.44430845	90.94247246	104.8959608
 340	26.102	33.094	17.006	9.547123623	7.343941248	5.752753978
 341	56.309	36.861	35.862	31.08935129	12.48470012	14.93268054
 342	45.839	65.587	67.033	36.10771114	36.35250918	42.71725826
 343	83.709	81.172	16.406	92.90085679	49.69400245	31.21175031
 344	0	48.132	13.005	9.791921665	14.19828641	7.833537332
 345	87.176	50.021	100	80.04895961	40.75887393	87.14810282
 346	51.219	84.244	13.73	53.61077111	49.44920441	26.56058752
 347	60.606	71.415	48.406	53.12117503	39.53488372	33.41493268
 348	0	11.359	12.718	0.7343941248	1.346389229	1.835985312
 349	86.429	49.705	33.145	76.86658507	23.01101591	22.88861689
 350	34.056	40.958	100	17.38066095	29.86536108	76.499388
 351	100	30.557	59.628	97.55201958	20.5630355	38.06609547
 352	88.497	26.902	13.449	73.07221542	11.50550796	13.58629131
 353	14.167	51.98	88.218	14.32068543	30.35495716	59.85312118
 354	13.784	12.983	49.37	2.815177479	5.140758874	15.05507956
 355	15.018	88.441	48.062	39.65728274	56.54834761	38.55569155
 356	87.79	25.769	89.215	72.70501836	25.21419829	65.48347613
 357	0	33.206	55.865	5.018359853	11.38310894	21.54222766
 358	74.324	76.029	35.536	73.43941248	43.81884945	31.70134639
 359	65.863	57.223	42.324	49.69400245	26.31578947	24.96940024
 360	30.893	54.646	13.136	20.07343941	19.21664627	10.89351285
 361	0	34.36	28.321	5.018359853	8.078335373	7.833537332
 362	15.443	77.087	85.116	30.5997552	51.52998776	66.34026928
 363	63.381	68.947	68.521	54.95716034	40.88127295	47.98041616
 364	69.733	27.566	42.917	43.69645043	11.38310894	18.8494492
 365	32.754	100	42.76	57.6499388	74.90820073	45.04283966
 366	47.096	29.481	34.829	21.1750306	8.690330477	11.87270502
 367	8.5451	71.948	62.695	24.84700122	39.53488372	39.65728274
 368	0	86.048	29.3	35.12851897	50.79559364	28.02937576
 369	53.697	51.572	85.367	35.25091799	31.33414933	59.24112607
 370	17.608	56.69	12.515	16.15667075	20.07343941	10.64871481
 371	90.638	14.414	49.227	75.15299878	12.60709914	25.82619339
 372	63.248	63.64	89.55	51.52998776	43.32925337	70.62423501
 373	100	85.976	58.455	131.3341493	64.87148103	58.13953488
 374	9.8311	28.027	7.5567	4.161566707	4.895960832	3.05997552
 375	89.831	64.313	69.506	91.55446756	41.12607099	53.24357405
 376	31.754	12.995	25.543	8.323133415	2.937576499	5.507955936
 377	75.914	45.966	64.957	58.38433293	24.60220318	39.16768666
 378	7.5735	50.695	58.941	11.99510404	21.29742962	28.27417381
 379	100	69.835	58.912	117.1358629	46.02203182	49.32680539
 380	32.211	34.376	48.339	12.97429621	11.38310894	18.2374541
 381	13.901	12.159	73.555	3.182374541	10.40391677	34.88372093
 382	87.071	9.028	77.653	68.66585067	17.99265606	49.20440636
 383	23.272	85.409	84.29	39.53488372	61.56670747	70.0122399
 384	93.289	39.48	26.145	85.3121175	17.99265606	19.82864137
 385	65.769	59.63	30.967	50.91799266	26.80538556	20.93023256
 386	100	32.265	41.803	97.6744186	18.11505508	26.80538556
 387	86.568	85.281	86.961	102.3255814	69.03304774	82.86413709
 388	52.577	86.83	30.016	57.6499388	54.1003672	32.06854345
 389	47.921	40.199	76.902	25.70379437	21.66462668	45.2876377
 390	22.36	86.619	61.58	39.65728274	56.79314565	47.36842105
 391	52.232	33.601	88.787	27.6621787	22.88861689	59.60832313
 392	0	28.523	86.267	4.52876377	17.87025704	51.1627907
 393	43.497	67.879	39.551	35.61811506	33.17013464	24.96940024
 394	39.877	45.261	0	20.68543452	13.46389229	7.833537332
 395	86.94	12.43	24.699	67.80905753	8.690330477	13.83108935
 396	28.363	55.339	90.398	20.5630355	34.27172583	65.11627907
 397	39.018	70.534	57.879	34.51652387	37.82129743	36.84210526
 398	12.833	28.519	78.828	5.630354957	15.66707466	42.71725826
 399	68.35	31.815	69.975	43.69645043	18.2374541	39.16768666
 400	56.52	26.226	41.626	29.00856793	9.302325581	15.78947368
 401	12.938	46.218	0	10.15911873	12.85189718	6.364749082
 402	8.6938	60.179	26.117	16.52386781	23.37821297	14.56548348
 403	51.995	89.429	96.608	61.1995104	74.17380661	93.26805386
 404	46.905	47.746	48.909	27.0501836	19.21664627	23.01101591
 405	14.352	81.814	19.479	32.80293758	45.04283966	23.13341493
 406	71.482	38.117	12.273	49.20440636	13.21909425	11.50550796
 407	86.616	60.785	10.012	82.74173807	29.74296206	21.41982864
 408	71.811	88.979	52.186	81.51774786	62.05630355	47.85801714
 409	43.213	100	72.083	64.50428397	81.1505508	67.68665851
