data/calibration-000974.ti3
CTI3   
ORIGINATOR	"ColorHug Factory"
DESCRIPTOR	"Calibration Target chart information 3"
DEVICE_CLASS	"DISPLAY"
COLOR_REP	"RGB_XYZ"
TARGET_INSTRUMENT	"Hughski ColorHug"
INSTRUMENT_TYPE_SPECTRAL	"NO"
NORMALIZED_TO_Y_100	"NO"
NUMBER_OF_FIELDS	7
NUMBER_OF_SETS	15
BEGIN_DATA_FORMAT
 SAMPLE_ID	RGB_R	RGB_G	RGB_B	XYZ_X	XYZ_Y	XYZ_Z
END_DATA_FORMAT
BEGIN_DATA
 1	0	0	0	0.04577636719	0.04577636719	0.04577636719
 2	1	1	1	52.04772949	37.62817383	43.16711426
 3	1	0	0	32.95898438	3.341674805	4.71496582
 4	0	1	0	17.66967773	27.09960938	12.1307373
 5	0	0	1	0.8239746094	7.186889648	26.41296387
 6	0	0	0	0.04577636719	0.04577636719	0.04577636719
 7	1	1	1	52.00195312	37.58239746	43.21289062
 8	1	0	0	32.91320801	3.341674805	4.71496582
 9	0	1	0	17.7154541	27.14538574	12.22229004
 10	0	0	1	0.8239746094	7.186889648	26.32141113
 11	0	0	0	0.04577636719	0.04577636719	0.09155273438
 12	1	1	1	51.86462402	37.53662109	43.25866699
 13	1	0	0	32.82165527	3.341674805	4.71496582
 14	0	1	0	17.66967773	27.19116211	12.17651367
 15	0	0	1	0.8239746094	7.186889648	26.3671875
END_DATA
