data/calibration-002769.ti3
CTI3   
ORIGINATOR	"ColorHug Factory"
CREATED	"Tue May 05 20:57:15 2015"
DESCRIPTOR	"Calibration Target chart information 3"
DEVICE_CLASS	"DISPLAY"
COLOR_REP	"RGB_XYZ"
TARGET_INSTRUMENT	"Hughski ColorHug"
INSTRUMENT_TYPE_SPECTRAL	"NO"
NORMALIZED_TO_Y_100	"NO"
NUMBER_OF_FIELDS	7
NUMBER_OF_SETS	15
BEGIN_DATA_FORMAT
 SAMPLE_ID	RGB_R	RGB_G	RGB_B	XYZ_X	XYZ_Y	XYZ_Z
END_DATA_FORMAT
BEGIN_DATA
 1.0	0.0	0.0	0.0	0.70166015625	0.680847167969	0.793029785156
 2.0	1.0	1.0	1.0	105.025634765625	96.37646484375	105.025634765625
 3.0	1.0	0.0	0.0	75.155960083008	7.393493652344	11.753219604492
 4.0	0.0	1.0	0.0	25.520248413086	68.266662597656	26.684036254883
 5.0	0.0	0.0	1.0	3.696746826172	19.835342407227	65.015869140625
 6.0	0.0	0.0	0.0	0.702270507812	0.680847167969	0.792404174805
 7.0	1.0	1.0	1.0	105.025634765625	96.37646484375	105.025634765625
 8.0	1.0	0.0	0.0	75.155960083008	7.386825561523	11.736389160156
 9.0	0.0	1.0	0.0	25.440979003906	68.266662597656	26.684036254883
 10.0	0.0	0.0	1.0	3.695068359375	19.835342407227	65.015869140625
 11.0	0.0	0.0	0.0	0.701126098633	0.681411743164	0.791641235352
 12.0	1.0	1.0	1.0	105.025634765625	96.37646484375	105.025634765625
 13.0	1.0	0.0	0.0	75.155960083008	7.386825561523	11.736389160156
 14.0	0.0	1.0	0.0	25.440979003906	68.266662597656	26.684036254883
 15.0	0.0	0.0	1.0	3.695068359375	19.835342407227	65.015869140625
END_DATA
