data/calibration-002520.ti3
CTI3   
ORIGINATOR	"ColorHug Factory"
CREATED	"Wed Oct 22 09:52:14 2014"
DESCRIPTOR	"Calibration Target chart information 3"
DEVICE_CLASS	"DISPLAY"
COLOR_REP	"RGB_XYZ"
TARGET_INSTRUMENT	"Hughski ColorHug"
INSTRUMENT_TYPE_SPECTRAL	"NO"
NORMALIZED_TO_Y_100	"NO"
NUMBER_OF_FIELDS	7
NUMBER_OF_SETS	15
BEGIN_DATA_FORMAT
 SAMPLE_ID	RGB_R	RGB_G	RGB_B	XYZ_X	XYZ_Y	XYZ_Z
END_DATA_FORMAT
BEGIN_DATA
 1.0	0.0	0.0	0.0	0.229248046875	0.247787475586	0.305267333984
 2.0	1.0	1.0	1.0	106.389602661133	98.698791503906	101.135787963867
 3.0	1.0	0.0	0.0	75.851837158203	7.043838500977	11.838150024414
 4.0	0.0	1.0	0.0	24.674697875977	70.620681762695	27.03630065918
 5.0	0.0	0.0	1.0	2.900848388672	18.660583496094	58.514282226562
 6.0	0.0	0.0	0.0	0.229766845703	0.248413085938	0.305267333984
 7.0	1.0	1.0	1.0	106.389602661133	98.698791503906	101.135787963867
 8.0	1.0	0.0	0.0	75.851837158203	7.043838500977	11.838150024414
 9.0	0.0	1.0	0.0	24.674697875977	70.01708984375	26.947357177734
 10.0	0.0	0.0	1.0	2.896743774414	18.575958251953	58.514282226562
 11.0	0.0	0.0	0.0	0.230285644531	0.248397827148	0.305999755859
 12.0	1.0	1.0	1.0	106.389602661133	98.698791503906	101.135787963867
 13.0	1.0	0.0	0.0	75.851837158203	7.049911499023	11.838150024414
 14.0	0.0	1.0	0.0	24.6005859375	70.01708984375	26.947357177734
 15.0	0.0	0.0	1.0	2.901870727539	18.660583496094	58.935241699219
END_DATA
