data/calibration-002063.ti3
CTI3   
ORIGINATOR	"ColorHug Factory"
CREATED	"Sun Sep 15 20:06:25 2013"
DESCRIPTOR	"Calibration Target chart information 3"
DEVICE_CLASS	"DISPLAY"
COLOR_REP	"RGB_XYZ"
TARGET_INSTRUMENT	"Hughski ColorHug"
INSTRUMENT_TYPE_SPECTRAL	"NO"
NORMALIZED_TO_Y_100	"NO"
NUMBER_OF_FIELDS	7
NUMBER_OF_SETS	15
BEGIN_DATA_FORMAT
 SAMPLE_ID	RGB_R	RGB_G	RGB_B	XYZ_X	XYZ_Y	XYZ_Z
END_DATA_FORMAT
BEGIN_DATA
 1	0	0	0	0.091552734375	0.0457763671875	0.091552734375
 2	1	1	1	73.974609375	35.614013671875	52.459716796875
 3	1	0	0	47.698974609375	3.84521484375	6.9580078125
 4	0	1	0	23.4375	23.5748291015625	12.26806640625
 5	0	0	1	1.0986328125	8.1939697265625	32.8216552734375
 6	0	0	0	0.091552734375	0.0457763671875	0.091552734375
 7	1	1	1	74.1119384765625	35.7513427734375	52.5054931640625
 8	1	0	0	48.0194091796875	3.84521484375	6.9580078125
 9	0	1	0	23.3917236328125	23.5748291015625	12.359619140625
 10	0	0	1	1.0986328125	8.23974609375	32.867431640625
 11	0	0	0	0.091552734375	0.0457763671875	0.091552734375
 12	1	1	1	74.3408203125	35.5682373046875	51.910400390625
 13	1	0	0	47.9736328125	3.84521484375	6.9580078125
 14	0	1	0	23.4832763671875	23.62060546875	12.3138427734375
 15	0	0	1	1.0986328125	8.1939697265625	32.958984375
END_DATA
