data/calibration-000559.ti3
CTI3
ORIGINATOR	"ColorHug Factory"
DESCRIPTOR	"Calibration Target chart information 3"
DEVICE_CLASS	"DISPLAY"
COLOR_REP	"RGB_XYZ"
TARGET_INSTRUMENT	"Hughski ColorHug"
INSTRUMENT_TYPE_SPECTRAL	"NO"
NORMALIZED_TO_Y_100	"NO"
NUMBER_OF_FIELDS	7
NUMBER_OF_SETS	15
BEGIN_DATA_FORMAT
 SAMPLE_ID	RGB_R	RGB_G	RGB_B	XYZ_X	XYZ_Y	XYZ_Z
END_DATA_FORMAT
BEGIN_DATA
 1	0	0	0	0.04577636719	0.04577636719	0.09155273438
 2	1	1	1	53.74145508	33.87451172	38.81835938
 3	1	0	0	34.05761719	3.25012207	5.035400391
 4	0	1	0	17.76123047	24.58190918	11.4440918
 5	0	0	1	0.7781982422	6.134033203	22.47619629
 6	0	0	0	0.04577636719	0.04577636719	0.09155273438
 7	1	1	1	53.69567871	33.87451172	38.54370117
 8	1	0	0	34.01184082	3.25012207	5.035400391
 9	0	1	0	17.80700684	24.53613281	11.39831543
 10	0	0	1	0.7781982422	6.134033203	22.47619629
 11	0	0	0	0.04577636719	0.04577636719	0.09155273438
 12	1	1	1	53.64990234	33.87451172	38.86413574
 13	1	0	0	34.19494629	3.25012207	5.035400391
 14	0	1	0	17.76123047	24.53613281	11.35253906
 15	0	0	1	0.7781982422	6.134033203	22.56774902
END_DATA
