data/calibration-001044.ti3
CTI3   
ORIGINATOR	"ColorHug Factory"
DESCRIPTOR	"Calibration Target chart information 3"
DEVICE_CLASS	"DISPLAY"
COLOR_REP	"RGB_XYZ"
TARGET_INSTRUMENT	"Hughski ColorHug"
INSTRUMENT_TYPE_SPECTRAL	"NO"
NORMALIZED_TO_Y_100	"NO"
NUMBER_OF_FIELDS	7
NUMBER_OF_SETS	15
BEGIN_DATA_FORMAT
 SAMPLE_ID	RGB_R	RGB_G	RGB_B	XYZ_X	XYZ_Y	XYZ_Z
END_DATA_FORMAT
BEGIN_DATA
 1	0	0	0	0	0.04577636719	0.04577636719
 2	1	1	1	31.86035156	35.98022461	40.28320312
 3	1	0	0	18.58520508	2.563476562	2.9296875
 4	0	1	0	11.53564453	26.00097656	11.12365723
 5	0	0	1	0.6866455078	7.141113281	26.04675293
 6	0	0	0	0	0.04577636719	0.04577636719
 7	1	1	1	31.72302246	35.93444824	40.23742676
 8	1	0	0	18.63098145	2.563476562	2.9296875
 9	0	1	0	11.53564453	26.04675293	11.07788086
 10	0	0	1	0.6866455078	7.141113281	25.86364746
 11	0	0	0	0	0.04577636719	0.04577636719
 12	1	1	1	31.49414062	35.79711914	40.19165039
 13	1	0	0	18.49365234	2.517700195	2.9296875
 14	0	1	0	11.4440918	26.04675293	11.07788086
 15	0	0	1	0.6866455078	7.141113281	25.9552002
END_DATA
