data/calibration-000505.ti3
CTI3
ORIGINATOR	"ColorHug Factory"
DESCRIPTOR	"Calibration Target chart information 3"
DEVICE_CLASS	"DISPLAY"
COLOR_REP	"RGB_XYZ"
TARGET_INSTRUMENT	"Hughski ColorHug"
INSTRUMENT_TYPE_SPECTRAL	"NO"
NORMALIZED_TO_Y_100	"NO"
NUMBER_OF_FIELDS	7
NUMBER_OF_SETS	15
BEGIN_DATA_FORMAT
 SAMPLE_ID	RGB_R	RGB_G	RGB_B	XYZ_X	XYZ_Y	XYZ_Z
END_DATA_FORMAT
BEGIN_DATA
 1	0	0	0	0	0.04577636719	0.04577636719
 2	1	1	1	57.12890625	35.2935791	41.70227051
 3	1	0	0	36.30065918	3.387451172	5.172729492
 4	0	1	0	18.67675781	25.08544922	11.53564453
 5	0	0	1	0.7781982422	6.637573242	24.58190918
 6	0	0	0	0	0.04577636719	0.04577636719
 7	1	1	1	57.22045898	35.2935791	41.2902832
 8	1	0	0	35.84289551	3.387451172	5.172729492
 9	0	1	0	18.44787598	24.85656738	11.53564453
 10	0	0	1	0.7781982422	6.637573242	24.67346191
 11	0	0	0	0	0.04577636719	0.04577636719
 12	1	1	1	56.99157715	35.2935791	41.74804688
 13	1	0	0	36.25488281	3.387451172	5.172729492
 14	0	1	0	18.44787598	24.85656738	11.53564453
 15	0	0	1	0.7781982422	6.637573242	24.35302734
END_DATA
