data/calibration-001470.ti3
CTI3   
ORIGINATOR	"ColorHug Factory"
DESCRIPTOR	"Calibration Target chart information 3"
DEVICE_CLASS	"DISPLAY"
COLOR_REP	"RGB_XYZ"
TARGET_INSTRUMENT	"Hughski ColorHug"
INSTRUMENT_TYPE_SPECTRAL	"NO"
NORMALIZED_TO_Y_100	"NO"
NUMBER_OF_FIELDS	7
NUMBER_OF_SETS	15
BEGIN_DATA_FORMAT
 SAMPLE_ID	RGB_R	RGB_G	RGB_B	XYZ_X	XYZ_Y	XYZ_Z
END_DATA_FORMAT
BEGIN_DATA
 1	0	0	0	0.04577636719	0.04577636719	0.09155273438
 2	1	1	1	37.85705566	37.26196289	44.95239258
 3	1	0	0	22.75085449	2.792358398	3.479003906
 4	0	1	0	13.59558105	27.00805664	11.81030273
 5	0	0	1	0.8697509766	7.64465332	29.7088623
 6	0	0	0	0.04577636719	0.04577636719	0.09155273438
 7	1	1	1	37.8112793	37.35351562	44.99816895
 8	1	0	0	22.84240723	2.792358398	3.479003906
 9	0	1	0	13.59558105	27.00805664	11.76452637
 10	0	0	1	0.8697509766	7.64465332	29.61730957
 11	0	0	0	0.04577636719	0.09155273438	0.09155273438
 12	1	1	1	37.53662109	37.26196289	44.95239258
 13	1	0	0	22.75085449	2.792358398	3.479003906
 14	0	1	0	13.59558105	26.96228027	11.8560791
 15	0	0	1	0.8697509766	7.64465332	29.47998047
END_DATA
