data/calibration-002349.ti3
CTI3   
ORIGINATOR	"ColorHug Factory"
CREATED	"Tue Jan 21 20:37:43 2014"
DESCRIPTOR	"Calibration Target chart information 3"
DEVICE_CLASS	"DISPLAY"
COLOR_REP	"RGB_XYZ"
TARGET_INSTRUMENT	"Hughski ColorHug"
INSTRUMENT_TYPE_SPECTRAL	"NO"
NORMALIZED_TO_Y_100	"NO"
NUMBER_OF_FIELDS	7
NUMBER_OF_SETS	15
BEGIN_DATA_FORMAT
 SAMPLE_ID	RGB_R	RGB_G	RGB_B	XYZ_X	XYZ_Y	XYZ_Z
END_DATA_FORMAT
BEGIN_DATA
 1.0	0.0	0.0	0.0	0.099105834961	0.067108154297	0.138092041016
 2.0	1.0	1.0	1.0	79.533966064453	34.565399169922	56.496551513672
 3.0	1.0	0.0	0.0	49.951217651367	3.752624511719	6.585205078125
 4.0	0.0	1.0	0.0	24.094116210938	22.080856323242	11.686157226562
 5.0	0.0	0.0	1.0	1.296600341797	8.623153686523	37.577972412109
 6.0	0.0	0.0	0.0	0.097564697266	0.065628051758	0.137588500977
 7.0	1.0	1.0	1.0	78.01904296875	34.711853027344	56.496551513672
 8.0	1.0	0.0	0.0	49.648483276367	3.73551940918	6.548355102539
 9.0	0.0	1.0	0.0	24.094116210938	22.080856323242	11.80403137207
 10.0	0.0	0.0	1.0	1.288238525391	8.641342163086	37.06787109375
 11.0	0.0	0.0	0.0	0.099487304688	0.067016601562	0.14013671875
 12.0	1.0	1.0	1.0	78.769226074219	34.711853027344	56.496551513672
 13.0	1.0	0.0	0.0	49.951217651367	3.752624511719	6.553588867188
 14.0	0.0	1.0	0.0	23.953201293945	22.140533447266	11.753219604492
 15.0	0.0	0.0	1.0	1.300308227539	8.696380615234	37.06787109375
END_DATA
