data/calibration-000181.ti3
CTI3
DESCRIPTOR	"Calibration Target chart information 3"
ORIGINATOR	"ColorHug Factory"
DEVICE_CLASS	"DISPLAY"
COLOR_REP	"RGB_XYZ"
TARGET_INSTRUMENT	"ColorHug"
INSTRUMENT_TYPE_SPECTRAL	"NO"
LUMINANCE_XYZ_CDM2	"52.539825 38.589478 45.753479"
NORMALIZED_TO_Y_100	"YES"
NUMBER_OF_FIELDS	7
NUMBER_OF_SETS	836
BEGIN_DATA_FORMAT
 SAMPLE_ID	RGB_R	RGB_G	RGB_B	XYZ_X	XYZ_Y	XYZ_Z
END_DATA_FORMAT
BEGIN_DATA
 1	100	100	100	136.0946746	99.76331361	118.5798817
 2	100	100	100	136.0946746	99.8816568	118.1065089
 3	100	100	100	135.2662722	99.40828402	117.9881657
 4	100	100	100	135.8579882	100	118.4615385
 5	33.33	32.622	30.968	10.76923077	7.810650888	8.639053254
 6	100	0	100	84.14201183	27.69230769	84.26035503
 7	100	100	0	134.9112426	80.59171598	46.62721893
 8	0	100	100	46.15384615	90.65088757	104.3786982
 9	0	100	0	44.02366864	71.24260355	32.66272189
 10	0	0	100	2.366863905	19.28994083	71.24260355
 11	100	0	0	83.07692308	8.402366864	12.66272189
 12	0	0	0	0.1183431953	0	0.1183431953
 13	0	52.455	100	11.95266272	35.50295858	78.81656805
 14	100	0	50.3	80.47337278	12.4260355	26.98224852
 15	100	54.739	100	97.3964497	45.56213018	92.78106509
 16	100	52.128	0	93.25443787	24.02366864	20.1183432
 17	0	0	46.181	0.4733727811	3.076923077	11.47928994
 18	0	51.141	0	9.467455621	14.9112426	6.982248521
 19	0	100	51.348	44.37869822	74.67455621	47.10059172
 20	100	100	52.037	134.2011834	84.61538462	62.01183432
 21	49.216	0	0	18.10650888	1.656804734	2.603550296
 22	56.159	100	0	66.50887574	73.25443787	36.09467456
 23	49.226	100	100	62.95857988	92.5443787	107.3372781
 24	44.487	0	100	14.9112426	20.71005917	73.72781065
 25	100	44.498	52.029	91.24260355	24.02366864	33.25443787
 26	48.926	48.544	100	26.50887574	34.43786982	80.1183432
 27	51.368	100	47.25	62.4852071	75.97633136	47.92899408
 28	49.893	0	49.033	17.04142012	5.443786982	16.09467456
 29	53.109	51.372	0	28.63905325	16.92307692	9.940828402
 30	0	58.587	53.943	13.25443787	24.61538462	25.79881657
 31	100	28.065	100	87.5739645	32.18934911	86.39053254
 32	0	0	72.874	1.065088757	8.639053254	31.95266272
 33	0	26.758	100	4.26035503	23.19526627	73.01775148
 34	0	25.426	0	2.24852071	3.431952663	1.656804734
 35	72.508	0	100	39.40828402	23.19526627	77.04142012
 36	100	27.395	0	85.68047337	12.5443787	14.55621302
 37	74.47	100	100	88.75739645	94.43786982	111.0059172
 38	100	0	25.728	82.4852071	9.467455621	16.09467456
 39	73.862	0	0	39.40828402	4.142011834	6.153846154
 40	100	100	25.402	109.112426	80.47337278	49.34911243
 41	0	75.751	100	25.20710059	55.73964497	88.52071006
 42	0	75.172	0	22.4852071	34.9112426	16.21301775
 43	0	100	25.864	43.90532544	71.47928994	36.09467456
 44	100	0	74.801	83.43195266	17.86982249	47.10059172
 45	0	100	75.421	44.85207101	80.71005917	68.52071006
 46	24.577	0	0	3.668639053	0.4733727811	0.7100591716
 47	26.321	100	0	48.28402367	71.71597633	33.37278107
 48	100	75.835	0	108.9940828	44.61538462	29.82248521
 49	100	100	77.061	134.3195266	90.29585799	84.26035503
 50	71.263	100	0	82.72189349	75.26627219	38.57988166
 51	0	0	15.614	0.1183431953	0.3550295858	1.420118343
 52	0	30.049	70.936	3.905325444	13.13609467	32.66272189
 53	100	77.691	100	112.5443787	66.86390533	102.7218935
 54	24.486	100	100	49.70414201	90.53254438	105.3254438
 55	100	62.784	31.909	100.9467456	33.84615385	29.46745562
 56	29.552	0	100	7.337278107	19.8816568	72.4260355
 57	32.98	70.921	100	28.87573964	50.88757396	86.98224852
 58	0	27.681	40.241	2.958579882	6.390532544	10.53254438
 59	67.901	71.021	100	55.38461538	54.08284024	91.47928994
 60	28.154	100	67.829	49.70414201	79.52662722	61.18343195
 61	71.637	100	70.001	84.14201183	83.66863905	68.99408284
 62	58.822	58.763	53.586	37.04142012	27.10059172	29.46745562
 63	33.466	30.48	0	10.17751479	5.680473373	3.431952663
 64	100	73.795	71.277	108.7573964	51.47928994	60.1183432
 65	68.394	29.692	0	36.44970414	8.165680473	7.337278107
 66	70.399	0	29.039	35.62130178	4.970414201	9.940828402
 67	28.078	0	26.956	4.970414201	1.538461538	4.615384615
 68	28.532	72.339	0	25.68047337	32.78106509	15.73964497
 69	100	30.941	26.496	86.74556213	14.67455621	18.93491124
 70	34.597	0	73.611	8.402366864	9.704142012	34.20118343
 71	71.573	0	72.408	37.3964497	12.5443787	37.75147929
 72	0	71.029	29.412	23.31360947	32.4260355	19.05325444
 73	68.386	75.008	0	56.33136095	38.57988166	21.42011834
 74	68.088	27.309	100	37.3964497	26.86390533	78.34319527
 75	100	26.457	73.749	86.74556213	21.65680473	48.28402367
 76	74.344	100	27.392	86.74556213	76.68639053	43.07692308
 77	27.558	100	28.197	48.75739645	72.18934911	37.3964497
 78	31.196	27.465	100	10.53254438	24.14201183	74.31952663
 79	0	75.521	72.824	23.78698225	44.49704142	48.75739645
 80	0	50.93	25.553	9.467455621	15.62130178	10.29585799
 81	32.06	33.584	64.033	10.88757396	13.37278107	27.92899408
 82	81.666	55.38	0	62.01183432	22.95857988	15.97633136
 83	68.257	32.751	58.286	37.27810651	14.67455621	27.33727811
 84	0	55.248	81.585	12.30769231	29.23076923	50.88757396
 85	73.781	52.099	100	51.95266272	39.17159763	84.9704142
 86	100	50.537	82.952	94.55621302	35.38461538	64.73372781
 87	23.55	0	50.439	3.905325444	4.142011834	14.67455621
 88	31.335	62.746	31.114	21.42011834	25.56213018	16.92307692
 89	100	18.31	49.418	84.02366864	14.08284024	27.33727811
 90	26.498	48.404	0	12.89940828	13.72781065	6.863905325
 91	47.91	100	85.744	60.94674556	86.39053254	83.78698225
 92	71.829	47.313	31.811	45.79881657	18.10650888	17.04142012
 93	31.304	64.132	69.316	22.84023669	33.13609467	41.30177515
 94	80.403	0	54.321	48.40236686	9.585798817	24.37869822
 95	18.455	50.036	100	13.13609467	33.96449704	78.81656805
 96	50.653	100	16.345	60.94674556	73.13609467	36.92307692
 97	80.121	100	52.261	96.21301775	81.18343195	56.33136095
 98	0	22.54	19.289	1.893491124	3.313609467	3.313609467
 99	100	75.273	46.886	108.8757396	47.4556213	41.89349112
 100	0	78.618	56.625	25.56213018	44.14201183	36.56804734
 101	51.137	80.627	100	42.95857988	63.43195266	94.31952663
 102	48.446	0	17.864	15.50295858	2.130177515	4.142011834
 103	100	50.023	21.211	93.25443787	23.43195266	22.01183432
 104	50.115	20.118	0	18.57988166	4.023668639	3.668639053
 105	58.099	72.426	33.158	44.26035503	36.44970414	24.49704142
 106	19.364	100	50.197	46.62721893	74.9112426	47.5739645
 107	50.683	19.177	100	20.59171598	23.31360947	75.85798817
 108	53.37	0	81.576	20.47337278	13.72781065	46.03550296
 109	47.768	76.245	0	38.46153846	37.86982249	19.28994083
 110	0	18.927	55.503	1.775147929	6.74556213	18.34319527
 111	0	13.277	0	0.7100591716	1.065088757	0.5917159763
 112	72.862	72.473	75.625	60.59171598	46.39053254	57.27810651
 113	100	13.904	0	83.55029586	9.585798817	13.13609467
 114	86.349	0	100	59.17159763	25.56213018	80.94674556
 115	100	41.941	100	91.36094675	37.75147929	89.34911243
 116	100	81.785	16.464	115.0295858	52.30769231	34.79289941
 117	0	44.063	52.596	7.455621302	15.26627219	20.71005917
 118	0	0	58.917	0.7100591716	5.325443787	19.76331361
 119	59.25	24.551	29.789	26.27218935	6.982248521	9.822485207
 120	82.73	82.874	100	83.19526627	68.99408284	100.2366864
 121	80.039	0	12.618	47.5739645	5.325443787	8.402366864
 122	60.957	47.729	77.817	34.9112426	25.91715976	48.40236686
 123	100	0	38.618	82.13017751	10.65088757	20.71005917
 124	0	40.09	100	7.573964497	28.40236686	75.62130178
 125	0	15.283	82.322	1.893491124	13.01775148	43.66863905
 126	17.592	81.726	100	31.24260355	62.84023669	92.4260355
 127	100	14.13	100	85.32544379	29.34911243	85.0887574
 128	15.261	100	82.059	46.74556213	83.31360947	76.80473373
 129	47.77	79.418	60.389	41.42011834	47.21893491	42.36686391
 130	18.768	16.429	0	3.195266272	1.656804734	1.183431953
 131	55.634	100	65.763	66.39053254	80.71005917	62.13017751
 132	100	100	38.541	133.7278107	82.6035503	54.9112426
 133	17.421	0	83.497	3.076923077	12.30769231	44.9704142
 134	17.237	16.758	100	4.733727811	21.06508876	72.5443787
 135	0	15.067	30.039	0.9467455621	2.603550296	5.207100592
 136	0	0	86.505	1.656804734	13.13609467	49.23076923
 137	75.736	72.799	50.02	64.14201183	41.18343195	36.21301775
 138	100	83.323	85.529	117.6331361	67.4556213	82.6035503
 139	100	100	64.894	133.0177515	87.10059172	71.71597633
 140	81.98	84.914	0	82.6035503	52.4260355	29.9408284
 141	0	63.757	15.49	15.50295858	24.37869822	12.5443787
 142	49.514	66.135	100	35.38461538	47.69230769	87.21893491
 143	100	0	61.862	82.72189349	14.55621302	35.0295858
 144	24.308	45.41	49.831	11.36094675	15.85798817	20
 145	15.963	0	17.047	1.656804734	0.5917159763	1.893491124
 146	87.497	100	100	109.3491124	97.3964497	114.7928994
 147	52.099	25.003	75.752	21.30177515	15.0295858	40.35502959
 148	14.909	81.162	0	28.28402367	42.36686391	19.76331361
 149	0	34.792	14.626	4.26035503	6.863905325	4.378698225
 150	48.39	45.075	22.552	22.95857988	13.84615385	10.41420118
 151	83.545	65.965	100	73.37278107	51.71597633	92.66272189
 152	16.226	62.345	0	16.44970414	23.07692308	11.00591716
 153	63.222	0	14.914	27.81065089	3.313609467	5.680473373
 154	80.449	13.446	0	48.87573964	6.153846154	8.047337278
 155	83.917	41.562	0	59.64497041	15.14792899	12.78106509
 156	100	60.448	46.3	99.17159763	33.60946746	35.26627219
 157	15.584	0	34.795	1.775147929	1.893491124	6.50887574
 158	17.144	65.121	100	20.35502959	45.56213018	84.26035503
 159	83.602	55.334	62.667	65.91715976	29.82248521	39.76331361
 160	0	82.19	14.22	27.92899408	43.90532544	21.30177515
 161	25.132	74.856	50.616	26.74556213	38.93491124	31.36094675
 162	0	13.769	100	2.485207101	20.47337278	72.30769231
 163	87.181	0	0	58.34319527	6.035502959	8.99408284
 164	0	100	39.19	44.14201183	73.49112426	40.82840237
 165	78.047	65.914	19.865	63.19526627	31.71597633	21.42011834
 166	100	63.961	15.865	100.9467456	33.60946746	25.91715976
 167	100	45.955	36.032	91.59763314	22.4852071	25.44378698
 168	15.926	100	16.89	47.10059172	71.71597633	34.31952663
 169	41.459	100	0	55.38461538	72.30769231	34.31952663
 170	48.707	37.288	48.139	21.06508876	12.89940828	18.81656805
 171	83.381	100	13.285	100	77.27810651	42.24852071
 172	78.129	25.303	75.621	48.16568047	17.86982249	44.14201183
 173	12.396	0	0	1.065088757	0.2366863905	0.3550295858
 174	37.607	48.336	83.346	18.69822485	26.74556213	52.66272189
 175	35.588	15.356	0	8.639053254	2.24852071	2.01183432
 176	61.245	100	100	73.01775148	93.96449704	109.2307692
 177	100	67.29	87.195	103.4319527	49.70414201	76.21301775
 178	0	0	30.615	0.2366863905	1.301775148	4.852071006
 179	35.187	81.789	83.323	36.21301775	56.44970414	66.74556213
 180	39.525	80.194	22.879	36.33136095	43.07692308	23.31360947
 181	50.634	34.593	0	21.30177515	8.284023669	5.798816568
 182	14.175	100	63.146	46.15384615	77.75147929	56.92307692
 183	83.493	17.728	34.574	53.72781065	8.99408284	15.26627219
 184	23.463	22.014	79.943	6.153846154	14.08284024	42.72189349
 185	18.066	31.847	0	5.680473373	5.680473373	2.958579882
 186	87.201	100	81.361	108.0473373	89.9408284	85.68047337
 187	0	100	87.95	45.44378698	85.79881657	84.85207101
 188	34.476	17.888	46.22	8.75739645	5.798816568	13.72781065
 189	18.277	0	67.39	2.840236686	7.573964497	27.33727811
 190	100	87.972	0	121.0650888	60.35502959	37.27810651
 191	82.925	34.85	100	58.46153846	31.95266272	83.31360947
 192	0	88.016	100	34.55621302	71.36094675	96.33136095
 193	36.104	85.655	100	40.94674556	69.23076923	95.0295858
 194	60.981	0	0	25.56213018	2.721893491	4.023668639
 195	51.466	61.826	78.106	33.72781065	35.50295858	52.30769231
 196	78.427	31.983	22.175	49.23076923	11.00591716	12.30769231
 197	66.017	44.321	0	37.75147929	14.31952663	9.940828402
 198	83.941	0	84.177	54.55621302	18.22485207	54.79289941
 199	20.158	46.612	23.269	10.41420118	13.37278107	8.99408284
 200	0	100	62.618	44.61538462	77.86982249	56.44970414
 201	33.832	0	13.933	7.100591716	1.065088757	2.366863905
 202	100	17.286	16.322	83.66863905	10.53254438	14.9112426
 203	0	42.204	83.926	18.46153846	22.6035503	50.88757396
 204	0	87.774	0	32.07100592	51.00591716	23.55029586
 205	64.988	0	59.017	29.9408284	8.639053254	24.73372781
 206	14.677	0	100	3.313609467	19.52662722	72.30769231
 207	88.934	82.673	35.021	90.88757396	52.4260355	37.15976331
 208	0	63.778	100	17.3964497	44.02366864	83.55029586
 209	83.429	17.674	100	55.50295858	26.74556213	81.30177515
 210	30.899	100	85.668	51.36094675	84.9704142	82.36686391
 211	83.68	0	41.016	53.01775148	8.047337278	17.3964497
 212	100	63.515	0	99.64497041	32.5443787	24.14201183
 213	85.074	69.987	0	75.38461538	35.73964497	22.6035503
 214	20.801	45.524	69.018	10.88757396	19.8816568	34.43786982
 215	21.382	82.482	73.017	31.71597633	53.01775148	53.72781065
 216	100	15.128	64.249	83.78698225	16.44970414	37.75147929
 217	36.522	0	58.427	8.875739645	6.153846154	20.71005917
 218	22.466	81.296	33.007	30.29585799	44.37869822	26.03550296
 219	62.531	87.152	0	58.46153846	53.49112426	27.4556213
 220	84.12	85.397	67.886	86.98224852	61.42011834	58.81656805
 221	18.87	27.336	45.389	5.207100592	7.337278107	13.49112426
 222	66.439	100	14.444	76.44970414	75.26627219	39.05325444
 223	41.636	22.147	19.003	13.01775148	4.378698225	4.970414201
 224	61.271	100	81.94	72.78106509	86.86390533	81.06508876
 225	86.013	100	0	105.0887574	78.10650888	42.01183432
 226	37.57	0	0	8.639053254	0.9467455621	1.420118343
 227	100	16.132	84.102	84.37869822	22.6035503	60.1183432
 228	0	100	13.619	44.02366864	71.59763314	33.84615385
 229	38.905	100	56.471	54.20118343	77.3964497	53.13609467
 230	100	15.382	34.563	83.19526627	11.59763314	19.76331361
 231	36.656	14.908	100	11.12426036	21.65680473	74.31952663
 232	0	62.593	66.608	15.50295858	30.65088757	37.5147929
 233	66.347	12.528	100	33.49112426	23.78698225	77.27810651
 234	100	43.375	69.233	90.88757396	27.21893491	47.10059172
 235	100	56.36	61.236	96.56804734	33.25443787	43.90532544
 236	0	86.194	44.955	31.24260355	52.07100592	33.84615385
 237	64.527	87.262	100	63.55029586	73.84615385	100.7100592
 238	34.411	0	42.471	7.573964497	3.431952663	11.00591716
 239	80.23	59.707	85.12	63.55029586	39.40828402	65.44378698
 240	20.625	19.056	14.791	4.023668639	2.603550296	2.603550296
 241	15.341	34.221	100	7.573964497	26.27218935	75.50295858
 242	36.777	0	87.905	9.822485207	14.79289941	53.13609467
 243	34.598	56.247	100	21.53846154	38.93491124	81.65680473
 244	20.86	67.629	17.418	20.71005917	28.52071006	15.0295858
 245	44.958	60.843	18.054	27.5739645	23.90532544	14.08284024
 246	37.421	60.193	0	22.72189349	22.36686391	11.36094675
 247	84.011	33.849	42.612	58.46153846	14.67455621	21.18343195
 248	17.241	60.339	37.743	15.73964497	23.78698225	17.98816568
 249	50.65	17.261	53.278	18.81656805	7.810650888	19.52662722
 250	45.505	48.926	65.152	23.31360947	22.24852071	33.96449704
 251	44.567	84.081	39.649	42.24852071	49.70414201	32.07100592
 252	100	86.339	72.054	118.5798817	67.10059172	68.63905325
 253	68.14	61.135	0	46.98224852	25.32544379	15.26627219
 254	17.93	66.986	81.403	20.59171598	39.17159763	55.85798817
 255	39.242	60.215	48.926	24.26035503	26.15384615	24.9704142
 256	20.099	18.77	62.967	4.378698225	8.520710059	24.49704142
 257	34.553	100	14.582	51.36094675	72.66272189	35.14792899
 258	87.345	0	66.694	58.93491124	13.37278107	35.97633136
 259	0	43.714	39.842	7.100591716	13.13609467	13.49112426
 260	100	37.705	13.955	88.16568047	16.68639053	17.5147929
 261	31.265	86.993	0	37.3964497	50.53254438	23.90532544
 262	51.402	82.661	81.338	47.10059172	57.86982249	66.27218935
 263	100	100	12.984	134.4378698	81.53846154	47.69230769
 264	0	37.859	0	4.970414201	7.810650888	3.668639053
 265	62.092	58.215	100	41.42011834	42.36686391	85.91715976
 266	86.186	100	64.1	106.1538462	85.0887574	66.98224852
 267	100	35.251	85.898	88.63905325	28.87573964	64.85207101
 268	63.182	89.992	41.974	63.31360947	60	39.40828402
 269	13.504	100	0	45.32544379	71.36094675	33.01775148
 270	100	0	13.228	81.53846154	8.75739645	13.60946746
 271	63.881	40.826	100	36.09467456	32.07100592	81.53846154
 272	69.387	84.838	20.792	65.44378698	51.36094675	29.58579882
 273	0	70.279	45.136	19.76331361	33.37278107	25.56213018
 274	79.094	64.754	40.908	63.90532544	32.78106509	28.28402367
 275	62.385	54.099	17.396	37.86982249	20.23668639	13.72781065
 276	64.408	14.621	0	29.82248521	4.26035503	5.088757396
 277	70.028	15.606	44.651	36.09467456	8.047337278	17.04142012
 278	0	63.544	0	15.50295858	24.14201183	11.24260355
 279	83.475	47.274	20.502	61.06508876	18.93491124	16.33136095
 280	55.866	0	32.671	21.30177515	3.786982249	8.99408284
 281	58.007	0	100	24.9704142	21.89349112	76.21301775
 282	100	0	87.698	83.19526627	22.36686391	64.37869822
 283	0	13.792	67.215	1.420118343	8.520710059	27.4556213
 284	84.123	17.001	58.549	55.14792899	12.66272189	29.11242604
 285	59.579	32.873	15.966	27.92899408	8.75739645	7.928994083
 286	10.41	32.998	28.659	4.733727811	7.218934911	7.218934911
 287	17.231	40.031	85.65	8.875739645	22.4852071	52.89940828
 288	37.568	41.561	10.108	15.0295858	10.65088757	6.50887574
 289	0	69.015	85.092	19.76331361	42.13017751	61.42011834
 290	14.442	100	36.187	45.44378698	73.49112426	40.23668639
 291	100	40.549	0	88.99408284	17.86982249	17.04142012
 292	82.143	45.435	78.429	59.40828402	27.69230769	52.30769231
 293	52.674	0	67.3	19.40828402	9.349112426	30.17751479
 294	0	87.868	66.793	33.37278107	59.05325444	50.76923077
 295	86.53	100	40.524	106.3905325	80.47337278	51.36094675
 296	71.777	85.586	67.232	69.82248521	59.8816568	56.09467456
 297	43.216	100	31.671	56.80473373	74.55621302	40.23668639
 298	39.245	32.908	85.845	14.9112426	20.1183432	53.01775148
 299	0	45.662	67.543	8.284023669	19.40828402	33.01775148
 300	12.161	100	100	46.74556213	91.47928994	106.035503
 301	67.049	0	85.516	32.78106509	16.44970414	53.13609467
 302	100	89.041	100	123.3136095	82.24852071	110.887574
 303	20.246	60.698	56.526	16.92307692	26.98224852	28.87573964
 304	52.177	55.457	40.416	30.17751479	22.36686391	20.23668639
 305	72.617	87.018	83.932	71.95266272	66.74556213	75.97633136
 306	40.512	16.723	66.475	12.18934911	9.822485207	28.63905325
 307	68.507	49.232	50.605	42.72189349	21.42011834	26.27218935
 308	65.622	100	54.525	76.21301775	80	55.14792899
 309	54.115	37.24	66.394	25.0887574	16.92307692	32.89940828
 310	100	76.138	31.267	109.5857988	46.98224852	35.62130178
 311	54.728	65.623	0	36.80473373	28.04733728	15.14792899
 312	63.126	12.526	64.37	28.63905325	10.53254438	29.34911243
 313	72.827	18.08	23.704	39.05325444	6.627218935	9.704142012
 314	23.268	15.278	34.947	4.378698225	3.431952663	7.692307692
 315	87.648	68.954	59.645	79.8816568	41.06508876	43.78698225
 316	0	85.595	85.198	31.95266272	61.53846154	70.53254438
 317	35.798	84.371	69.21	38.57988166	55.73964497	52.5443787
 318	36.062	47.494	35.919	16.56804734	15.62130178	14.20118343
 319	86.083	36.277	59.152	62.13017751	18.81656805	32.5443787
 320	58.21	100	30.361	68.87573964	75.85798817	41.53846154
 321	46.745	14.614	32.317	15.26627219	4.26035503	8.402366864
 322	81.573	73.869	86.954	74.67455621	53.60946746	74.31952663
 323	85.991	49.387	48.206	66.50887574	23.55029586	28.28402367
 324	28.062	87.906	19.654	37.3964497	53.01775148	26.62721893
 325	68.992	17.993	85.124	35.97633136	18.34319527	54.20118343
 326	100	66.147	100	103.9053254	55.26627219	98.22485207
 327	33.358	64.806	84.517	24.73372781	39.28994083	60.23668639
 328	41.351	17.736	80.522	13.25443787	14.31952663	44.49704142
 329	100	100	88.719	135.3846154	95.62130178	100.591716
 330	66.336	0	44.32	31.24260355	6.272189349	15.73964497
 331	64.85	67.09	12.293	47.5739645	31.00591716	18.34319527
 332	15.262	31.268	63.277	5.443786982	11.95266272	26.39053254
 333	15.008	43.663	37.3	8.520710059	13.01775148	12.78106509
 334	0	57.895	38.078	12.66272189	21.89349112	17.04142012
 335	66.599	58.458	67.871	45.0887574	31.36094675	42.36686391
 336	59.191	18.651	15.215	25.20710059	4.852071006	5.917159763
 337	66.781	31.14	84.629	36.33136095	21.53846154	54.55621302
 338	88.033	85.158	52.14	93.13609467	58.34319527	47.5739645
 339	36.882	100	100	54.67455621	92.30769231	107.2189349
 340	26.102	33.094	17.006	8.047337278	6.863905325	5.088757396
 341	56.309	36.861	35.862	26.50887574	11.59763314	13.72781065
 342	45.839	65.587	67.033	31.12426036	34.9112426	41.30177515
 343	83.709	81.172	16.406	82.01183432	48.87573964	29.70414201
 344	0	48.132	13.005	8.402366864	13.37278107	7.100591716
 345	87.176	50.021	100	70.0591716	40.35502959	87.81065089
 346	51.219	84.244	13.73	46.98224852	48.16568047	25.32544379
 347	60.606	71.415	48.406	46.15384615	38.10650888	31.95266272
 348	0	11.359	12.718	0.5917159763	1.065088757	1.420118343
 349	86.429	49.705	33.145	66.74556213	21.65680473	21.30177515
 350	34.056	40.958	100	15.14792899	29.9408284	78.10650888
 351	100	30.557	59.628	86.62721893	19.40828402	36.09467456
 352	88.497	26.902	13.449	63.31360947	10.53254438	12.30769231
 353	14.167	51.98	88.218	12.5443787	29.9408284	59.17159763
 354	13.784	12.983	49.37	2.366863905	4.852071006	14.20118343
 355	15.018	88.441	48.062	34.55621302	55.73964497	37.04142012
 356	87.79	25.769	89.215	63.19526627	24.37869822	64.26035503
 357	0	33.206	55.865	4.26035503	10.76923077	20.59171598
 358	74.324	76.029	35.536	63.78698225	42.6035503	30.17751479
 359	65.863	57.223	42.324	42.72189349	24.9704142	23.43195266
 360	30.893	54.646	13.136	17.04142012	18.34319527	10.0591716
 361	0	34.36	28.321	4.26035503	7.573964497	7.218934911
 362	15.443	77.087	85.116	26.86390533	51.36094675	66.15384615
 363	63.381	68.947	68.521	47.21893491	39.76331361	46.50887574
 364	69.733	27.566	42.917	37.27810651	10.53254438	17.5147929
 365	32.754	100	42.76	51.47928994	75.0295858	44.37869822
 366	47.096	29.481	34.829	17.98816568	8.047337278	11.00591716
 367	8.5451	71.948	62.695	21.65680473	38.22485207	38.34319527
 368	0	86.048	29.3	31.00591716	50.29585799	27.33727811
 369	53.697	51.572	85.367	30.41420118	30.65088757	58.34319527
 370	17.608	56.69	12.515	13.96449704	19.28994083	9.940828402
 371	90.638	14.414	49.227	65.68047337	11.71597633	24.26035503
 372	63.248	63.64	89.55	45.44378698	42.4852071	70.65088757
 373	100	85.976	58.455	118.9349112	63.90532544	56.80473373
 374	9.8311	28.027	7.5567	3.550295858	4.49704142	2.603550296
 375	89.831	64.313	69.506	80.94674556	39.52662722	51.00591716
 376	31.754	12.995	25.543	6.982248521	2.603550296	4.970414201
 377	75.914	45.966	64.957	50.65088757	23.55029586	37.5147929
 378	7.5735	50.695	58.941	10.41420118	20.59171598	27.33727811
 379	100	69.835	58.912	105.6804734	44.49704142	47.5739645
 380	32.211	34.376	48.339	11.00591716	10.76923077	17.15976331
 381	13.901	12.159	73.555	2.721893491	10.0591716	34.08284024
 382	87.071	9.028	77.653	60.1183432	17.15976331	47.81065089
 383	23.272	85.409	84.29	34.9112426	61.18343195	69.82248521
 384	93.289	39.48	26.145	75.14792899	16.92307692	18.34319527
 385	65.769	59.63	30.967	44.14201183	25.79881657	19.64497041
 386	100	32.265	41.803	86.74556213	17.04142012	25.0887574
 387	86.568	85.281	86.961	91.71597633	68.40236686	82.36686391
 388	52.577	86.83	30.016	50.29585799	53.13609467	30.88757396
 389	47.921	40.199	76.902	22.01183432	20.94674556	44.26035503
 390	22.36	86.619	61.58	34.9112426	56.21301775	46.03550296
 391	52.232	33.601	88.787	23.78698225	22.6035503	59.05325444
 392	0	28.523	86.267	4.023668639	17.75147929	51.00591716
 393	43.497	67.879	39.551	30.53254438	31.83431953	23.55029586
 394	39.877	45.261	0	17.5147929	12.66272189	6.982248521
 395	86.94	12.43	24.699	58.81656805	7.810650888	12.5443787
 396	28.363	55.339	90.398	18.10650888	33.84615385	65.44378698
 397	39.018	70.534	57.879	29.82248521	37.04142012	35.14792899
 398	12.833	28.519	78.828	4.970414201	15.26627219	42.13017751
 399	68.35	31.815	69.975	37.63313609	17.27810651	37.75147929
 400	56.52	26.226	41.626	24.37869822	8.520710059	14.67455621
 401	12.938	46.218	0	8.639053254	12.18934911	5.798816568
 402	8.6938	60.179	26.117	14.31952663	22.4852071	13.60946746
 403	51.995	89.429	96.608	54.20118343	74.43786982	94.67455621
 404	46.905	47.746	48.909	23.19526627	18.22485207	21.77514793
 405	14.352	81.814	19.479	28.87573964	43.66863905	22.24852071
 406	71.482	38.117	12.273	42.13017751	12.30769231	10.41420118
 407	86.616	60.785	10.012	72.89940828	28.40236686	20
 408	71.811	88.979	52.186	72.66272189	61.30177515	46.27218935
 409	43.213	100	72.083	57.63313609	81.89349112	67.21893491
 410	73.92	23.444	8.2853	41.53846154	7.218934911	8.047337278
