data/calibration-001037.ti3
CTI3   
ORIGINATOR	"ColorHug Factory"
DESCRIPTOR	"Calibration Target chart information 3"
DEVICE_CLASS	"DISPLAY"
COLOR_REP	"RGB_XYZ"
TARGET_INSTRUMENT	"Hughski ColorHug"
INSTRUMENT_TYPE_SPECTRAL	"NO"
NORMALIZED_TO_Y_100	"NO"
NUMBER_OF_FIELDS	7
NUMBER_OF_SETS	15
BEGIN_DATA_FORMAT
 SAMPLE_ID	RGB_R	RGB_G	RGB_B	XYZ_X	XYZ_Y	XYZ_Z
END_DATA_FORMAT
BEGIN_DATA
 1	0	0	0	0	0	0.04577636719
 2	1	1	1	35.70556641	41.51916504	46.55456543
 3	1	0	0	21.14868164	3.021240234	3.479003906
 4	0	1	0	13.00048828	29.84619141	13.09204102
 5	0	0	1	0.7781982422	8.331298828	29.84619141
 6	0	0	0	0	0	0.04577636719
 7	1	1	1	35.5682373	41.33605957	46.41723633
 8	1	0	0	20.96557617	3.021240234	3.479003906
 9	0	1	0	13.04626465	29.98352051	13.13781738
 10	0	0	1	0.7781982422	8.331298828	29.4342041
 11	0	0	0	0	0	0.04577636719
 12	1	1	1	35.5682373	41.47338867	46.50878906
 13	1	0	0	20.96557617	3.021240234	3.479003906
 14	0	1	0	13.09204102	30.07507324	13.09204102
 15	0	0	1	0.7781982422	8.331298828	29.38842773
END_DATA
