data/calibration-002685.ti3
CTI3   
ORIGINATOR	"ColorHug Factory"
CREATED	"Thu Mar 26 20:03:05 2015"
DESCRIPTOR	"Calibration Target chart information 3"
DEVICE_CLASS	"DISPLAY"
COLOR_REP	"RGB_XYZ"
TARGET_INSTRUMENT	"Hughski ColorHug"
INSTRUMENT_TYPE_SPECTRAL	"NO"
NORMALIZED_TO_Y_100	"NO"
NUMBER_OF_FIELDS	7
NUMBER_OF_SETS	15
BEGIN_DATA_FORMAT
 SAMPLE_ID	RGB_R	RGB_G	RGB_B	XYZ_X	XYZ_Y	XYZ_Z
END_DATA_FORMAT
BEGIN_DATA
 1.0	0.0	0.0	0.0	0.267166137695	0.312057495117	0.33203125
 2.0	1.0	1.0	1.0	50.567886352539	52.178329467773	52.851608276367
 3.0	1.0	0.0	0.0	35.929809570312	3.742340087891	5.661361694336
 4.0	0.0	1.0	0.0	13.407516479492	37.577972412109	14.447967529297
 5.0	0.0	0.0	1.0	1.740371704102	10.543106079102	32.507934570312
 6.0	0.0	0.0	0.0	0.267166137695	0.313598632812	0.331726074219
 7.0	1.0	1.0	1.0	50.567886352539	52.178329467773	53.194793701172
 8.0	1.0	0.0	0.0	35.617385864258	3.733810424805	5.661361694336
 9.0	0.0	1.0	0.0	13.255661010742	37.577972412109	14.447967529297
 10.0	0.0	0.0	1.0	1.746688842773	10.59765625	32.507934570312
 11.0	0.0	0.0	0.0	0.26774597168	0.312301635742	0.334106445312
 12.0	1.0	1.0	1.0	50.881973266602	51.522003173828	52.851608276367
 13.0	1.0	0.0	0.0	35.929809570312	3.742340087891	5.661361694336
 14.0	0.0	1.0	0.0	13.451553344727	37.577972412109	14.346755981445
 15.0	0.0	0.0	1.0	1.741851806641	10.543106079102	32.507934570312
END_DATA
