data/calibration-002164.ti3
CTI3   
ORIGINATOR	"ColorHug Factory"
CREATED	"Wed Nov 20 20:24:01 2013"
DESCRIPTOR	"Calibration Target chart information 3"
DEVICE_CLASS	"DISPLAY"
COLOR_REP	"RGB_XYZ"
TARGET_INSTRUMENT	"Hughski ColorHug"
INSTRUMENT_TYPE_SPECTRAL	"NO"
NORMALIZED_TO_Y_100	"NO"
NUMBER_OF_FIELDS	7
NUMBER_OF_SETS	15
BEGIN_DATA_FORMAT
 SAMPLE_ID	RGB_R	RGB_G	RGB_B	XYZ_X	XYZ_Y	XYZ_Z
END_DATA_FORMAT
BEGIN_DATA
 1	0	0	0	0.091552734375	0.0457763671875	0.091552734375
 2	1	1	1	75.6683349609375	35.3851318359375	51.727294921875
 3	1	0	0	48.88916015625	3.8909912109375	6.4544677734375
 4	0	1	0	24.444580078125	23.1170654296875	11.5814208984375
 5	0	0	1	1.28173828125	8.1024169921875	33.50830078125
 6	0	0	0	0.091552734375	0.0457763671875	0.091552734375
 7	1	1	1	75.25634765625	35.247802734375	51.6357421875
 8	1	0	0	48.614501953125	3.8909912109375	6.4544677734375
 9	0	1	0	24.2156982421875	23.2086181640625	11.53564453125
 10	0	0	1	1.28173828125	8.1024169921875	33.6456298828125
 11	0	0	0	0.091552734375	0.0457763671875	0.091552734375
 12	1	1	1	75.164794921875	35.247802734375	51.5899658203125
 13	1	0	0	48.7518310546875	3.8909912109375	6.4544677734375
 14	0	1	0	24.3988037109375	23.2086181640625	11.4898681640625
 15	0	0	1	1.28173828125	8.1024169921875	33.6456298828125
END_DATA
