data/calibration-001201.ti3
CTI3   
ORIGINATOR	"ColorHug Factory"
DESCRIPTOR	"Calibration Target chart information 3"
DEVICE_CLASS	"DISPLAY"
COLOR_REP	"RGB_XYZ"
TARGET_INSTRUMENT	"Hughski ColorHug"
INSTRUMENT_TYPE_SPECTRAL	"NO"
NORMALIZED_TO_Y_100	"NO"
NUMBER_OF_FIELDS	7
NUMBER_OF_SETS	15
BEGIN_DATA_FORMAT
 SAMPLE_ID	RGB_R	RGB_G	RGB_B	XYZ_X	XYZ_Y	XYZ_Z
END_DATA_FORMAT
BEGIN_DATA
 1	0	0	0	0	0	0.04577636719
 2	1	1	1	30.99060059	34.46960449	40.00854492
 3	1	0	0	17.9901123	2.471923828	3.021240234
 4	0	1	0	11.26098633	24.94812012	11.03210449
 5	0	0	1	0.6866455078	6.958007812	25.58898926
 6	0	0	0	0	0	0.04577636719
 7	1	1	1	30.76171875	34.33227539	39.91699219
 8	1	0	0	18.08166504	2.471923828	3.021240234
 9	0	1	0	11.26098633	24.76501465	11.03210449
 10	0	0	1	0.6866455078	6.958007812	25.54321289
 11	0	0	0	0	0	0.04577636719
 12	1	1	1	30.76171875	34.51538086	39.96276855
 13	1	0	0	18.08166504	2.471923828	3.021240234
 14	0	1	0	11.26098633	24.67346191	11.03210449
 15	0	0	1	0.6866455078	6.958007812	25.63476562
END_DATA
