data/calibration-000372.ti3
CTI3
ORIGINATOR	"ColorHug Factory"
DESCRIPTOR	"Calibration Target chart information 3"
DEVICE_CLASS	"DISPLAY"
COLOR_REP	"RGB_XYZ"
TARGET_INSTRUMENT	"Hughski ColorHug"
INSTRUMENT_TYPE_SPECTRAL	"NO"
NORMALIZED_TO_Y_100	"NO"
NUMBER_OF_FIELDS	7
NUMBER_OF_SETS	15
BEGIN_DATA_FORMAT
 SAMPLE_ID	RGB_R	RGB_G	RGB_B	XYZ_X	XYZ_Y	XYZ_Z
END_DATA_FORMAT
BEGIN_DATA
 1	0	0	0	0	0.09155273438	0.09155273438
 2	1	1	1	58.04443359	37.9486084	43.16711426
 3	1	0	0	36.39221191	3.616333008	5.172729492
 4	0	1	0	18.81408691	26.91650391	12.03918457
 5	0	0	1	0.9613037109	7.186889648	25.77209473
 6	0	0	0	0.09155273438	0.09155273438	0.09155273438
 7	1	1	1	57.35778809	37.76550293	43.16711426
 8	1	0	0	36.07177734	3.616333008	5.172729492
 9	0	1	0	18.81408691	26.96228027	12.08496094
 10	0	0	1	0.9613037109	7.186889648	25.77209473
 11	0	0	0	0.09155273438	0.09155273438	0.09155273438
 12	1	1	1	57.86132812	37.9486084	43.12133789
 13	1	0	0	36.30065918	3.616333008	5.172729492
 14	0	1	0	18.67675781	26.96228027	11.9934082
 15	0	0	1	0.9613037109	7.186889648	25.68054199
END_DATA
