data/calibration-000838.ti3
CTI3   
ORIGINATOR	"ColorHug Factory"
DESCRIPTOR	"Calibration Target chart information 3"
DEVICE_CLASS	"DISPLAY"
COLOR_REP	"RGB_XYZ"
TARGET_INSTRUMENT	"Hughski ColorHug"
INSTRUMENT_TYPE_SPECTRAL	"NO"
NORMALIZED_TO_Y_100	"NO"
NUMBER_OF_FIELDS	7
NUMBER_OF_SETS	15
BEGIN_DATA_FORMAT
 SAMPLE_ID	RGB_R	RGB_G	RGB_B	XYZ_X	XYZ_Y	XYZ_Z
END_DATA_FORMAT
BEGIN_DATA
 1	0	0	0	0.09155273438	0.09155273438	0.09155273438
 2	1	1	1	56.67114258	35.61401367	41.74804688
 3	1	0	0	36.34643555	3.479003906	5.401611328
 4	0	1	0	18.85986328	25.49743652	11.94763184
 5	0	0	1	0.9155273438	6.820678711	24.58190918
 6	0	0	0	0.09155273438	0.09155273438	0.09155273438
 7	1	1	1	56.30493164	35.79711914	42.20581055
 8	1	0	0	36.02600098	3.479003906	5.447387695
 9	0	1	0	18.85986328	25.54321289	11.9934082
 10	0	0	1	0.9155273438	6.820678711	24.58190918
 11	0	0	0	0.09155273438	0.09155273438	0.09155273438
 12	1	1	1	56.80847168	35.88867188	42.06848145
 13	1	0	0	35.84289551	3.433227539	5.447387695
 14	0	1	0	18.90563965	25.63476562	11.90185547
 15	0	0	1	0.9155273438	6.820678711	24.81079102
END_DATA
