data/calibration-002038.ti3
CTI3   
ORIGINATOR	"ColorHug Factory"
CREATED	"Sun May 26 11:29:27 2013"
DESCRIPTOR	"Calibration Target chart information 3"
DEVICE_CLASS	"DISPLAY"
COLOR_REP	"RGB_XYZ"
TARGET_INSTRUMENT	"Hughski ColorHug"
INSTRUMENT_TYPE_SPECTRAL	"NO"
NORMALIZED_TO_Y_100	"NO"
NUMBER_OF_FIELDS	7
NUMBER_OF_SETS	15
BEGIN_DATA_FORMAT
 SAMPLE_ID	RGB_R	RGB_G	RGB_B	XYZ_X	XYZ_Y	XYZ_Z
END_DATA_FORMAT
BEGIN_DATA
 1	0	0	0	0.0457763671875	0.0457763671875	0.1373291015625
 2	1	1	1	34.423828125	34.3780517578125	47.3785400390625
 3	1	0	0	20.8740234375	2.5634765625	3.570556640625
 4	0	1	0	12.26806640625	23.6663818359375	11.444091796875
 5	0	0	1	0.823974609375	8.23974609375	32.4554443359375
 6	0	0	0	0.0457763671875	0.0457763671875	0.1373291015625
 7	1	1	1	34.4696044921875	34.515380859375	47.2869873046875
 8	1	0	0	20.8740234375	2.5634765625	3.570556640625
 9	0	1	0	12.26806640625	23.7579345703125	11.444091796875
 10	0	0	1	0.823974609375	8.23974609375	32.684326171875
 11	0	0	0	0.0457763671875	0.0457763671875	0.1373291015625
 12	1	1	1	34.3780517578125	34.332275390625	47.332763671875
 13	1	0	0	20.9197998046875	2.5634765625	3.570556640625
 14	0	1	0	12.26806640625	23.7579345703125	11.444091796875
 15	0	0	1	0.823974609375	8.23974609375	32.5469970703125
END_DATA
