data/calibration-001623.ti3
CTI3   
ORIGINATOR	"ColorHug Factory"
DESCRIPTOR	"Calibration Target chart information 3"
DEVICE_CLASS	"DISPLAY"
COLOR_REP	"RGB_XYZ"
TARGET_INSTRUMENT	"Hughski ColorHug"
INSTRUMENT_TYPE_SPECTRAL	"NO"
NORMALIZED_TO_Y_100	"NO"
NUMBER_OF_FIELDS	7
NUMBER_OF_SETS	15
BEGIN_DATA_FORMAT
 SAMPLE_ID	RGB_R	RGB_G	RGB_B	XYZ_X	XYZ_Y	XYZ_Z
END_DATA_FORMAT
BEGIN_DATA
 1	0	0	0	0.1373291016	0.1831054688	0.1831054688
 2	1	1	1	33.64562988	31.49414062	38.31481934
 3	1	0	0	20.32470703	2.517700195	3.295898438
 4	0	1	0	11.94763184	22.93395996	10.39123535
 5	0	0	1	0.8239746094	6.500244141	24.81079102
 6	0	0	0	0.1373291016	0.1831054688	0.1831054688
 7	1	1	1	33.69140625	31.86035156	38.3605957
 8	1	0	0	20.27893066	2.517700195	3.295898438
 9	0	1	0	11.94763184	22.97973633	10.39123535
 10	0	0	1	0.8239746094	6.500244141	24.90234375
 11	0	0	0	0.1373291016	0.1831054688	0.1831054688
 12	1	1	1	33.82873535	31.8145752	38.40637207
 13	1	0	0	20.5078125	2.471923828	3.295898438
 14	0	1	0	11.94763184	22.97973633	10.39123535
 15	0	0	1	0.8239746094	6.500244141	24.90234375
END_DATA
