data/calibration-002431.ti3
CTI3   
ORIGINATOR	"ColorHug Factory"
CREATED	"Wed Jun 11 19:36:28 2014"
DESCRIPTOR	"Calibration Target chart information 3"
DEVICE_CLASS	"DISPLAY"
COLOR_REP	"RGB_XYZ"
TARGET_INSTRUMENT	"Hughski ColorHug"
INSTRUMENT_TYPE_SPECTRAL	"NO"
NORMALIZED_TO_Y_100	"NO"
NUMBER_OF_FIELDS	7
NUMBER_OF_SETS	15
BEGIN_DATA_FORMAT
 SAMPLE_ID	RGB_R	RGB_G	RGB_B	XYZ_X	XYZ_Y	XYZ_Z
END_DATA_FORMAT
BEGIN_DATA
 1.0	0.0	0.0	0.0	0.27653503418	0.257385253906	0.361129760742
 2.0	1.0	1.0	1.0	68.84033203125	34.276138305664	57.690139770508
 3.0	1.0	0.0	0.0	44.281066894531	3.76643371582	6.79833984375
 4.0	0.0	1.0	0.0	21.005126953125	21.277908325195	11.889694213867
 5.0	0.0	0.0	1.0	1.313446044922	9.319671630859	38.280364990234
 6.0	0.0	0.0	0.0	0.278366088867	0.258438110352	0.364242553711
 7.0	1.0	1.0	1.0	68.84033203125	34.133331298828	57.690139770508
 8.0	1.0	0.0	0.0	43.574462890625	3.759521484375	6.787063598633
 9.0	0.0	1.0	0.0	21.005126953125	21.113388061523	11.924301147461
 10.0	0.0	0.0	1.0	1.313446044922	9.266967773438	38.280364990234
 11.0	0.0	0.0	0.0	0.280181884766	0.259490966797	0.364242553711
 12.0	1.0	1.0	1.0	68.84033203125	34.133331298828	57.690139770508
 13.0	1.0	0.0	0.0	43.574462890625	3.771636962891	6.82666015625
 14.0	0.0	1.0	0.0	21.167953491211	21.113388061523	11.924301147461
 15.0	0.0	0.0	1.0	1.317245483398	9.287979125977	38.102325439453
END_DATA
