data/calibration-002268.ti3
CTI3   
ORIGINATOR	"ColorHug Factory"
CREATED	"Tue Jan 21 19:31:22 2014"
DESCRIPTOR	"Calibration Target chart information 3"
DEVICE_CLASS	"DISPLAY"
COLOR_REP	"RGB_XYZ"
TARGET_INSTRUMENT	"Hughski ColorHug"
INSTRUMENT_TYPE_SPECTRAL	"NO"
NORMALIZED_TO_Y_100	"NO"
NUMBER_OF_FIELDS	7
NUMBER_OF_SETS	15
BEGIN_DATA_FORMAT
 SAMPLE_ID	RGB_R	RGB_G	RGB_B	XYZ_X	XYZ_Y	XYZ_Z
END_DATA_FORMAT
BEGIN_DATA
 1.0	0.0	0.0	0.0	0.182693481445	0.159957885742	0.267211914062
 2.0	1.0	1.0	1.0	75.851837158203	33.165985107422	52.512817382812
 3.0	1.0	0.0	0.0	47.627899169922	3.583541870117	5.953475952148
 4.0	0.0	1.0	0.0	23.206787109375	21.557891845703	10.850326538086
 5.0	0.0	0.0	1.0	1.28742980957	8.15934753418	35.463195800781
 6.0	0.0	0.0	0.0	0.18310546875	0.163055419922	0.270034790039
 7.0	1.0	1.0	1.0	75.851837158203	33.573760986328	53.194793701172
 8.0	1.0	0.0	0.0	47.627899169922	3.586685180664	5.944839477539
 9.0	0.0	1.0	0.0	23.472778320312	21.557891845703	10.850326538086
 10.0	0.0	0.0	1.0	1.295379638672	8.143127441406	35.463195800781
 11.0	0.0	0.0	0.0	0.182266235352	0.162353515625	0.269424438477
 12.0	1.0	1.0	1.0	75.155960083008	33.300811767578	53.194793701172
 13.0	1.0	0.0	0.0	47.90641784668	3.577285766602	5.975189208984
 14.0	0.0	1.0	0.0	23.405700683594	21.557891845703	10.864715576172
 15.0	0.0	0.0	1.0	1.298461914062	8.126983642578	35.617385864258
END_DATA
