data/calibration-000515.ti3
CTI3
ORIGINATOR	"ColorHug Factory"
DESCRIPTOR	"Calibration Target chart information 3"
DEVICE_CLASS	"DISPLAY"
COLOR_REP	"RGB_XYZ"
TARGET_INSTRUMENT	"Hughski ColorHug"
INSTRUMENT_TYPE_SPECTRAL	"NO"
NORMALIZED_TO_Y_100	"NO"
NUMBER_OF_FIELDS	7
NUMBER_OF_SETS	15
BEGIN_DATA_FORMAT
 SAMPLE_ID	RGB_R	RGB_G	RGB_B	XYZ_X	XYZ_Y	XYZ_Z
END_DATA_FORMAT
BEGIN_DATA
 1	0	0	0	0.04577636719	0.04577636719	0.04577636719
 2	1	1	1	56.39648438	36.66687012	43.85375977
 3	1	0	0	35.5682373	3.479003906	5.218505859
 4	0	1	0	18.63098145	26.2298584	12.22229004
 5	0	0	1	0.8239746094	7.049560547	26.2298584
 6	0	0	0	0.04577636719	0.04577636719	0.04577636719
 7	1	1	1	56.44226074	36.66687012	43.8079834
 8	1	0	0	35.61401367	3.479003906	5.218505859
 9	0	1	0	18.67675781	26.2298584	12.26806641
 10	0	0	1	0.8239746094	7.049560547	26.2298584
 11	0	0	0	0.04577636719	0.04577636719	0.04577636719
 12	1	1	1	56.48803711	36.80419922	43.57910156
 13	1	0	0	35.75134277	3.479003906	5.218505859
 14	0	1	0	18.63098145	26.0925293	12.17651367
 15	0	0	1	0.8239746094	7.095336914	26.2298584
END_DATA
