data/calibration-002412.ti3
CTI3   
ORIGINATOR	"ColorHug Factory"
CREATED	"Wed Jun 11 19:22:54 2014"
DESCRIPTOR	"Calibration Target chart information 3"
DEVICE_CLASS	"DISPLAY"
COLOR_REP	"RGB_XYZ"
TARGET_INSTRUMENT	"Hughski ColorHug"
INSTRUMENT_TYPE_SPECTRAL	"NO"
NORMALIZED_TO_Y_100	"NO"
NUMBER_OF_FIELDS	7
NUMBER_OF_SETS	15
BEGIN_DATA_FORMAT
 SAMPLE_ID	RGB_R	RGB_G	RGB_B	XYZ_X	XYZ_Y	XYZ_Z
END_DATA_FORMAT
BEGIN_DATA
 1.0	0.0	0.0	0.0	0.312057495117	0.292541503906	0.396240234375
 2.0	1.0	1.0	1.0	73.801788330078	34.133331298828	58.09928894043
 3.0	1.0	0.0	0.0	46.545440673828	3.727020263672	6.725769042969
 4.0	0.0	1.0	0.0	22.567489624023	21.005126953125	11.719589233398
 5.0	0.0	0.0	1.0	1.394607543945	9.277450561523	38.824630737305
 6.0	0.0	0.0	0.0	0.312057495117	0.293228149414	0.397720336914
 7.0	1.0	1.0	1.0	73.801788330078	34.133331298828	58.09928894043
 8.0	1.0	0.0	0.0	46.545440673828	3.730407714844	6.681884765625
 9.0	0.0	1.0	0.0	22.260864257812	20.89794921875	11.603393554688
 10.0	0.0	0.0	1.0	1.387054443359	9.21484375	38.824630737305
 11.0	0.0	0.0	0.0	0.312057495117	0.295974731445	0.405120849609
 12.0	1.0	1.0	1.0	73.142852783203	33.573760986328	57.690139770508
 13.0	1.0	0.0	0.0	46.282470703125	3.686767578125	6.627822875977
 14.0	0.0	1.0	0.0	22.200531005859	20.89794921875	11.619857788086
 15.0	0.0	0.0	1.0	1.379577636719	9.21484375	39.009521484375
END_DATA
