data/calibration-002223.ti3
CTI3   
ORIGINATOR	"ColorHug Factory"
CREATED	"Wed Nov 20 21:12:58 2013"
DESCRIPTOR	"Calibration Target chart information 3"
DEVICE_CLASS	"DISPLAY"
COLOR_REP	"RGB_XYZ"
TARGET_INSTRUMENT	"Hughski ColorHug"
INSTRUMENT_TYPE_SPECTRAL	"NO"
NORMALIZED_TO_Y_100	"NO"
NUMBER_OF_FIELDS	7
NUMBER_OF_SETS	15
BEGIN_DATA_FORMAT
 SAMPLE_ID	RGB_R	RGB_G	RGB_B	XYZ_X	XYZ_Y	XYZ_Z
END_DATA_FORMAT
BEGIN_DATA
 1	0	0	0	0	0	0
 2	1	1	1	80.9326171875	38.2232666015625	57.7239990234375
 3	1	0	0	52.1392822265625	3.9825439453125	6.9122314453125
 4	0	1	0	25.7720947265625	25.177001953125	12.7716064453125
 5	0	0	1	1.28173828125	8.9263916015625	37.261962890625
 6	0	0	0	0.091552734375	0	0
 7	1	1	1	81.48193359375	38.26904296875	57.586669921875
 8	1	0	0	52.55126953125	3.9825439453125	6.9122314453125
 9	0	1	0	25.909423828125	24.8565673828125	12.6800537109375
 10	0	0	1	1.28173828125	8.9263916015625	37.628173828125
 11	0	0	0	0.091552734375	0	0
 12	1	1	1	81.4361572265625	38.360595703125	57.769775390625
 13	1	0	0	52.55126953125	3.9825439453125	6.9122314453125
 14	0	1	0	25.81787109375	25.177001953125	12.7716064453125
 15	0	0	1	1.28173828125	8.9263916015625	37.5823974609375
END_DATA
