data/calibration-002328.ti3
CTI3   
ORIGINATOR	"ColorHug Factory"
CREATED	"Tue Jan 21 20:30:55 2014"
DESCRIPTOR	"Calibration Target chart information 3"
DEVICE_CLASS	"DISPLAY"
COLOR_REP	"RGB_XYZ"
TARGET_INSTRUMENT	"Hughski ColorHug"
INSTRUMENT_TYPE_SPECTRAL	"NO"
NORMALIZED_TO_Y_100	"NO"
NUMBER_OF_FIELDS	7
NUMBER_OF_SETS	15
BEGIN_DATA_FORMAT
 SAMPLE_ID	RGB_R	RGB_G	RGB_B	XYZ_X	XYZ_Y	XYZ_Z
END_DATA_FORMAT
BEGIN_DATA
 1.0	0.0	0.0	0.0	0.074096679688	0.0	0.140396118164
 2.0	1.0	1.0	1.0	80.313720703125	35.617385864258	55.727890014648
 3.0	1.0	0.0	0.0	51.199996948242	3.891677856445	6.87825012207
 4.0	0.0	1.0	0.0	24.975601196289	22.567489624023	11.994140625
 5.0	0.0	0.0	1.0	1.378890991211	8.480316162109	36.088104248047
 6.0	0.0	0.0	0.0	0.072296142578	0.0	0.136856079102
 7.0	1.0	1.0	1.0	81.108901977539	35.310333251953	55.727890014648
 8.0	1.0	0.0	0.0	51.199996948242	3.864135742188	6.895614624023
 9.0	0.0	1.0	0.0	25.206146240234	22.818939208984	11.924301147461
 10.0	0.0	0.0	1.0	1.373107910156	8.445358276367	36.247787475586
 11.0	0.0	0.0	0.0	0.07177734375	0.0	0.137100219727
 12.0	1.0	1.0	1.0	81.108901977539	35.310333251953	56.109588623047
 13.0	1.0	0.0	0.0	50.881973266602	3.878784179688	6.87825012207
 14.0	0.0	1.0	0.0	24.975601196289	22.629821777344	11.976593017578
 15.0	0.0	0.0	1.0	1.378890991211	8.524444580078	35.929809570312
END_DATA
