data/calibration-002650.ti3
CTI3   
ORIGINATOR	"ColorHug Factory"
CREATED	"Tue Jan 27 20:17:33 2015"
DESCRIPTOR	"Calibration Target chart information 3"
DEVICE_CLASS	"DISPLAY"
COLOR_REP	"RGB_XYZ"
TARGET_INSTRUMENT	"Hughski ColorHug"
INSTRUMENT_TYPE_SPECTRAL	"NO"
NORMALIZED_TO_Y_100	"NO"
NUMBER_OF_FIELDS	7
NUMBER_OF_SETS	15
BEGIN_DATA_FORMAT
 SAMPLE_ID	RGB_R	RGB_G	RGB_B	XYZ_X	XYZ_Y	XYZ_Z
END_DATA_FORMAT
BEGIN_DATA
 1.0	0.0	0.0	0.0	0.427398681641	0.459594726562	0.481735229492
 2.0	1.0	1.0	1.0	51.522003173828	52.512817382812	53.894729614258
 3.0	1.0	0.0	0.0	35.772918701172	3.897232055664	5.696792602539
 4.0	0.0	1.0	0.0	13.861251831055	38.102325439453	14.787002563477
 5.0	0.0	0.0	1.0	2.012268066406	10.951858520508	33.711929321289
 6.0	0.0	0.0	0.0	0.427169799805	0.456527709961	0.480209350586
 7.0	1.0	1.0	1.0	51.199996948242	52.178329467773	53.894729614258
 8.0	1.0	0.0	0.0	35.463195800781	3.89909362793	5.704727172852
 9.0	0.0	1.0	0.0	13.979507446289	38.824630737305	14.813735961914
 10.0	0.0	0.0	1.0	2.013259887695	10.764770507812	33.711929321289
 11.0	0.0	0.0	0.0	0.428451538086	0.457977294922	0.482360839844
 12.0	1.0	1.0	1.0	51.522003173828	52.178329467773	54.613327026367
 13.0	1.0	0.0	0.0	35.617385864258	3.89909362793	5.704727172852
 14.0	0.0	1.0	0.0	13.955703735352	38.280364990234	14.86750793457
 15.0	0.0	0.0	1.0	2.029220581055	10.937240600586	33.711929321289
END_DATA
