data/calibration-001851.ti3
CTI3   
ORIGINATOR	"ColorHug Factory"
CREATED	"Wed Apr 10 09:25:00 2013"
DESCRIPTOR	"Calibration Target chart information 3"
DEVICE_CLASS	"DISPLAY"
COLOR_REP	"RGB_XYZ"
TARGET_INSTRUMENT	"Hughski ColorHug"
INSTRUMENT_TYPE_SPECTRAL	"NO"
NORMALIZED_TO_Y_100	"NO"
NUMBER_OF_FIELDS	7
NUMBER_OF_SETS	15
BEGIN_DATA_FORMAT
 SAMPLE_ID	RGB_R	RGB_G	RGB_B	XYZ_X	XYZ_Y	XYZ_Z
END_DATA_FORMAT
BEGIN_DATA
 1	0	0	0	0.1831054688	0.1831054688	0.2288818359
 2	1	1	1	45.36437988	40.46630859	55.11474609
 3	1	0	0	27.74047852	3.158569336	4.348754883
 4	0	1	0	15.97595215	28.42712402	13.45825195
 5	0	0	1	1.14440918	9.338378906	37.62817383
 6	0	0	0	0.1831054688	0.1831054688	0.2288818359
 7	1	1	1	45.22705078	40.37475586	55.06896973
 8	1	0	0	27.64892578	3.112792969	4.348754883
 9	0	1	0	15.97595215	28.33557129	13.36669922
 10	0	0	1	1.14440918	9.338378906	37.44506836
 11	0	0	0	0.1831054688	0.1831054688	0.2288818359
 12	1	1	1	45.27282715	40.55786133	55.16052246
 13	1	0	0	27.60314941	3.112792969	4.348754883
 14	0	1	0	15.88439941	28.28979492	13.32092285
 15	0	0	1	1.14440918	9.338378906	37.44506836
END_DATA
