data/calibration-002837.ti3
CTI3   
ORIGINATOR	"ColorHug Factory"
CREATED	"Tue May 05 21:44:32 2015"
DESCRIPTOR	"Calibration Target chart information 3"
DEVICE_CLASS	"DISPLAY"
COLOR_REP	"RGB_XYZ"
TARGET_INSTRUMENT	"Hughski ColorHug"
INSTRUMENT_TYPE_SPECTRAL	"NO"
NORMALIZED_TO_Y_100	"NO"
NUMBER_OF_FIELDS	7
NUMBER_OF_SETS	15
BEGIN_DATA_FORMAT
 SAMPLE_ID	RGB_R	RGB_G	RGB_B	XYZ_X	XYZ_Y	XYZ_Z
END_DATA_FORMAT
BEGIN_DATA
 1.0	0.0	0.0	0.0	0.62419128418	0.657928466797	0.756408691406
 2.0	1.0	1.0	1.0	110.702697753906	107.789459228516	117.028564453125
 3.0	1.0	0.0	0.0	78.01904296875	7.876922607422	12.154296875
 4.0	0.0	1.0	0.0	27.582489013672	76.560745239258	29.789077758789
 5.0	0.0	0.0	1.0	3.961303710938	22.443832397461	73.142852783203
 6.0	0.0	0.0	0.0	0.627731323242	0.662399291992	0.761474609375
 7.0	1.0	1.0	1.0	110.702697753906	107.789459228516	117.028564453125
 8.0	1.0	0.0	0.0	78.01904296875	7.884490966797	12.154296875
 9.0	0.0	1.0	0.0	27.582489013672	76.560745239258	29.789077758789
 10.0	0.0	0.0	1.0	3.959396362305	22.443832397461	73.142852783203
 11.0	0.0	0.0	0.0	0.628936767578	0.664123535156	0.761337280273
 12.0	1.0	1.0	1.0	110.702697753906	107.789459228516	117.028564453125
 13.0	1.0	0.0	0.0	78.01904296875	7.89208984375	12.172348022461
 14.0	0.0	1.0	0.0	27.582489013672	76.560745239258	29.789077758789
 15.0	0.0	0.0	1.0	3.957473754883	22.443832397461	73.142852783203
END_DATA
