data/calibration-001832.ti3
CTI3   
ORIGINATOR	"ColorHug Factory"
CREATED	"Wed Apr 10 08:54:26 2013"
DESCRIPTOR	"Calibration Target chart information 3"
DEVICE_CLASS	"DISPLAY"
COLOR_REP	"RGB_XYZ"
TARGET_INSTRUMENT	"Hughski ColorHug"
INSTRUMENT_TYPE_SPECTRAL	"NO"
NORMALIZED_TO_Y_100	"NO"
NUMBER_OF_FIELDS	7
NUMBER_OF_SETS	15
BEGIN_DATA_FORMAT
 SAMPLE_ID	RGB_R	RGB_G	RGB_B	XYZ_X	XYZ_Y	XYZ_Z
END_DATA_FORMAT
BEGIN_DATA
 1	0	0	0	0	0.04577636719	0.09155273438
 2	1	1	1	40.10009766	38.86413574	49.57580566
 3	1	0	0	24.07836914	2.9296875	3.936767578
 4	0	1	0	14.09912109	27.00805664	12.63427734
 5	0	0	1	0.8697509766	8.697509766	33.55407715
 6	0	0	0	0	0.04577636719	0.09155273438
 7	1	1	1	39.77966309	38.63525391	50.0793457
 8	1	0	0	24.26147461	2.975463867	3.890991211
 9	0	1	0	14.09912109	26.87072754	12.63427734
 10	0	0	1	0.8697509766	8.697509766	33.32519531
 11	0	0	0	0	0.04577636719	0.09155273438
 12	1	1	1	39.82543945	38.86413574	50.0793457
 13	1	0	0	24.07836914	2.975463867	3.890991211
 14	0	1	0	14.14489746	27.09960938	12.68005371
 15	0	0	1	0.8697509766	8.743286133	33.55407715
END_DATA
