data/calibration-002241.ti3
CTI3   
ORIGINATOR	"ColorHug Factory"
CREATED	"Wed Nov 20 21:25:20 2013"
DESCRIPTOR	"Calibration Target chart information 3"
DEVICE_CLASS	"DISPLAY"
COLOR_REP	"RGB_XYZ"
TARGET_INSTRUMENT	"Hughski ColorHug"
INSTRUMENT_TYPE_SPECTRAL	"NO"
NORMALIZED_TO_Y_100	"NO"
NUMBER_OF_FIELDS	7
NUMBER_OF_SETS	15
BEGIN_DATA_FORMAT
 SAMPLE_ID	RGB_R	RGB_G	RGB_B	XYZ_X	XYZ_Y	XYZ_Z
END_DATA_FORMAT
BEGIN_DATA
 1	0	0	0	0.091552734375	0.0457763671875	0.091552734375
 2	1	1	1	73.9288330078125	34.4696044921875	53.558349609375
 3	1	0	0	47.2412109375	3.7078857421875	6.4544677734375
 4	0	1	0	23.25439453125	22.2015380859375	11.627197265625
 5	0	0	1	1.28173828125	8.331298828125	35.15625
 6	0	0	0	0.091552734375	0.0457763671875	0.091552734375
 7	1	1	1	73.1048583984375	34.0118408203125	53.3294677734375
 8	1	0	0	47.1954345703125	3.753662109375	6.4544677734375
 9	0	1	0	23.345947265625	22.2015380859375	11.6729736328125
 10	0	0	1	1.28173828125	8.2855224609375	35.247802734375
 11	0	0	0	0.091552734375	0.0457763671875	0.091552734375
 12	1	1	1	73.79150390625	34.3780517578125	53.558349609375
 13	1	0	0	47.1954345703125	3.7078857421875	6.4544677734375
 14	0	1	0	23.345947265625	22.2015380859375	11.6729736328125
 15	0	0	1	1.28173828125	8.2855224609375	35.2020263671875
END_DATA
