data/calibration-002195.ti3
CTI3   
ORIGINATOR	"ColorHug Factory"
CREATED	"Wed Nov 20 20:51:59 2013"
DESCRIPTOR	"Calibration Target chart information 3"
DEVICE_CLASS	"DISPLAY"
COLOR_REP	"RGB_XYZ"
TARGET_INSTRUMENT	"Hughski ColorHug"
INSTRUMENT_TYPE_SPECTRAL	"NO"
NORMALIZED_TO_Y_100	"NO"
NUMBER_OF_FIELDS	7
NUMBER_OF_SETS	15
BEGIN_DATA_FORMAT
 SAMPLE_ID	RGB_R	RGB_G	RGB_B	XYZ_X	XYZ_Y	XYZ_Z
END_DATA_FORMAT
BEGIN_DATA
 1	0	0	0	0.091552734375	0.0457763671875	0.1373291015625
 2	1	1	1	66.83349609375	33.416748046875	49.7589111328125
 3	1	0	0	42.48046875	3.47900390625	5.5389404296875
 4	0	1	0	21.697998046875	22.0184326171875	10.894775390625
 5	0	0	1	1.2359619140625	7.8277587890625	33.416748046875
 6	0	0	0	0.091552734375	0.0457763671875	0.1373291015625
 7	1	1	1	66.7877197265625	33.3709716796875	49.8046875
 8	1	0	0	42.755126953125	3.47900390625	5.5389404296875
 9	0	1	0	21.5606689453125	21.97265625	10.8489990234375
 10	0	0	1	1.2359619140625	7.87353515625	33.050537109375
 11	0	0	0	0.091552734375	0.0457763671875	0.1373291015625
 12	1	1	1	66.46728515625	33.3251953125	49.896240234375
 13	1	0	0	42.29736328125	3.47900390625	5.5389404296875
 14	0	1	0	21.6064453125	22.064208984375	10.8489990234375
 15	0	0	1	1.2359619140625	7.8277587890625	33.3709716796875
END_DATA
