data/calibration-002365.ti3
CTI3   
ORIGINATOR	"ColorHug Factory"
CREATED	"Wed May 14 20:01:17 2014"
DESCRIPTOR	"Calibration Target chart information 3"
DEVICE_CLASS	"DISPLAY"
COLOR_REP	"RGB_XYZ"
TARGET_INSTRUMENT	"Hughski ColorHug"
INSTRUMENT_TYPE_SPECTRAL	"NO"
NORMALIZED_TO_Y_100	"NO"
NUMBER_OF_FIELDS	7
NUMBER_OF_SETS	15
BEGIN_DATA_FORMAT
 SAMPLE_ID	RGB_R	RGB_G	RGB_B	XYZ_X	XYZ_Y	XYZ_Z
END_DATA_FORMAT
BEGIN_DATA
 1.0	0.0	0.0	0.0	0.320861816406	0.29460144043	0.384155273438
 2.0	1.0	1.0	1.0	75.155960083008	33.99169921875	57.690139770508
 3.0	1.0	0.0	0.0	47.352600097656	3.742340087891	7.013687133789
 4.0	0.0	1.0	0.0	22.692520141602	21.389022827148	11.959121704102
 5.0	0.0	0.0	1.0	1.382614135742	8.837097167969	38.102325439453
 6.0	0.0	0.0	0.0	0.323379516602	0.297317504883	0.386535644531
 7.0	1.0	1.0	1.0	75.851837158203	33.99169921875	58.09928894043
 8.0	1.0	0.0	0.0	47.627899169922	3.732116699219	6.995727539062
 9.0	0.0	1.0	0.0	22.692520141602	21.557891845703	12.029357910156
 10.0	0.0	0.0	1.0	1.388000488281	8.885025024414	38.102325439453
 11.0	0.0	0.0	0.0	0.325439453125	0.298065185547	0.388900756836
 12.0	1.0	1.0	1.0	75.155960083008	34.133331298828	57.690139770508
 13.0	1.0	0.0	0.0	47.352600097656	3.73551940918	7.025726318359
 14.0	0.0	1.0	0.0	22.567489624023	21.389022827148	12.01171875
 15.0	0.0	0.0	1.0	1.388473510742	8.875396728516	38.280364990234
END_DATA
