data/calibration-000630.ti3
CTI3
ORIGINATOR	"ColorHug Factory"
DESCRIPTOR	"Calibration Target chart information 3"
DEVICE_CLASS	"DISPLAY"
COLOR_REP	"RGB_XYZ"
TARGET_INSTRUMENT	"Hughski ColorHug"
INSTRUMENT_TYPE_SPECTRAL	"NO"
NORMALIZED_TO_Y_100	"NO"
NUMBER_OF_FIELDS	7
NUMBER_OF_SETS	15
BEGIN_DATA_FORMAT
 SAMPLE_ID	RGB_R	RGB_G	RGB_B	XYZ_X	XYZ_Y	XYZ_Z
END_DATA_FORMAT
BEGIN_DATA
 1	0	0	0	0.04577636719	0	0.04577636719
 2	1	1	1	59.78393555	39.18457031	46.05102539
 3	1	0	0	37.26196289	3.524780273	5.493164062
 4	0	1	0	19.22607422	28.06091309	12.81738281
 5	0	0	1	0.9155273438	7.32421875	27.32849121
 6	0	0	0	0.04577636719	0.04577636719	0.04577636719
 7	1	1	1	59.32617188	39.04724121	46.00524902
 8	1	0	0	37.07885742	3.524780273	5.447387695
 9	0	1	0	19.27185059	28.01513672	12.72583008
 10	0	0	1	0.9155273438	7.32421875	27.32849121
 11	0	0	0	0.04577636719	0.04577636719	0.04577636719
 12	1	1	1	59.14306641	38.77258301	45.86791992
 13	1	0	0	36.98730469	3.524780273	5.447387695
 14	0	1	0	19.04296875	27.92358398	12.77160645
 15	0	0	1	0.9155273438	7.32421875	27.09960938
END_DATA
