data/calibration-002369.ti3
CTI3   
ORIGINATOR	"ColorHug Factory"
CREATED	"Wed May 14 20:01:18 2014"
DESCRIPTOR	"Calibration Target chart information 3"
DEVICE_CLASS	"DISPLAY"
COLOR_REP	"RGB_XYZ"
TARGET_INSTRUMENT	"Hughski ColorHug"
INSTRUMENT_TYPE_SPECTRAL	"NO"
NORMALIZED_TO_Y_100	"NO"
NUMBER_OF_FIELDS	7
NUMBER_OF_SETS	15
BEGIN_DATA_FORMAT
 SAMPLE_ID	RGB_R	RGB_G	RGB_B	XYZ_X	XYZ_Y	XYZ_Z
END_DATA_FORMAT
BEGIN_DATA
 1.0	0.0	0.0	0.0	0.243606567383	0.202560424805	0.267776489258
 2.0	1.0	1.0	1.0	80.313720703125	36.088104248047	58.514282226562
 3.0	1.0	0.0	0.0	51.199996948242	3.99609375	7.347076416016
 4.0	0.0	1.0	0.0	24.453720092773	22.567489624023	12.430953979492
 5.0	0.0	0.0	1.0	1.354263305664	9.340927124023	38.102325439453
 6.0	0.0	0.0	0.0	0.245986938477	0.203414916992	0.269317626953
 7.0	1.0	1.0	1.0	81.108901977539	35.929809570312	58.935241699219
 8.0	1.0	0.0	0.0	51.848098754883	4.015686035156	7.31428527832
 9.0	0.0	1.0	0.0	24.526931762695	22.755554199219	12.506866455078
 10.0	0.0	0.0	1.0	1.361236572266	9.298522949219	38.280364990234
 11.0	0.0	0.0	0.0	0.245941162109	0.203811645508	0.270034790039
 12.0	1.0	1.0	1.0	80.313720703125	36.088104248047	58.935241699219
 13.0	1.0	0.0	0.0	51.199996948242	4.013717651367	7.34049987793
 14.0	0.0	1.0	0.0	24.453720092773	22.629821777344	12.430953979492
 15.0	0.0	0.0	1.0	1.355163574219	9.287979125977	38.102325439453
END_DATA
