data/calibration-001666.ti3
CTI3   
ORIGINATOR	"ColorHug Factory"
CREATED	"Thu Feb 14 22:57:33 2013"
DESCRIPTOR	"Calibration Target chart information 3"
DEVICE_CLASS	"DISPLAY"
COLOR_REP	"RGB_XYZ"
TARGET_INSTRUMENT	"Hughski ColorHug"
INSTRUMENT_TYPE_SPECTRAL	"NO"
NORMALIZED_TO_Y_100	"NO"
NUMBER_OF_FIELDS	7
NUMBER_OF_SETS	15
BEGIN_DATA_FORMAT
 SAMPLE_ID	RGB_R	RGB_G	RGB_B	XYZ_X	XYZ_Y	XYZ_Z
END_DATA_FORMAT
BEGIN_DATA
 1	0	0	0	0.04577636719	0.09155273438	0.1373291016
 2	1	1	1	29.98352051	34.01184082	45.31860352
 3	1	0	0	17.25769043	2.380371094	3.112792969
 4	0	1	0	10.48278809	22.97973633	11.07788086
 5	0	0	1	0.8239746094	8.148193359	30.67016602
 6	0	0	0	0.04577636719	0.09155273438	0.1373291016
 7	1	1	1	30.07507324	33.92028809	45.31860352
 8	1	0	0	17.39501953	2.380371094	3.112792969
 9	0	1	0	10.48278809	23.20861816	11.07788086
 10	0	0	1	0.8239746094	8.148193359	30.67016602
 11	0	0	0	0.04577636719	0.09155273438	0.1831054688
 12	1	1	1	29.93774414	34.01184082	45.31860352
 13	1	0	0	17.34924316	2.380371094	3.112792969
 14	0	1	0	10.52856445	23.20861816	11.07788086
 15	0	0	1	0.8239746094	8.148193359	30.85327148
END_DATA
