data/calibration-000480.ti3
CTI3
ORIGINATOR	"ColorHug Factory"
DESCRIPTOR	"Calibration Target chart information 3"
DEVICE_CLASS	"DISPLAY"
COLOR_REP	"RGB_XYZ"
TARGET_INSTRUMENT	"Hughski ColorHug"
INSTRUMENT_TYPE_SPECTRAL	"NO"
NORMALIZED_TO_Y_100	"NO"
NUMBER_OF_FIELDS	7
NUMBER_OF_SETS	15
BEGIN_DATA_FORMAT
 SAMPLE_ID	RGB_R	RGB_G	RGB_B	XYZ_X	XYZ_Y	XYZ_Z
END_DATA_FORMAT
BEGIN_DATA
 1	0	0	0	0.09155273438	0.04577636719	0.09155273438
 2	1	1	1	55.06896973	39.04724121	43.62487793
 3	1	0	0	34.97314453	3.662109375	5.218505859
 4	0	1	0	18.63098145	28.10668945	12.63427734
 5	0	0	1	0.9155273438	7.32421875	25.45166016
 6	0	0	0	0.09155273438	0.04577636719	0.09155273438
 7	1	1	1	55.75561523	39.04724121	43.39599609
 8	1	0	0	34.92736816	3.662109375	5.218505859
 9	0	1	0	18.63098145	28.06091309	12.63427734
 10	0	0	1	0.9155273438	7.32421875	25.49743652
 11	0	0	0	0.09155273438	0.04577636719	0.09155273438
 12	1	1	1	55.2520752	38.86413574	43.44177246
 13	1	0	0	34.92736816	3.662109375	5.218505859
 14	0	1	0	18.67675781	28.10668945	12.58850098
 15	0	0	1	0.9155273438	7.32421875	25.58898926
END_DATA
