data/calibration-002503.ti3
CTI3   
ORIGINATOR	"ColorHug Factory"
CREATED	"Wed Oct 22 09:32:20 2014"
DESCRIPTOR	"Calibration Target chart information 3"
DEVICE_CLASS	"DISPLAY"
COLOR_REP	"RGB_XYZ"
TARGET_INSTRUMENT	"Hughski ColorHug"
INSTRUMENT_TYPE_SPECTRAL	"NO"
NORMALIZED_TO_Y_100	"NO"
NUMBER_OF_FIELDS	7
NUMBER_OF_SETS	15
BEGIN_DATA_FORMAT
 SAMPLE_ID	RGB_R	RGB_G	RGB_B	XYZ_X	XYZ_Y	XYZ_Z
END_DATA_FORMAT
BEGIN_DATA
 1.0	0.0	0.0	0.0	0.217407226562	0.230819702148	0.275924682617
 2.0	1.0	1.0	1.0	102.399993896484	93.090896606445	90.02197265625
 3.0	1.0	0.0	0.0	71.859634399414	6.643951416016	9.581283569336
 4.0	0.0	1.0	0.0	24.824234008789	67.147537231445	23.206787109375
 5.0	0.0	0.0	1.0	3.01953125	16.752548217773	54.251647949219
 6.0	0.0	0.0	0.0	0.216949462891	0.230285644531	0.274078369141
 7.0	1.0	1.0	1.0	102.399993896484	93.090896606445	90.02197265625
 8.0	1.0	0.0	0.0	71.859634399414	6.643951416016	9.592498779297
 9.0	0.0	1.0	0.0	24.749237060547	67.147537231445	23.206787109375
 10.0	0.0	0.0	1.0	3.021759033203	16.684310913086	54.251647949219
 11.0	0.0	0.0	0.0	0.216949462891	0.229766845703	0.273544311523
 12.0	1.0	1.0	1.0	103.696197509766	93.090896606445	90.02197265625
 13.0	1.0	0.0	0.0	71.859634399414	6.638565063477	9.592498779297
 14.0	0.0	1.0	0.0	24.749237060547	67.147537231445	23.141235351562
 15.0	0.0	0.0	1.0	3.022872924805	16.752548217773	54.613327026367
END_DATA
