data/calibration-001502.ti3
CTI3   
ORIGINATOR	"ColorHug Factory"
DESCRIPTOR	"Calibration Target chart information 3"
DEVICE_CLASS	"DISPLAY"
COLOR_REP	"RGB_XYZ"
TARGET_INSTRUMENT	"Hughski ColorHug"
INSTRUMENT_TYPE_SPECTRAL	"NO"
NORMALIZED_TO_Y_100	"NO"
NUMBER_OF_FIELDS	7
NUMBER_OF_SETS	15
BEGIN_DATA_FORMAT
 SAMPLE_ID	RGB_R	RGB_G	RGB_B	XYZ_X	XYZ_Y	XYZ_Z
END_DATA_FORMAT
BEGIN_DATA
 1	0	0	0	0.04577636719	0.04577636719	0.04577636719
 2	1	1	1	43.99108887	45.95947266	55.06896973
 3	1	0	0	26.04675293	3.341674805	4.165649414
 4	0	1	0	15.79284668	33.00476074	14.87731934
 5	0	0	1	0.9613037109	9.338378906	35.79711914
 6	0	0	0	0.04577636719	0	0.04577636719
 7	1	1	1	43.8079834	45.73059082	55.02319336
 8	1	0	0	26.13830566	3.341674805	4.165649414
 9	0	1	0	15.79284668	33.05053711	14.87731934
 10	0	0	1	0.9613037109	9.338378906	35.84289551
 11	0	0	0	0.04577636719	0	0.04577636719
 12	1	1	1	43.89953613	45.86791992	55.11474609
 13	1	0	0	26.0925293	3.341674805	4.165649414
 14	0	1	0	15.79284668	33.05053711	14.87731934
 15	0	0	1	0.9613037109	9.338378906	35.70556641
END_DATA
