data/calibration-002188.ti3
CTI3   
ORIGINATOR	"ColorHug Factory"
CREATED	"Wed Nov 20 20:51:58 2013"
DESCRIPTOR	"Calibration Target chart information 3"
DEVICE_CLASS	"DISPLAY"
COLOR_REP	"RGB_XYZ"
TARGET_INSTRUMENT	"Hughski ColorHug"
INSTRUMENT_TYPE_SPECTRAL	"NO"
NORMALIZED_TO_Y_100	"NO"
NUMBER_OF_FIELDS	7
NUMBER_OF_SETS	15
BEGIN_DATA_FORMAT
 SAMPLE_ID	RGB_R	RGB_G	RGB_B	XYZ_X	XYZ_Y	XYZ_Z
END_DATA_FORMAT
BEGIN_DATA
 1	0	0	0	0.18310546875	0.18310546875	0.274658203125
 2	1	1	1	72.418212890625	33.8287353515625	50.994873046875
 3	1	0	0	47.607421875	3.936767578125	6.500244140625
 4	0	1	0	23.6663818359375	22.3846435546875	11.53564453125
 5	0	0	1	1.373291015625	8.1024169921875	33.416748046875
 6	0	0	0	0.18310546875	0.18310546875	0.274658203125
 7	1	1	1	73.1048583984375	34.0576171875	50.9490966796875
 8	1	0	0	47.2412109375	3.936767578125	6.500244140625
 9	0	1	0	23.62060546875	22.247314453125	11.4898681640625
 10	0	0	1	1.373291015625	8.1024169921875	33.4625244140625
 11	0	0	0	0.2288818359375	0.18310546875	0.274658203125
 12	1	1	1	73.516845703125	34.0118408203125	50.7659912109375
 13	1	0	0	47.2412109375	3.936767578125	6.500244140625
 14	0	1	0	23.62060546875	22.3388671875	11.444091796875
 15	0	0	1	1.373291015625	8.1024169921875	33.2794189453125
END_DATA
