data/calibration-001138.ti3
CTI3   
ORIGINATOR	"ColorHug Factory"
DESCRIPTOR	"Calibration Target chart information 3"
DEVICE_CLASS	"DISPLAY"
COLOR_REP	"RGB_XYZ"
TARGET_INSTRUMENT	"Hughski ColorHug"
INSTRUMENT_TYPE_SPECTRAL	"NO"
NORMALIZED_TO_Y_100	"NO"
NUMBER_OF_FIELDS	7
NUMBER_OF_SETS	15
BEGIN_DATA_FORMAT
 SAMPLE_ID	RGB_R	RGB_G	RGB_B	XYZ_X	XYZ_Y	XYZ_Z
END_DATA_FORMAT
BEGIN_DATA
 1	0	0	0	0.1831054688	0.1831054688	0.2288818359
 2	1	1	1	34.56115723	35.93444824	43.30444336
 3	1	0	0	20.7824707	2.700805664	3.433227539
 4	0	1	0	12.49694824	25.81787109	11.71875
 5	0	0	1	0.9155273438	7.553100586	28.19824219
 6	0	0	0	0.1831054688	0.1831054688	0.2288818359
 7	1	1	1	34.42382812	35.61401367	42.98400879
 8	1	0	0	20.69091797	2.700805664	3.433227539
 9	0	1	0	12.49694824	25.81787109	11.71875
 10	0	0	1	0.9155273438	7.553100586	28.19824219
 11	0	0	0	0.1831054688	0.1831054688	0.2288818359
 12	1	1	1	34.56115723	35.75134277	43.21289062
 13	1	0	0	20.59936523	2.700805664	3.433227539
 14	0	1	0	12.49694824	25.86364746	11.71875
 15	0	0	1	0.9155273438	7.553100586	28.19824219
END_DATA
