data/calibration-000132.ti3
CTI3
DESCRIPTOR	"Calibration Target chart information 3"
ORIGINATOR	"ColorHug Factory"
DEVICE_CLASS	"DISPLAY"
COLOR_REP	"RGB_XYZ"
TARGET_INSTRUMENT	"ColorHug"
INSTRUMENT_TYPE_SPECTRAL	"NO"
LUMINANCE_XYZ_CDM2	"55.595398 41.965485 45.707703"
NORMALIZED_TO_Y_100	"YES"
NUMBER_OF_FIELDS	7
NUMBER_OF_SETS	836
BEGIN_DATA_FORMAT
 SAMPLE_ID	RGB_R	RGB_G	RGB_B	XYZ_X	XYZ_Y	XYZ_Z
END_DATA_FORMAT
BEGIN_DATA
 1	100	100	100	130.3921569	99.67320261	108.6056645
 2	100	100	100	132.8976035	99.78213508	108.6056645
 3	100	100	100	133.4422658	100	108.9324619
 4	100	100	100	132.4618736	100	108.9324619
 5	33.33	32.622	30.968	12.41830065	8.387799564	8.605664488
 6	100	0	100	82.67973856	26.68845316	76.14379085
 7	100	100	0	132.0261438	82.24400871	45.31590414
 8	0	100	100	47.16775599	91.17647059	95.75163399
 9	0	100	0	44.98910675	73.52941176	32.46187364
 10	0	0	100	2.614379085	18.19172113	63.28976035
 11	100	0	0	83.87799564	8.71459695	12.74509804
 12	0	0	0	0.4357298475	0.3267973856	0.4357298475
 13	0	52.455	100	12.09150327	35.18518519	70.91503268
 14	100	0	50.3	80.82788671	12.41830065	25.92592593
 15	100	54.739	100	97.05882353	45.09803922	84.64052288
 16	100	52.128	0	95.09803922	25.05446623	20.26143791
 17	0	0	46.181	1.089324619	3.267973856	10.78431373
 18	0	51.141	0	10.02178649	16.0130719	7.298474946
 19	0	100	51.348	45.20697168	76.79738562	45.64270153
 20	100	100	52.037	131.5904139	86.2745098	59.58605664
 21	49.216	0	0	25.59912854	1.960784314	2.832244009
 22	56.159	100	0	67.10239651	75.92592593	36.05664488
 23	49.226	100	100	63.18082789	92.37472767	98.14814815
 24	44.487	0	100	15.79520697	19.49891068	65.35947712
 25	100	44.498	52.029	90.41394336	24.61873638	32.02614379
 26	48.926	48.544	100	27.55991285	34.20479303	72.54901961
 27	51.368	100	47.25	63.83442266	78.8671024	46.62309368
 28	49.893	0	49.033	17.86492375	5.555555556	15.25054466
 29	53.109	51.372	0	29.62962963	18.08278867	10.23965142
 30	0	58.587	53.943	13.94335512	25.59912854	24.72766885
 31	100	28.065	100	86.49237473	31.26361656	78.32244009
 32	0	0	72.874	1.416122004	8.387799564	29.52069717
 33	0	26.758	100	4.248366013	22.22222222	65.35947712
 34	0	25.426	0	2.505446623	3.812636166	1.960784314
 35	72.508	0	100	40.52287582	22.22222222	69.49891068
 36	100	27.395	0	86.05664488	12.96296296	14.70588235
 37	74.47	100	100	88.88888889	94.77124183	102.5054466
 38	100	0	25.728	82.5708061	9.694989107	16.0130719
 39	73.862	0	0	41.17647059	4.466230937	6.427015251
 40	100	100	25.402	130.8278867	82.78867102	48.583878
 41	0	75.751	100	25.708061	56.42701525	80.82788671
 42	0	75.172	0	23.4204793	36.92810458	16.66666667
 43	0	100	25.864	43.57298475	73.85620915	35.62091503
 44	100	0	74.801	83.33333333	17.64705882	44.22657952
 45	0	100	75.421	46.2962963	82.24400871	64.92374728
 46	24.577	0	0	4.139433551	0.6535947712	0.871459695
 47	26.321	100	0	49.23747277	73.4204793	32.89760349
 48	100	75.835	0	109.1503268	46.62309368	30.06535948
 49	100	100	77.061	132.4618736	91.83006536	79.73856209
 50	71.263	100	0	83.4422658	77.01525054	38.34422658
 51	0	0	15.614	0.4357298475	0.6535947712	1.525054466
 52	0	30.049	70.936	4.139433551	13.18082789	29.95642702
 53	100	77.691	100	110.5664488	67.10239651	94.55337691
 54	24.486	100	100	51.30718954	92.15686275	96.84095861
 55	100	62.784	31.909	99.78213508	35.07625272	28.8671024
 56	29.552	0	100	12.52723312	18.73638344	64.92374728
 57	32.98	70.921	100	29.08496732	51.30718954	79.30283224
 58	0	27.681	40.241	4.248366013	6.753812636	10.02178649
 59	67.901	71.021	100	56.31808279	54.35729847	83.33333333
 60	28.154	100	67.829	51.416122	81.37254902	58.60566449
 61	71.637	100	70.001	82.24400871	84.74945534	65.57734205
 62	58.822	58.763	53.586	38.23529412	28.21350763	28.21350763
 63	33.466	30.48	0	11.76470588	6.209150327	3.703703704
 64	100	73.795	71.277	106.4270153	52.83224401	57.29847495
 65	68.394	29.692	0	37.47276688	8.71459695	7.625272331
 66	70.399	0	29.039	36.92810458	5.22875817	9.803921569
 67	28.078	0	26.956	5.991285403	1.74291939	4.466230937
 68	28.532	72.339	0	26.5795207	34.31372549	16.12200436
 69	100	30.941	26.496	86.49237473	15.1416122	18.51851852
 70	34.597	0	73.611	8.932461874	9.477124183	31.48148148
 71	71.573	0	72.408	38.45315904	12.41830065	35.18518519
 72	0	71.029	29.412	21.35076253	33.9869281	18.95424837
 73	68.386	75.008	0	57.73420479	40.63180828	22.0043573
 74	68.088	27.309	100	39.32461874	26.03485839	70.26143791
 75	100	26.457	73.749	86.16557734	21.56862745	45.31590414
 76	74.344	100	27.392	87.69063181	78.75816993	42.59259259
 77	27.558	100	28.197	50.32679739	74.94553377	37.1459695
 78	31.196	27.465	100	11.11111111	23.09368192	66.5577342
 79	0	75.521	72.824	24.40087146	46.07843137	46.51416122
 80	0	50.93	25.553	10.13071895	16.66666667	10.23965142
 81	32.06	33.584	64.033	11.4379085	13.61655773	26.14379085
 82	81.666	55.38	0	63.61655773	24.40087146	16.44880174
 83	68.257	32.751	58.286	39.4335512	14.92374728	26.03485839
 84	0	55.248	81.585	12.74509804	30.06535948	47.49455338
 85	73.781	52.099	100	52.2875817	38.99782135	77.23311547
 86	100	50.537	82.952	94.0087146	35.83877996	60.13071895
 87	23.55	0	50.439	12.30936819	4.248366013	13.7254902
 88	31.335	62.746	31.114	22.0043573	27.01525054	16.99346405
 89	100	18.31	49.418	83.76906318	14.27015251	26.25272331
 90	26.498	48.404	0	14.27015251	14.70588235	7.189542484
 91	47.91	100	85.744	60.78431373	87.58169935	78.64923747
 92	71.829	47.313	31.811	47.49455338	19.06318083	16.99346405
 93	31.304	64.132	69.316	23.52941176	34.31372549	39.32461874
 94	80.403	0	54.321	50.10893246	9.803921569	23.09368192
 95	18.455	50.036	100	13.7254902	33.76906318	70.69716776
 96	50.653	100	16.345	61.11111111	75.27233115	36.49237473
 97	80.121	100	52.261	95.86056645	82.35294118	54.24836601
 98	0	22.54	19.289	3.267973856	3.703703704	3.376906318
 99	100	75.273	46.886	106.5359477	49.12854031	40.8496732
 100	0	78.618	56.625	28.43137255	46.07843137	35.40305011
 101	51.137	80.627	100	45.64270153	63.61655773	85.94771242
 102	48.446	0	17.864	16.33986928	2.396514161	4.248366013
 103	100	50.023	21.211	91.83006536	24.50980392	21.89542484
 104	50.115	20.118	0	19.60784314	4.357298475	3.921568627
 105	58.099	72.426	33.158	44.44444444	38.45315904	24.40087146
 106	19.364	100	50.197	47.49455338	76.5795207	45.64270153
 107	50.683	19.177	100	21.24183007	22.11328976	67.4291939
 108	53.37	0	81.576	21.1328976	13.28976035	42.15686275
 109	47.768	76.245	0	39.21568627	40.30501089	19.60784314
 110	0	18.927	55.503	2.178649237	6.862745098	16.99346405
 111	0	13.277	0	0.9803921569	1.307189542	0.7625272331
 112	72.862	72.473	75.625	61.11111111	47.49455338	53.92156863
 113	100	13.904	0	82.02614379	9.803921569	13.28976035
 114	86.349	0	100	60.23965142	24.291939	72.44008715
 115	100	41.941	100	90.8496732	37.36383442	81.1546841
 116	100	81.785	16.464	112.3093682	54.5751634	34.31372549
 117	0	44.063	52.596	7.952069717	15.90413943	19.7167756
 118	0	0	58.917	0.871459695	5.337690632	18.30065359
 119	59.25	24.551	29.789	27.12418301	7.407407407	9.694989107
 120	82.73	82.874	100	80.61002179	70.37037037	92.81045752
 121	80.039	0	12.618	49.34640523	5.555555556	8.496732026
 122	60.957	47.729	77.817	37.36383442	26.47058824	45.31590414
 123	100	0	38.618	77.55991285	10.78431373	20.15250545
 124	0	40.09	100	13.39869281	27.77777778	68.08278867
 125	0	15.283	82.322	2.069716776	12.63616558	39.97821351
 126	17.592	81.726	100	31.48148148	63.94335512	84.31372549
 127	100	14.13	100	84.96732026	28.10457516	76.79738562
 128	15.261	100	82.059	47.60348584	84.74945534	72.33115468
 129	47.77	79.418	60.389	42.48366013	49.56427015	40.63180828
 130	18.768	16.429	0	3.594771242	2.069716776	1.416122004
 131	55.634	100	65.763	66.44880174	82.35294118	59.58605664
 132	100	100	38.541	130.1742919	83.9869281	52.94117647
 133	17.421	0	83.497	10.34858388	11.87363834	41.17647059
 134	17.237	16.758	100	4.684095861	20.04357298	64.81481481
 135	0	15.067	30.039	1.307189542	2.832244009	5.119825708
 136	0	0	86.505	1.633986928	12.63616558	44.22657952
 137	75.736	72.799	50.02	64.05228758	42.91938998	35.07625272
 138	100	83.323	85.529	114.8148148	68.51851852	77.77777778
 139	100	100	64.894	130.9368192	88.34422658	68.51851852
 140	81.98	84.914	0	83.33333333	55.11982571	29.95642702
 141	0	63.757	15.49	16.66666667	26.03485839	12.8540305
 142	49.514	66.135	100	35.62091503	48.14814815	78.64923747
 143	100	0	61.862	80.93681917	14.48801743	33.33333333
 144	24.308	45.41	49.831	12.41830065	16.5577342	18.95424837
 145	15.963	0	17.047	1.960784314	0.871459695	1.960784314
 146	87.497	100	100	106.7538126	97.49455338	105.1198257
 147	52.099	25.003	75.752	23.74727669	14.81481481	37.36383442
 148	14.909	81.162	0	29.08496732	44.66230937	20.04357298
 149	0	34.792	14.626	4.793028322	7.407407407	4.466230937
 150	48.39	45.075	22.552	23.74727669	14.59694989	10.45751634
 151	83.545	65.965	100	73.85620915	51.96078431	84.42265795
 152	16.226	62.345	0	19.60784314	24.50980392	11.22004357
 153	63.222	0	14.914	28.64923747	3.594771242	5.773420479
 154	80.449	13.446	0	50	6.535947712	8.278867102
 155	83.917	41.562	0	59.69498911	15.90413943	12.96296296
 156	100	60.448	46.3	96.84095861	34.96732026	33.9869281
 157	15.584	0	34.795	2.069716776	2.069716776	6.209150327
 158	17.144	65.121	100	20.47930283	45.53376906	76.25272331
 159	83.602	55.334	62.667	66.33986928	30.71895425	38.12636166
 160	0	82.19	14.22	32.35294118	46.2962963	21.45969499
 161	25.132	74.856	50.616	27.55991285	40.95860566	30.39215686
 162	0	13.769	100	2.505446623	19.28104575	64.16122004
 163	87.181	0	0	59.69498911	6.427015251	9.259259259
 164	0	100	39.19	45.20697168	75.16339869	39.97821351
 165	78.047	65.914	19.865	63.83442266	33.4422658	21.56862745
 166	100	63.961	15.865	99.89106754	35.07625272	25.708061
 167	100	45.955	36.032	90.52287582	23.31154684	24.83660131
 168	15.926	100	16.89	46.40522876	73.31154684	34.20479303
 169	41.459	100	0	56.31808279	74.291939	34.31372549
 170	48.707	37.288	48.139	22.0043573	13.39869281	18.08278867
 171	83.381	100	13.285	91.83006536	78.64923747	41.7211329
 172	78.129	25.303	75.621	49.45533769	17.86492375	41.28540305
 173	12.396	0	0	1.416122004	0.4357298475	0.5446623094
 174	37.607	48.336	83.346	19.28104575	26.90631808	49.01960784
 175	35.588	15.356	0	9.259259259	2.505446623	2.178649237
 176	61.245	100	100	73.31154684	93.89978214	100
 177	100	67.29	87.195	94.55337691	50.76252723	71.24183007
 178	0	0	30.615	1.198257081	1.525054466	4.684095861
 179	35.187	81.789	83.323	37.25490196	58.06100218	62.52723312
 180	39.525	80.194	22.879	37.36383442	44.77124183	23.4204793
 181	50.634	34.593	0	22.22222222	8.932461874	5.991285403
 182	14.175	100	63.146	46.51416122	78.75816993	54.13943355
 183	83.493	17.728	34.574	53.59477124	9.259259259	15.03267974
 184	23.463	22.014	79.943	6.427015251	13.7254902	38.99782135
 185	18.066	31.847	0	6.100217865	6.209150327	3.159041394
 186	87.201	100	81.361	106.6448802	90.41394336	80.82788671
 187	0	100	87.95	46.18736383	86.16557734	79.19389978
 188	34.476	17.888	46.22	9.259259259	5.991285403	12.96296296
 189	18.277	0	67.39	3.050108932	7.407407407	25.05446623
 190	100	87.972	0	117.1023965	62.20043573	36.81917211
 191	82.925	34.85	100	58.38779956	30.82788671	74.61873638
 192	0	88.016	100	34.96732026	71.56862745	87.69063181
 193	36.104	85.655	100	41.39433551	69.82570806	87.25490196
 194	60.981	0	0	26.36165577	3.050108932	4.248366013
 195	51.466	61.826	78.106	34.31372549	35.94771242	48.69281046
 196	78.427	31.983	22.175	49.67320261	11.54684096	12.30936819
 197	66.017	44.321	0	38.77995643	15.25054466	10.23965142
 198	83.941	0	84.177	55.77342048	17.64705882	50.43572985
 199	20.158	46.612	23.269	10.89324619	14.16122004	9.041394336
 200	0	100	62.618	45.31590414	79.08496732	53.7037037
 201	33.832	0	13.933	7.625272331	1.307189542	2.396514161
 202	100	17.286	16.322	83.22440087	10.78431373	14.81481481
 203	0	42.204	83.926	7.734204793	22.65795207	46.2962963
 204	0	87.774	0	32.89760349	53.15904139	23.63834423
 205	64.988	0	59.017	30.82788671	8.605664488	23.31154684
 206	14.677	0	100	3.159041394	18.30065359	64.05228758
 207	88.934	82.673	35.021	92.04793028	54.46623094	36.16557734
 208	0	63.778	100	17.64705882	43.68191721	74.72766885
 209	83.429	17.674	100	55.9912854	25.59912854	72.54901961
 210	30.899	100	85.668	52.06971678	86.38344227	77.34204793
 211	83.68	0	41.016	54.24836601	8.278867102	16.88453159
 212	100	63.515	0	99.23747277	33.9869281	24.07407407
 213	85.074	69.987	0	76.36165577	37.69063181	22.76688453
 214	20.801	45.524	69.018	11.54684096	20.37037037	32.35294118
 215	21.382	82.482	73.017	32.46187364	55.11982571	51.416122
 216	100	15.128	64.249	83.55119826	16.33986928	35.72984749
 217	36.522	0	58.427	9.368191721	6.209150327	19.38997821
 218	22.466	81.296	33.007	31.1546841	46.84095861	25.81699346
 219	62.531	87.152	0	60.67538126	55.44662309	27.77777778
 220	84.12	85.397	67.886	87.1459695	63.07189542	56.42701525
 221	18.87	27.336	45.389	5.555555556	7.625272331	12.74509804
 222	66.439	100	14.444	76.90631808	76.68845316	38.45315904
 223	41.636	22.147	19.003	14.59694989	4.793028322	5.119825708
 224	61.271	100	81.94	73.09368192	87.25490196	76.03485839
 225	86.013	100	0	104.1394336	79.30283224	41.61220044
 226	37.57	0	0	9.259259259	1.198257081	1.74291939
 227	100	16.132	84.102	83.76906318	22.11328976	55.33769063
 228	0	100	13.619	44.88017429	73.4204793	33.11546841
 229	38.905	100	56.471	55.11982571	78.97603486	51.08932462
 230	100	15.382	34.563	83.22440087	11.76470588	19.17211329
 231	36.656	14.908	100	11.32897603	20.47930283	65.79520697
 232	0	62.593	66.608	16.0130719	31.69934641	35.40305011
 233	66.347	12.528	100	34.09586057	22.54901961	69.38997821
 234	100	43.375	69.233	90.52287582	27.55991285	44.22657952
 235	100	56.36	61.236	95.75163399	33.87799564	41.7211329
 236	0	86.194	44.955	31.80827887	54.13943355	33.11546841
 237	64.527	87.262	100	64.16122004	73.96514161	91.83006536
 238	34.411	0	42.471	8.169934641	3.594771242	10.34858388
 239	80.23	59.707	85.12	63.83442266	39.76034858	60.78431373
 240	20.625	19.056	14.791	4.357298475	2.941176471	2.832244009
 241	15.341	34.221	100	7.625272331	25.16339869	67.32026144
 242	36.777	0	87.905	10.02178649	14.27015251	47.7124183
 243	34.598	56.247	100	21.89542484	38.88888889	73.85620915
 244	20.86	67.629	17.418	21.35076253	30.17429194	15.1416122
 245	44.958	60.843	18.054	28.32244009	25.27233115	14.27015251
 246	37.421	60.193	0	23.52941176	23.63834423	11.65577342
 247	84.011	33.849	42.612	59.04139434	15.1416122	20.58823529
 248	17.241	60.339	37.743	16.33986928	24.94553377	17.64705882
 249	50.65	17.261	53.278	19.49891068	8.061002179	18.40958606
 250	45.505	48.926	65.152	23.85620915	22.76688453	31.91721133
 251	44.567	84.081	39.649	43.57298475	51.96078431	31.48148148
 252	100	86.339	72.054	117.211329	68.51851852	65.1416122
 253	68.14	61.135	0	48.14814815	26.68845316	15.68627451
 254	17.93	66.986	81.403	21.02396514	39.76034858	51.85185185
 255	39.242	60.215	48.926	24.94553377	27.45098039	24.18300654
 256	20.099	18.77	62.967	4.684095861	8.496732026	22.76688453
 257	34.553	100	14.582	52.06971678	73.52941176	34.74945534
 258	87.345	0	66.694	60.13071895	13.28976035	33.87799564
 259	0	43.714	39.842	7.843137255	13.83442266	13.18082789
 260	100	37.705	13.955	85.07625272	17.4291939	17.53812636
 261	31.265	86.993	0	38.67102397	52.83224401	24.18300654
 262	51.402	82.661	81.338	47.49455338	58.82352941	62.09150327
 263	100	100	12.984	128.8671024	81.80827887	46.07843137
 264	0	37.859	0	5.446623094	8.496732026	4.030501089
 265	62.092	58.215	100	40.8496732	42.26579521	77.66884532
 266	86.186	100	64.1	99.23747277	85.51198257	63.94335512
 267	100	35.251	85.898	87.69063181	28.43137255	60.02178649
 268	63.182	89.992	41.974	63.94335512	62.09150327	38.5620915
 269	13.504	100	0	46.07843137	73.20261438	32.67973856
 270	100	0	13.228	82.13507625	8.932461874	13.61655773
 271	63.881	40.826	100	37.36383442	31.37254902	72.76688453
 272	69.387	84.838	20.792	65.35947712	53.48583878	29.52069717
 273	0	70.279	45.136	20.37037037	35.18518519	24.83660131
 274	79.094	64.754	40.908	64.27015251	34.09586057	27.88671024
 275	62.385	54.099	17.396	39.10675381	21.24183007	13.94335512
 276	64.408	14.621	0	30.61002179	4.684095861	5.446623094
 277	70.028	15.606	44.651	37.03703704	8.278867102	16.33986928
 278	0	63.544	0	16.0130719	25.708061	11.65577342
 279	83.475	47.274	20.502	61.76470588	19.7167756	16.33986928
 280	55.866	0	32.671	22.11328976	4.030501089	8.71459695
 281	58.007	0	100	25.27233115	20.69716776	67.4291939
 282	100	0	87.698	83.33333333	21.67755991	58.93246187
 283	0	13.792	67.215	1.633986928	8.387799564	25.27233115
 284	84.123	17.001	58.549	55.55555556	12.74509804	27.55991285
 285	59.579	32.873	15.966	28.8671024	9.368191721	8.061002179
 286	10.41	32.998	28.659	5.119825708	7.734204793	7.080610022
 287	17.231	40.031	85.65	9.041394336	22.44008715	48.14814815
 288	37.568	41.561	10.108	15.57734205	11.4379085	6.753812636
 289	0	69.015	85.092	20.15250545	42.91938998	56.75381264
 290	14.442	100	36.187	46.40522876	75.05446623	39.21568627
 291	100	40.549	0	88.77995643	18.40958606	17.10239651
 292	82.143	45.435	78.429	60.34858388	28.10457516	49.12854031
 293	52.674	0	67.3	20.04357298	9.259259259	28.10457516
 294	0	87.868	66.793	33.9869281	60.5664488	48.47494553
 295	86.53	100	40.524	104.6840959	81.69934641	49.67320261
 296	71.777	85.586	67.232	70.04357298	61.65577342	53.48583878
 297	43.216	100	31.671	57.18954248	75.38126362	39.32461874
 298	39.245	32.908	85.845	15.25054466	19.82570806	48.03921569
 299	0	45.662	67.543	8.496732026	19.93464052	31.04575163
 300	12.161	100	100	47.05882353	91.39433551	96.40522876
 301	67.049	0	85.516	33.22440087	15.90413943	48.583878
 302	100	89.041	100	120.3703704	82.35294118	101.5250545
 303	20.246	60.698	56.526	17.53812636	28.21350763	27.77777778
 304	52.177	55.457	40.416	31.1546841	23.52941176	19.82570806
 305	72.617	87.018	83.932	68.40958606	68.08278867	71.24183007
 306	40.512	16.723	66.475	13.94335512	9.803921569	26.79738562
 307	68.507	49.232	50.605	42.15686275	22.33115468	25.38126362
 308	65.622	100	54.525	76.47058824	81.04575163	53.15904139
 309	54.115	37.24	66.394	25.81699346	17.21132898	31.1546841
 310	100	76.138	31.267	107.4074074	48.583878	34.64052288
 311	54.728	65.623	0	38.01742919	29.62962963	15.57734205
 312	63.126	12.526	64.37	29.52069717	10.5664488	27.55991285
 313	72.827	18.08	23.704	40.52287582	7.080610022	9.803921569
 314	23.268	15.278	34.947	4.793028322	3.703703704	7.407407407
 315	87.648	68.954	59.645	80.06535948	42.48366013	42.15686275
 316	0	85.595	85.198	32.35294118	62.96296296	65.90413943
 317	35.798	84.371	69.21	39.21568627	57.18954248	49.56427015
 318	36.062	47.494	35.919	17.32026144	16.66666667	13.94335512
 319	86.083	36.277	59.152	62.8540305	19.17211329	31.04575163
 320	58.21	100	30.361	68.8453159	76.79738562	40.74074074
 321	46.745	14.614	32.317	16.0130719	4.575163399	8.169934641
 322	81.573	73.869	86.954	75.16339869	54.5751634	69.49891068
 323	85.991	49.387	48.206	67.32026144	24.291939	27.55991285
 324	28.062	87.906	19.654	39.4335512	54.5751634	26.5795207
 325	68.992	17.993	85.124	36.71023965	17.86492375	49.67320261
 326	100	66.147	100	102.0697168	54.68409586	88.88888889
 327	33.358	64.806	84.517	25.81699346	39.65141612	55.55555556
 328	41.351	17.736	80.522	13.83442266	13.94335512	40.74074074
 329	100	100	88.719	129.5206972	94.88017429	92.81045752
 330	66.336	0	44.32	32.24400871	6.427015251	15.1416122
 331	64.85	67.09	12.293	48.03921569	32.35294118	18.51851852
 332	15.262	31.268	63.277	5.773420479	12.09150327	24.50980392
 333	15.008	43.663	37.3	8.932461874	13.7254902	12.41830065
 334	0	57.895	38.078	13.18082789	22.98474946	16.66666667
 335	66.599	58.458	67.871	46.07843137	32.13507625	40.30501089
 336	59.191	18.651	15.215	25.81699346	5.22875817	6.100217865
 337	66.781	31.14	84.629	36.92810458	21.1328976	50.10893246
 338	88.033	85.158	52.14	92.70152505	60.5664488	45.64270153
 339	36.882	100	100	55.01089325	91.39433551	97.05882353
 340	26.102	33.094	17.006	8.496732026	7.407407407	5.22875817
 341	56.309	36.861	35.862	27.23311547	12.09150327	13.39869281
 342	45.839	65.587	67.033	31.80827887	36.16557734	39.21568627
 343	83.709	81.172	16.406	81.59041394	50.10893246	29.52069717
 344	0	48.132	13.005	8.823529412	14.37908497	7.298474946
 345	87.176	50.021	100	70.58823529	39.65141612	79.95642702
 346	51.219	84.244	13.73	48.25708061	50.65359477	25.38126362
 347	60.606	71.415	48.406	46.73202614	39.54248366	31.1546841
 348	0	11.359	12.718	0.871459695	1.307189542	1.525054466
 349	86.429	49.705	33.145	66.99346405	22.54901961	21.1328976
 350	34.056	40.958	100	19.82570806	29.08496732	69.60784314
 351	100	30.557	59.628	84.96732026	19.49891068	34.42265795
 352	88.497	26.902	13.449	64.27015251	10.89324619	12.30936819
 353	14.167	51.98	88.218	15.90413943	30.17429194	54.13943355
 354	13.784	12.983	49.37	2.614379085	5.010893246	13.28976035
 355	15.018	88.441	48.062	35.18518519	57.51633987	36.2745098
 356	87.79	25.769	89.215	63.18082789	23.85620915	59.58605664
 357	0	33.206	55.865	4.575163399	11.11111111	19.38997821
 358	74.324	76.029	35.536	65.1416122	44.11764706	29.52069717
 359	65.863	57.223	42.324	50.21786492	26.14379085	22.98474946
 360	30.893	54.646	13.136	17.75599129	19.49891068	10.23965142
 361	0	34.36	28.321	4.575163399	8.061002179	7.080610022
 362	15.443	77.087	85.116	27.34204793	52.06971678	61.4379085
 363	63.381	68.947	68.521	48.14814815	41.06753813	44.11764706
 364	69.733	27.566	42.917	38.34422658	10.89324619	16.99346405
 365	32.754	100	42.76	51.74291939	76.03485839	42.70152505
 366	47.096	29.481	34.829	18.62745098	8.496732026	10.67538126
 367	8.5451	71.948	62.695	22.22222222	39.86928105	36.38344227
 368	0	86.048	29.3	31.69934641	52.17864924	26.90631808
 369	53.697	51.572	85.367	30.93681917	30.82788671	54.13943355
 370	17.608	56.69	12.515	14.37908497	20.37037037	10.13071895
 371	90.638	14.414	49.227	66.23093682	11.76470588	23.31154684
 372	63.248	63.64	89.55	45.86056645	42.59259259	65.03267974
 373	100	85.976	58.455	115.9041394	64.81481481	54.24836601
 374	9.8311	28.027	7.5567	3.812636166	4.901960784	2.832244009
 375	89.831	64.313	69.506	80.93681917	40.52287582	48.583878
 376	31.754	12.995	25.543	7.298474946	2.941176471	4.901960784
 377	75.914	45.966	64.957	51.19825708	23.96514161	35.40305011
 378	7.5735	50.695	58.941	14.27015251	21.24183007	25.81699346
 379	100	69.835	58.912	103.4858388	45.64270153	45.75163399
 380	32.211	34.376	48.339	11.4379085	11.22004357	16.33986928
 381	13.901	12.159	73.555	2.941176471	9.912854031	31.1546841
 382	87.071	9.028	77.653	60.23965142	16.88453159	44.66230937
 383	23.272	85.409	84.29	35.62091503	62.20043573	64.81481481
 384	93.289	39.48	26.145	74.07407407	17.53812636	18.08278867
 385	65.769	59.63	30.967	44.98910675	27.01525054	19.38997821
 386	100	32.265	41.803	85.40305011	17.4291939	24.18300654
 387	86.568	85.281	86.961	90.08714597	68.8453159	76.47058824
 388	52.577	86.83	30.016	51.52505447	55.44662309	30.50108932
 389	47.921	40.199	76.902	22.87581699	21.1328976	41.17647059
 390	22.36	86.619	61.58	35.72984749	57.73420479	44.11764706
 391	52.232	33.601	88.787	24.291939	22.22222222	54.13943355
 392	0	28.523	86.267	4.139433551	17.32026144	46.18736383
 393	43.497	67.879	39.551	31.48148148	33.4422658	23.09368192
 394	39.877	45.261	0	18.19172113	13.39869281	7.298474946
 395	86.94	12.43	24.699	58.93246187	8.169934641	12.52723312
 396	28.363	55.339	90.398	18.30065359	33.76906318	59.1503268
 397	39.018	70.534	57.879	30.71895425	38.45315904	33.66013072
 398	12.833	28.519	78.828	5.119825708	15.03267974	38.77995643
 399	68.35	31.815	69.975	38.45315904	17.53812636	35.62091503
 400	56.52	26.226	41.626	25.05446623	8.932461874	14.16122004
 401	12.938	46.218	0	9.150326797	12.96296296	6.100217865
 402	8.6938	60.179	26.117	14.92374728	23.85620915	13.61655773
 403	51.995	89.429	96.608	54.46623094	74.83660131	86.71023965
 404	46.905	47.746	48.909	26.68845316	18.95424837	20.91503268
 405	14.352	81.814	19.479	29.73856209	45.75163399	22.33115468
 406	71.482	38.117	12.273	43.02832244	12.8540305	10.5664488
 407	86.616	60.785	10.012	69.06318083	29.73856209	20.04357298
 408	71.811	88.979	52.186	72.65795207	62.96296296	44.55337691
 409	43.213	100	72.083	62.20043573	82.35294118	63.83442266
