data/calibration-002303.ti3
CTI3   
ORIGINATOR	"ColorHug Factory"
CREATED	"Tue Jan 21 20:04:55 2014"
DESCRIPTOR	"Calibration Target chart information 3"
DEVICE_CLASS	"DISPLAY"
COLOR_REP	"RGB_XYZ"
TARGET_INSTRUMENT	"Hughski ColorHug"
INSTRUMENT_TYPE_SPECTRAL	"NO"
NORMALIZED_TO_Y_100	"NO"
NUMBER_OF_FIELDS	7
NUMBER_OF_SETS	15
BEGIN_DATA_FORMAT
 SAMPLE_ID	RGB_R	RGB_G	RGB_B	XYZ_X	XYZ_Y	XYZ_Z
END_DATA_FORMAT
BEGIN_DATA
 1.0	0.0	0.0	0.0	0.103775024414	0.0	0.127624511719
 2.0	1.0	1.0	1.0	74.472717285156	33.300811767578	53.194793701172
 3.0	1.0	0.0	0.0	47.080459594727	3.716873168945	6.38005065918
 4.0	0.0	1.0	0.0	23.01123046875	21.445022583008	11.268218994141
 5.0	0.0	0.0	1.0	1.322769165039	8.118927001953	34.565399169922
 6.0	0.0	0.0	0.0	0.102310180664	0.0	0.126571655273
 7.0	1.0	1.0	1.0	74.472717285156	33.573760986328	53.194793701172
 8.0	1.0	0.0	0.0	47.080459594727	3.685104370117	6.399993896484
 9.0	0.0	1.0	0.0	23.076049804688	21.445022583008	11.191253662109
 10.0	0.0	0.0	1.0	1.327926635742	8.15934753418	34.565399169922
 11.0	0.0	0.0	0.0	0.102523803711	0.0	0.125930786133
 12.0	1.0	1.0	1.0	74.472717285156	33.436721801758	53.194793701172
 13.0	1.0	0.0	0.0	47.627899169922	3.685104370117	6.404998779297
 14.0	0.0	1.0	0.0	23.076049804688	21.277908325195	11.283737182617
 15.0	0.0	0.0	1.0	1.325775146484	8.143127441406	34.711853027344
END_DATA
