data/calibration-000339.ti3
CTI3
DESCRIPTOR	"Calibration Target chart information 3"
ORIGINATOR	"ColorHug Factory"
DEVICE_CLASS	"DISPLAY"
COLOR_REP	"RGB_XYZ"
TARGET_INSTRUMENT	"ColorHug"
INSTRUMENT_TYPE_SPECTRAL	"NO"
LUMINANCE_XYZ_CDM2	"52.814484 38.166046 43.888092"
NORMALIZED_TO_Y_100	"YES"
NUMBER_OF_FIELDS	7
NUMBER_OF_SETS	836
BEGIN_DATA_FORMAT
 SAMPLE_ID	RGB_R	RGB_G	RGB_B	XYZ_X	XYZ_Y	XYZ_Z
END_DATA_FORMAT
BEGIN_DATA
 1	100	100	100	133.1736527	100	115.2095808
 2	100	100	100	140	99.76047904	115.2095808
 3	100	100	100	140.1197605	99.88023952	114.1317365
 4	100	100	100	139.4011976	99.76047904	114.7305389
 5	33.33	32.622	30.968	11.37724551	8.023952096	8.862275449
 6	100	0	100	89.10179641	27.4251497	81.67664671
 7	100	100	0	138.2035928	81.31736527	46.70658683
 8	0	100	100	48.26347305	90.77844311	101.5568862
 9	0	100	0	46.10778443	71.61676647	32.69461078
 10	0	0	100	2.155688623	18.68263473	68.38323353
 11	100	0	0	87.06586826	8.622754491	13.29341317
 12	0	0	0	0.119760479	0	0.119760479
 13	0	52.455	100	12.21556886	35.08982036	76.16766467
 14	100	0	50.3	87.18562874	12.5748503	27.4251497
 15	100	54.739	100	102.0359281	45.62874251	90.05988024
 16	100	52.128	0	99.04191617	24.67065868	20.71856287
 17	0	0	46.181	0.3592814371	3.113772455	11.37724551
 18	0	51.141	0	9.94011976	15.4491018	7.185628743
 19	0	100	51.348	46.46706587	76.04790419	47.4251497
 20	100	100	52.037	138.5628743	85.1497006	61.91616766
 21	49.216	0	0	16.88622754	1.676646707	2.634730539
 22	56.159	100	0	69.94011976	74.37125749	36.04790419
 23	49.226	100	100	65.74850299	92.69461078	103.8323353
 24	44.487	0	100	15.4491018	20	71.01796407
 25	100	44.498	52.029	95.56886228	24.5508982	33.89221557
 26	48.926	48.544	100	27.90419162	34.49101796	77.60479042
 27	51.368	100	47.25	65.74850299	77.48502994	47.78443114
 28	49.893	0	49.033	18.08383234	5.389221557	16.04790419
 29	53.109	51.372	0	30.41916168	17.48502994	10.2994012
 30	0	58.587	53.943	13.89221557	25.26946108	25.86826347
 31	100	28.065	100	91.85628743	31.85628743	84.19161677
 32	0	0	72.874	0.9580838323	8.502994012	31.49700599
 33	0	26.758	100	4.191616766	22.63473054	70.2994012
 34	0	25.426	0	2.275449102	3.473053892	1.676646707
 35	72.508	0	100	41.79640719	22.75449102	74.25149701
 36	100	27.395	0	90.05988024	12.81437126	15.08982036
 37	74.47	100	100	92.69461078	95.32934132	108.2634731
 38	100	0	25.728	87.06586826	9.580838323	16.64670659
 39	73.862	0	0	41.91616766	4.191616766	6.467065868
 40	100	100	25.402	138.2035928	82.03592814	49.82035928
 41	0	75.751	100	26.10778443	56.28742515	85.86826347
 42	0	75.172	0	23.71257485	36.40718563	16.64670659
 43	0	100	25.864	46.22754491	72.69461078	36.04790419
 44	100	0	74.801	87.54491018	18.08383234	47.54491018
 45	0	100	75.421	46.82634731	81.67664671	68.14371257
 46	24.577	0	0	3.952095808	0.3592814371	0.7185628743
 47	26.321	100	0	50.41916168	71.73652695	33.41317365
 48	100	75.835	0	112.9341317	46.10778443	30.65868263
 49	100	100	77.061	138.8023952	91.13772455	83.83233533
 50	71.263	100	0	86.82634731	76.16766467	38.92215569
 51	0	0	15.614	0.119760479	0.3592814371	1.317365269
 52	0	30.049	70.936	3.952095808	13.17365269	32.33532934
 53	100	77.691	100	116.7664671	67.4251497	100.3592814
 54	24.486	100	100	51.49700599	91.25748503	101.5568862
 55	100	62.784	31.909	104.6706587	34.61077844	30.05988024
 56	29.552	0	100	7.54491018	19.28143713	69.7005988
 57	32.98	70.921	100	29.94011976	51.61676647	84.31137725
 58	0	27.681	40.241	2.994011976	6.586826347	10.53892216
 59	67.901	71.021	100	58.08383234	54.61077844	89.22155689
 60	28.154	100	67.829	51.49700599	79.64071856	60.71856287
 61	71.637	100	70.001	87.78443114	84.07185629	68.74251497
 62	58.822	58.763	53.586	39.04191617	27.78443114	29.7005988
 63	33.466	30.48	0	10.65868263	5.748502994	3.592814371
 64	100	73.795	71.277	112.6946108	52.69461078	60.11976048
 65	68.394	29.692	0	38.44311377	8.383233533	7.664670659
 66	70.399	0	29.039	37.36526946	5.02994012	10.17964072
 67	28.078	0	26.956	5.269461078	1.556886228	4.550898204
 68	28.532	72.339	0	27.06586826	33.65269461	16.04790419
 69	100	30.941	26.496	90.05988024	14.97005988	19.28143713
 70	34.597	0	73.611	8.622754491	9.580838323	33.89221557
 71	71.573	0	72.408	39.76047904	12.5748503	37.7245509
 72	0	71.029	29.412	20.95808383	33.05389222	19.16167665
 73	68.386	75.008	0	59.52095808	39.76047904	22.03592814
 74	68.088	27.309	100	39.04191617	26.46706587	75.92814371
 75	100	26.457	73.749	88.98203593	21.79640719	48.50299401
 76	74.344	100	27.392	90.05988024	77.00598802	43.23353293
 77	27.558	100	28.197	50.77844311	73.53293413	37.36526946
 78	31.196	27.465	100	10.77844311	23.59281437	71.13772455
 79	0	75.521	72.824	24.5508982	45.50898204	48.74251497
 80	0	50.93	25.553	9.820359281	16.16766467	10.41916168
 81	32.06	33.584	64.033	11.25748503	13.53293413	27.90419162
 82	81.666	55.38	0	64.43113772	23.71257485	16.52694611
 83	68.257	32.751	58.286	39.64071856	14.8502994	27.4251497
 84	0	55.248	81.585	12.69461078	29.7005988	50.2994012
 85	73.781	52.099	100	54.13173653	39.04191617	81.79640719
 86	100	50.537	82.952	97.96407186	35.80838323	64.07185629
 87	23.55	0	50.439	4.071856287	4.191616766	14.49101796
 88	31.335	62.746	31.114	22.39520958	26.22754491	17.1257485
 89	100	18.31	49.418	87.78443114	14.25149701	27.78443114
 90	26.498	48.404	0	13.41317365	14.13173653	7.065868263
 91	47.91	100	85.744	63.47305389	86.46706587	82.63473054
 92	71.829	47.313	31.811	48.14371257	18.56287425	17.36526946
 93	31.304	64.132	69.316	23.71257485	33.89221557	41.43712575
 94	80.403	0	54.321	51.01796407	9.700598802	24.43113772
 95	18.455	50.036	100	13.53293413	33.77245509	76.04790419
 96	50.653	100	16.345	64.43113772	74.13173653	37.00598802
 97	80.121	100	52.261	98.92215569	81.43712575	56.28742515
 98	0	22.54	19.289	1.796407186	3.353293413	3.353293413
 99	100	75.273	46.886	111.3772455	48.26347305	42.51497006
 100	0	78.618	56.625	26.70658683	45.1497006	36.52694611
 101	51.137	80.627	100	48.26347305	63.59281437	91.49700599
 102	48.446	0	17.864	16.28742515	2.155688623	4.311377246
 103	100	50.023	21.211	95.80838323	24.07185629	22.51497006
 104	50.115	20.118	0	18.92215569	4.071856287	3.832335329
 105	58.099	72.426	33.158	46.46706587	37.36526946	24.91017964
 106	19.364	100	50.197	48.26347305	75.92814371	47.18562874
 107	50.683	19.177	100	21.19760479	22.63473054	72.93413174
 108	53.37	0	81.576	21.43712575	13.53293413	45.50898204
 109	47.768	76.245	0	40	39.04191617	19.52095808
 110	0	18.927	55.503	1.676646707	6.706586826	18.20359281
 111	0	13.277	0	0.5988023952	0.9580838323	0.5988023952
 112	72.862	72.473	75.625	63.23353293	47.06586826	56.88622754
 113	100	13.904	0	85.86826347	9.700598802	13.65269461
 114	86.349	0	100	61.91616766	24.91017964	78.08383234
 115	100	41.941	100	93.77245509	37.84431138	86.94610778
 116	100	81.785	16.464	116.8862275	53.41317365	35.32934132
 117	0	44.063	52.596	7.664670659	15.56886228	20.71856287
 118	0	0	58.917	0.5988023952	5.269461078	19.64071856
 119	59.25	24.551	29.789	27.78443114	7.065868263	10.05988024
 120	82.73	82.874	100	86.58682635	70.53892216	98.44311377
 121	80.039	0	12.618	50.05988024	5.389221557	8.74251497
 122	60.957	47.729	77.817	36.76646707	26.46706587	47.78443114
 123	100	0	38.618	86.10778443	10.77844311	21.19760479
 124	0	40.09	100	7.664670659	28.0239521	73.05389222
 125	0	15.283	82.322	1.796407186	12.81437126	43.11377246
 126	17.592	81.726	100	32.33532934	63.35329341	89.34131737
 127	100	14.13	100	88.26347305	28.62275449	82.75449102
 128	15.261	100	82.059	47.90419162	83.11377246	75.92814371
 129	47.77	79.418	60.389	42.8742515	48.62275449	42.2754491
 130	18.768	16.429	0	3.233532934	1.676646707	1.19760479
 131	55.634	100	65.763	68.74251497	80.95808383	61.79640719
 132	100	100	38.541	136.6467066	83.11377246	54.49101796
 133	17.421	0	83.497	3.113772455	12.09580838	44.31137725
 134	17.237	16.758	100	4.550898204	20.47904192	69.7005988
 135	0	15.067	30.039	0.9580838323	2.51497006	5.269461078
 136	0	0	86.505	1.437125749	12.93413174	48.0239521
 137	75.736	72.799	50.02	67.18562874	41.79640719	36.16766467
 138	100	83.323	85.529	119.4011976	68.14371257	82.15568862
 139	100	100	64.894	135.5688623	87.4251497	71.01796407
 140	81.98	84.914	0	85.98802395	53.41317365	30.2994012
 141	0	63.757	15.49	16.04790419	25.02994012	12.69461078
 142	49.514	66.135	100	36.64670659	47.78443114	83.95209581
 143	100	0	61.862	85.62874251	14.61077844	35.20958084
 144	24.308	45.41	49.831	11.73652695	16.04790419	19.88023952
 145	15.963	0	17.047	1.676646707	0.5988023952	1.916167665
 146	87.497	100	100	112.2155689	96.64670659	111.257485
 147	52.099	25.003	75.752	22.03592814	14.8502994	40
 148	14.909	81.162	0	29.22155689	42.75449102	19.88023952
 149	0	34.792	14.626	4.311377246	6.946107784	4.311377246
 150	48.39	45.075	22.552	23.83233533	14.01197605	10.53892216
 151	83.545	65.965	100	75.68862275	51.85628743	89.58083832
 152	16.226	62.345	0	16.88622754	23.47305389	11.01796407
 153	63.222	0	14.914	29.10179641	3.353293413	5.748502994
 154	80.449	13.446	0	51.01796407	6.22754491	8.263473054
 155	83.917	41.562	0	61.79640719	15.32934132	12.93413174
 156	100	60.448	46.3	101.6766467	34.25149701	35.56886228
 157	15.584	0	34.795	1.796407186	1.796407186	6.467065868
 158	17.144	65.121	100	20.71856287	45.62874251	81.55688623
 159	83.602	55.334	62.667	68.50299401	30.2994012	40.11976048
 160	0	82.19	14.22	28.50299401	44.79041916	21.43712575
 161	25.132	74.856	50.616	27.66467066	39.88023952	31.37724551
 162	0	13.769	100	2.395209581	19.76047904	69.10179641
 163	87.181	0	0	60.71856287	6.22754491	9.341317365
 164	0	100	39.19	45.50898204	73.65269461	40.71856287
 165	78.047	65.914	19.865	65.50898204	32.45508982	21.79640719
 166	100	63.961	15.865	103.4730539	34.25149701	26.34730539
 167	100	45.955	36.032	94.61077844	22.8742515	25.62874251
 168	15.926	100	16.89	47.18562874	71.9760479	34.25149701
 169	41.459	100	0	57.36526946	72.69461078	34.25149701
 170	48.707	37.288	48.139	22.03592814	13.17365269	19.04191617
 171	83.381	100	13.285	103.1137725	77.84431138	42.2754491
 172	78.129	25.303	75.621	50.77844311	17.96407186	44.07185629
 173	12.396	0	0	1.077844311	0.119760479	0.2395209581
 174	37.607	48.336	83.346	19.4011976	26.82634731	51.9760479
 175	35.588	15.356	0	8.982035928	2.275449102	2.035928144
 176	61.245	100	100	75.4491018	93.41317365	105.988024
 177	100	67.29	87.195	106.3473054	50.2994012	75.08982036
 178	0	0	30.615	0.2395209581	1.317365269	4.790419162
 179	35.187	81.789	83.323	37.48502994	57.24550898	66.22754491
 180	39.525	80.194	22.879	37.60479042	43.71257485	23.47305389
 181	50.634	34.593	0	22.2754491	8.502994012	5.868263473
 182	14.175	100	63.146	47.18562874	78.08383234	56.64670659
 183	83.493	17.728	34.574	55.92814371	9.101796407	15.56886228
 184	23.463	22.014	79.943	6.347305389	13.89221557	41.79640719
 185	18.066	31.847	0	5.868263473	5.748502994	2.994011976
 186	87.201	100	81.361	110.2994012	89.10179641	84.79041916
 187	0	100	87.95	46.46706587	85.26946108	82.99401198
 188	34.476	17.888	46.22	9.101796407	5.748502994	13.65269461
 189	18.277	0	67.39	2.874251497	7.425149701	27.06586826
 190	100	87.972	0	122.994012	60.83832335	37.36526946
 191	82.925	34.85	100	60.35928144	31.25748503	80.83832335
 192	0	88.016	100	35.32934132	71.25748503	93.29341317
 193	36.104	85.655	100	41.91616766	68.62275449	93.05389222
 194	60.981	0	0	26.58682635	2.754491018	4.191616766
 195	51.466	61.826	78.106	34.61077844	35.56886228	51.9760479
 196	78.427	31.983	22.175	50.53892216	11.13772455	12.45508982
 197	66.017	44.321	0	39.4011976	14.61077844	10.17964072
 198	83.941	0	84.177	56.76646707	17.96407186	53.65269461
 199	20.158	46.612	23.269	10.65868263	13.53293413	8.982035928
 200	0	100	62.618	45.62874251	77.84431138	55.56886228
 201	33.832	0	13.933	7.305389222	1.077844311	2.395209581
 202	100	17.286	16.322	86.34730539	10.65868263	15.20958084
 203	0	42.204	83.926	7.664670659	22.39520958	49.94011976
 204	0	87.774	0	32.93413174	51.01796407	23.47305389
 205	64.988	0	59.017	31.13772455	8.502994012	24.67065868
 206	14.677	0	100	3.113772455	18.80239521	69.34131737
 207	88.934	82.673	35.021	94.25149701	53.29341317	37.00598802
 208	0	63.778	100	17.60479042	43.71257485	80.83832335
 209	83.429	17.674	100	57.36526946	26.22754491	78.32335329
 210	30.899	100	85.668	52.5748503	85.02994012	81.07784431
 211	83.68	0	41.016	55.20958084	8.023952096	17.48502994
 212	100	63.515	0	102.5149701	32.93413174	24.43113772
 213	85.074	69.987	0	77.84431138	36.40718563	22.8742515
 214	20.801	45.524	69.018	14.61077844	20	34.25149701
 215	21.382	82.482	73.017	32.69461078	54.01197605	53.65269461
 216	100	15.128	64.249	76.88622754	16.40718563	37.7245509
 217	36.522	0	58.427	9.221556886	6.107784431	20.5988024
 218	22.466	81.296	33.007	31.37724551	45.38922156	26.10778443
 219	62.531	87.152	0	61.31736527	53.53293413	27.66467066
 220	84.12	85.397	67.886	88.38323353	61.67664671	58.80239521
 221	18.87	27.336	45.389	5.269461078	7.305389222	13.41317365
 222	66.439	100	14.444	78.80239521	75.08982036	38.56287425
 223	41.636	22.147	19.003	13.41317365	4.431137725	5.02994012
 224	61.271	100	81.94	74.01197605	86.10778443	79.52095808
 225	86.013	100	0	107.4251497	77.48502994	41.91616766
 226	37.57	0	0	8.982035928	0.9580838323	1.437125749
 227	100	16.132	84.102	87.18562874	22.39520958	59.52095808
 228	0	100	13.619	45.02994012	71.13772455	33.41317365
 229	38.905	100	56.471	56.04790419	77.36526946	52.5748503
 230	100	15.382	34.563	85.86826347	11.61676647	20
 231	36.656	14.908	100	11.37724551	21.07784431	71.13772455
 232	0	62.593	66.608	15.92814371	31.01796407	37.24550898
 233	66.347	12.528	100	34.61077844	22.99401198	74.73053892
 234	100	43.375	69.233	92.81437126	27.4251497	47.18562874
 235	100	56.36	61.236	98.92215569	33.53293413	43.95209581
 236	0	86.194	44.955	32.09580838	52.69461078	33.89221557
 237	64.527	87.262	100	65.26946108	73.17365269	97.60479042
 238	34.411	0	42.471	7.784431138	3.473053892	11.01796407
 239	80.23	59.707	85.12	64.91017964	39.52095808	64.31137725
 240	20.625	19.056	14.791	4.071856287	2.634730539	2.634730539
 241	15.341	34.221	100	7.54491018	25.62874251	72.33532934
 242	36.777	0	87.905	9.94011976	14.49101796	51.49700599
 243	34.598	56.247	100	21.91616766	38.68263473	79.4011976
 244	20.86	67.629	17.418	21.19760479	29.10179641	15.08982036
 245	44.958	60.843	18.054	28.26347305	24.31137725	14.25149701
 246	37.421	60.193	0	23.47305389	22.63473054	11.49700599
 247	84.011	33.849	42.612	60.23952096	14.8502994	21.43712575
 248	17.241	60.339	37.743	16.16766467	24.07185629	18.08383234
 249	50.65	17.261	53.278	19.4011976	7.904191617	19.52095808
 250	45.505	48.926	65.152	23.83233533	22.2754491	33.89221557
 251	44.567	84.081	39.649	43.59281437	50.2994012	32.09580838
 252	100	86.339	72.054	121.4371257	67.4251497	67.90419162
 253	68.14	61.135	0	48.74251497	25.98802395	15.56886228
 254	17.93	66.986	81.403	20.95808383	39.4011976	55.08982036
 255	39.242	60.215	48.926	24.91017964	26.58682635	25.02994012
 256	20.099	18.77	62.967	4.431137725	8.383233533	24.19161677
 257	34.553	100	14.582	53.17365269	72.21556886	34.8502994
 258	87.345	0	66.694	60.71856287	13.41317365	36.04790419
 259	0	43.714	39.842	7.185628743	13.29341317	13.53293413
 260	100	37.705	13.955	90.2994012	16.88622754	17.84431138
 261	31.265	86.993	0	38.56287425	50.53892216	24.07185629
 262	51.402	82.661	81.338	48.62275449	58.20359281	65.62874251
 263	100	100	12.984	134.6107784	80.71856287	47.06586826
 264	0	37.859	0	5.149700599	7.904191617	3.71257485
 265	62.092	58.215	100	42.8742515	42.15568862	82.8742515
 266	86.186	100	64.1	107.0658683	84.31137725	65.86826347
 267	100	35.251	85.898	90.17964072	28.62275449	64.19161677
 268	63.182	89.992	41.974	65.02994012	60.23952096	39.16167665
 269	13.504	100	0	45.98802395	71.61676647	32.69461078
 270	100	0	13.228	84.19161677	8.74251497	13.89221557
 271	63.881	40.826	100	37.24550898	31.61676647	78.44311377
 272	69.387	84.838	20.792	66.94610778	52.21556886	29.7005988
 273	0	70.279	45.136	20.11976048	33.89221557	25.50898204
 274	79.094	64.754	40.908	64.91017964	33.17365269	28.50299401
 275	62.385	54.099	17.396	39.04191617	20.47904192	13.89221557
 276	64.408	14.621	0	30.65868263	4.311377246	5.269461078
 277	70.028	15.606	44.651	37.24550898	8.023952096	17.00598802
 278	0	63.544	0	15.68862275	24.5508982	11.25748503
 279	83.475	47.274	20.502	62.8742515	19.04191617	16.52694611
 280	55.866	0	32.671	21.91616766	3.71257485	8.982035928
 281	58.007	0	100	25.38922156	21.19760479	73.17365269
 282	100	0	87.698	85.50898204	22.03592814	63.23353293
 283	0	13.792	67.215	1.317365269	8.383233533	27.18562874
 284	84.123	17.001	58.549	56.76646707	12.69461078	28.98203593
 285	59.579	32.873	15.966	28.86227545	8.862275449	8.023952096
 286	10.41	32.998	28.659	4.790419162	7.305389222	7.185628743
 287	17.231	40.031	85.65	8.862275449	22.2754491	51.85628743
 288	37.568	41.561	10.108	15.32934132	10.77844311	6.586826347
 289	0	69.015	85.092	20.11976048	42.39520958	60.11976048
 290	14.442	100	36.187	46.46706587	73.29341317	39.76047904
 291	100	40.549	0	90.65868263	17.96407186	17.24550898
 292	82.143	45.435	78.429	61.43712575	27.78443114	52.09580838
 293	52.674	0	67.3	20	9.221556886	29.94011976
 294	0	87.868	66.793	33.89221557	59.64071856	50.2994012
 295	86.53	100	40.524	106.8263473	79.28143713	50.89820359
 296	71.777	85.586	67.232	71.01796407	60.23952096	55.68862275
 297	43.216	100	31.671	58.08383234	74.25149701	39.76047904
 298	39.245	32.908	85.845	15.4491018	20	51.9760479
 299	0	45.662	67.543	8.383233533	19.52095808	32.81437126
 300	12.161	100	100	47.78443114	90.2994012	102.1556886
 301	67.049	0	85.516	33.77245509	16.16766467	52.45508982
 302	100	89.041	100	124.9101796	81.91616766	107.9041916
 303	20.246	60.698	56.526	17.36526946	27.4251497	28.98203593
 304	52.177	55.457	40.416	31.01796407	22.63473054	20.35928144
 305	72.617	87.018	83.932	73.89221557	67.18562874	75.20958084
 306	40.512	16.723	66.475	12.5748503	9.820359281	28.62275449
 307	68.507	49.232	50.605	44.07185629	21.67664671	26.46706587
 308	65.622	100	54.525	77.7245509	79.28143713	54.49101796
 309	54.115	37.24	66.394	25.86826347	16.88622754	32.93413174
 310	100	76.138	31.267	111.497006	47.66467066	35.68862275
 311	54.728	65.623	0	38.08383234	28.62275449	15.4491018
 312	63.126	12.526	64.37	29.82035928	10.53892216	29.46107784
 313	72.827	18.08	23.704	40.5988024	6.706586826	9.94011976
 314	23.268	15.278	34.947	4.550898204	3.473053892	7.664670659
 315	87.648	68.954	59.645	81.67664671	41.55688623	43.95209581
 316	0	85.595	85.198	32.45508982	61.79640719	69.82035928
 317	35.798	84.371	69.21	39.16167665	56.16766467	51.73652695
 318	36.062	47.494	35.919	17.00598802	15.80838323	14.13173653
 319	86.083	36.277	59.152	63.95209581	18.92215569	32.69461078
 320	58.21	100	30.361	69.46107784	75.08982036	41.19760479
 321	46.745	14.614	32.317	15.68862275	4.311377246	8.383233533
 322	81.573	73.869	86.954	76.52694611	53.77245509	73.29341317
 323	85.991	49.387	48.206	68.38323353	23.71257485	28.38323353
 324	28.062	87.906	19.654	38.20359281	52.81437126	26.58682635
 325	68.992	17.993	85.124	36.88622754	18.08383234	53.17365269
 326	100	66.147	100	104.9101796	54.37125749	94.37125749
 327	33.358	64.806	84.517	29.10179641	39.04191617	59.04191617
 328	41.351	17.736	80.522	13.41317365	14.01197605	43.59281437
 329	100	100	88.719	135.4491018	94.49101796	98.20359281
 330	66.336	0	44.32	32.09580838	6.22754491	15.68862275
 331	64.85	67.09	12.293	48.26347305	31.01796407	18.44311377
 332	15.262	31.268	63.277	5.508982036	11.85628743	26.10778443
 333	15.008	43.663	37.3	8.263473054	13.05389222	12.69461078
 334	0	57.895	38.078	12.81437126	21.91616766	16.88622754
 335	66.599	58.458	67.871	46.22754491	31.61676647	42.39520958
 336	59.191	18.651	15.215	25.62874251	4.790419162	5.988023952
 337	66.781	31.14	84.629	37.00598802	21.19760479	53.53293413
 338	88.033	85.158	52.14	94.73053892	59.16167665	47.18562874
 339	36.882	100	100	55.68862275	91.01796407	103.3532934
 340	26.102	33.094	17.006	8.143712575	6.826347305	5.02994012
 341	56.309	36.861	35.862	27.06586826	11.61676647	13.65269461
 342	45.839	65.587	67.033	31.73652695	35.20958084	40.95808383
 343	83.709	81.172	16.406	82.99401198	48.86227545	29.58083832
 344	0	48.132	13.005	8.502994012	13.53293413	7.185628743
 345	87.176	50.021	100	71.49700599	39.88023952	85.74850299
 346	51.219	84.244	13.73	48.14371257	48.38323353	25.26946108
 347	60.606	71.415	48.406	47.30538922	38.32335329	31.9760479
 348	0	11.359	12.718	0.4790419162	1.077844311	1.437125749
 349	86.429	49.705	33.145	68.74251497	21.91616766	21.43712575
 350	34.056	40.958	100	15.20958084	29.34131737	75.32934132
 351	100	30.557	59.628	88.0239521	19.28143713	35.92814371
 352	88.497	26.902	13.449	64.67065868	10.53892216	12.45508982
 353	14.167	51.98	88.218	12.69461078	29.82035928	58.32335329
 354	13.784	12.983	49.37	2.275449102	4.790419162	14.01197605
 355	15.018	88.441	48.062	35.20958084	56.16766467	37.24550898
 356	87.79	25.769	89.215	64.43113772	24.19161677	63.59281437
 357	0	33.206	55.865	4.311377246	10.77844311	20.47904192
 358	74.324	76.029	35.536	66.10778443	42.8742515	30.17964072
 359	65.863	57.223	42.324	49.7005988	25.26946108	23.47305389
 360	30.893	54.646	13.136	17.96407186	18.56287425	10.05988024
 361	0	34.36	28.321	4.191616766	7.664670659	7.185628743
 362	15.443	77.087	85.116	27.18562874	51.49700599	65.26946108
 363	63.381	68.947	68.521	48.62275449	39.88023952	46.22754491
 364	69.733	27.566	42.917	38.56287425	10.53892216	17.48502994
 365	32.754	100	42.76	51.9760479	74.61077844	43.95209581
 366	47.096	29.481	34.829	18.44311377	8.143712575	10.89820359
 367	8.5451	71.948	62.695	21.91616766	38.92215569	37.84431138
 368	0	86.048	29.3	31.37724551	50.2994012	27.06586826
 369	53.697	51.572	85.367	31.25748503	30.65868263	57.60479042
 370	17.608	56.69	12.515	14.13173653	19.52095808	9.94011976
 371	90.638	14.414	49.227	67.4251497	11.61676647	24.31137725
 372	63.248	63.64	89.55	46.10778443	42.2754491	69.10179641
 373	100	85.976	58.455	120	63.59281437	56.28742515
 374	9.8311	28.027	7.5567	3.473053892	4.431137725	2.634730539
 375	89.831	64.313	69.506	82.63473054	39.88023952	50.89820359
 376	31.754	12.995	25.543	7.065868263	2.634730539	4.910179641
 377	75.914	45.966	64.957	51.73652695	23.59281437	37.36526946
 378	7.5735	50.695	58.941	10.53892216	20.5988024	27.06586826
 379	100	69.835	58.912	106.3473054	44.67065868	47.66467066
 380	32.211	34.376	48.339	11.13772455	10.77844311	17.1257485
 381	13.901	12.159	73.555	2.754491018	9.94011976	33.53293413
 382	87.071	9.028	77.653	60.71856287	16.88622754	47.30538922
 383	23.272	85.409	84.29	35.32934132	60.83832335	68.26347305
 384	93.289	39.48	26.145	76.04790419	16.88622754	18.44311377
 385	65.769	59.63	30.967	45.1497006	26.10778443	19.64071856
 386	100	32.265	41.803	87.18562874	16.88622754	25.1497006
 387	86.568	85.281	86.961	92.09580838	67.90419162	80.95808383
 388	52.577	86.83	30.016	51.13772455	53.77245509	30.65868263
 389	47.921	40.199	76.902	22.51497006	20.83832335	43.71257485
 390	22.36	86.619	61.58	35.32934132	55.92814371	45.62874251
 391	52.232	33.601	88.787	24.31137725	22.2754491	57.7245509
 392	0	28.523	86.267	3.952095808	17.36526946	50.2994012
 393	43.497	67.879	39.551	31.25748503	32.21556886	23.35329341
 394	39.877	45.261	0	17.84431138	12.69461078	7.065868263
 395	86.94	12.43	24.699	59.76047904	7.784431138	12.69461078
 396	28.363	55.339	90.398	18.20359281	33.29341317	63.47305389
 397	39.018	70.534	57.879	30.2994012	36.88622754	34.8502994
 398	12.833	28.519	78.828	4.910179641	15.08982036	41.07784431
 399	68.35	31.815	69.975	38.20359281	17.1257485	37.36526946
 400	56.52	26.226	41.626	25.02994012	8.502994012	14.61077844
 401	12.938	46.218	0	8.74251497	12.21556886	5.748502994
 402	8.6938	60.179	26.117	14.49101796	22.63473054	13.53293413
 403	51.995	89.429	96.608	54.61077844	73.41317365	91.73652695
 404	46.905	47.746	48.909	23.59281437	18.32335329	21.67664671
 405	14.352	81.814	19.479	29.22155689	44.07185629	22.15568862
 406	71.482	38.117	12.273	42.99401198	12.21556886	10.41916168
 407	86.616	60.785	10.012	74.13173653	28.38323353	20
 408	71.811	88.979	52.186	73.29341317	61.43712575	45.74850299
 409	43.213	100	72.083	58.32335329	81.31736527	65.98802395
 410	73.92	23.444	8.2853	42.2754491	7.185628743	8.143712575
