data/calibration-002002.ti3
CTI3   
ORIGINATOR	"ColorHug Factory"
CREATED	"Sun May 26 09:56:24 2013"
DESCRIPTOR	"Calibration Target chart information 3"
DEVICE_CLASS	"DISPLAY"
COLOR_REP	"RGB_XYZ"
TARGET_INSTRUMENT	"Hughski ColorHug"
INSTRUMENT_TYPE_SPECTRAL	"NO"
NORMALIZED_TO_Y_100	"NO"
NUMBER_OF_FIELDS	7
NUMBER_OF_SETS	15
BEGIN_DATA_FORMAT
 SAMPLE_ID	RGB_R	RGB_G	RGB_B	XYZ_X	XYZ_Y	XYZ_Z
END_DATA_FORMAT
BEGIN_DATA
 1	0	0	0	0.0457763671875	0.0457763671875	0.091552734375
 2	1	1	1	45.6390380859375	39.4134521484375	53.466796875
 3	1	0	0	28.0609130859375	3.11279296875	4.5318603515625
 4	0	1	0	16.021728515625	27.1453857421875	13.092041015625
 5	0	0	1	0.9613037109375	9.1552734375	35.888671875
 6	0	0	0	0.0457763671875	0.0457763671875	0.091552734375
 7	1	1	1	45.41015625	39.0472412109375	53.4210205078125
 8	1	0	0	28.1524658203125	3.11279296875	4.5318603515625
 9	0	1	0	16.021728515625	27.3284912109375	13.092041015625
 10	0	0	1	0.9613037109375	9.1552734375	35.980224609375
 11	0	0	0	0.0457763671875	0.0457763671875	0.091552734375
 12	1	1	1	45.501708984375	39.36767578125	53.466796875
 13	1	0	0	28.1524658203125	3.11279296875	4.5318603515625
 14	0	1	0	16.0675048828125	27.3284912109375	13.092041015625
 15	0	0	1	0.9613037109375	9.1552734375	35.980224609375
END_DATA
