data/calibration-001905.ti3
CTI3   
ORIGINATOR	"ColorHug Factory"
CREATED	"Sat May 25 16:56:52 2013"
DESCRIPTOR	"Calibration Target chart information 3"
DEVICE_CLASS	"DISPLAY"
COLOR_REP	"RGB_XYZ"
TARGET_INSTRUMENT	"Hughski ColorHug"
INSTRUMENT_TYPE_SPECTRAL	"NO"
NORMALIZED_TO_Y_100	"NO"
NUMBER_OF_FIELDS	7
NUMBER_OF_SETS	15
BEGIN_DATA_FORMAT
 SAMPLE_ID	RGB_R	RGB_G	RGB_B	XYZ_X	XYZ_Y	XYZ_Z
END_DATA_FORMAT
BEGIN_DATA
 1	0	0	0	0.0457763671875	0.091552734375	0.1373291015625
 2	1	1	1	46.875	37.7655029296875	50.2166748046875
 3	1	0	0	29.022216796875	3.021240234375	4.119873046875
 4	0	1	0	16.0675048828125	26.8707275390625	12.0849609375
 5	0	0	1	0.9613037109375	8.331298828125	34.1949462890625
 6	0	0	0	0.0457763671875	0.091552734375	0.1373291015625
 7	1	1	1	46.7376708984375	37.9486083984375	50.3082275390625
 8	1	0	0	28.7017822265625	3.021240234375	4.119873046875
 9	0	1	0	16.0675048828125	26.641845703125	12.0849609375
 10	0	0	1	0.9613037109375	8.2855224609375	34.24072265625
 11	0	0	0	0.0457763671875	0.091552734375	0.1373291015625
 12	1	1	1	46.783447265625	37.6739501953125	50.2166748046875
 13	1	0	0	28.8848876953125	2.9754638671875	4.119873046875
 14	0	1	0	15.93017578125	26.458740234375	11.993408203125
 15	0	0	1	0.9613037109375	8.331298828125	34.332275390625
END_DATA
