data/calibration-001398.ti3
CTI3   
ORIGINATOR	"ColorHug Factory"
DESCRIPTOR	"Calibration Target chart information 3"
DEVICE_CLASS	"DISPLAY"
COLOR_REP	"RGB_XYZ"
TARGET_INSTRUMENT	"Hughski ColorHug"
INSTRUMENT_TYPE_SPECTRAL	"NO"
NORMALIZED_TO_Y_100	"NO"
NUMBER_OF_FIELDS	7
NUMBER_OF_SETS	15
BEGIN_DATA_FORMAT
 SAMPLE_ID	RGB_R	RGB_G	RGB_B	XYZ_X	XYZ_Y	XYZ_Z
END_DATA_FORMAT
BEGIN_DATA
 1	0	0	0	0.2288818359	0.2288818359	0.3204345703
 2	1	1	1	30.16662598	36.16333008	44.26574707
 3	1	0	0	17.39501953	2.655029297	3.25012207
 4	0	1	0	10.94055176	25.86364746	11.67297363
 5	0	0	1	0.9613037109	7.919311523	29.52575684
 6	0	0	0	0.2288818359	0.2746582031	0.3204345703
 7	1	1	1	30.07507324	36.34643555	44.31152344
 8	1	0	0	17.25769043	2.655029297	3.25012207
 9	0	1	0	10.94055176	25.72631836	11.67297363
 10	0	0	1	1.007080078	7.965087891	29.47998047
 11	0	0	0	0.2288818359	0.2746582031	0.3204345703
 12	1	1	1	30.12084961	36.39221191	44.49462891
 13	1	0	0	17.21191406	2.655029297	3.25012207
 14	0	1	0	10.94055176	25.72631836	11.67297363
 15	0	0	1	1.007080078	7.965087891	29.66308594
END_DATA
