data/calibration-001673.ti3
CTI3   
ORIGINATOR	"ColorHug Factory"
CREATED	"Thu Feb 14 22:57:35 2013"
DESCRIPTOR	"Calibration Target chart information 3"
DEVICE_CLASS	"DISPLAY"
COLOR_REP	"RGB_XYZ"
TARGET_INSTRUMENT	"Hughski ColorHug"
INSTRUMENT_TYPE_SPECTRAL	"NO"
NORMALIZED_TO_Y_100	"NO"
NUMBER_OF_FIELDS	7
NUMBER_OF_SETS	15
BEGIN_DATA_FORMAT
 SAMPLE_ID	RGB_R	RGB_G	RGB_B	XYZ_X	XYZ_Y	XYZ_Z
END_DATA_FORMAT
BEGIN_DATA
 1	0	0	0	0	0.04577636719	0.04577636719
 2	1	1	1	30.71594238	36.98730469	46.875
 3	1	0	0	17.7154541	2.517700195	3.067016602
 4	0	1	0	11.26098633	25.86364746	11.94763184
 5	0	0	1	0.8239746094	8.422851562	32.0892334
 6	0	0	0	0	0.04577636719	0.04577636719
 7	1	1	1	30.62438965	36.80419922	47.42431641
 8	1	0	0	17.7154541	2.517700195	3.067016602
 9	0	1	0	11.26098633	25.81787109	11.94763184
 10	0	0	1	0.8239746094	8.422851562	32.18078613
 11	0	0	0	0	0.04577636719	0.04577636719
 12	1	1	1	30.67016602	36.80419922	47.42431641
 13	1	0	0	17.66967773	2.517700195	3.067016602
 14	0	1	0	11.21520996	25.86364746	11.90185547
 15	0	0	1	0.8239746094	8.422851562	32.18078613
END_DATA
