data/calibration-001437.ti3
CTI3   
ORIGINATOR	"ColorHug Factory"
DESCRIPTOR	"Calibration Target chart information 3"
DEVICE_CLASS	"DISPLAY"
COLOR_REP	"RGB_XYZ"
TARGET_INSTRUMENT	"Hughski ColorHug"
INSTRUMENT_TYPE_SPECTRAL	"NO"
NORMALIZED_TO_Y_100	"NO"
NUMBER_OF_FIELDS	7
NUMBER_OF_SETS	15
BEGIN_DATA_FORMAT
 SAMPLE_ID	RGB_R	RGB_G	RGB_B	XYZ_X	XYZ_Y	XYZ_Z
END_DATA_FORMAT
BEGIN_DATA
 1	0	0	0	0.1831054688	0.1831054688	0.2288818359
 2	1	1	1	33.92028809	33.78295898	41.1529541
 3	1	0	0	20.46203613	2.700805664	3.570556641
 4	0	1	0	12.26806641	24.26147461	11.39831543
 5	0	0	1	0.9155273438	7.232666016	26.41296387
 6	0	0	0	0.1831054688	0.1831054688	0.2288818359
 7	1	1	1	34.24072266	33.82873535	41.1529541
 8	1	0	0	20.46203613	2.700805664	3.616333008
 9	0	1	0	12.22229004	24.12414551	11.3067627
 10	0	0	1	0.9155273438	7.232666016	26.2298584
 11	0	0	0	0.1831054688	0.1831054688	0.2288818359
 12	1	1	1	34.01184082	33.59985352	41.06140137
 13	1	0	0	20.5078125	2.700805664	3.570556641
 14	0	1	0	12.26806641	24.12414551	11.39831543
 15	0	0	1	0.9155273438	7.232666016	26.3671875
END_DATA
