data/calibration-000635.ti3
CTI3
ORIGINATOR	"ColorHug Factory"
DESCRIPTOR	"Calibration Target chart information 3"
DEVICE_CLASS	"DISPLAY"
COLOR_REP	"RGB_XYZ"
TARGET_INSTRUMENT	"Hughski ColorHug"
INSTRUMENT_TYPE_SPECTRAL	"NO"
NORMALIZED_TO_Y_100	"NO"
NUMBER_OF_FIELDS	7
NUMBER_OF_SETS	15
BEGIN_DATA_FORMAT
 SAMPLE_ID	RGB_R	RGB_G	RGB_B	XYZ_X	XYZ_Y	XYZ_Z
END_DATA_FORMAT
BEGIN_DATA
 1	0	0	0	0.04577636719	0	0.04577636719
 2	1	1	1	58.8684082	37.71972656	42.75512695
 3	1	0	0	37.21618652	3.524780273	5.310058594
 4	0	1	0	19.45495605	27.09960938	12.22229004
 5	0	0	1	0.8697509766	6.912231445	24.99389648
 6	0	0	0	0.04577636719	0	0.04577636719
 7	1	1	1	58.22753906	37.58239746	42.75512695
 8	1	0	0	37.35351562	3.524780273	5.310058594
 9	0	1	0	19.68383789	27.09960938	12.17651367
 10	0	0	1	0.8697509766	6.912231445	24.81079102
 11	0	0	0	0.04577636719	0	0.04577636719
 12	1	1	1	58.50219727	37.71972656	42.80090332
 13	1	0	0	37.35351562	3.524780273	5.310058594
 14	0	1	0	19.68383789	27.14538574	12.17651367
 15	0	0	1	0.8697509766	6.912231445	25.08544922
END_DATA
