data/calibration-001451.ti3
CTI3   
ORIGINATOR	"ColorHug Factory"
DESCRIPTOR	"Calibration Target chart information 3"
DEVICE_CLASS	"DISPLAY"
COLOR_REP	"RGB_XYZ"
TARGET_INSTRUMENT	"Hughski ColorHug"
INSTRUMENT_TYPE_SPECTRAL	"NO"
NORMALIZED_TO_Y_100	"NO"
NUMBER_OF_FIELDS	7
NUMBER_OF_SETS	15
BEGIN_DATA_FORMAT
 SAMPLE_ID	RGB_R	RGB_G	RGB_B	XYZ_X	XYZ_Y	XYZ_Z
END_DATA_FORMAT
BEGIN_DATA
 1	0	0	0	0.2288818359	0.2288818359	0.2746582031
 2	1	1	1	38.0859375	35.4309082	43.76220703
 3	1	0	0	22.93395996	2.838134766	3.799438477
 4	0	1	0	13.50402832	25.31433105	11.71875
 5	0	0	1	1.007080078	7.507324219	28.56445312
 6	0	0	0	0.2288818359	0.2288818359	0.2746582031
 7	1	1	1	37.8112793	35.38513184	43.6706543
 8	1	0	0	22.93395996	2.883911133	3.799438477
 9	0	1	0	13.45825195	25.31433105	11.81030273
 10	0	0	1	1.007080078	7.507324219	28.61022949
 11	0	0	0	0.2288818359	0.2288818359	0.2746582031
 12	1	1	1	38.04016113	35.47668457	43.8079834
 13	1	0	0	22.93395996	2.838134766	3.799438477
 14	0	1	0	13.41247559	25.40588379	11.81030273
 15	0	0	1	1.007080078	7.507324219	28.33557129
END_DATA
