data/calibration-000990.ti3
CTI3   
ORIGINATOR	"ColorHug Factory"
DESCRIPTOR	"Calibration Target chart information 3"
DEVICE_CLASS	"DISPLAY"
COLOR_REP	"RGB_XYZ"
TARGET_INSTRUMENT	"Hughski ColorHug"
INSTRUMENT_TYPE_SPECTRAL	"NO"
NORMALIZED_TO_Y_100	"NO"
NUMBER_OF_FIELDS	7
NUMBER_OF_SETS	15
BEGIN_DATA_FORMAT
 SAMPLE_ID	RGB_R	RGB_G	RGB_B	XYZ_X	XYZ_Y	XYZ_Z
END_DATA_FORMAT
BEGIN_DATA
 1	0	0	0	0.04577636719	0.04577636719	0.09155273438
 2	1	1	1	52.36816406	36.48376465	41.97692871
 3	1	0	0	33.05053711	3.433227539	4.898071289
 4	0	1	0	17.4407959	25.86364746	11.81030273
 5	0	0	1	0.8239746094	7.141113281	25.08544922
 6	0	0	0	0.09155273438	0.04577636719	0.09155273438
 7	1	1	1	52.36816406	36.57531738	41.97692871
 8	1	0	0	33.14208984	3.433227539	4.898071289
 9	0	1	0	17.39501953	25.90942383	11.76452637
 10	0	0	1	0.8239746094	7.141113281	25.17700195
 11	0	0	0	0.09155273438	0.04577636719	0.09155273438
 12	1	1	1	52.27661133	36.43798828	41.97692871
 13	1	0	0	33.00476074	3.433227539	4.898071289
 14	0	1	0	17.34924316	25.86364746	11.81030273
 15	0	0	1	0.8239746094	7.141113281	25.08544922
END_DATA
