data/calibration-002080.ti3
CTI3   
ORIGINATOR	"ColorHug Factory"
CREATED	"Sun Sep 15 20:22:42 2013"
DESCRIPTOR	"Calibration Target chart information 3"
DEVICE_CLASS	"DISPLAY"
COLOR_REP	"RGB_XYZ"
TARGET_INSTRUMENT	"Hughski ColorHug"
INSTRUMENT_TYPE_SPECTRAL	"NO"
NORMALIZED_TO_Y_100	"NO"
NUMBER_OF_FIELDS	7
NUMBER_OF_SETS	15
BEGIN_DATA_FORMAT
 SAMPLE_ID	RGB_R	RGB_G	RGB_B	XYZ_X	XYZ_Y	XYZ_Z
END_DATA_FORMAT
BEGIN_DATA
 1	0	0	0	0.091552734375	0	0.091552734375
 2	1	1	1	78.1402587890625	38.1317138671875	57.4951171875
 3	1	0	0	51.177978515625	3.8909912109375	7.14111328125
 4	0	1	0	25.0396728515625	25.2227783203125	13.092041015625
 5	0	0	1	1.190185546875	9.0179443359375	37.17041015625
 6	0	0	0	0.091552734375	0	0.091552734375
 7	1	1	1	78.0487060546875	38.0859375	57.4951171875
 8	1	0	0	51.177978515625	3.8909912109375	7.14111328125
 9	0	1	0	25.0396728515625	25.2227783203125	13.092041015625
 10	0	0	1	1.190185546875	9.0179443359375	36.9415283203125
 11	0	0	0	0.091552734375	0	0.091552734375
 12	1	1	1	78.826904296875	38.26904296875	57.1746826171875
 13	1	0	0	51.2237548828125	3.8909912109375	7.1868896484375
 14	0	1	0	25.177001953125	25.3143310546875	13.18359375
 15	0	0	1	1.190185546875	9.0179443359375	37.078857421875
END_DATA
