data/calibration-001664.ti3
CTI3   
ORIGINATOR	"ColorHug Factory"
CREATED	"Thu Feb 14 22:47:22 2013"
DESCRIPTOR	"Calibration Target chart information 3"
DEVICE_CLASS	"DISPLAY"
COLOR_REP	"RGB_XYZ"
TARGET_INSTRUMENT	"Hughski ColorHug"
INSTRUMENT_TYPE_SPECTRAL	"NO"
NORMALIZED_TO_Y_100	"NO"
NUMBER_OF_FIELDS	7
NUMBER_OF_SETS	15
BEGIN_DATA_FORMAT
 SAMPLE_ID	RGB_R	RGB_G	RGB_B	XYZ_X	XYZ_Y	XYZ_Z
END_DATA_FORMAT
BEGIN_DATA
 1	0	0	0	0.04577636719	0.09155273438	0.09155273438
 2	1	1	1	40.42053223	41.56494141	52.09350586
 3	1	0	0	24.12414551	3.021240234	3.845214844
 4	0	1	0	14.3737793	29.47998047	13.22937012
 5	0	0	1	0.9613037109	9.10949707	35.2935791
 6	0	0	0	0.04577636719	0.09155273438	0.09155273438
 7	1	1	1	40.32897949	41.38183594	52.13928223
 8	1	0	0	24.03259277	3.021240234	3.845214844
 9	0	1	0	14.28222656	29.1595459	13.13781738
 10	0	0	1	0.9613037109	9.10949707	35.47668457
 11	0	0	0	0.04577636719	0.09155273438	0.09155273438
 12	1	1	1	40.05432129	41.33605957	52.55126953
 13	1	0	0	23.89526367	3.021240234	3.845214844
 14	0	1	0	14.14489746	28.93066406	13.09204102
 15	0	0	1	0.9613037109	9.10949707	35.4309082
END_DATA
