data/calibration-002077.ti3
CTI3   
ORIGINATOR	"ColorHug Factory"
CREATED	"Sun Sep 15 20:14:25 2013"
DESCRIPTOR	"Calibration Target chart information 3"
DEVICE_CLASS	"DISPLAY"
COLOR_REP	"RGB_XYZ"
TARGET_INSTRUMENT	"Hughski ColorHug"
INSTRUMENT_TYPE_SPECTRAL	"NO"
NORMALIZED_TO_Y_100	"NO"
NUMBER_OF_FIELDS	7
NUMBER_OF_SETS	15
BEGIN_DATA_FORMAT
 SAMPLE_ID	RGB_R	RGB_G	RGB_B	XYZ_X	XYZ_Y	XYZ_Z
END_DATA_FORMAT
BEGIN_DATA
 1	0	0	0	0.2288818359375	0.18310546875	0.2288818359375
 2	1	1	1	81.6192626953125	39.36767578125	56.9000244140625
 3	1	0	0	52.3223876953125	4.39453125	7.415771484375
 4	0	1	0	26.3214111328125	26.18408203125	13.5040283203125
 5	0	0	1	1.4190673828125	9.063720703125	36.07177734375
 6	0	0	0	0.2288818359375	0.18310546875	0.2288818359375
 7	1	1	1	81.6192626953125	39.4134521484375	56.9000244140625
 8	1	0	0	52.3223876953125	4.39453125	7.415771484375
 9	0	1	0	26.3671875	26.2298583984375	13.458251953125
 10	0	0	1	1.4190673828125	9.0179443359375	36.346435546875
 11	0	0	0	0.2288818359375	0.18310546875	0.2288818359375
 12	1	1	1	81.6650390625	39.4134521484375	56.94580078125
 13	1	0	0	52.5970458984375	4.39453125	7.415771484375
 14	0	1	0	26.18408203125	26.2298583984375	13.458251953125
 15	0	0	1	1.4190673828125	9.063720703125	36.163330078125
END_DATA
