data/calibration-000026.ti3
CTI3
DESCRIPTOR	"Calibration Target chart information 3"
ORIGINATOR	"ColorHug Factory"
DEVICE_CLASS	"DISPLAY"
COLOR_REP	"RGB_XYZ"
TARGET_INSTRUMENT	"ColorHug"
INSTRUMENT_TYPE_SPECTRAL	"NO"
LUMINANCE_XYZ_CDM2	"51.898956 43.659210 46.520233"
NORMALIZED_TO_Y_100	"YES"
NUMBER_OF_FIELDS	7
NUMBER_OF_SETS	836
BEGIN_DATA_FORMAT
 SAMPLE_ID	RGB_R	RGB_G	RGB_B	XYZ_X	XYZ_Y	XYZ_Z
END_DATA_FORMAT
BEGIN_DATA
 1	100	100	100	117.7083333	100	105.2083333
 2	100	100	100	117.7083333	100	106.25
 3	100	100	100	119.2708333	98.95833333	105.2083333
 4	100	100	100	117.7083333	98.4375	106.7708333
 5	33.33	32.622	30.968	10.9375	8.333333333	8.854166667
 6	100	0	100	73.4375	26.5625	73.95833333
 7	100	100	0	116.1458333	81.25	44.79166667
 8	0	100	100	43.22916667	91.14583333	94.79166667
 9	0	100	0	41.66666667	73.4375	32.29166667
 10	0	0	100	2.083333333	18.22916667	60.9375
 11	100	0	0	69.79166667	8.333333333	11.97916667
 12	0	0	0	0	0	0.5208333333
 13	0	52.455	100	10.9375	34.89583333	69.79166667
 14	100	0	50.3	72.39583333	12.5	24.47916667
 15	100	54.739	100	85.41666667	45.83333333	81.25
 16	100	52.128	0	83.33333333	25	18.75
 17	0	0	46.181	1.041666667	3.125	10.41666667
 18	0	51.141	0	9.375	16.14583333	7.291666667
 19	0	100	51.348	41.14583333	77.60416667	46.35416667
 20	100	100	52.037	117.7083333	84.89583333	57.8125
 21	49.216	0	0	15.625	2.083333333	2.083333333
 22	56.159	100	0	61.45833333	75.52083333	35.41666667
 23	49.226	100	100	57.29166667	93.22916667	96.875
 24	44.487	0	100	14.0625	19.27083333	64.0625
 25	100	44.498	52.029	79.16666667	24.47916667	31.25
 26	48.926	48.544	100	23.95833333	34.375	71.35416667
 27	51.368	100	47.25	56.77083333	78.64583333	46.35416667
 28	49.893	0	49.033	15.625	5.729166667	14.58333333
 29	53.109	51.372	0	26.5625	18.22916667	9.895833333
 30	0	58.587	53.943	13.02083333	26.04166667	23.95833333
 31	100	28.065	100	76.04166667	31.25	75
 32	0	0	72.874	1.041666667	8.333333333	29.16666667
 33	0	26.758	100	4.166666667	22.39583333	63.54166667
 34	0	25.426	0	2.083333333	3.645833333	2.083333333
 35	72.508	0	100	34.89583333	22.39583333	66.66666667
 36	100	27.395	0	74.47916667	13.02083333	13.54166667
 37	74.47	100	100	79.6875	94.27083333	100.5208333
 38	100	0	25.728	72.91666667	9.375	15.10416667
 39	73.862	0	0	35.9375	4.166666667	5.729166667
 40	100	100	25.402	115.625	83.33333333	47.39583333
 41	0	75.751	100	23.95833333	55.72916667	79.16666667
 42	0	75.172	0	21.35416667	36.97916667	17.1875
 43	0	100	25.864	41.66666667	72.91666667	35.9375
 44	100	0	74.801	72.91666667	17.70833333	42.70833333
 45	0	100	75.421	42.1875	82.29166667	64.58333333
 46	24.577	0	0	3.645833333	0.5208333333	0.5208333333
 47	26.321	100	0	45.3125	72.39583333	33.33333333
 48	100	75.835	0	94.79166667	47.39583333	29.16666667
 49	100	100	77.061	118.2291667	90.10416667	77.60416667
 50	71.263	100	0	75	76.5625	38.02083333
 51	0	0	15.614	0.5208333333	0.5208333333	1.041666667
 52	0	30.049	70.936	3.645833333	13.54166667	29.6875
 53	100	77.691	100	98.4375	67.70833333	91.66666667
 54	24.486	100	100	47.39583333	91.66666667	93.75
 55	100	62.784	31.909	88.02083333	35.9375	27.60416667
 56	29.552	0	100	6.770833333	18.75	62.5
 57	32.98	70.921	100	27.08333333	51.04166667	78.125
 58	0	27.681	40.241	3.125	6.770833333	9.895833333
 59	67.901	71.021	100	48.95833333	54.16666667	81.77083333
 60	28.154	100	67.829	46.35416667	81.77083333	57.8125
 61	71.637	100	70.001	76.04166667	84.375	65.10416667
 62	58.822	58.763	53.586	35.41666667	28.64583333	27.60416667
 63	33.466	30.48	0	9.895833333	6.25	3.645833333
 64	100	73.795	71.277	95.3125	52.60416667	55.72916667
 65	68.394	29.692	0	33.33333333	8.854166667	6.770833333
 66	70.399	0	29.039	31.77083333	5.208333333	9.375
 67	28.078	0	26.956	4.6875	1.5625	4.166666667
 68	28.532	72.339	0	24.47916667	34.89583333	16.14583333
 69	100	30.941	26.496	75.52083333	14.58333333	17.70833333
 70	34.597	0	73.611	8.333333333	9.375	31.25
 71	71.573	0	72.408	32.8125	12.5	34.375
 72	0	71.029	29.412	19.27083333	34.375	19.27083333
 73	68.386	75.008	0	51.04166667	40.625	21.35416667
 74	68.088	27.309	100	33.85416667	26.04166667	68.75
 75	100	26.457	73.749	76.04166667	21.35416667	43.22916667
 76	74.344	100	27.392	78.125	78.125	42.70833333
 77	27.558	100	28.197	46.35416667	75	36.97916667
 78	31.196	27.465	100	10.41666667	22.91666667	64.58333333
 79	0	75.521	72.824	21.875	46.875	46.35416667
 80	0	50.93	25.553	8.854166667	17.1875	10.41666667
 81	32.06	33.584	64.033	10.41666667	13.54166667	25.52083333
 82	81.666	55.38	0	56.25	25	15.625
 83	68.257	32.751	58.286	33.85416667	15.10416667	25.52083333
 84	0	55.248	81.585	11.97916667	30.20833333	46.875
 85	73.781	52.099	100	46.875	39.58333333	73.95833333
 86	100	50.537	82.952	83.33333333	35.9375	57.8125
 87	23.55	0	50.439	4.166666667	4.166666667	13.54166667
 88	31.335	62.746	31.114	19.79166667	27.08333333	16.66666667
 89	100	18.31	49.418	74.47916667	14.0625	25
 90	26.498	48.404	0	31.25	14.58333333	7.291666667
 91	47.91	100	85.744	56.25	88.02083333	77.08333333
 92	71.829	47.313	31.811	42.1875	18.75	16.66666667
 93	31.304	64.132	69.316	21.875	34.89583333	38.02083333
 94	80.403	0	54.321	42.70833333	9.375	22.39583333
 95	18.455	50.036	100	12.5	33.85416667	68.75
 96	50.653	100	16.345	56.77083333	74.47916667	36.45833333
 97	80.121	100	52.261	85.41666667	83.33333333	53.64583333
 98	0	22.54	19.289	22.39583333	3.645833333	3.645833333
 99	100	75.273	46.886	90.625	50	39.0625
 100	0	78.618	56.625	24.47916667	46.35416667	35.41666667
 101	51.137	80.627	100	42.1875	63.54166667	84.375
 102	48.446	0	17.864	14.58333333	2.604166667	3.645833333
 103	100	50.023	21.211	81.77083333	23.95833333	20.83333333
 104	50.115	20.118	0	16.66666667	4.166666667	3.645833333
 105	58.099	72.426	33.158	40.625	38.02083333	24.47916667
 106	19.364	100	50.197	43.22916667	78.125	45.83333333
 107	50.683	19.177	100	18.75	22.39583333	65.625
 108	53.37	0	81.576	18.75	13.54166667	40.625
 109	47.768	76.245	0	34.89583333	40.10416667	19.79166667
 110	0	18.927	55.503	2.083333333	6.770833333	16.66666667
 111	0	13.277	0	1.041666667	1.041666667	0.5208333333
 112	72.862	72.473	75.625	54.16666667	46.875	53.125
 113	100	13.904	0	72.91666667	9.895833333	11.97916667
 114	86.349	0	100	55.72916667	24.47916667	69.27083333
 115	100	41.941	100	79.6875	37.5	78.64583333
 116	100	81.785	16.464	101.0416667	54.6875	33.33333333
 117	0	44.063	52.596	7.291666667	16.14583333	19.27083333
 118	0	0	58.917	0.5208333333	5.208333333	18.22916667
 119	59.25	24.551	29.789	18.75	7.291666667	9.375
 120	82.73	82.874	100	45.83333333	70.83333333	90.625
 121	80.039	0	12.618	46.35416667	5.729166667	7.8125
 122	60.957	47.729	77.817	31.77083333	26.5625	44.79166667
 123	100	0	38.618	72.91666667	10.9375	18.75
 124	0	40.09	100	7.291666667	28.125	65.625
 125	0	15.283	82.322	2.083333333	12.5	39.58333333
 126	17.592	81.726	100	29.6875	63.54166667	81.77083333
 127	100	14.13	100	75	28.125	72.91666667
 128	15.261	100	82.059	44.27083333	83.33333333	71.875
 129	47.77	79.418	60.389	38.54166667	49.47916667	40.10416667
 130	18.768	16.429	0	3.645833333	2.083333333	1.041666667
 131	55.634	100	65.763	60.9375	81.25	58.85416667
 132	100	100	38.541	115.1041667	84.375	52.08333333
 133	17.421	0	83.497	3.645833333	11.97916667	39.58333333
 134	17.237	16.758	100	4.166666667	20.3125	62.5
 135	0	15.067	30.039	1.041666667	3.125	4.6875
 136	0	0	86.505	1.5625	13.02083333	42.70833333
 137	75.736	72.799	50.02	56.77083333	43.22916667	34.375
 138	100	83.323	85.529	103.125	67.70833333	76.04166667
 139	100	100	64.894	117.7083333	89.0625	66.14583333
 140	81.98	84.914	0	76.5625	54.6875	29.16666667
 141	0	63.757	15.49	15.10416667	26.04166667	12.5
 142	49.514	66.135	100	32.29166667	47.91666667	76.04166667
 143	100	0	61.862	72.39583333	14.58333333	31.77083333
 144	24.308	45.41	49.831	10.9375	16.66666667	19.27083333
 145	15.963	0	17.047	1.5625	1.041666667	1.5625
 146	87.497	100	100	94.27083333	96.875	103.125
 147	52.099	25.003	75.752	19.79166667	15.10416667	35.41666667
 148	14.909	81.162	0	27.08333333	44.79166667	19.79166667
 149	0	34.792	14.626	4.166666667	7.291666667	4.6875
 150	48.39	45.075	22.552	20.83333333	14.58333333	10.41666667
 151	83.545	65.965	100	65.625	52.08333333	81.77083333
 152	16.226	62.345	0	15.625	25	11.45833333
 153	63.222	0	14.914	25	3.645833333	5.208333333
 154	80.449	13.446	0	43.22916667	6.25	7.8125
 155	83.917	41.562	0	53.125	15.625	12.5
 156	100	60.448	46.3	86.45833333	35.41666667	32.29166667
 157	15.584	0	34.795	1.5625	2.083333333	6.25
 158	17.144	65.121	100	18.75	45.83333333	73.95833333
 159	83.602	55.334	62.667	58.33333333	30.72916667	37.5
 160	0	82.19	14.22	26.04166667	46.875	21.35416667
 161	25.132	74.856	50.616	25.52083333	41.66666667	29.6875
 162	0	13.769	100	2.604166667	19.27083333	63.02083333
 163	87.181	0	0	49.47916667	6.770833333	8.333333333
 164	0	100	39.19	41.66666667	76.04166667	39.58333333
 165	78.047	65.914	19.865	57.29166667	33.85416667	20.83333333
 166	100	63.961	15.865	89.0625	34.89583333	24.47916667
 167	100	45.955	36.032	80.20833333	22.91666667	23.95833333
 168	15.926	100	16.89	42.70833333	72.91666667	34.375
 169	41.459	100	0	51.04166667	73.4375	34.375
 170	48.707	37.288	48.139	19.79166667	13.54166667	17.70833333
 171	83.381	100	13.285	89.0625	79.16666667	41.14583333
 172	78.129	25.303	75.621	43.22916667	18.22916667	39.58333333
 173	12.396	0	0	1.041666667	0.5208333333	0.5208333333
 174	37.607	48.336	83.346	17.1875	26.5625	48.4375
 175	35.588	15.356	0	8.333333333	2.604166667	1.5625
 176	61.245	100	100	65.625	92.70833333	98.4375
 177	100	67.29	87.195	90.625	51.04166667	69.27083333
 178	0	0	30.615	0.5208333333	1.5625	4.166666667
 179	35.187	81.789	83.323	33.85416667	58.33333333	60.9375
 180	39.525	80.194	22.879	33.33333333	44.79166667	23.95833333
 181	50.634	34.593	0	20.3125	8.854166667	5.729166667
 182	14.175	100	63.146	43.22916667	78.125	54.6875
 183	83.493	17.728	34.574	47.91666667	9.375	14.0625
 184	23.463	22.014	79.943	5.729166667	14.0625	38.02083333
 185	18.066	31.847	0	5.208333333	6.25	3.125
 186	87.201	100	81.361	95.83333333	90.625	78.64583333
 187	0	100	87.95	43.22916667	86.45833333	77.08333333
 188	34.476	17.888	46.22	8.333333333	6.25	12.5
 189	18.277	0	67.39	2.604166667	7.291666667	24.47916667
 190	100	87.972	0	104.1666667	63.02083333	35.9375
 191	82.925	34.85	100	52.60416667	30.72916667	71.875
 192	0	88.016	100	32.29166667	70.83333333	86.45833333
 193	36.104	85.655	100	37.5	69.79166667	85.9375
 194	60.981	0	0	23.4375	3.125	3.645833333
 195	51.466	61.826	78.106	31.25	35.9375	47.39583333
 196	78.427	31.983	22.175	42.70833333	11.97916667	11.45833333
 197	66.017	44.321	0	33.85416667	15.625	9.895833333
 198	83.941	0	84.177	48.4375	18.22916667	47.91666667
 199	20.158	46.612	23.269	10.41666667	14.0625	8.854166667
 200	0	100	62.618	41.66666667	79.6875	52.60416667
 201	33.832	0	13.933	6.770833333	1.5625	2.083333333
 202	100	17.286	16.322	71.875	10.41666667	13.54166667
 203	0	42.204	83.926	8.854166667	22.91666667	44.79166667
 204	0	87.774	0	30.72916667	53.125	23.95833333
 205	64.988	0	59.017	27.60416667	8.333333333	22.39583333
 206	14.677	0	100	3.125	18.22916667	61.97916667
 207	88.934	82.673	35.021	80.72916667	54.16666667	35.9375
 208	0	63.778	100	16.66666667	44.27083333	73.4375
 209	83.429	17.674	100	48.95833333	26.04166667	70.3125
 210	30.899	100	85.668	47.91666667	85.41666667	76.04166667
 211	83.68	0	41.016	46.875	8.333333333	15.625
 212	100	63.515	0	69.27083333	33.33333333	23.4375
 213	85.074	69.987	0	75	37.5	21.875
 214	20.801	45.524	69.018	11.97916667	20.83333333	31.25
 215	21.382	82.482	73.017	29.6875	54.6875	51.04166667
 216	100	15.128	64.249	72.91666667	16.66666667	33.33333333
 217	36.522	0	58.427	9.375	5.729166667	19.27083333
 218	22.466	81.296	33.007	27.60416667	46.875	26.04166667
 219	62.531	87.152	0	54.16666667	55.20833333	27.08333333
 220	84.12	85.397	67.886	75	63.54166667	54.6875
 221	18.87	27.336	45.389	5.208333333	7.8125	12.5
 222	66.439	100	14.444	66.66666667	77.08333333	38.02083333
 223	41.636	22.147	19.003	13.02083333	4.6875	4.6875
 224	61.271	100	81.94	65.10416667	86.97916667	73.95833333
 225	86.013	100	0	92.1875	79.16666667	41.14583333
 226	37.57	0	0	8.854166667	1.041666667	1.041666667
 227	100	16.132	84.102	72.91666667	21.875	52.60416667
 228	0	100	13.619	41.14583333	73.95833333	33.85416667
 229	38.905	100	56.471	50.52083333	78.64583333	50.52083333
 230	100	15.382	34.563	73.4375	11.97916667	17.70833333
 231	36.656	14.908	100	30.72916667	20.3125	63.54166667
 232	0	62.593	66.608	14.0625	32.29166667	34.89583333
 233	66.347	12.528	100	29.6875	22.39583333	67.1875
 234	100	43.375	69.233	80.20833333	28.125	41.66666667
 235	100	56.36	61.236	83.33333333	34.375	40.625
 236	0	86.194	44.955	29.6875	53.64583333	32.8125
 237	64.527	87.262	100	57.29166667	73.95833333	90.10416667
 238	34.411	0	42.471	16.14583333	3.125	10.41666667
 239	80.23	59.707	85.12	57.29166667	40.10416667	58.33333333
 240	20.625	19.056	14.791	4.166666667	2.604166667	2.604166667
 241	15.341	34.221	100	6.770833333	25.52083333	64.58333333
 242	36.777	0	87.905	8.854166667	14.0625	46.875
 243	34.598	56.247	100	20.3125	38.02083333	72.39583333
 244	20.86	67.629	17.418	19.27083333	29.6875	15.625
 245	44.958	60.843	18.054	25	25.52083333	14.0625
 246	37.421	60.193	0	21.35416667	23.4375	11.45833333
 247	84.011	33.849	42.612	52.08333333	15.10416667	19.27083333
 248	17.241	60.339	37.743	15.625	25	17.1875
 249	50.65	17.261	53.278	17.1875	8.333333333	17.70833333
 250	45.505	48.926	65.152	21.35416667	22.91666667	31.25
 251	44.567	84.081	39.649	39.58333333	52.60416667	30.72916667
 252	100	86.339	72.054	61.45833333	67.70833333	63.54166667
 253	68.14	61.135	0	43.75	27.08333333	15.10416667
 254	17.93	66.986	81.403	20.83333333	40.10416667	51.04166667
 255	39.242	60.215	48.926	22.91666667	27.08333333	23.95833333
 256	20.099	18.77	62.967	4.166666667	8.854166667	21.875
 257	34.553	100	14.582	47.39583333	73.95833333	34.89583333
 258	87.345	0	66.694	52.60416667	13.54166667	31.77083333
 259	0	43.714	39.842	7.291666667	13.54166667	13.54166667
 260	100	37.705	13.955	76.04166667	17.70833333	16.14583333
 261	31.265	86.993	0	35.9375	52.60416667	23.95833333
 262	51.402	82.661	81.338	43.75	58.33333333	61.45833333
 263	100	100	12.984	113.0208333	81.77083333	45.83333333
 264	0	37.859	0	6.25	8.854166667	3.645833333
 265	62.092	58.215	100	38.02083333	42.1875	74.47916667
 266	86.186	100	64.1	92.70833333	84.375	63.54166667
 267	100	35.251	85.898	76.5625	28.64583333	58.33333333
 268	63.182	89.992	41.974	58.33333333	61.97916667	38.02083333
 269	13.504	100	0	42.70833333	72.39583333	32.8125
 270	100	0	13.228	71.875	8.854166667	12.5
 271	63.881	40.826	100	33.33333333	31.25	70.3125
 272	69.387	84.838	20.792	58.85416667	53.125	29.16666667
 273	0	70.279	45.136	18.75	35.41666667	25
 274	79.094	64.754	40.908	57.8125	33.85416667	27.08333333
 275	62.385	54.099	17.396	34.89583333	21.35416667	13.54166667
 276	64.408	14.621	0	29.6875	4.6875	4.6875
 277	70.028	15.606	44.651	32.29166667	8.333333333	15.625
 278	0	63.544	0	15.10416667	26.04166667	11.97916667
 279	83.475	47.274	20.502	41.14583333	19.79166667	15.625
 280	55.866	0	32.671	19.27083333	4.166666667	8.333333333
 281	58.007	0	100	22.39583333	20.83333333	65.10416667
 282	100	0	87.698	73.4375	21.875	55.72916667
 283	0	13.792	67.215	1.5625	8.333333333	25
 284	84.123	17.001	58.549	49.47916667	12.5	26.04166667
 285	59.579	32.873	15.966	25.52083333	9.375	7.8125
 286	10.41	32.998	28.659	4.6875	7.8125	7.291666667
 287	17.231	40.031	85.65	8.333333333	22.39583333	46.875
 288	37.568	41.561	10.108	13.54166667	10.9375	6.770833333
 289	0	69.015	85.092	18.22916667	43.22916667	55.72916667
 290	14.442	100	36.187	42.70833333	75.52083333	38.54166667
 291	100	40.549	0	78.64583333	18.22916667	15.625
 292	82.143	45.435	78.429	53.125	28.125	47.91666667
 293	52.674	0	67.3	17.70833333	9.375	26.5625
 294	0	87.868	66.793	31.25	59.89583333	48.4375
 295	86.53	100	40.524	94.27083333	81.77083333	48.4375
 296	71.777	85.586	67.232	69.79166667	61.97916667	51.5625
 297	43.216	100	31.671	52.08333333	75	39.0625
 298	39.245	32.908	85.845	14.58333333	19.79166667	47.39583333
 299	0	45.662	67.543	8.854166667	20.3125	30.20833333
 300	12.161	100	100	42.70833333	91.14583333	93.75
 301	67.049	0	85.516	29.6875	16.14583333	47.39583333
 302	100	89.041	100	107.8125	82.29166667	97.39583333
 303	20.246	60.698	56.526	17.1875	28.125	27.60416667
 304	52.177	55.457	40.416	27.60416667	23.4375	19.27083333
 305	72.617	87.018	83.932	65.625	68.22916667	68.75
 306	40.512	16.723	66.475	11.97916667	9.375	26.5625
 307	68.507	49.232	50.605	38.02083333	22.39583333	25
 308	65.622	100	54.525	69.79166667	80.20833333	52.08333333
 309	54.115	37.24	66.394	23.4375	17.1875	30.72916667
 310	100	76.138	31.267	94.79166667	48.95833333	33.85416667
 311	54.728	65.623	0	34.375	29.16666667	15.625
 312	63.126	12.526	64.37	26.04166667	10.9375	26.04166667
 313	72.827	18.08	23.704	35.41666667	6.770833333	9.375
 314	23.268	15.278	34.947	4.166666667	3.645833333	7.291666667
 315	87.648	68.954	59.645	70.3125	42.1875	41.14583333
 316	0	85.595	85.198	31.25	63.02083333	64.0625
 317	35.798	84.371	69.21	35.41666667	56.77083333	49.47916667
 318	36.062	47.494	35.919	16.14583333	16.14583333	13.54166667
 319	86.083	36.277	59.152	54.6875	19.27083333	29.6875
 320	58.21	100	30.361	61.97916667	77.60416667	40.10416667
 321	46.745	14.614	32.317	14.58333333	4.166666667	7.8125
 322	81.573	73.869	86.954	66.14583333	54.6875	67.1875
 323	85.991	49.387	48.206	58.33333333	24.47916667	26.5625
 324	28.062	87.906	19.654	35.41666667	54.6875	26.5625
 325	68.992	17.993	85.124	32.29166667	18.22916667	47.39583333
 326	100	66.147	100	90.625	54.16666667	86.45833333
 327	33.358	64.806	84.517	22.91666667	40.10416667	54.16666667
 328	41.351	17.736	80.522	12.5	13.54166667	39.58333333
 329	100	100	88.719	114.5833333	95.3125	91.14583333
 330	66.336	0	44.32	28.64583333	6.25	14.58333333
 331	64.85	67.09	12.293	43.22916667	32.29166667	18.22916667
 332	15.262	31.268	63.277	8.854166667	12.5	23.4375
 333	15.008	43.663	37.3	8.333333333	13.54166667	12.5
 334	0	57.895	38.078	12.5	22.91666667	16.14583333
 335	66.599	58.458	67.871	36.45833333	31.77083333	39.58333333
 336	59.191	18.651	15.215	23.4375	4.6875	5.729166667
 337	66.781	31.14	84.629	32.29166667	21.35416667	48.4375
 338	88.033	85.158	52.14	82.8125	59.375	44.79166667
 339	36.882	100	100	51.5625	91.66666667	94.79166667
 340	26.102	33.094	17.006	7.291666667	7.291666667	5.208333333
 341	56.309	36.861	35.862	23.4375	11.97916667	13.02083333
 342	45.839	65.587	67.033	28.64583333	36.45833333	38.02083333
 343	83.709	81.172	16.406	67.1875	50	28.64583333
 344	0	48.132	13.005	8.333333333	14.58333333	7.291666667
 345	87.176	50.021	100	62.5	39.58333333	76.5625
 346	51.219	84.244	13.73	42.70833333	51.04166667	25
 347	60.606	71.415	48.406	42.70833333	39.58333333	29.6875
 348	0	11.359	12.718	0.5208333333	1.041666667	1.5625
 349	86.429	49.705	33.145	59.375	22.39583333	20.3125
 350	34.056	40.958	100	14.58333333	29.16666667	68.22916667
 351	100	30.557	59.628	74.47916667	19.79166667	32.8125
 352	88.497	26.902	13.449	55.72916667	10.9375	11.45833333
 353	14.167	51.98	88.218	11.97916667	30.20833333	53.125
 354	13.784	12.983	49.37	2.604166667	4.6875	13.02083333
 355	15.018	88.441	48.062	32.8125	57.29166667	35.9375
 356	87.79	25.769	89.215	55.20833333	24.47916667	56.77083333
 357	0	33.206	55.865	4.166666667	10.9375	19.27083333
 358	74.324	76.029	35.536	56.77083333	44.27083333	28.64583333
 359	65.863	57.223	42.324	38.54166667	26.04166667	22.39583333
 360	30.893	54.646	13.136	16.14583333	19.27083333	10.41666667
 361	0	34.36	28.321	4.166666667	8.333333333	6.770833333
 362	15.443	77.087	85.116	25.52083333	52.08333333	59.375
 363	63.381	68.947	68.521	42.1875	40.625	43.75
 364	69.733	27.566	42.917	33.85416667	10.9375	16.14583333
 365	32.754	100	42.76	46.35416667	76.04166667	42.70833333
 366	47.096	29.481	34.829	16.66666667	8.333333333	10.41666667
 367	8.5451	71.948	62.695	20.3125	40.10416667	35.41666667
 368	0	86.048	29.3	28.64583333	52.60416667	26.5625
 369	53.697	51.572	85.367	27.08333333	30.72916667	52.60416667
 370	17.608	56.69	12.515	13.54166667	20.3125	9.895833333
 371	90.638	14.414	49.227	57.29166667	11.45833333	21.875
 372	63.248	63.64	89.55	41.66666667	42.70833333	61.97916667
 373	100	85.976	58.455	102.6041667	64.58333333	53.125
 374	9.8311	28.027	7.5567	3.645833333	4.6875	2.604166667
 375	89.831	64.313	69.506	71.35416667	40.10416667	47.39583333
 376	31.754	12.995	25.543	6.770833333	2.604166667	4.6875
 377	75.914	45.966	64.957	45.3125	23.95833333	33.85416667
 378	7.5735	50.695	58.941	9.895833333	20.83333333	25.52083333
 379	100	69.835	58.912	90.625	45.83333333	43.75
 380	32.211	34.376	48.339	10.41666667	11.45833333	15.625
 381	13.901	12.159	73.555	2.604166667	9.895833333	30.20833333
 382	87.071	9.028	77.653	52.08333333	16.66666667	42.70833333
 383	23.272	85.409	84.29	32.8125	62.5	63.02083333
 384	93.289	39.48	26.145	66.14583333	17.1875	17.1875
 385	65.769	59.63	30.967	40.10416667	27.08333333	18.75
 386	100	32.265	41.803	74.47916667	17.1875	22.91666667
 387	86.568	85.281	86.961	81.77083333	67.70833333	75
 388	52.577	86.83	30.016	46.35416667	55.72916667	30.20833333
 389	47.921	40.199	76.902	42.1875	20.83333333	40.10416667
 390	22.36	86.619	61.58	31.25	57.8125	43.75
 391	52.232	33.601	88.787	21.35416667	22.39583333	52.60416667
 392	0	28.523	86.267	4.166666667	17.1875	44.79166667
 393	43.497	67.879	39.551	27.60416667	32.8125	22.91666667
 394	39.877	45.261	0	20.3125	13.54166667	7.291666667
 395	86.94	12.43	24.699	51.04166667	7.8125	11.97916667
 396	28.363	55.339	90.398	17.1875	34.375	57.29166667
 397	39.018	70.534	57.879	27.60416667	37.5	33.85416667
 398	12.833	28.519	78.828	4.6875	15.10416667	37.5
 399	68.35	31.815	69.975	33.33333333	17.1875	34.375
 400	56.52	26.226	41.626	22.39583333	8.333333333	14.0625
 401	12.938	46.218	0	8.333333333	13.02083333	6.25
 402	8.6938	60.179	26.117	13.54166667	23.95833333	13.54166667
 403	51.995	89.429	96.608	49.47916667	72.91666667	84.375
 404	46.905	47.746	48.909	21.35416667	18.75	20.83333333
 405	14.352	81.814	19.479	27.08333333	45.3125	22.39583333
 406	71.482	38.117	12.273	35.9375	13.02083333	9.895833333
 407	86.616	60.785	10.012	65.10416667	29.6875	18.75
 408	71.811	88.979	52.186	65.625	62.5	43.75
 409	43.213	100	72.083	52.08333333	82.8125	63.02083333
 410	73.92	23.444	8.2853	37.5	7.8125	7.291666667
 411	40.629	85.534	53.423	38.02083333	56.25	39.0625
 412	38.955	52.128	22.885	35.41666667	18.75	11.45833333
 413	46.48	12.229	8.6707	13.02083333	3.125	3.125
 414	40.855	33.301	22.309	13.54166667	8.333333333	6.770833333
 415	76.365	66.787	61.06	48.4375	38.02083333	38.54166667
 416	7.5076	12.025	20.59	1.5625	1.5625	2.604166667
 417	85.93	27.031	0	52.60416667	10.41666667	9.895833333
 418	100	87.757	44.06	104.1666667	65.10416667	44.79166667
 419	41.543	25.624	54.896	13.02083333	9.375	18.75
 420	59.533	76.669	91.789	41.14583333	56.25	70.83333333
 421	58.226	12.079	28.862	31.77083333	4.6875	7.8125
 422	50.514	8.8602	88.281	17.70833333	15.625	48.95833333
 423	41.983	0	31.301	10.41666667	2.604166667	6.770833333
 424	28.024	36.455	77.877	9.375	18.75	38.54166667
 425	12.718	41.027	11.129	6.770833333	10.41666667	5.729166667
 426	26.194	75.573	88.088	26.5625	51.04166667	62.5
 427	28.936	71.474	37.671	23.95833333	35.41666667	22.91666667
 428	90.497	74.77	26.512	78.64583333	44.27083333	28.64583333
 429	17.514	75.984	41.507	23.95833333	40.625	26.04166667
 430	16.621	64.069	68.891	17.1875	33.85416667	37.5
 431	12.42	21.661	36.669	2.604166667	5.208333333	7.8125
 432	52.915	46.814	10.465	23.95833333	15.625	9.375
 433	56.979	91.194	52.49	47.91666667	64.58333333	43.75
 434	25.14	52.299	42.419	14.0625	20.3125	17.1875
 435	25.587	6.8296	13.004	4.166666667	1.041666667	2.083333333
 436	55.018	14.818	41.328	19.27083333	6.25	11.97916667
 437	93.397	56.942	87.959	73.4375	41.14583333	64.0625
 438	28.374	12.057	85.683	6.25	14.0625	43.75
 439	78.265	6.7088	92.468	36.45833333	20.3125	57.29166667
 440	39.694	71.314	6.3658	28.125	33.85416667	17.1875
 441	73.259	45.059	87.294	41.14583333	29.6875	55.20833333
 442	26.381	57.692	76.454	17.70833333	30.72916667	42.1875
 443	66.587	33.629	31.299	31.77083333	11.45833333	11.97916667
