data/calibration-001205.ti3
CTI3   
ORIGINATOR	"ColorHug Factory"
DESCRIPTOR	"Calibration Target chart information 3"
DEVICE_CLASS	"DISPLAY"
COLOR_REP	"RGB_XYZ"
TARGET_INSTRUMENT	"Hughski ColorHug"
INSTRUMENT_TYPE_SPECTRAL	"NO"
NORMALIZED_TO_Y_100	"NO"
NUMBER_OF_FIELDS	7
NUMBER_OF_SETS	15
BEGIN_DATA_FORMAT
 SAMPLE_ID	RGB_R	RGB_G	RGB_B	XYZ_X	XYZ_Y	XYZ_Z
END_DATA_FORMAT
BEGIN_DATA
 1	0	0	0	0.3662109375	0.3662109375	0.4119873047
 2	1	1	1	31.9519043	37.35351562	44.54040527
 3	1	0	0	18.81408691	3.021240234	3.662109375
 4	0	1	0	12.1307373	27.19116211	12.72583008
 5	0	0	1	1.14440918	8.148193359	28.8848877
 6	0	0	0	0.3662109375	0.4119873047	0.4119873047
 7	1	1	1	32.0892334	37.53662109	44.54040527
 8	1	0	0	18.81408691	2.975463867	3.662109375
 9	0	1	0	12.1307373	26.96228027	12.77160645
 10	0	0	1	1.14440918	8.148193359	28.93066406
 11	0	0	0	0.4119873047	0.4119873047	0.4119873047
 12	1	1	1	31.67724609	37.30773926	44.58618164
 13	1	0	0	18.67675781	2.975463867	3.662109375
 14	0	1	0	12.08496094	26.87072754	12.77160645
 15	0	0	1	1.14440918	8.148193359	28.93066406
END_DATA
