data/calibration-000024.ti3
CTI3
DESCRIPTOR	"Calibration Target chart information 3"
ORIGINATOR	"ColorHug Factory"
DEVICE_CLASS	"DISPLAY"
COLOR_REP	"RGB_XYZ"
TARGET_INSTRUMENT	"ColorHug"
INSTRUMENT_TYPE_SPECTRAL	"NO"
LUMINANCE_XYZ_CDM2	"46.863556 36.106110 40.283203"
NORMALIZED_TO_Y_100	"YES"
NUMBER_OF_FIELDS	7
NUMBER_OF_SETS	836
BEGIN_DATA_FORMAT
 SAMPLE_ID	RGB_R	RGB_G	RGB_B	XYZ_X	XYZ_Y	XYZ_Z
END_DATA_FORMAT
BEGIN_DATA
 1	100	100	100	127.672956	100	110.6918239
 2	100	100	100	127.672956	99.37106918	111.3207547
 3	100	100	100	130.8176101	98.74213836	110.0628931
 4	100	100	100	128.9308176	98.74213836	110.6918239
 5	33.33	32.622	30.968	12.57861635	8.805031447	9.433962264
 6	100	0	100	81.13207547	27.04402516	76.72955975
 7	100	100	0	128.3018868	81.13207547	48.42767296
 8	0	100	100	46.5408805	91.19496855	97.48427673
 9	0	100	0	45.28301887	73.58490566	34.59119497
 10	0	0	100	2.51572327	18.86792453	62.26415094
 11	100	0	0	79.24528302	9.433962264	13.83647799
 12	0	0	0	1.257861635	0.6289308176	0.6289308176
 13	0	52.455	100	12.57861635	35.22012579	70.44025157
 14	100	0	50.3	80.50314465	13.20754717	27.04402516
 15	100	54.739	100	94.33962264	45.91194969	84.27672956
 16	100	52.128	0	92.45283019	25.78616352	21.3836478
 17	0	0	46.181	1.257861635	3.773584906	11.32075472
 18	0	51.141	0	10.06289308	16.98113208	8.176100629
 19	0	100	51.348	44.65408805	77.35849057	47.79874214
 20	100	100	52.037	128.9308176	84.90566038	62.26415094
 21	49.216	0	0	16.98113208	2.51572327	3.144654088
 22	56.159	100	0	66.66666667	75.47169811	38.36477987
 23	49.226	100	100	62.89308176	93.08176101	99.37106918
 24	44.487	0	100	15.09433962	19.49685535	65.40880503
 25	100	44.498	52.029	87.42138365	25.1572327	33.96226415
 26	48.926	48.544	100	27.04402516	34.59119497	72.95597484
 27	51.368	100	47.25	62.26415094	78.6163522	49.68553459
 28	49.893	0	49.033	18.23899371	6.289308176	15.72327044
 29	53.109	51.372	0	29.55974843	18.86792453	11.32075472
 30	0	58.587	53.943	14.46540881	26.41509434	25.1572327
 31	100	28.065	100	84.27672956	31.44654088	77.98742138
 32	0	0	72.874	1.886792453	8.805031447	30.18867925
 33	0	26.758	100	5.031446541	22.64150943	64.77987421
 34	0	25.426	0	2.51572327	3.773584906	2.51572327
 35	72.508	0	100	38.99371069	22.64150943	68.55345912
 36	100	27.395	0	83.01886792	13.83647799	15.72327044
 37	74.47	100	100	86.16352201	94.33962264	104.4025157
 38	100	0	25.728	80.50314465	10.6918239	16.98113208
 39	73.862	0	0	39.62264151	5.031446541	7.547169811
 40	100	100	25.402	126.4150943	83.01886792	51.57232704
 41	0	75.751	100	26.41509434	55.34591195	81.76100629
 42	0	75.172	0	23.27044025	37.73584906	18.23899371
 43	0	100	25.864	44.65408805	72.95597484	38.36477987
 44	100	0	74.801	79.24528302	18.23899371	45.28301887
 45	0	100	75.421	45.28301887	82.38993711	67.29559748
 46	24.577	0	0	4.402515723	1.257861635	1.257861635
 47	26.321	100	0	49.05660377	72.32704403	35.8490566
 48	100	75.835	0	103.7735849	47.16981132	32.0754717
 49	100	100	77.061	128.9308176	90.56603774	81.76100629
 50	71.263	100	0	81.13207547	76.72955975	41.50943396
 51	0	0	15.614	0.6289308176	0.6289308176	1.886792453
 52	0	30.049	70.936	4.402515723	13.83647799	30.18867925
 53	100	77.691	100	107.5471698	67.9245283	94.96855346
 54	24.486	100	100	50.94339623	90.56603774	96.85534591
 55	100	62.784	31.909	97.48427673	35.8490566	30.18867925
 56	29.552	0	100	8.176100629	18.86792453	63.52201258
 57	32.98	70.921	100	28.93081761	50.94339623	79.87421384
 58	0	27.681	40.241	3.773584906	7.547169811	10.6918239
 59	67.901	71.021	100	53.4591195	54.08805031	84.27672956
 60	28.154	100	67.829	50.31446541	81.13207547	59.74842767
 61	71.637	100	70.001	83.01886792	83.64779874	67.29559748
 62	58.822	58.763	53.586	38.36477987	28.93081761	28.93081761
 63	33.466	30.48	0	11.32075472	6.918238994	4.402515723
 64	100	73.795	71.277	102.5157233	52.20125786	59.11949686
 65	68.394	29.692	0	36.47798742	8.805031447	8.176100629
 66	70.399	0	29.039	35.22012579	5.660377358	10.6918239
 67	28.078	0	26.956	5.660377358	1.886792453	4.402515723
 68	28.532	72.339	0	26.41509434	35.22012579	17.61006289
 69	100	30.941	26.496	83.64779874	15.72327044	20.12578616
 70	34.597	0	73.611	9.433962264	10.06289308	31.44654088
 71	71.573	0	72.408	36.47798742	12.57861635	35.8490566
 72	0	71.029	29.412	20.75471698	33.96226415	20.75471698
 73	68.386	75.008	0	55.97484277	40.88050314	23.27044025
 74	68.088	27.309	100	37.10691824	26.41509434	69.81132075
 75	100	26.457	73.749	83.64779874	22.01257862	45.28301887
 76	74.344	100	27.392	84.27672956	77.98742138	45.28301887
 77	27.558	100	28.197	50.31446541	74.8427673	38.99371069
 78	31.196	27.465	100	11.32075472	23.27044025	66.03773585
 79	0	75.521	72.824	23.89937107	46.5408805	47.79874214
 80	0	50.93	25.553	10.06289308	17.61006289	11.32075472
 81	32.06	33.584	64.033	11.32075472	14.46540881	26.41509434
 82	81.666	55.38	0	62.26415094	25.1572327	17.61006289
 83	68.257	32.751	58.286	37.73584906	15.09433962	27.04402516
 84	0	55.248	81.585	13.20754717	30.81761006	47.79874214
 85	73.781	52.099	100	51.57232704	38.99371069	77.35849057
 86	100	50.537	82.952	91.19496855	36.47798742	60.37735849
 87	23.55	0	50.439	4.402515723	5.031446541	14.46540881
 88	31.335	62.746	31.114	22.01257862	27.67295597	18.23899371
 89	100	18.31	49.418	81.76100629	15.09433962	27.04402516
 90	26.498	48.404	0	32.70440252	15.72327044	8.176100629
 91	47.91	100	85.744	61.00628931	87.42138365	79.87421384
 92	71.829	47.313	31.811	45.91194969	19.49685535	18.23899371
 93	31.304	64.132	69.316	23.27044025	35.22012579	39.62264151
 94	80.403	0	54.321	46.5408805	10.6918239	23.89937107
 95	18.455	50.036	100	13.83647799	33.96226415	69.81132075
 96	50.653	100	16.345	61.00628931	74.21383648	38.99371069
 97	80.121	100	52.261	92.45283019	83.01886792	56.60377358
 98	0	22.54	19.289	22.64150943	4.402515723	3.773584906
 99	100	75.273	46.886	100.6289308	49.68553459	41.50943396
 100	0	78.618	56.625	27.67295597	45.91194969	37.10691824
 101	51.137	80.627	100	45.28301887	62.26415094	86.79245283
 102	48.446	0	17.864	15.72327044	2.51572327	5.031446541
 103	100	50.023	21.211	89.3081761	25.1572327	23.27044025
 104	50.115	20.118	0	18.23899371	4.402515723	4.402515723
 105	58.099	72.426	33.158	44.02515723	38.36477987	26.41509434
 106	19.364	100	50.197	46.5408805	77.35849057	47.79874214
 107	50.683	19.177	100	20.75471698	22.64150943	66.66666667
 108	53.37	0	81.576	20.75471698	13.83647799	42.13836478
 109	47.768	76.245	0	37.73584906	40.25157233	21.3836478
 110	0	18.927	55.503	2.51572327	6.918238994	17.61006289
 111	0	13.277	0	1.257861635	1.886792453	1.257861635
 112	72.862	72.473	75.625	59.11949686	47.16981132	55.34591195
 113	100	13.904	0	79.24528302	10.06289308	13.83647799
 114	86.349	0	100	59.74842767	24.52830189	72.32704403
 115	100	41.941	100	86.79245283	37.10691824	81.13207547
 116	100	81.785	16.464	108.8050314	54.71698113	36.47798742
 117	0	44.063	52.596	8.176100629	16.98113208	20.12578616
 118	0	0	58.917	1.257861635	5.660377358	18.86792453
 119	59.25	24.551	29.789	20.75471698	7.547169811	10.6918239
 120	82.73	82.874	100	50.31446541	70.44025157	93.71069182
 121	80.039	0	12.618	50.94339623	6.289308176	9.433962264
 122	60.957	47.729	77.817	35.22012579	27.04402516	45.91194969
 123	100	0	38.618	79.87421384	11.94968553	20.75471698
 124	0	40.09	100	8.176100629	27.67295597	66.66666667
 125	0	15.283	82.322	2.51572327	12.57861635	40.25157233
 126	17.592	81.726	100	31.44654088	62.89308176	84.27672956
 127	100	14.13	100	82.38993711	28.30188679	76.72955975
 128	15.261	100	82.059	46.5408805	82.38993711	74.21383648
 129	47.77	79.418	60.389	41.50943396	49.05660377	41.50943396
 130	18.768	16.429	0	4.402515723	2.51572327	1.886792453
 131	55.634	100	65.763	65.40880503	80.50314465	61.00628931
 132	100	100	38.541	124.5283019	83.64779874	55.97484277
 133	17.421	0	83.497	3.773584906	11.94968553	41.50943396
 134	17.237	16.758	100	5.031446541	20.12578616	64.77987421
 135	0	15.067	30.039	1.257861635	3.144654088	5.660377358
 136	0	0	86.505	1.886792453	13.20754717	43.39622642
 137	75.736	72.799	50.02	61.63522013	42.7672956	37.10691824
 138	100	83.323	85.529	111.3207547	67.29559748	79.24528302
 139	100	100	64.894	127.0440252	88.67924528	70.44025157
 140	81.98	84.914	0	83.01886792	54.71698113	32.0754717
 141	0	63.757	15.49	16.35220126	26.41509434	13.83647799
 142	49.514	66.135	100	34.59119497	47.16981132	79.24528302
 143	100	0	61.862	79.24528302	15.72327044	33.96226415
 144	24.308	45.41	49.831	11.94968553	16.35220126	20.12578616
 145	15.963	0	17.047	2.51572327	1.257861635	2.51572327
 146	87.497	100	100	102.5157233	96.85534591	106.918239
 147	52.099	25.003	75.752	22.01257862	15.09433962	37.10691824
 148	14.909	81.162	0	29.55974843	44.65408805	21.3836478
 149	0	34.792	14.626	5.031446541	7.547169811	5.031446541
 150	48.39	45.075	22.552	23.27044025	15.09433962	11.32075472
 151	83.545	65.965	100	71.69811321	51.57232704	84.27672956
 152	16.226	62.345	0	16.98113208	25.1572327	11.94968553
 153	63.222	0	14.914	28.30188679	4.402515723	6.289308176
 154	80.449	13.446	0	47.79874214	6.918238994	9.433962264
 155	83.917	41.562	0	57.86163522	16.35220126	14.46540881
 156	100	60.448	46.3	94.33962264	35.22012579	34.59119497
 157	15.584	0	34.795	1.886792453	2.51572327	6.289308176
 158	17.144	65.121	100	20.12578616	45.91194969	76.10062893
 159	83.602	55.334	62.667	64.1509434	31.44654088	38.99371069
 160	0	82.19	14.22	28.30188679	46.5408805	23.27044025
 161	25.132	74.856	50.616	27.67295597	41.50943396	30.81761006
 162	0	13.769	100	2.51572327	19.49685535	64.1509434
 163	87.181	0	0	55.34591195	7.547169811	10.06289308
 164	0	100	39.19	44.02515723	75.47169811	42.13836478
 165	78.047	65.914	19.865	62.89308176	33.96226415	22.64150943
 166	100	63.961	15.865	96.85534591	35.22012579	27.04402516
 167	100	45.955	36.032	86.79245283	23.27044025	26.41509434
 168	15.926	100	16.89	45.28301887	72.32704403	36.47798742
 169	41.459	100	0	54.71698113	73.58490566	37.10691824
 170	48.707	37.288	48.139	21.3836478	14.46540881	18.86792453
 171	83.381	100	13.285	96.85534591	79.24528302	43.39622642
 172	78.129	25.303	75.621	48.42767296	18.23899371	41.50943396
 173	12.396	0	0	1.886792453	0.6289308176	1.257861635
 174	37.607	48.336	83.346	18.86792453	27.04402516	49.68553459
 175	35.588	15.356	0	8.805031447	2.51572327	2.51572327
 176	61.245	100	100	71.69811321	92.45283019	100.6289308
 177	100	67.29	87.195	98.11320755	50.94339623	72.32704403
 178	0	0	30.615	0.6289308176	1.886792453	5.031446541
 179	35.187	81.789	83.323	36.47798742	57.86163522	62.26415094
 180	39.525	80.194	22.879	35.8490566	44.65408805	25.1572327
 181	50.634	34.593	0	22.64150943	9.433962264	6.918238994
 182	14.175	100	63.146	45.91194969	77.98742138	56.60377358
 183	83.493	17.728	34.574	52.83018868	9.433962264	15.72327044
 184	23.463	22.014	79.943	6.289308176	13.83647799	38.99371069
 185	18.066	31.847	0	6.289308176	6.289308176	4.402515723
 186	87.201	100	81.361	103.7735849	90.56603774	81.76100629
 187	0	100	87.95	45.91194969	85.53459119	79.24528302
 188	34.476	17.888	46.22	9.433962264	6.918238994	13.20754717
 189	18.277	0	67.39	3.144654088	8.176100629	25.1572327
 190	100	87.972	0	112.5786164	62.89308176	39.62264151
 191	82.925	34.85	100	57.86163522	30.81761006	74.21383648
 192	0	88.016	100	35.22012579	70.44025157	88.67924528
 193	36.104	85.655	100	40.25157233	69.18238994	88.05031447
 194	60.981	0	0	25.78616352	3.773584906	5.031446541
 195	51.466	61.826	78.106	33.96226415	35.8490566	49.05660377
 196	78.427	31.983	22.175	47.16981132	12.57861635	13.20754717
 197	66.017	44.321	0	37.10691824	16.35220126	11.32075472
 198	83.941	0	84.177	54.08805031	18.23899371	49.68553459
 199	20.158	46.612	23.269	11.32075472	14.46540881	10.06289308
 200	0	100	62.618	44.65408805	78.6163522	54.71698113
 201	33.832	0	13.933	7.547169811	1.886792453	3.144654088
 202	100	17.286	16.322	79.24528302	11.32075472	15.72327044
 203	0	42.204	83.926	9.433962264	22.64150943	46.5408805
 204	0	87.774	0	32.70440252	53.4591195	25.1572327
 205	64.988	0	59.017	30.18867925	9.433962264	23.27044025
 206	14.677	0	100	3.144654088	18.23899371	62.89308176
 207	88.934	82.673	35.021	87.42138365	54.71698113	38.36477987
 208	0	63.778	100	18.23899371	44.02515723	74.8427673
 209	83.429	17.674	100	53.4591195	25.78616352	72.95597484
 210	30.899	100	85.668	51.57232704	85.53459119	77.35849057
 211	83.68	0	41.016	50.94339623	8.805031447	17.61006289
 212	100	63.515	0	76.72955975	34.59119497	25.1572327
 213	85.074	69.987	0	80.50314465	38.36477987	23.89937107
 214	20.801	45.524	69.018	12.57861635	21.3836478	32.0754717
 215	21.382	82.482	73.017	32.0754717	54.71698113	52.20125786
 216	100	15.128	64.249	79.87421384	16.35220126	36.47798742
 217	36.522	0	58.427	10.06289308	6.918238994	19.49685535
 218	22.466	81.296	33.007	30.18867925	47.16981132	27.04402516
 219	62.531	87.152	0	58.49056604	54.71698113	29.55974843
 220	84.12	85.397	67.886	81.76100629	62.89308176	57.2327044
 221	18.87	27.336	45.389	5.660377358	8.176100629	13.20754717
 222	66.439	100	14.444	72.95597484	76.72955975	40.25157233
 223	41.636	22.147	19.003	14.46540881	5.660377358	5.660377358
 224	61.271	100	81.94	70.44025157	85.53459119	77.35849057
 225	86.013	100	0	99.37106918	79.24528302	44.02515723
 226	37.57	0	0	10.06289308	1.886792453	2.51572327
 227	100	16.132	84.102	79.87421384	22.64150943	54.71698113
 228	0	100	13.619	44.02515723	73.58490566	35.8490566
 229	38.905	100	56.471	54.71698113	77.35849057	52.20125786
 230	100	15.382	34.563	80.50314465	12.57861635	20.12578616
 231	36.656	14.908	100	32.70440252	20.75471698	64.77987421
 232	0	62.593	66.608	15.09433962	32.0754717	36.47798742
 233	66.347	12.528	100	32.70440252	22.64150943	69.18238994
 234	100	43.375	69.233	87.42138365	27.67295597	44.02515723
 235	100	56.36	61.236	91.19496855	33.96226415	43.39622642
 236	0	86.194	44.955	33.33333333	52.83018868	34.59119497
 237	64.527	87.262	100	61.63522013	72.95597484	92.45283019
 238	34.411	0	42.471	16.98113208	3.773584906	10.6918239
 239	80.23	59.707	85.12	59.74842767	40.25157233	61.00628931
 240	20.625	19.056	14.791	5.031446541	3.773584906	3.144654088
 241	15.341	34.221	100	8.176100629	25.1572327	66.03773585
 242	36.777	0	87.905	10.06289308	14.46540881	47.79874214
 243	34.598	56.247	100	21.3836478	38.36477987	74.21383648
 244	20.86	67.629	17.418	21.3836478	30.18867925	16.35220126
 245	44.958	60.843	18.054	27.67295597	25.1572327	15.72327044
 246	37.421	60.193	0	23.27044025	23.89937107	12.57861635
 247	84.011	33.849	42.612	56.60377358	15.72327044	21.3836478
 248	17.241	60.339	37.743	16.35220126	25.1572327	18.23899371
 249	50.65	17.261	53.278	18.86792453	8.805031447	18.86792453
 250	45.505	48.926	65.152	23.89937107	22.64150943	32.70440252
 251	44.567	84.081	39.649	42.13836478	52.20125786	32.70440252
 252	100	86.339	72.054	66.66666667	67.29559748	66.03773585
 253	68.14	61.135	0	47.16981132	27.04402516	16.98113208
 254	17.93	66.986	81.403	25.78616352	39.62264151	52.83018868
 255	39.242	60.215	48.926	24.52830189	27.67295597	24.52830189
 256	20.099	18.77	62.967	5.031446541	8.805031447	23.27044025
 257	34.553	100	14.582	50.94339623	73.58490566	37.10691824
 258	87.345	0	66.694	57.86163522	13.83647799	33.96226415
 259	0	43.714	39.842	8.176100629	14.46540881	13.83647799
 260	100	37.705	13.955	83.64779874	18.23899371	18.86792453
 261	31.265	86.993	0	38.36477987	52.20125786	25.78616352
 262	51.402	82.661	81.338	46.5408805	57.86163522	62.89308176
 263	100	100	12.984	122.6415094	82.38993711	49.05660377
 264	0	37.859	0	6.918238994	8.805031447	5.031446541
 265	62.092	58.215	100	41.50943396	42.13836478	76.72955975
 266	86.186	100	64.1	99.37106918	84.27672956	66.03773585
 267	100	35.251	85.898	83.01886792	28.93081761	61.00628931
 268	63.182	89.992	41.974	62.89308176	61.63522013	39.62264151
 269	13.504	100	0	45.28301887	72.95597484	34.59119497
 270	100	0	13.228	78.6163522	9.433962264	15.09433962
 271	63.881	40.826	100	36.47798742	31.44654088	71.69811321
 272	69.387	84.838	20.792	63.52201258	52.83018868	31.44654088
 273	0	70.279	45.136	20.12578616	35.22012579	26.41509434
 274	79.094	64.754	40.908	62.26415094	33.96226415	28.93081761
 275	62.385	54.099	17.396	38.36477987	22.01257862	15.09433962
 276	64.408	14.621	0	33.33333333	5.031446541	6.289308176
 277	70.028	15.606	44.651	35.22012579	8.805031447	16.98113208
 278	0	63.544	0	16.98113208	25.78616352	12.57861635
 279	83.475	47.274	20.502	45.28301887	20.12578616	16.98113208
 280	55.866	0	32.671	21.3836478	5.031446541	8.805031447
 281	58.007	0	100	24.52830189	20.12578616	67.29559748
 282	100	0	87.698	77.98742138	22.64150943	57.86163522
 283	0	13.792	67.215	1.886792453	8.805031447	25.78616352
 284	84.123	17.001	58.549	53.4591195	13.20754717	28.30188679
 285	59.579	32.873	15.966	28.30188679	10.06289308	8.805031447
 286	10.41	32.998	28.659	5.660377358	8.176100629	8.176100629
 287	17.231	40.031	85.65	9.433962264	22.64150943	47.79874214
 288	37.568	41.561	10.108	14.46540881	11.94968553	7.547169811
 289	0	69.015	85.092	20.12578616	43.39622642	56.60377358
 290	14.442	100	36.187	45.28301887	74.21383648	40.88050314
 291	100	40.549	0	84.90566038	18.86792453	18.23899371
 292	82.143	45.435	78.429	57.2327044	28.30188679	49.05660377
 293	52.674	0	67.3	20.12578616	10.06289308	27.67295597
 294	0	87.868	66.793	33.33333333	59.74842767	49.68553459
 295	86.53	100	40.524	101.8867925	81.13207547	50.94339623
 296	71.777	85.586	67.232	74.21383648	61.63522013	54.08805031
 297	43.216	100	31.671	55.97484277	74.21383648	41.50943396
 298	39.245	32.908	85.845	15.72327044	20.75471698	47.79874214
 299	0	45.662	67.543	10.06289308	20.12578616	30.81761006
 300	12.161	100	100	45.91194969	89.93710692	96.22641509
 301	67.049	0	85.516	32.0754717	16.35220126	49.05660377
 302	100	89.041	100	115.7232704	81.76100629	101.2578616
 303	20.246	60.698	56.526	18.23899371	28.30188679	28.30188679
 304	52.177	55.457	40.416	29.55974843	23.27044025	20.75471698
 305	72.617	87.018	83.932	70.44025157	67.9245283	71.06918239
 306	40.512	16.723	66.475	12.57861635	10.06289308	27.04402516
 307	68.507	49.232	50.605	41.50943396	22.64150943	25.78616352
 308	65.622	100	54.525	74.8427673	79.24528302	54.71698113
 309	54.115	37.24	66.394	25.78616352	17.61006289	31.44654088
 310	100	76.138	31.267	103.1446541	49.05660377	36.47798742
 311	54.728	65.623	0	37.10691824	28.93081761	16.35220126
 312	63.126	12.526	64.37	28.93081761	10.6918239	28.30188679
 313	72.827	18.08	23.704	38.99371069	7.547169811	10.6918239
 314	23.268	15.278	34.947	5.031446541	4.402515723	8.176100629
 315	87.648	68.954	59.645	75.47169811	42.13836478	43.39622642
 316	0	85.595	85.198	32.70440252	62.26415094	65.40880503
 317	35.798	84.371	69.21	37.73584906	56.60377358	50.94339623
 318	36.062	47.494	35.919	16.98113208	16.98113208	14.46540881
 319	86.083	36.277	59.152	59.11949686	20.12578616	31.44654088
 320	58.21	100	30.361	66.03773585	76.72955975	43.39622642
 321	46.745	14.614	32.317	16.35220126	5.031446541	8.805031447
 322	81.573	73.869	86.954	71.69811321	54.08805031	69.81132075
 323	85.991	49.387	48.206	63.52201258	24.52830189	28.30188679
 324	28.062	87.906	19.654	38.36477987	54.08805031	27.67295597
 325	68.992	17.993	85.124	35.22012579	18.23899371	48.42767296
 326	100	66.147	100	98.11320755	53.4591195	89.93710692
 327	33.358	64.806	84.517	26.41509434	40.25157233	55.34591195
 328	41.351	17.736	80.522	13.20754717	13.83647799	40.88050314
 329	100	100	88.719	117.6100629	94.33962264	95.59748428
 330	66.336	0	44.32	31.44654088	6.918238994	15.72327044
 331	64.85	67.09	12.293	46.5408805	32.70440252	19.49685535
 332	15.262	31.268	63.277	10.06289308	12.57861635	24.52830189
 333	15.008	43.663	37.3	8.805031447	14.46540881	13.20754717
 334	0	57.895	38.078	13.20754717	22.64150943	17.61006289
 335	66.599	58.458	67.871	40.25157233	32.0754717	40.88050314
 336	59.191	18.651	15.215	25.1572327	5.660377358	6.918238994
 337	66.781	31.14	84.629	35.8490566	21.3836478	49.68553459
 338	88.033	85.158	52.14	89.3081761	59.11949686	47.79874214
 339	36.882	100	100	54.71698113	90.56603774	98.11320755
 340	26.102	33.094	17.006	8.176100629	7.547169811	6.289308176
 341	56.309	36.861	35.862	26.41509434	12.57861635	13.83647799
 342	45.839	65.587	67.033	30.81761006	36.47798742	39.62264151
 343	83.709	81.172	16.406	72.95597484	49.68553459	31.44654088
 344	0	48.132	13.005	8.805031447	14.46540881	8.176100629
 345	87.176	50.021	100	67.9245283	40.25157233	78.6163522
 346	51.219	84.244	13.73	46.5408805	50.31446541	27.04402516
 347	60.606	71.415	48.406	45.91194969	39.62264151	32.0754717
 348	0	11.359	12.718	1.257861635	1.886792453	1.886792453
 349	86.429	49.705	33.145	62.26415094	23.27044025	21.3836478
 350	34.056	40.958	100	15.72327044	28.93081761	69.81132075
 351	100	30.557	59.628	81.13207547	20.12578616	34.59119497
 352	88.497	26.902	13.449	60.37735849	11.32075472	13.20754717
 353	14.167	51.98	88.218	13.20754717	30.18867925	54.08805031
 354	13.784	12.983	49.37	2.51572327	5.031446541	13.83647799
 355	15.018	88.441	48.062	33.96226415	56.60377358	37.73584906
 356	87.79	25.769	89.215	60.37735849	23.89937107	59.11949686
 357	0	33.206	55.865	5.031446541	11.32075472	20.12578616
 358	74.324	76.029	35.536	61.63522013	44.02515723	30.81761006
 359	65.863	57.223	42.324	42.13836478	26.41509434	23.89937107
 360	30.893	54.646	13.136	17.61006289	20.12578616	11.32075472
 361	0	34.36	28.321	5.031446541	8.805031447	7.547169811
 362	15.443	77.087	85.116	27.04402516	51.57232704	61.00628931
 363	63.381	68.947	68.521	45.28301887	40.88050314	45.28301887
 364	69.733	27.566	42.917	37.10691824	11.94968553	16.98113208
 365	32.754	100	42.76	49.68553459	75.47169811	44.65408805
 366	47.096	29.481	34.829	18.23899371	9.433962264	11.32075472
 367	8.5451	71.948	62.695	22.01257862	40.25157233	36.47798742
 368	0	86.048	29.3	30.81761006	52.20125786	28.30188679
 369	53.697	51.572	85.367	29.55974843	30.81761006	54.08805031
 370	17.608	56.69	12.515	14.46540881	20.75471698	10.6918239
 371	90.638	14.414	49.227	62.89308176	11.94968553	23.89937107
 372	63.248	63.64	89.55	45.28301887	42.7672956	63.52201258
 373	100	85.976	58.455	110.6918239	64.77987421	55.97484277
 374	9.8311	28.027	7.5567	4.402515723	5.660377358	3.144654088
 375	89.831	64.313	69.506	77.35849057	40.25157233	49.68553459
 376	31.754	12.995	25.543	7.547169811	3.144654088	5.660377358
 377	75.914	45.966	64.957	49.68553459	23.89937107	35.8490566
 378	7.5735	50.695	58.941	11.32075472	21.3836478	26.41509434
 379	100	69.835	58.912	98.74213836	45.91194969	46.5408805
 380	32.211	34.376	48.339	11.32075472	11.32075472	16.35220126
 381	13.901	12.159	73.555	3.144654088	10.06289308	30.81761006
 382	87.071	9.028	77.653	56.60377358	16.98113208	45.28301887
 383	23.272	85.409	84.29	34.59119497	61.63522013	64.77987421
 384	93.289	39.48	26.145	71.06918239	17.61006289	18.86792453
 385	65.769	59.63	30.967	44.02515723	27.67295597	20.12578616
 386	100	32.265	41.803	80.50314465	17.61006289	25.1572327
 387	86.568	85.281	86.961	86.16352201	68.55345912	77.35849057
 388	52.577	86.83	30.016	49.68553459	55.34591195	32.0754717
 389	47.921	40.199	76.902	45.28301887	21.3836478	40.88050314
 390	22.36	86.619	61.58	33.96226415	56.60377358	45.91194969
 391	52.232	33.601	88.787	23.27044025	22.64150943	53.4591195
 392	0	28.523	86.267	4.402515723	17.61006289	45.28301887
 393	43.497	67.879	39.551	30.18867925	32.70440252	24.52830189
 394	39.877	45.261	0	22.01257862	13.83647799	8.176100629
 395	86.94	12.43	24.699	55.34591195	8.176100629	13.83647799
 396	28.363	55.339	90.398	18.23899371	33.33333333	58.49056604
 397	39.018	70.534	57.879	30.18867925	37.73584906	34.59119497
 398	12.833	28.519	78.828	5.031446541	15.09433962	38.36477987
 399	68.35	31.815	69.975	36.47798742	16.98113208	35.22012579
 400	56.52	26.226	41.626	24.52830189	9.433962264	14.46540881
 401	12.938	46.218	0	8.805031447	13.20754717	6.918238994
 402	8.6938	60.179	26.117	14.46540881	23.27044025	14.46540881
 403	51.995	89.429	96.608	52.83018868	72.32704403	86.79245283
 404	46.905	47.746	48.909	23.89937107	19.49685535	21.3836478
 405	14.352	81.814	19.479	28.93081761	44.65408805	23.89937107
 406	71.482	38.117	12.273	38.99371069	13.83647799	11.32075472
 407	86.616	60.785	10.012	69.81132075	30.18867925	20.75471698
 408	71.811	88.979	52.186	70.44025157	62.89308176	45.28301887
 409	43.213	100	72.083	55.34591195	81.13207547	65.40880503
