data/calibration-002222.ti3
CTI3   
ORIGINATOR	"ColorHug Factory"
CREATED	"Wed Nov 20 21:12:58 2013"
DESCRIPTOR	"Calibration Target chart information 3"
DEVICE_CLASS	"DISPLAY"
COLOR_REP	"RGB_XYZ"
TARGET_INSTRUMENT	"Hughski ColorHug"
INSTRUMENT_TYPE_SPECTRAL	"NO"
NORMALIZED_TO_Y_100	"NO"
NUMBER_OF_FIELDS	7
NUMBER_OF_SETS	15
BEGIN_DATA_FORMAT
 SAMPLE_ID	RGB_R	RGB_G	RGB_B	XYZ_X	XYZ_Y	XYZ_Z
END_DATA_FORMAT
BEGIN_DATA
 1	0	0	0	0.274658203125	0.2288818359375	0.3204345703125
 2	1	1	1	72.4639892578125	34.698486328125	53.6956787109375
 3	1	0	0	46.9207763671875	3.8909912109375	6.500244140625
 4	0	1	0	23.4375	22.8424072265625	11.71875
 5	0	0	1	1.46484375	8.697509765625	35.6597900390625
 6	0	0	0	0.274658203125	0.274658203125	0.3204345703125
 7	1	1	1	73.2421875	34.9273681640625	53.6956787109375
 8	1	0	0	47.149658203125	3.8909912109375	6.500244140625
 9	0	1	0	23.3001708984375	22.52197265625	11.6729736328125
 10	0	0	1	1.46484375	8.697509765625	35.6597900390625
 11	0	0	0	0.274658203125	0.274658203125	0.3204345703125
 12	1	1	1	72.967529296875	34.9273681640625	53.7872314453125
 13	1	0	0	47.1038818359375	3.936767578125	6.500244140625
 14	0	1	0	23.25439453125	22.5677490234375	11.71875
 15	0	0	1	1.46484375	8.697509765625	35.70556640625
END_DATA
