data/calibration-001487.ti3
CTI3   
ORIGINATOR	"ColorHug Factory"
DESCRIPTOR	"Calibration Target chart information 3"
DEVICE_CLASS	"DISPLAY"
COLOR_REP	"RGB_XYZ"
TARGET_INSTRUMENT	"Hughski ColorHug"
INSTRUMENT_TYPE_SPECTRAL	"NO"
NORMALIZED_TO_Y_100	"NO"
NUMBER_OF_FIELDS	7
NUMBER_OF_SETS	15
BEGIN_DATA_FORMAT
 SAMPLE_ID	RGB_R	RGB_G	RGB_B	XYZ_X	XYZ_Y	XYZ_Z
END_DATA_FORMAT
BEGIN_DATA
 1	0	0	0	0.1831054688	0.2288818359	0.2746582031
 2	1	1	1	42.89245605	40.8782959	49.98779297
 3	1	0	0	25.17700195	3.158569336	3.982543945
 4	0	1	0	14.69421387	28.83911133	12.81738281
 5	0	0	1	1.098632812	8.697509766	32.86743164
 6	0	0	0	0.1831054688	0.2288818359	0.2746582031
 7	1	1	1	42.52624512	40.7409668	50.0793457
 8	1	0	0	25.36010742	3.158569336	4.028320312
 9	0	1	0	14.60266113	28.61022949	12.77160645
 10	0	0	1	1.098632812	8.697509766	33.00476074
 11	0	0	0	0.2288818359	0.2288818359	0.2746582031
 12	1	1	1	43.02978516	40.96984863	49.98779297
 13	1	0	0	25.36010742	3.158569336	4.028320312
 14	0	1	0	14.60266113	28.74755859	12.81738281
 15	0	0	1	1.098632812	8.697509766	32.86743164
END_DATA
