data/calibration-000841.ti3
CTI3   
ORIGINATOR	"ColorHug Factory"
DESCRIPTOR	"Calibration Target chart information 3"
DEVICE_CLASS	"DISPLAY"
COLOR_REP	"RGB_XYZ"
TARGET_INSTRUMENT	"Hughski ColorHug"
INSTRUMENT_TYPE_SPECTRAL	"NO"
NORMALIZED_TO_Y_100	"NO"
NUMBER_OF_FIELDS	7
NUMBER_OF_SETS	15
BEGIN_DATA_FORMAT
 SAMPLE_ID	RGB_R	RGB_G	RGB_B	XYZ_X	XYZ_Y	XYZ_Z
END_DATA_FORMAT
BEGIN_DATA
 1	0	0	0	0.04577636719	0.04577636719	0.09155273438
 2	1	1	1	53.46679688	35.0189209	43.16711426
 3	1	0	0	34.05761719	3.387451172	5.218505859
 4	0	1	0	17.53234863	24.53613281	11.71875
 5	0	0	1	0.8697509766	7.141113281	25.9552002
 6	0	0	0	0.04577636719	0.04577636719	0.09155273438
 7	1	1	1	53.51257324	35.0189209	43.12133789
 8	1	0	0	33.92028809	3.341674805	5.172729492
 9	0	1	0	17.4407959	24.58190918	11.71875
 10	0	0	1	0.8697509766	7.141113281	26.00097656
 11	0	0	0	0.04577636719	0.04577636719	0.09155273438
 12	1	1	1	53.1463623	35.11047363	43.21289062
 13	1	0	0	33.50830078	3.341674805	5.172729492
 14	0	1	0	17.39501953	24.49035645	11.71875
 15	0	0	1	0.8697509766	7.141113281	26.00097656
END_DATA
