data/calibration-001538.ti3
CTI3   
ORIGINATOR	"ColorHug Factory"
DESCRIPTOR	"Calibration Target chart information 3"
DEVICE_CLASS	"DISPLAY"
COLOR_REP	"RGB_XYZ"
TARGET_INSTRUMENT	"Hughski ColorHug"
INSTRUMENT_TYPE_SPECTRAL	"NO"
NORMALIZED_TO_Y_100	"NO"
NUMBER_OF_FIELDS	7
NUMBER_OF_SETS	15
BEGIN_DATA_FORMAT
 SAMPLE_ID	RGB_R	RGB_G	RGB_B	XYZ_X	XYZ_Y	XYZ_Z
END_DATA_FORMAT
BEGIN_DATA
 1	0	0	0	0.2288818359	0.2288818359	0.2746582031
 2	1	1	1	36.75842285	33.00476074	40.8782959
 3	1	0	0	22.61352539	2.838134766	3.845214844
 4	0	1	0	13.09204102	23.39172363	11.21520996
 5	0	0	1	0.9613037109	7.095336914	26.27563477
 6	0	0	0	0.2288818359	0.2288818359	0.2746582031
 7	1	1	1	36.66687012	32.95898438	40.92407227
 8	1	0	0	22.33886719	2.838134766	3.845214844
 9	0	1	0	13.09204102	23.4375	11.16943359
 10	0	0	1	0.9613037109	7.095336914	26.13830566
 11	0	0	0	0.2288818359	0.2288818359	0.2746582031
 12	1	1	1	36.62109375	32.86743164	40.8782959
 13	1	0	0	22.33886719	2.838134766	3.845214844
 14	0	1	0	13.00048828	23.39172363	11.16943359
 15	0	0	1	0.9613037109	7.095336914	26.27563477
END_DATA
