data/calibration-002860.ti3
CTI3   
ORIGINATOR	"ColorHug Factory"
CREATED	"Tue May 05 22:05:55 2015"
DESCRIPTOR	"Calibration Target chart information 3"
DEVICE_CLASS	"DISPLAY"
COLOR_REP	"RGB_XYZ"
TARGET_INSTRUMENT	"Hughski ColorHug"
INSTRUMENT_TYPE_SPECTRAL	"NO"
NORMALIZED_TO_Y_100	"NO"
NUMBER_OF_FIELDS	7
NUMBER_OF_SETS	15
BEGIN_DATA_FORMAT
 SAMPLE_ID	RGB_R	RGB_G	RGB_B	XYZ_X	XYZ_Y	XYZ_Z
END_DATA_FORMAT
BEGIN_DATA
 1.0	0.0	0.0	0.0	0.684829711914	0.737213134766	0.822570800781
 2.0	1.0	1.0	1.0	117.028564453125	103.696197509766	113.777770996094
 3.0	1.0	0.0	0.0	84.453598022461	8.135040283203	13.212890625
 4.0	0.0	1.0	0.0	26.947357177734	73.142852783203	28.543548583984
 5.0	0.0	0.0	1.0	4.037445068359	21.389022827148	70.620681762695
 6.0	0.0	0.0	0.0	0.693283081055	0.748184204102	0.833694458008
 7.0	1.0	1.0	1.0	117.028564453125	103.696197509766	113.777770996094
 8.0	1.0	0.0	0.0	84.453598022461	8.151229858398	13.234237670898
 9.0	0.0	1.0	0.0	26.947357177734	73.142852783203	28.543548583984
 10.0	0.0	0.0	1.0	4.041427612305	21.389022827148	70.620681762695
 11.0	0.0	0.0	0.0	0.696823120117	0.748397827148	0.83625793457
 12.0	1.0	1.0	1.0	117.028564453125	103.696197509766	113.777770996094
 13.0	1.0	0.0	0.0	84.453598022461	8.15934753418	13.234237670898
 14.0	0.0	1.0	0.0	27.03630065918	73.142852783203	28.543548583984
 15.0	0.0	0.0	1.0	4.043426513672	21.389022827148	70.620681762695
END_DATA
