data/calibration-000232.ti3
CTI3
DESCRIPTOR	"Calibration Target chart information 3"
ORIGINATOR	"ColorHug Factory"
DEVICE_CLASS	"DISPLAY"
COLOR_REP	"RGB_XYZ"
TARGET_INSTRUMENT	"ColorHug"
INSTRUMENT_TYPE_SPECTRAL	"NO"
LUMINANCE_XYZ_CDM2	"44.448853 33.897400 38.326263"
NORMALIZED_TO_Y_100	"YES"
NUMBER_OF_FIELDS	7
NUMBER_OF_SETS	836
BEGIN_DATA_FORMAT
 SAMPLE_ID	RGB_R	RGB_G	RGB_B	XYZ_X	XYZ_Y	XYZ_Z
END_DATA_FORMAT
BEGIN_DATA
 1	100	100	100	128.9757412	99.86522911	112.9380054
 2	100	100	100	131.9407008	100	112.6684636
 3	100	100	100	130.5929919	99.46091644	112.8032345
 4	100	100	100	131.9407008	99.86522911	112.9380054
 5	33.33	32.622	30.968	10.78167116	7.95148248	8.355795148
 6	100	0	100	83.55795148	27.49326146	79.38005391
 7	100	100	0	130.1886792	80.7277628	45.41778976
 8	0	100	100	46.0916442	90.70080863	99.46091644
 9	0	100	0	44.33962264	71.56334232	32.21024259
 10	0	0	100	1.886792453	18.59838275	67.11590296
 11	100	0	0	81.80592992	8.625336927	12.39892183
 12	0	0	0	1.078167116	1.078167116	0
 13	0	52.455	100	11.72506739	35.30997305	74.393531
 14	100	0	50.3	81.80592992	12.53369272	26.14555256
 15	100	54.739	100	95.41778976	45.82210243	87.87061995
 16	100	52.128	0	93.26145553	24.79784367	19.81132075
 17	0	0	46.181	0.539083558	2.964959569	10.78167116
 18	0	51.141	0	9.568733154	15.22911051	6.873315364
 19	0	100	51.348	44.74393531	75.74123989	46.63072776
 20	100	100	52.037	130.3234501	85.44474394	60.2425876
 21	49.216	0	0	16.17250674	1.617250674	2.425876011
 22	56.159	100	0	67.25067385	74.25876011	35.98382749
 23	49.226	100	100	62.53369272	92.58760108	102.1563342
 24	44.487	0	100	14.69002695	20.08086253	68.46361186
 25	100	44.498	52.029	90.02695418	24.393531	32.47978437
 26	48.926	48.544	100	26.54986523	34.50134771	76.14555256
 27	51.368	100	47.25	62.93800539	77.35849057	47.30458221
 28	49.893	0	49.033	17.11590296	5.39083558	15.3638814
 29	53.109	51.372	0	29.11051213	17.52021563	9.973045822
 30	0	58.587	53.943	13.34231806	25.20215633	25.06738544
 31	100	28.065	100	86.38814016	32.21024259	81.67115903
 32	0	0	72.874	0.8086253369	8.355795148	30.32345013
 33	0	26.758	100	3.638814016	22.64150943	68.86792453
 34	0	25.426	0	2.156334232	3.369272237	1.482479784
 35	72.508	0	100	39.7574124	22.77628032	73.18059299
 36	100	27.395	0	84.50134771	12.8032345	14.28571429
 37	74.47	100	100	88.27493261	95.28301887	106.1994609
 38	100	0	25.728	82.0754717	9.568733154	15.76819407
 39	73.862	0	0	39.89218329	4.177897574	6.064690027
 40	100	100	25.402	129.9191375	81.80592992	48.65229111
 41	0	75.751	100	25.06738544	56.19946092	83.82749326
 42	0	75.172	0	22.77628032	35.98382749	16.30727763
 43	0	100	25.864	44.07008086	72.50673854	35.71428571
 44	100	0	74.801	82.61455526	17.9245283	45.68733154
 45	0	100	75.421	45.28301887	81.40161725	66.44204852
 46	24.577	0	0	3.638814016	0.269541779	0.4043126685
 47	26.321	100	0	48.78706199	72.64150943	33.01886792
 48	100	75.835	0	107.0080863	46.22641509	29.64959569
 49	100	100	77.061	130.3234501	91.23989218	81.26684636
 50	71.263	100	0	82.74932615	75.74123989	38.14016173
 51	0	0	15.614	0	0.269541779	1.078167116
 52	0	30.049	70.936	3.773584906	12.93800539	30.99730458
 53	100	77.691	100	110.1078167	67.78975741	97.4393531
 54	24.486	100	100	50	91.37466307	99.86522911
 55	100	62.784	31.909	98.51752022	34.6361186	28.97574124
 56	29.552	0	100	7.142857143	19.2722372	67.52021563
 57	32.98	70.921	100	28.84097035	51.34770889	82.47978437
 58	0	27.681	40.241	2.69541779	6.334231806	9.973045822
 59	67.901	71.021	100	55.25606469	54.58221024	86.92722372
 60	28.154	100	67.829	50	79.78436658	59.83827493
 61	71.637	100	70.001	83.42318059	83.96226415	67.25067385
 62	58.822	58.763	53.586	37.33153639	27.62803235	28.57142857
 63	33.466	30.48	0	10.2425876	5.660377358	3.234501348
 64	100	73.795	71.277	105.6603774	52.42587601	58.62533693
 65	68.394	29.692	0	36.52291105	8.355795148	7.277628032
 66	70.399	0	29.039	35.71428571	4.986522911	9.568733154
 67	28.078	0	26.956	4.986522911	1.347708895	4.177897574
 68	28.532	72.339	0	26.14555256	33.69272237	15.90296496
 69	100	30.941	26.496	85.17520216	14.95956873	18.32884097
 70	34.597	0	73.611	8.221024259	9.568733154	32.61455526
 71	71.573	0	72.408	37.73584906	12.53369272	36.11859838
 72	0	71.029	29.412	20.35040431	33.2884097	18.86792453
 73	68.386	75.008	0	56.60377358	40.02695418	21.69811321
 74	68.088	27.309	100	37.46630728	26.54986523	73.71967655
 75	100	26.457	73.749	85.44474394	21.69811321	46.22641509
 76	74.344	100	27.392	86.79245283	77.76280323	42.72237197
 77	27.558	100	28.197	49.19137466	73.85444744	37.06199461
 78	31.196	27.465	100	10.37735849	23.58490566	69.94609164
 79	0	75.521	72.824	23.85444744	45.68733154	47.70889488
 80	0	50.93	25.553	9.433962264	16.03773585	10.10781671
 81	32.06	33.584	64.033	10.91644205	13.34231806	26.81940701
 82	81.666	55.38	0	58.49056604	23.71967655	16.03773585
 83	68.257	32.751	58.286	38.14016173	14.82479784	26.54986523
 84	0	55.248	81.585	12.26415094	29.78436658	48.92183288
 85	73.781	52.099	100	51.88679245	39.35309973	80.7277628
 86	100	50.537	82.952	92.85714286	35.98382749	61.99460916
 87	23.55	0	50.439	3.773584906	4.043126685	13.88140162
 88	31.335	62.746	31.114	21.69811321	26.28032345	16.84636119
 89	100	18.31	49.418	82.88409704	14.28571429	26.54986523
 90	26.498	48.404	0	12.93800539	14.01617251	6.873315364
 91	47.91	100	85.744	61.45552561	86.25336927	80.59299191
 92	71.829	47.313	31.811	45.82210243	18.46361186	16.84636119
 93	31.304	64.132	69.316	24.79784367	33.96226415	40.29649596
 94	80.403	0	54.321	49.05660377	9.703504043	23.45013477
 95	18.455	50.036	100	12.93800539	33.82749326	73.85444744
 96	50.653	100	16.345	61.99460916	73.85444744	36.38814016
 97	80.121	100	52.261	94.33962264	81.26684636	54.85175202
 98	0	22.54	19.289	1.752021563	3.234501348	3.099730458
 99	100	75.273	46.886	106.06469	48.92183288	41.23989218
 100	0	78.618	56.625	25.74123989	45.28301887	35.8490566
 101	51.137	80.627	100	46.36118598	63.61185984	89.48787062
 102	48.446	0	17.864	15.63342318	2.021563342	3.908355795
 103	100	50.023	21.211	91.64420485	24.12398922	21.56334232
 104	50.115	20.118	0	18.05929919	3.908355795	3.504043127
 105	58.099	72.426	33.158	44.60916442	37.33153639	24.25876011
 106	19.364	100	50.197	46.90026954	76.01078167	46.49595687
 107	50.683	19.177	100	20.35040431	22.64150943	70.4851752
 108	53.37	0	81.576	20.4851752	13.47708895	43.39622642
 109	47.768	76.245	0	38.67924528	38.94878706	19.2722372
 110	0	18.927	55.503	1.482479784	6.603773585	17.25067385
 111	0	13.277	0	0.539083558	0.8086253369	0.4043126685
 112	72.862	72.473	75.625	60.91644205	47.30458221	54.98652291
 113	100	13.904	0	82.47978437	9.703504043	12.8032345
 114	86.349	0	100	59.29919137	24.93261456	76.01078167
 115	100	41.941	100	89.08355795	37.73584906	84.50134771
 116	100	81.785	16.464	110.916442	53.9083558	34.36657682
 117	0	44.063	52.596	7.277628032	15.3638814	19.94609164
 118	0	0	58.917	0.4043126685	5.121293801	18.59838275
 119	59.25	24.551	29.789	26.68463612	7.008086253	9.433962264
 120	82.73	82.874	100	83.01886792	70.61994609	95.95687332
 121	80.039	0	12.618	48.24797844	5.39083558	8.221024259
 122	60.957	47.729	77.817	35.30997305	26.41509434	46.22641509
 123	100	0	38.618	81.67115903	10.78167116	20.08086253
 124	0	40.09	100	7.277628032	28.03234501	71.02425876
 125	0	15.283	82.322	1.617250674	12.66846361	41.77897574
 126	17.592	81.726	100	31.40161725	63.47708895	87.33153639
 127	100	14.13	100	84.23180593	28.84097035	80.45822102
 128	15.261	100	82.059	46.90026954	83.69272237	74.25876011
 129	47.77	79.418	60.389	41.64420485	48.65229111	41.10512129
 130	18.768	16.429	0	3.099730458	1.617250674	0.9433962264
 131	55.634	100	65.763	65.90296496	80.86253369	60.37735849
 132	100	100	38.541	129.3800539	83.01886792	53.09973046
 133	17.421	0	83.497	2.830188679	11.99460916	42.85714286
 134	17.237	16.758	100	4.447439353	20.4851752	68.46361186
 135	0	15.067	30.039	0.8086253369	2.425876011	4.851752022
 136	0	0	86.505	1.212938005	12.8032345	46.36118598
 137	75.736	72.799	50.02	64.69002695	42.04851752	35.30997305
 138	100	83.323	85.529	114.2857143	68.32884097	80.18867925
 139	100	100	64.894	120.4851752	87.1967655	69.67654987
 140	81.98	84.914	0	82.74932615	53.63881402	29.78436658
 141	0	63.757	15.49	15.63342318	25.06738544	12.39892183
 142	49.514	66.135	100	35.30997305	47.84366577	81.80592992
 143	100	0	61.862	81.80592992	14.55525606	33.69272237
 144	24.308	45.41	49.831	11.32075472	15.90296496	19.13746631
 145	15.963	0	17.047	1.617250674	0.4043126685	1.617250674
 146	87.497	100	100	107.0080863	97.4393531	108.7601078
 147	52.099	25.003	75.752	21.29380054	14.82479784	38.4097035
 148	14.909	81.162	0	28.43665768	43.12668464	19.67654987
 149	0	34.792	14.626	4.177897574	6.873315364	4.043126685
 150	48.39	45.075	22.552	23.0458221	14.01617251	10.2425876
 151	83.545	65.965	100	73.0458221	51.88679245	88.00539084
 152	16.226	62.345	0	16.57681941	23.71967655	10.91644205
 153	63.222	0	14.914	27.89757412	3.234501348	5.39083558
 154	80.449	13.446	0	49.05660377	6.199460916	7.81671159
 155	83.917	41.562	0	59.70350404	15.49865229	12.53369272
 156	100	60.448	46.3	97.03504043	34.23180593	34.23180593
 157	15.584	0	34.795	1.617250674	1.752021563	6.064690027
 158	17.144	65.121	100	20.21563342	45.68733154	79.5148248
 159	83.602	55.334	62.667	66.03773585	30.32345013	38.54447439
 160	0	82.19	14.22	27.89757412	44.8787062	21.29380054
 161	25.132	74.856	50.616	27.08894879	40.29649596	30.7277628
 162	0	13.769	100	2.156334232	19.81132075	67.65498652
 163	87.181	0	0	58.08625337	6.199460916	8.894878706
 164	0	100	39.19	44.07008086	73.45013477	40.29649596
 165	78.047	65.914	19.865	63.34231806	32.47978437	21.29380054
 166	100	63.961	15.865	98.65229111	34.6361186	25.47169811
 167	100	45.955	36.032	90.43126685	23.0458221	24.79784367
 168	15.926	100	16.89	45.82210243	72.50673854	34.09703504
 169	41.459	100	0	55.39083558	72.64150943	34.09703504
 170	48.707	37.288	48.139	21.29380054	13.07277628	18.19407008
 171	83.381	100	13.285	98.78706199	78.1671159	41.64420485
 172	78.129	25.303	75.621	49.46091644	17.9245283	42.18328841
 173	12.396	0	0	0.9433962264	0	0.1347708895
 174	37.607	48.336	83.346	18.73315364	26.81940701	50.53908356
 175	35.588	15.356	0	8.625336927	2.156334232	1.752021563
 176	61.245	100	100	73.0458221	93.39622642	103.7735849
 177	100	67.29	87.195	100.8086253	50.67385445	73.85444744
 178	0	0	30.615	0.1347708895	1.078167116	4.447439353
 179	35.187	81.789	83.323	36.79245283	57.41239892	64.28571429
 180	39.525	80.194	22.879	36.52291105	44.07008086	23.18059299
 181	50.634	34.593	0	21.56334232	8.490566038	5.660377358
 182	14.175	100	63.146	45.95687332	78.30188679	54.98652291
 183	83.493	17.728	34.574	53.77358491	9.029649596	14.82479784
 184	23.463	22.014	79.943	6.064690027	13.74663073	40.16172507
 185	18.066	31.847	0	5.525606469	5.660377358	2.69541779
 186	87.201	100	81.361	105.9299191	89.7574124	82.47978437
 187	0	100	87.95	45.28301887	85.8490566	81.26684636
 188	34.476	17.888	46.22	8.760107817	5.660377358	12.93800539
 189	18.277	0	67.39	2.5606469	7.277628032	25.74123989
 190	100	87.972	0	116.9811321	61.45552561	36.79245283
 191	82.925	34.85	100	57.81671159	31.26684636	77.89757412
 192	0	88.016	100	34.50134771	71.56334232	90.9703504
 193	36.104	85.655	100	40.9703504	69.40700809	90.70080863
 194	60.981	0	0	25.606469	2.69541779	3.908355795
 195	51.466	61.826	78.106	33.55795148	35.71428571	50.26954178
 196	78.427	31.983	22.175	49.05660377	11.18598383	11.99460916
 197	66.017	44.321	0	38.14016173	14.69002695	9.838274933
 198	83.941	0	84.177	54.31266846	17.9245283	51.88679245
 199	20.158	46.612	23.269	10.37735849	13.47708895	8.760107817
 200	0	100	62.618	44.47439353	77.89757412	54.17789757
 201	33.832	0	13.933	7.008086253	0.9433962264	2.021563342
 202	100	17.286	16.322	82.74932615	10.78167116	14.55525606
 203	0	42.204	83.926	7.412398922	22.50673854	48.38274933
 204	0	87.774	0	32.21024259	51.61725067	23.45013477
 205	64.988	0	59.017	30.05390836	8.490566038	23.58490566
 206	14.677	0	100	2.830188679	18.73315364	66.98113208
 207	88.934	82.673	35.021	90.9703504	53.63881402	36.25336927
 208	0	63.778	100	17.25067385	44.20485175	78.57142857
 209	83.429	17.674	100	54.98652291	26.14555256	76.14555256
 210	30.899	100	85.668	51.48247978	85.57951482	79.5148248
 211	83.68	0	41.016	52.96495957	8.086253369	16.7115903
 212	100	63.515	0	98.38274933	33.42318059	23.71967655
 213	85.074	69.987	0	75.33692722	36.79245283	22.50673854
 214	20.801	45.524	69.018	10.91644205	20.08086253	32.88409704
 215	21.382	82.482	73.017	31.94070081	54.71698113	52.42587601
 216	100	15.128	64.249	82.74932615	16.44204852	36.38814016
 217	36.522	0	58.427	8.894878706	5.929919137	19.67654987
 218	22.466	81.296	33.007	30.7277628	45.41778976	25.74123989
 219	62.531	87.152	0	59.16442049	54.17789757	27.49326146
 220	84.12	85.397	67.886	86.25336927	62.26415094	57.14285714
 221	18.87	27.336	45.389	5.121293801	7.142857143	12.8032345
 222	66.439	100	14.444	76.41509434	75.606469	38.27493261
 223	41.636	22.147	19.003	12.93800539	4.312668464	4.716981132
 224	61.271	100	81.94	71.8328841	86.65768194	77.76280323
 225	86.013	100	0	103.3692722	78.1671159	41.37466307
 226	37.57	0	0	8.625336927	0.8086253369	1.212938005
 227	100	16.132	84.102	83.15363881	22.50673854	57.27762803
 228	0	100	13.619	43.93530997	72.10242588	33.15363881
 229	38.905	100	56.471	54.17789757	78.03234501	51.75202156
 230	100	15.382	34.563	82.0754717	11.72506739	19.00269542
 231	36.656	14.908	100	10.91644205	21.02425876	68.59838275
 232	0	62.593	66.608	15.49865229	30.86253369	35.98382749
 233	66.347	12.528	100	33.42318059	23.0458221	71.8328841
 234	100	43.375	69.233	89.21832884	27.49326146	45.28301887
 235	100	56.36	61.236	93.93530997	33.69272237	42.45283019
 236	0	86.194	44.955	31.26684636	52.42587601	33.01886792
 237	64.527	87.262	100	63.74663073	73.98921833	95.14824798
 238	34.411	0	42.471	7.412398922	3.234501348	10.2425876
 239	80.23	59.707	85.12	62.8032345	39.7574124	62.8032345
 240	20.625	19.056	14.791	3.908355795	2.5606469	2.425876011
 241	15.341	34.221	100	7.277628032	25.47169811	70.4851752
 242	36.777	0	87.905	9.568733154	14.42048518	49.73045822
 243	34.598	56.247	100	21.29380054	38.67924528	76.9541779
 244	20.86	67.629	17.418	20.61994609	29.11051213	14.82479784
 245	44.958	60.843	18.054	27.62803235	24.393531	14.01617251
 246	37.421	60.193	0	22.77628032	22.77628032	11.32075472
 247	84.011	33.849	42.612	57.95148248	14.82479784	20.61994609
 248	17.241	60.339	37.743	15.76819407	24.12398922	17.52021563
 249	50.65	17.261	53.278	18.73315364	7.81671159	18.59838275
 250	45.505	48.926	65.152	23.18059299	22.23719677	32.61455526
 251	44.567	84.081	39.649	42.58760108	51.07816712	31.53638814
 252	100	86.339	72.054	116.1725067	68.19407008	66.57681941
 253	68.14	61.135	0	47.70889488	26.01078167	15.22911051
 254	17.93	66.986	81.403	20.4851752	39.35309973	53.23450135
 255	39.242	60.215	48.926	24.25876011	26.68463612	24.25876011
 256	20.099	18.77	62.967	4.312668464	8.355795148	23.18059299
 257	34.553	100	14.582	51.88679245	73.0458221	34.50134771
 258	87.345	0	66.694	59.16442049	13.47708895	34.50134771
 259	0	43.714	39.842	7.008086253	13.20754717	12.93800539
 260	100	37.705	13.955	86.65768194	17.11590296	17.11590296
 261	31.265	86.993	0	37.73584906	51.34770889	23.85444744
 262	51.402	82.661	81.338	47.16981132	58.35579515	63.88140162
 263	100	100	12.984	128.5714286	80.59299191	46.22641509
 264	0	37.859	0	4.986522911	7.81671159	3.504043127
 265	62.092	58.215	100	41.50943396	42.45283019	80.45822102
 266	86.186	100	64.1	103.0997305	84.77088949	64.82479784
 267	100	35.251	85.898	87.06199461	28.84097035	62.26415094
 268	63.182	89.992	41.974	62.93800539	61.05121294	38.67924528
 269	13.504	100	0	45.28301887	71.96765499	32.34501348
 270	100	0	13.228	80.99730458	8.894878706	13.34231806
 271	63.881	40.826	100	36.38814016	31.53638814	76.14555256
 272	69.387	84.838	20.792	64.82479784	52.69541779	29.38005391
 273	0	70.279	45.136	19.81132075	34.36657682	24.93261456
 274	79.094	64.754	40.908	63.47708895	33.69272237	27.76280323
 275	62.385	54.099	17.396	38.27493261	20.75471698	13.61185984
 276	64.408	14.621	0	29.78436658	4.312668464	4.986522911
 277	70.028	15.606	44.651	36.11859838	7.95148248	16.30727763
 278	0	63.544	0	15.49865229	24.66307278	11.18598383
 279	83.475	47.274	20.502	60.91644205	19.2722372	16.03773585
 280	55.866	0	32.671	21.29380054	3.638814016	8.490566038
 281	58.007	0	100	24.66307278	21.15902965	70.61994609
 282	100	0	87.698	82.34501348	22.23719677	60.91644205
 283	0	13.792	67.215	1.212938005	8.221024259	25.87601078
 284	84.123	17.001	58.549	55.1212938	12.66846361	27.76280323
 285	59.579	32.873	15.966	28.1671159	8.894878706	7.681940701
 286	10.41	32.998	28.659	4.582210243	7.142857143	6.873315364
 287	17.231	40.031	85.65	8.625336927	22.23719677	49.73045822
 288	37.568	41.561	10.108	14.95956873	10.78167116	6.334231806
 289	0	69.015	85.092	19.54177898	42.45283019	58.08625337
 290	14.442	100	36.187	45.41778976	73.71967655	39.35309973
 291	100	40.549	0	87.06199461	18.05929919	16.57681941
 292	82.143	45.435	78.429	59.0296496	27.89757412	50.13477089
 293	52.674	0	67.3	19.40700809	9.164420485	28.70619946
 294	0	87.868	66.793	33.15363881	59.70350404	49.19137466
 295	86.53	100	40.524	103.9083558	80.86253369	50.13477089
 296	71.777	85.586	67.232	69.94609164	60.78167116	54.17789757
 297	43.216	100	31.671	56.87331536	74.393531	39.35309973
 298	39.245	32.908	85.845	14.82479784	19.94609164	49.73045822
 299	0	45.662	67.543	8.086253369	19.40700809	31.53638814
 300	12.161	100	100	46.76549865	90.83557951	99.86522911
 301	67.049	0	85.516	32.61455526	16.17250674	50.40431267
 302	100	89.041	100	119.1374663	81.80592992	104.7169811
 303	20.246	60.698	56.526	16.98113208	27.62803235	28.03234501
 304	52.177	55.457	40.416	30.32345013	22.77628032	19.67654987
 305	72.617	87.018	83.932	72.10242588	67.78975741	73.18059299
 306	40.512	16.723	66.475	12.12938005	9.703504043	27.22371968
 307	68.507	49.232	50.605	42.85714286	21.69811321	25.47169811
 308	65.622	100	54.525	76.01078167	79.78436658	53.50404313
 309	54.115	37.24	66.394	25.20215633	16.98113208	31.53638814
 310	100	76.138	31.267	106.3342318	47.97843666	34.77088949
 311	54.728	65.623	0	37.06199461	28.97574124	15.22911051
 312	63.126	12.526	64.37	28.84097035	10.51212938	28.03234501
 313	72.827	18.08	23.704	39.35309973	6.738544474	9.433962264
 314	23.268	15.278	34.947	4.312668464	3.234501348	7.142857143
 315	87.648	68.954	59.645	78.97574124	41.91374663	42.58760108
 316	0	85.595	85.198	31.80592992	62.12938005	67.65498652
 317	35.798	84.371	69.21	38.54447439	56.60377358	50.67385445
 318	36.062	47.494	35.919	16.7115903	15.90296496	13.74663073
 319	86.083	36.277	59.152	62.26415094	19.00269542	31.40161725
 320	58.21	100	30.361	67.78975741	75.74123989	40.70080863
 321	46.745	14.614	32.317	15.3638814	4.177897574	7.81671159
 322	81.573	73.869	86.954	73.85444744	53.9083558	71.29380054
 323	85.991	49.387	48.206	66.17250674	23.85444744	27.49326146
 324	28.062	87.906	19.654	37.33153639	53.09973046	26.41509434
 325	68.992	17.993	85.124	35.98382749	18.05929919	50.94339623
 326	100	66.147	100	101.0781671	54.85175202	92.04851752
 327	33.358	64.806	84.517	24.66307278	39.21832884	57.27762803
 328	41.351	17.736	80.522	13.07277628	14.01617251	41.64420485
 329	100	100	88.719	129.5148248	94.74393531	95.68733154
 330	66.336	0	44.32	31.26684636	6.199460916	15.09433962
 331	64.85	67.09	12.293	47.16981132	31.53638814	18.05929919
 332	15.262	31.268	63.277	5.39083558	11.72506739	24.93261456
 333	15.008	43.663	37.3	8.355795148	13.07277628	12.12938005
 334	0	57.895	38.078	12.53369272	22.10242588	16.44204852
 335	66.599	58.458	67.871	45.01347709	31.80592992	40.9703504
 336	59.191	18.651	15.215	24.93261456	4.716981132	5.660377358
 337	66.781	31.14	84.629	35.98382749	21.29380054	51.48247978
 338	88.033	85.158	52.14	91.37466307	59.83827493	46.22641509
 339	36.882	100	100	54.31266846	91.37466307	100.8086253
 340	26.102	33.094	17.006	7.95148248	6.738544474	4.851752022
 341	56.309	36.861	35.862	26.28032345	11.72506739	13.20754717
 342	45.839	65.587	67.033	31.13207547	35.44474394	40.02695418
 343	83.709	81.172	16.406	80.7277628	49.46091644	29.24528302
 344	0	48.132	13.005	8.355795148	13.61185984	7.008086253
 345	87.176	50.021	100	69.40700809	40.02695418	83.01886792
 346	51.219	84.244	13.73	47.03504043	49.19137466	25.06738544
 347	60.606	71.415	48.406	46.22641509	38.81401617	31.26684636
 348	0	11.359	12.718	0.4043126685	0.9433962264	1.078167116
 349	86.429	49.705	33.145	66.57681941	22.23719677	20.88948787
 350	34.056	40.958	100	14.82479784	29.38005391	72.77628032
 351	100	30.557	59.628	84.90566038	19.54177898	34.6361186
 352	88.497	26.902	13.449	62.8032345	10.64690027	11.99460916
 353	14.167	51.98	88.218	12.39892183	29.91913747	56.19946092
 354	13.784	12.983	49.37	2.156334232	4.582210243	13.34231806
 355	15.018	88.441	48.062	34.77088949	56.87331536	36.52291105
 356	87.79	25.769	89.215	62.26415094	24.12398922	61.18598383
 357	0	33.206	55.865	4.177897574	10.64690027	19.54177898
 358	74.324	76.029	35.536	64.1509434	43.39622642	29.64959569
 359	65.863	57.223	42.324	42.99191375	25.47169811	22.77628032
 360	30.893	54.646	13.136	17.25067385	18.59838275	9.838274933
 361	0	34.36	28.321	4.043126685	7.547169811	6.738544474
 362	15.443	77.087	85.116	26.68463612	51.75202156	63.34231806
 363	63.381	68.947	68.521	47.57412399	40.29649596	45.01347709
 364	69.733	27.566	42.917	37.33153639	10.64690027	16.7115903
 365	32.754	100	42.76	49.59568733	75.33692722	42.99191375
 366	47.096	29.481	34.829	17.9245283	7.95148248	10.37735849
 367	8.5451	71.948	62.695	21.56334232	38.94878706	36.92722372
 368	0	86.048	29.3	30.86253369	51.07816712	26.68463612
 369	53.697	51.572	85.367	30.45822102	30.7277628	55.39083558
 370	17.608	56.69	12.515	13.88140162	19.54177898	9.703504043
 371	90.638	14.414	49.227	64.95956873	11.5902965	23.31536388
 372	63.248	63.64	89.55	44.8787062	42.72237197	66.57681941
 373	100	85.976	58.455	114.8247978	64.42048518	54.44743935
 374	9.8311	28.027	7.5567	3.369272237	4.312668464	2.425876011
 375	89.831	64.313	69.506	79.78436658	40.16172507	49.59568733
 376	31.754	12.995	25.543	6.738544474	2.425876011	4.582210243
 377	75.914	45.966	64.957	50.40431267	23.71967655	36.11859838
 378	7.5735	50.695	58.941	10.2425876	20.61994609	26.01078167
 379	100	69.835	58.912	101.3477089	45.41778976	45.82210243
 380	32.211	34.376	48.339	10.91644205	10.64690027	16.30727763
 381	13.901	12.159	73.555	2.5606469	9.703504043	31.94070081
 382	87.071	9.028	77.653	59.70350404	16.98113208	45.68733154
 383	23.272	85.409	84.29	34.90566038	61.45552561	66.30727763
 384	93.289	39.48	26.145	73.98921833	17.11590296	17.78975741
 385	65.769	59.63	30.967	44.20485175	26.28032345	19.2722372
 386	100	32.265	41.803	84.6361186	17.11590296	24.12398922
 387	86.568	85.281	86.961	89.35309973	68.46361186	78.70619946
 388	52.577	86.83	30.016	50.67385445	53.9083558	30.32345013
 389	47.921	40.199	76.902	21.96765499	21.02425876	42.18328841
 390	22.36	86.619	61.58	34.90566038	56.60377358	44.8787062
 391	52.232	33.601	88.787	23.58490566	22.23719677	55.39083558
 392	0	28.523	86.267	3.773584906	17.25067385	47.97843666
 393	43.497	67.879	39.551	30.59299191	32.47978437	23.0458221
 394	39.877	45.261	0	17.52021563	12.8032345	6.873315364
 395	86.94	12.43	24.699	58.49056604	7.95148248	12.12938005
 396	28.363	55.339	90.398	17.78975741	33.55795148	61.05121294
 397	39.018	70.534	57.879	29.78436658	37.60107817	34.09703504
 398	12.833	28.519	78.828	4.716981132	14.95956873	39.7574124
 399	68.35	31.815	69.975	37.46630728	17.25067385	36.11859838
 400	56.52	26.226	41.626	24.52830189	8.490566038	14.01617251
 401	12.938	46.218	0	8.625336927	12.26415094	5.660377358
 402	8.6938	60.179	26.117	14.28571429	22.77628032	13.34231806
 403	51.995	89.429	96.608	53.36927224	74.52830189	89.21832884
 404	46.905	47.746	48.909	23.0458221	18.32884097	21.02425876
 405	14.352	81.814	19.479	28.84097035	44.60916442	21.96765499
 406	71.482	38.117	12.273	42.18328841	12.39892183	10.2425876
 407	86.616	60.785	10.012	71.8328841	28.97574124	19.67654987
 408	71.811	88.979	52.186	71.29380054	61.5902965	44.8787062
 409	43.213	100	72.083	57.41239892	81.67115903	64.82479784
 410	73.92	23.444	8.2853	41.50943396	7.277628032	7.81671159
