data/calibration-001054.ti3
CTI3   
ORIGINATOR	"ColorHug Factory"
DESCRIPTOR	"Calibration Target chart information 3"
DEVICE_CLASS	"DISPLAY"
COLOR_REP	"RGB_XYZ"
TARGET_INSTRUMENT	"Hughski ColorHug"
INSTRUMENT_TYPE_SPECTRAL	"NO"
NORMALIZED_TO_Y_100	"NO"
NUMBER_OF_FIELDS	7
NUMBER_OF_SETS	15
BEGIN_DATA_FORMAT
 SAMPLE_ID	RGB_R	RGB_G	RGB_B	XYZ_X	XYZ_Y	XYZ_Z
END_DATA_FORMAT
BEGIN_DATA
 1	0	0	0	0.04577636719	0.04577636719	0.04577636719
 2	1	1	1	33.27941895	35.5682373	40.42053223
 3	1	0	0	19.31762695	2.517700195	2.9296875
 4	0	1	0	11.62719727	25.40588379	10.71166992
 5	0	0	1	0.732421875	7.141113281	26.3671875
 6	0	0	0	0.04577636719	0.04577636719	0.04577636719
 7	1	1	1	33.37097168	35.5682373	40.46630859
 8	1	0	0	19.27185059	2.517700195	2.9296875
 9	0	1	0	11.67297363	25.49743652	10.75744629
 10	0	0	1	0.732421875	7.141113281	26.2298584
 11	0	0	0	0.04577636719	0	0.04577636719
 12	1	1	1	33.32519531	35.33935547	40.32897949
 13	1	0	0	19.45495605	2.517700195	2.883911133
 14	0	1	0	11.5814209	25.45166016	10.71166992
 15	0	0	1	0.732421875	7.141113281	26.2298584
END_DATA
