data/calibration-001662.ti3
CTI3   
ORIGINATOR	"ColorHug Factory"
CREATED	"Thu Feb 14 22:47:21 2013"
DESCRIPTOR	"Calibration Target chart information 3"
DEVICE_CLASS	"DISPLAY"
COLOR_REP	"RGB_XYZ"
TARGET_INSTRUMENT	"Hughski ColorHug"
INSTRUMENT_TYPE_SPECTRAL	"NO"
NORMALIZED_TO_Y_100	"NO"
NUMBER_OF_FIELDS	7
NUMBER_OF_SETS	15
BEGIN_DATA_FORMAT
 SAMPLE_ID	RGB_R	RGB_G	RGB_B	XYZ_X	XYZ_Y	XYZ_Z
END_DATA_FORMAT
BEGIN_DATA
 1	0	0	0	0.04577636719	0	0.09155273438
 2	1	1	1	35.79711914	38.2232666	49.07226562
 3	1	0	0	21.33178711	2.655029297	3.387451172
 4	0	1	0	12.86315918	27.19116211	12.1307373
 5	0	0	1	0.8239746094	8.285522461	33.09631348
 6	0	0	0	0.04577636719	0	0.09155273438
 7	1	1	1	35.88867188	38.17749023	49.07226562
 8	1	0	0	21.33178711	2.655029297	3.387451172
 9	0	1	0	12.86315918	27.23693848	12.1307373
 10	0	0	1	0.8239746094	8.285522461	33.32519531
 11	0	0	0	0.04577636719	0.04577636719	0.09155273438
 12	1	1	1	35.75134277	38.2232666	49.07226562
 13	1	0	0	21.33178711	2.655029297	3.387451172
 14	0	1	0	12.81738281	27.19116211	12.1307373
 15	0	0	1	0.8239746094	8.285522461	33.27941895
END_DATA
