data/calibration-001156.ti3
CTI3   
ORIGINATOR	"ColorHug Factory"
DESCRIPTOR	"Calibration Target chart information 3"
DEVICE_CLASS	"DISPLAY"
COLOR_REP	"RGB_XYZ"
TARGET_INSTRUMENT	"Hughski ColorHug"
INSTRUMENT_TYPE_SPECTRAL	"NO"
NORMALIZED_TO_Y_100	"NO"
NUMBER_OF_FIELDS	7
NUMBER_OF_SETS	15
BEGIN_DATA_FORMAT
 SAMPLE_ID	RGB_R	RGB_G	RGB_B	XYZ_X	XYZ_Y	XYZ_Z
END_DATA_FORMAT
BEGIN_DATA
 1	0	0	0	0	0	0
 2	1	1	1	34.8815918	38.26904297	46.09680176
 3	1	0	0	19.86694336	2.517700195	3.387451172
 4	0	1	0	12.03918457	27.46582031	12.40539551
 5	0	0	1	0.6408691406	7.64465332	29.47998047
 6	0	0	0	0	0	0
 7	1	1	1	34.79003906	38.31481934	46.14257812
 8	1	0	0	19.82116699	2.517700195	3.387451172
 9	0	1	0	12.1307373	27.32849121	12.40539551
 10	0	0	1	0.6408691406	7.64465332	29.52575684
 11	0	0	0	0	0	0
 12	1	1	1	34.83581543	38.2232666	46.09680176
 13	1	0	0	19.86694336	2.517700195	3.387451172
 14	0	1	0	12.03918457	27.42004395	12.45117188
 15	0	0	1	0.6408691406	7.690429688	29.47998047
END_DATA
