data/calibration-000718.ti3
CTI3
ORIGINATOR	"ColorHug Factory"
DESCRIPTOR	"Calibration Target chart information 3"
DEVICE_CLASS	"DISPLAY"
COLOR_REP	"RGB_XYZ"
TARGET_INSTRUMENT	"Hughski ColorHug"
INSTRUMENT_TYPE_SPECTRAL	"NO"
NORMALIZED_TO_Y_100	"NO"
NUMBER_OF_FIELDS	7
NUMBER_OF_SETS	15
BEGIN_DATA_FORMAT
 SAMPLE_ID	RGB_R	RGB_G	RGB_B	XYZ_X	XYZ_Y	XYZ_Z
END_DATA_FORMAT
BEGIN_DATA
 1	0	0	0	0	0.04577636719	0.04577636719
 2	1	1	1	60.37902832	39.68811035	45.22705078
 3	1	0	0	38.26904297	3.662109375	5.447387695
 4	0	1	0	19.95849609	28.42712402	12.72583008
 5	0	0	1	0.8697509766	7.415771484	26.91650391
 6	0	0	0	0	0.04577636719	0.04577636719
 7	1	1	1	60.51635742	39.68811035	45.27282715
 8	1	0	0	38.2232666	3.662109375	5.447387695
 9	0	1	0	19.82116699	28.38134766	12.72583008
 10	0	0	1	0.8697509766	7.415771484	26.91650391
 11	0	0	0	0	0.04577636719	0.04577636719
 12	1	1	1	59.92126465	39.64233398	45.22705078
 13	1	0	0	38.0859375	3.662109375	5.447387695
 14	0	1	0	19.86694336	28.33557129	12.77160645
 15	0	0	1	0.8697509766	7.415771484	26.91650391
END_DATA
