data/calibration-002511.ti3
CTI3   
ORIGINATOR	"ColorHug Factory"
CREATED	"Wed Oct 22 09:41:23 2014"
DESCRIPTOR	"Calibration Target chart information 3"
DEVICE_CLASS	"DISPLAY"
COLOR_REP	"RGB_XYZ"
TARGET_INSTRUMENT	"Hughski ColorHug"
INSTRUMENT_TYPE_SPECTRAL	"NO"
NORMALIZED_TO_Y_100	"NO"
NUMBER_OF_FIELDS	7
NUMBER_OF_SETS	15
BEGIN_DATA_FORMAT
 SAMPLE_ID	RGB_R	RGB_G	RGB_B	XYZ_X	XYZ_Y	XYZ_Z
END_DATA_FORMAT
BEGIN_DATA
 1.0	0.0	0.0	0.0	0.188949584961	0.209747314453	0.260040283203
 2.0	1.0	1.0	1.0	83.591827392578	83.591827392578	82.747467041016
 3.0	1.0	0.0	0.0	58.514282226562	5.919067382812	9.022018432617
 4.0	0.0	1.0	0.0	20.791870117188	60.235290527344	22.882675170898
 5.0	0.0	0.0	1.0	2.327270507812	15.693481445312	49.05387878418
 6.0	0.0	0.0	0.0	0.191101074219	0.211502075195	0.262191772461
 7.0	1.0	1.0	1.0	83.591827392578	83.591827392578	82.747467041016
 8.0	1.0	0.0	0.0	58.514282226562	5.949157714844	8.982452392578
 9.0	0.0	1.0	0.0	20.844772338867	60.235290527344	22.882675170898
 10.0	0.0	0.0	1.0	2.327926635742	15.693481445312	49.05387878418
 11.0	0.0	0.0	0.0	0.191833496094	0.212387084961	0.262191772461
 12.0	1.0	1.0	1.0	83.591827392578	83.591827392578	82.747467041016
 13.0	1.0	0.0	0.0	58.514282226562	5.949157714844	8.972610473633
 14.0	0.0	1.0	0.0	20.791870117188	60.235290527344	22.882675170898
 15.0	0.0	0.0	1.0	2.339233398438	15.663467407227	49.05387878418
END_DATA
