data/calibration-000586.ti3
CTI3
ORIGINATOR	"ColorHug Factory"
DESCRIPTOR	"Calibration Target chart information 3"
DEVICE_CLASS	"DISPLAY"
COLOR_REP	"RGB_XYZ"
TARGET_INSTRUMENT	"Hughski ColorHug"
INSTRUMENT_TYPE_SPECTRAL	"NO"
NORMALIZED_TO_Y_100	"NO"
NUMBER_OF_FIELDS	7
NUMBER_OF_SETS	15
BEGIN_DATA_FORMAT
 SAMPLE_ID	RGB_R	RGB_G	RGB_B	XYZ_X	XYZ_Y	XYZ_Z
END_DATA_FORMAT
BEGIN_DATA
 1	0	0	0	0.04577636719	0	0.04577636719
 2	1	1	1	63.30871582	39.04724121	45.18127441
 3	1	0	0	40.19165039	3.753662109	5.676269531
 4	0	1	0	20.73669434	27.78625488	12.81738281
 5	0	0	1	0.9155273438	7.32421875	26.6418457
 6	0	0	0	0.04577636719	0	0.04577636719
 7	1	1	1	62.62207031	38.90991211	45.50170898
 8	1	0	0	39.77966309	3.799438477	5.676269531
 9	0	1	0	20.73669434	27.87780762	12.77160645
 10	0	0	1	0.9155273438	7.32421875	26.6418457
 11	0	0	0	0.04577636719	0	0.04577636719
 12	1	1	1	63.07983398	39.09301758	45.45593262
 13	1	0	0	40.14587402	3.753662109	5.676269531
 14	0	1	0	20.82824707	27.92358398	12.81738281
 15	0	0	1	0.9155273438	7.32421875	26.5045166
END_DATA
