data/calibration-002679.ti3
CTI3   
ORIGINATOR	"ColorHug Factory"
CREATED	"Thu Mar 26 20:03:03 2015"
DESCRIPTOR	"Calibration Target chart information 3"
DEVICE_CLASS	"DISPLAY"
COLOR_REP	"RGB_XYZ"
TARGET_INSTRUMENT	"Hughski ColorHug"
INSTRUMENT_TYPE_SPECTRAL	"NO"
NORMALIZED_TO_Y_100	"NO"
NUMBER_OF_FIELDS	7
NUMBER_OF_SETS	15
BEGIN_DATA_FORMAT
 SAMPLE_ID	RGB_R	RGB_G	RGB_B	XYZ_X	XYZ_Y	XYZ_Z
END_DATA_FORMAT
BEGIN_DATA
 1.0	0.0	0.0	0.0	0.365173339844	0.36213684082	0.463363647461
 2.0	1.0	1.0	1.0	64.503936767578	60.235290527344	63.015380859375
 3.0	1.0	0.0	0.0	46.811416625977	4.870391845703	7.976623535156
 4.0	0.0	1.0	0.0	15.814666748047	43.574462890625	17.066665649414
 5.0	0.0	0.0	1.0	2.293380737305	12.393341064453	38.460083007812
 6.0	0.0	0.0	0.0	0.366958618164	0.363037109375	0.464202880859
 7.0	1.0	1.0	1.0	65.015869140625	60.235290527344	63.015380859375
 8.0	1.0	0.0	0.0	46.811416625977	4.870391845703	7.976623535156
 9.0	0.0	1.0	0.0	15.875961303711	43.574462890625	17.246307373047
 10.0	0.0	0.0	1.0	2.28125	12.208633422852	37.925918579102
 11.0	0.0	0.0	0.0	0.366333007812	0.362945556641	0.463394165039
 12.0	1.0	1.0	1.0	65.015869140625	60.235290527344	63.999984741211
 13.0	1.0	0.0	0.0	46.811416625977	4.873275756836	7.976623535156
 14.0	0.0	1.0	0.0	15.845260620117	43.574462890625	17.066665649414
 15.0	0.0	0.0	1.0	2.276809692383	12.208633422852	38.280364990234
END_DATA
