data/calibration-000641.ti3
CTI3
ORIGINATOR	"ColorHug Factory"
DESCRIPTOR	"Calibration Target chart information 3"
DEVICE_CLASS	"DISPLAY"
COLOR_REP	"RGB_XYZ"
TARGET_INSTRUMENT	"Hughski ColorHug"
INSTRUMENT_TYPE_SPECTRAL	"NO"
NORMALIZED_TO_Y_100	"NO"
NUMBER_OF_FIELDS	7
NUMBER_OF_SETS	15
BEGIN_DATA_FORMAT
 SAMPLE_ID	RGB_R	RGB_G	RGB_B	XYZ_X	XYZ_Y	XYZ_Z
END_DATA_FORMAT
BEGIN_DATA
 1	0	0	0	0.04577636719	0.04577636719	0.09155273438
 2	1	1	1	50.99487305	37.17041016	42.43469238
 3	1	0	0	31.8145752	3.341674805	4.806518555
 4	0	1	0	16.89147949	26.7791748	12.1307373
 5	0	0	1	0.8239746094	7.095336914	25.31433105
 6	0	0	0	0.04577636719	0.04577636719	0.09155273438
 7	1	1	1	50.67443848	37.21618652	42.52624512
 8	1	0	0	31.67724609	3.341674805	4.852294922
 9	0	1	0	16.93725586	26.7791748	12.1307373
 10	0	0	1	0.8239746094	7.095336914	25.22277832
 11	0	0	0	0.04577636719	0.04577636719	0.09155273438
 12	1	1	1	50.72021484	37.21618652	42.43469238
 13	1	0	0	31.72302246	3.341674805	4.806518555
 14	0	1	0	16.98303223	26.7791748	12.1307373
 15	0	0	1	0.8239746094	7.095336914	25.31433105
END_DATA
