data/calibration-001852.ti3
CTI3   
ORIGINATOR	"ColorHug Factory"
CREATED	"Wed Apr 10 09:25:01 2013"
DESCRIPTOR	"Calibration Target chart information 3"
DEVICE_CLASS	"DISPLAY"
COLOR_REP	"RGB_XYZ"
TARGET_INSTRUMENT	"Hughski ColorHug"
INSTRUMENT_TYPE_SPECTRAL	"NO"
NORMALIZED_TO_Y_100	"NO"
NUMBER_OF_FIELDS	7
NUMBER_OF_SETS	15
BEGIN_DATA_FORMAT
 SAMPLE_ID	RGB_R	RGB_G	RGB_B	XYZ_X	XYZ_Y	XYZ_Z
END_DATA_FORMAT
BEGIN_DATA
 1	0	0	0	0	0.04577636719	0.09155273438
 2	1	1	1	37.03308105	38.0859375	50.30822754
 3	1	0	0	22.24731445	2.746582031	3.570556641
 4	0	1	0	13.36669922	26.82495117	12.35961914
 5	0	0	1	0.8697509766	8.743286133	34.46960449
 6	0	0	0	0	0.04577636719	0.09155273438
 7	1	1	1	37.21618652	38.17749023	50.26245117
 8	1	0	0	22.20153809	2.746582031	3.570556641
 9	0	1	0	13.27514648	26.68762207	12.26806641
 10	0	0	1	0.8697509766	8.743286133	34.24072266
 11	0	0	0	0	0.04577636719	0.09155273438
 12	1	1	1	37.26196289	38.31481934	50.30822754
 13	1	0	0	22.20153809	2.746582031	3.570556641
 14	0	1	0	13.27514648	26.73339844	12.26806641
 15	0	0	1	0.8697509766	8.743286133	34.51538086
END_DATA
