data/calibration-000244.ti3
CTI3
DESCRIPTOR	"Calibration Target chart information 3"
ORIGINATOR	"ColorHug Factory"
DEVICE_CLASS	"DISPLAY"
COLOR_REP	"RGB_XYZ"
TARGET_INSTRUMENT	"ColorHug"
INSTRUMENT_TYPE_SPECTRAL	"NO"
LUMINANCE_XYZ_CDM2	"50.273895 38.681030 44.666290"
NORMALIZED_TO_Y_100	"YES"
NUMBER_OF_FIELDS	7
NUMBER_OF_SETS	836
BEGIN_DATA_FORMAT
 SAMPLE_ID	RGB_R	RGB_G	RGB_B	XYZ_X	XYZ_Y	XYZ_Z
END_DATA_FORMAT
BEGIN_DATA
 1	100	100	100	128.8915094	100	115.0943396
 2	100	100	100	129.009434	99.52830189	114.8584906
 3	100	100	100	129.8349057	99.52830189	115.2122642
 4	100	100	100	130.3066038	99.52830189	115.0943396
 5	33.33	32.622	30.968	11.08490566	8.372641509	8.962264151
 6	100	0	100	82.31132075	28.18396226	82.31132075
 7	100	100	0	128.8915094	80.4245283	44.5754717
 8	0	100	100	46.10849057	91.03773585	102.9481132
 9	0	100	0	44.10377358	71.34433962	32.42924528
 10	0	0	100	2.594339623	19.5754717	70.04716981
 11	100	0	0	80.77830189	8.726415094	12.02830189
 12	0	0	0	0.4716981132	0.4716981132	0.4716981132
 13	0	52.455	100	12.14622642	35.96698113	78.06603774
 14	100	0	50.3	81.01415094	12.73584906	26.17924528
 15	100	54.739	100	93.39622642	46.10849057	90.91981132
 16	100	52.128	0	91.62735849	24.64622642	19.33962264
 17	0	0	46.181	33.01886792	3.537735849	11.6745283
 18	0	51.141	0	9.905660377	15.56603774	7.311320755
 19	0	100	51.348	44.45754717	75.11792453	47.40566038
 20	100	100	52.037	128.8915094	84.90566038	60.14150943
 21	49.216	0	0	17.21698113	2.122641509	2.830188679
 22	56.159	100	0	65.91981132	74.29245283	35.49528302
 23	49.226	100	100	62.5	93.16037736	105.6603774
 24	44.487	0	100	14.85849057	20.99056604	72.40566038
 25	100	44.498	52.029	88.67924528	24.52830189	32.42924528
 26	48.926	48.544	100	26.41509434	35.14150943	79.5990566
 27	51.368	100	47.25	62.5	77.00471698	47.52358491
 28	49.893	0	49.033	17.21698113	5.896226415	16.15566038
 29	53.109	51.372	0	28.77358491	17.57075472	10.14150943
 30	0	58.587	53.943	13.67924528	25.35377358	26.06132075
 31	100	28.065	100	85.49528302	32.66509434	84.78773585
 32	0	0	72.874	1.41509434	9.080188679	32.31132075
 33	0	26.758	100	4.599056604	23.58490566	72.40566038
 34	0	25.426	0	2.712264151	3.891509434	2.122641509
 35	72.508	0	100	39.26886792	23.70283019	76.53301887
 36	100	27.395	0	83.37264151	12.85377358	13.91509434
 37	74.47	100	100	87.5	95.28301887	109.0801887
 38	100	0	25.728	80.89622642	9.787735849	15.56603774
 39	73.862	0	0	39.38679245	4.599056604	6.132075472
 40	100	100	25.402	128.7735849	81.48584906	47.99528302
 41	0	75.751	100	25.23584906	56.95754717	87.73584906
 42	0	75.172	0	22.75943396	35.96698113	16.62735849
 43	0	100	25.864	43.98584906	72.28773585	35.8490566
 44	100	0	74.801	80.89622642	18.39622642	46.81603774
 45	0	100	75.421	45.16509434	81.83962264	68.27830189
 46	24.577	0	0	4.127358491	0.8254716981	1.061320755
 47	26.321	100	0	48.70283019	71.81603774	33.01886792
 48	100	75.835	0	105.1886792	45.63679245	29.00943396
 49	100	100	77.061	126.6509434	90.80188679	81.95754717
 50	71.263	100	0	81.95754717	75.94339623	37.97169811
 51	0	0	15.614	0.4716981132	0.8254716981	1.768867925
 52	0	30.049	70.936	4.245283019	13.56132075	32.66509434
 53	100	77.691	100	108.7264151	68.16037736	100.1179245
 54	24.486	100	100	49.64622642	91.50943396	103.6556604
 55	100	62.784	31.909	97.52358491	34.66981132	28.53773585
 56	29.552	0	100	7.547169811	20.28301887	71.34433962
 57	32.98	70.921	100	28.77358491	52.24056604	86.32075472
 58	0	27.681	40.241	3.301886792	6.839622642	10.8490566
 59	67.901	71.021	100	54.5990566	55.18867925	90.21226415
 60	28.154	100	67.829	50	79.83490566	60.73113208
 61	71.637	100	70.001	82.66509434	83.96226415	67.9245283
 62	58.822	58.763	53.586	37.26415094	27.71226415	29.24528302
 63	33.466	30.48	0	10.61320755	6.132075472	3.773584906
 64	100	73.795	71.277	104.5990566	52.47641509	58.96226415
 65	68.394	29.692	0	35.96698113	8.608490566	7.429245283
 66	70.399	0	29.039	35.14150943	5.306603774	9.905660377
 67	28.078	0	26.956	5.424528302	2.004716981	4.83490566
 68	28.532	72.339	0	26.06132075	33.72641509	16.03773585
 69	100	30.941	26.496	84.31603774	14.97641509	18.16037736
 70	34.597	0	73.611	8.608490566	10.14150943	34.31603774
 71	71.573	0	72.408	37.14622642	12.97169811	37.26415094
 72	0	71.029	29.412	20.4009434	33.13679245	19.22169811
 73	68.386	75.008	0	55.66037736	39.85849057	21.46226415
 74	68.088	27.309	100	37.5	27.35849057	77.47641509
 75	100	26.457	73.749	84.19811321	21.93396226	47.40566038
 76	74.344	100	27.392	85.73113208	77.47641509	42.45283019
 77	27.558	100	28.197	48.70283019	73.3490566	37.38207547
 78	31.196	27.465	100	10.73113208	24.52830189	73.46698113
 79	0	75.521	72.824	24.05660377	45.75471698	49.05660377
 80	0	50.93	25.553	9.905660377	16.27358491	10.61320755
 81	32.06	33.584	64.033	11.20283019	13.79716981	28.06603774
 82	81.666	55.38	0	61.91037736	23.82075472	15.91981132
 83	68.257	32.751	58.286	37.5	15.21226415	27.24056604
 84	0	55.248	81.585	12.61792453	30.18867925	51.06132075
 85	73.781	52.099	100	51.29716981	39.62264151	83.60849057
 86	100	50.537	82.952	91.86320755	35.96698113	63.3254717
 87	23.55	0	50.439	4.245283019	4.599056604	14.85849057
 88	31.335	62.746	31.114	21.69811321	26.41509434	17.21698113
 89	100	18.31	49.418	81.72169811	14.50471698	26.6509434
 90	26.498	48.404	0	13.20754717	14.38679245	7.193396226
 91	47.91	100	85.744	60.61320755	86.79245283	83.01886792
 92	71.829	47.313	31.811	45.4009434	18.63207547	16.98113208
 93	31.304	64.132	69.316	22.99528302	34.08018868	41.50943396
 94	80.403	0	54.321	48.46698113	10.14150943	24.05660377
 95	18.455	50.036	100	13.3254717	34.55188679	77.94811321
 96	50.653	100	16.345	61.20283019	73.58490566	36.43867925
 97	80.121	100	52.261	94.10377358	81.36792453	55.4245283
 98	0	22.54	19.289	2.240566038	3.773584906	3.773584906
 99	100	75.273	46.886	105.6603774	48.11320755	40.68396226
 100	0	78.618	56.625	26.06132075	45.28301887	36.79245283
 101	51.137	80.627	100	45.87264151	64.03301887	93.04245283
 102	48.446	0	17.864	15.68396226	2.594339623	4.363207547
 103	100	50.023	21.211	90.09433962	24.1745283	21.22641509
 104	50.115	20.118	0	18.16037736	4.363207547	3.891509434
 105	58.099	72.426	33.158	44.33962264	37.14622642	24.41037736
 106	19.364	100	50.197	46.81603774	76.06132075	46.93396226
 107	50.683	19.177	100	20.4009434	23.58490566	74.41037736
 108	53.37	0	81.576	20.51886792	14.1509434	45.87264151
 109	47.768	76.245	0	38.3254717	38.79716981	19.33962264
 110	0	18.927	55.503	2.122641509	7.193396226	18.51415094
 111	0	13.277	0	1.179245283	1.41509434	0.9433962264
 112	72.862	72.473	75.625	60.14150943	46.93396226	56.48584906
 113	100	13.904	0	81.01415094	9.787735849	12.61792453
 114	86.349	0	100	58.37264151	25.70754717	79.24528302
 115	100	41.941	100	88.08962264	38.08962264	86.79245283
 116	100	81.785	16.464	110.1415094	53.18396226	33.72641509
 117	0	44.063	52.596	7.783018868	15.68396226	20.87264151
 118	0	0	58.917	1.061320755	5.778301887	19.92924528
 119	59.25	24.551	29.789	26.53301887	7.429245283	9.905660377
 120	82.73	82.874	100	82.31132075	70.75471698	99.1745283
 121	80.039	0	12.618	47.28773585	5.660377358	8.254716981
 122	60.957	47.729	77.817	34.90566038	26.6509434	48.3490566
 123	100	0	38.618	80.66037736	10.96698113	20.04716981
 124	0	40.09	100	7.900943396	28.77358491	74.76415094
 125	0	15.283	82.322	2.240566038	13.44339623	43.98584906
 126	17.592	81.726	100	31.36792453	64.1509434	91.39150943
 127	100	14.13	100	82.66509434	29.48113208	82.42924528
 128	15.261	100	82.059	46.58018868	83.13679245	75.70754717
 129	47.77	79.418	60.389	41.27358491	48.46698113	42.0990566
 130	18.768	16.429	0	3.537735849	2.122641509	1.533018868
 131	55.634	100	65.763	65.68396226	81.01415094	61.32075472
 132	100	100	38.541	120.2830189	82.78301887	52.71226415
 133	17.421	0	83.497	3.419811321	12.73584906	45.28301887
 134	17.237	16.758	100	4.952830189	21.34433962	72.05188679
 135	0	15.067	30.039	1.41509434	2.948113208	5.660377358
 136	0	0	86.505	1.886792453	13.67924528	48.58490566
 137	75.736	72.799	50.02	63.79716981	41.98113208	35.49528302
 138	100	83.323	85.529	112.9716981	68.39622642	81.60377358
 139	100	100	64.894	128.0660377	86.91037736	70.04716981
 140	81.98	84.914	0	99.76415094	53.65566038	29.48113208
 141	0	63.757	15.49	15.91981132	25.23584906	12.85377358
 142	49.514	66.135	100	35.37735849	48.23113208	84.78773585
 143	100	0	61.862	81.13207547	14.85849057	34.19811321
 144	24.308	45.41	49.831	11.6745283	16.39150943	20.16509434
 145	15.963	0	17.047	2.122641509	1.061320755	2.240566038
 146	87.497	100	100	106.3679245	97.40566038	111.9103774
 147	52.099	25.003	75.752	21.34433962	15.44811321	40.33018868
 148	14.909	81.162	0	28.53773585	43.16037736	19.92924528
 149	0	34.792	14.626	4.716981132	7.311320755	4.716981132
 150	48.39	45.075	22.552	23.11320755	14.26886792	10.49528302
 151	83.545	65.965	100	71.81603774	52.24056604	91.27358491
 152	16.226	62.345	0	16.74528302	23.93867925	11.20283019
 153	63.222	0	14.914	27.83018868	3.773584906	5.778301887
 154	80.449	13.446	0	48.46698113	6.603773585	7.900943396
 155	83.917	41.562	0	58.72641509	15.56603774	12.5
 156	100	60.448	46.3	95.75471698	34.43396226	34.43396226
 157	15.584	0	34.795	2.240566038	2.358490566	6.839622642
 158	17.144	65.121	100	20.4009434	46.10849057	82.9009434
 159	83.602	55.334	62.667	64.74056604	30.54245283	39.26886792
 160	0	82.19	14.22	27.94811321	44.92924528	21.46226415
 161	25.132	74.856	50.616	27.00471698	40.21226415	31.36792453
 162	0	13.769	100	2.712264151	20.75471698	70.99056604
 163	87.181	0	0	57.78301887	6.485849057	8.844339623
 164	0	100	39.19	43.98584906	73.93867925	40.80188679
 165	78.047	65.914	19.865	62.5	32.42924528	21.22641509
 166	100	63.961	15.865	97.64150943	34.31603774	25
 167	100	45.955	36.032	88.3254717	22.87735849	24.52830189
 168	15.926	100	16.89	45.87264151	72.05188679	34.08018868
 169	41.459	100	0	55.07075472	72.64150943	34.08018868
 170	48.707	37.288	48.139	21.22641509	13.44339623	18.98584906
 171	83.381	100	13.285	97.40566038	77.47641509	41.39150943
 172	78.129	25.303	75.621	47.52358491	18.27830189	43.86792453
 173	12.396	0	0	1.533018868	0.5896226415	0.7075471698
 174	37.607	48.336	83.346	18.86792453	27.24056604	52.35849057
 175	35.588	15.356	0	8.962264151	2.594339623	2.240566038
 176	61.245	100	100	72.40566038	93.39622642	106.7216981
 177	100	67.29	87.195	100.4716981	50.58962264	74.88207547
 178	0	0	30.615	0.5896226415	1.768867925	5.188679245
 179	35.187	81.789	83.323	36.43867925	57.54716981	66.50943396
 180	39.525	80.194	22.879	36.32075472	43.75	23.46698113
 181	50.634	34.593	0	21.46226415	8.726415094	5.896226415
 182	14.175	100	63.146	45.87264151	78.30188679	56.36792453
 183	83.493	17.728	34.574	52.71226415	9.316037736	14.97641509
 184	23.463	22.014	79.943	6.485849057	14.50471698	42.57075472
 185	18.066	31.847	0	6.014150943	6.132075472	3.301886792
 186	87.201	100	81.361	103.6556604	89.1509434	83.84433962
 187	0	100	87.95	44.92924528	85.37735849	83.49056604
 188	34.476	17.888	46.22	9.080188679	6.132075472	13.79716981
 189	18.277	0	67.39	3.183962264	7.900943396	27.35849057
 190	100	87.972	0	115.9198113	60.96698113	35.96698113
 191	82.925	34.85	100	57.0754717	31.95754717	81.72169811
 192	0	88.016	100	34.43396226	72.05188679	94.33962264
 193	36.104	85.655	100	40.80188679	69.92924528	94.69339623
 194	60.981	0	0	25.47169811	3.183962264	4.127358491
 195	51.466	61.826	78.106	33.37264151	35.96698113	51.76886792
 196	78.427	31.983	22.175	48.11320755	11.43867925	12.02830189
 197	66.017	44.321	0	37.61792453	14.85849057	9.905660377
 198	83.941	0	84.177	54.12735849	18.63207547	54.00943396
 199	20.158	46.612	23.269	10.73113208	13.79716981	9.198113208
 200	0	100	62.618	44.45754717	77.47641509	55.4245283
 201	33.832	0	13.933	7.429245283	1.533018868	2.594339623
 202	100	17.286	16.322	81.60377358	10.8490566	14.26886792
 203	0	42.204	83.926	7.900943396	22.99528302	50.58962264
 204	0	87.774	0	32.31132075	51.6509434	23.58490566
 205	64.988	0	59.017	29.95283019	8.962264151	24.64622642
 206	14.677	0	100	3.537735849	19.81132075	71.22641509
 207	88.934	82.673	35.021	82.78301887	53.30188679	36.32075472
 208	0	63.778	100	17.68867925	44.69339623	82.31132075
 209	83.429	17.674	100	54.5990566	27.00471698	79.12735849
 210	30.899	100	85.668	51.41509434	85.37735849	81.83962264
 211	83.68	0	41.016	52.59433962	8.490566038	16.98113208
 212	100	63.515	0	95.75471698	33.13679245	23.3490566
 213	85.074	69.987	0	74.41037736	36.6745283	22.16981132
 214	20.801	45.524	69.018	11.20283019	20.4009434	34.66981132
 215	21.382	82.482	73.017	31.95754717	54.48113208	53.89150943
 216	100	15.128	64.249	81.36792453	16.74528302	37.02830189
 217	36.522	0	58.427	9.198113208	6.603773585	20.87264151
 218	22.466	81.296	33.007	30.66037736	45.63679245	26.29716981
 219	62.531	87.152	0	58.84433962	54.00943396	27.35849057
 220	84.12	85.397	67.886	84.78773585	62.14622642	58.25471698
 221	18.87	27.336	45.389	5.54245283	7.783018868	13.79716981
 222	66.439	100	14.444	75.94339623	75.47169811	38.20754717
 223	41.636	22.147	19.003	13.20754717	4.83490566	5.306603774
 224	61.271	100	81.94	71.46226415	86.55660377	79.5990566
 225	86.013	100	0	102.240566	77.94811321	40.68396226
 226	37.57	0	0	9.080188679	1.41509434	1.768867925
 227	100	16.132	84.102	81.60377358	22.87735849	58.84433962
 228	0	100	13.619	43.86792453	71.58018868	33.37264151
 229	38.905	100	56.471	54.36320755	77.47641509	52.12264151
 230	100	15.382	34.563	81.48584906	11.91037736	19.10377358
 231	36.656	14.908	100	11.32075472	21.81603774	72.99528302
 232	0	62.593	66.608	15.91981132	31.25	37.38207547
 233	66.347	12.528	100	33.25471698	23.93867925	76.29716981
 234	100	43.375	69.233	88.20754717	27.59433962	46.10849057
 235	100	56.36	61.236	93.75	33.72641509	42.80660377
 236	0	86.194	44.955	31.48584906	52.35849057	33.72641509
 237	64.527	87.262	100	62.73584906	74.1745283	98.58490566
 238	34.411	0	42.471	7.900943396	3.891509434	11.20283019
 239	80.23	59.707	85.12	62.61792453	40.09433962	64.50471698
 240	20.625	19.056	14.791	4.363207547	3.066037736	3.066037736
 241	15.341	34.221	100	7.783018868	26.41509434	74.05660377
 242	36.777	0	87.905	9.905660377	15.21226415	52.71226415
 243	34.598	56.247	100	21.46226415	39.26886792	80.54245283
 244	20.86	67.629	17.418	20.87264151	29.12735849	15.21226415
 245	44.958	60.843	18.054	27.47641509	24.52830189	14.26886792
 246	37.421	60.193	0	22.87735849	22.75943396	11.55660377
 247	84.011	33.849	42.612	57.54716981	15.09433962	20.87264151
 248	17.241	60.339	37.743	16.03773585	24.29245283	18.04245283
 249	50.65	17.261	53.278	18.86792453	8.254716981	19.5754717
 250	45.505	48.926	65.152	23.11320755	22.52358491	33.72641509
 251	44.567	84.081	39.649	42.45283019	50.58962264	31.95754717
 252	100	86.339	72.054	115.0943396	68.04245283	66.86320755
 253	68.14	61.135	0	46.58018868	25.94339623	15.21226415
 254	17.93	66.986	81.403	20.63679245	39.97641509	55.54245283
 255	39.242	60.215	48.926	24.29245283	26.76886792	24.88207547
 256	20.099	18.77	62.967	4.83490566	8.962264151	24.64622642
 257	34.553	100	14.582	51.17924528	72.16981132	34.66981132
 258	87.345	0	66.694	57.78301887	13.79716981	35.25943396
 259	0	43.714	39.842	7.429245283	13.56132075	13.79716981
 260	100	37.705	13.955	85.25943396	17.0990566	16.86320755
 261	31.265	86.993	0	37.73584906	51.06132075	24.05660377
 262	51.402	82.661	81.338	46.81603774	58.60849057	65.80188679
 263	100	100	12.984	127.7122642	80.77830189	45.63679245
 264	0	37.859	0	5.424528302	8.254716981	4.127358491
 265	62.092	58.215	100	41.39150943	42.68867925	83.96226415
 266	86.186	100	64.1	102.5943396	84.31603774	65.21226415
 267	100	35.251	85.898	85.73113208	29.12735849	63.79716981
 268	63.182	89.992	41.974	62.5	60.8490566	38.91509434
 269	13.504	100	0	45.16509434	71.58018868	32.54716981
 270	100	0	13.228	80.18867925	9.080188679	13.08962264
 271	63.881	40.826	100	36.08490566	32.31132075	79.5990566
 272	69.387	84.838	20.792	64.1509434	52.47641509	29.36320755
 273	0	70.279	45.136	20.04716981	34.43396226	25.58962264
 274	79.094	64.754	40.908	63.08962264	33.60849057	27.94811321
 275	62.385	54.099	17.396	37.97169811	20.75471698	13.79716981
 276	64.408	14.621	0	29.71698113	4.716981132	5.188679245
 277	70.028	15.606	44.651	35.96698113	8.490566038	16.86320755
 278	0	63.544	0	15.80188679	24.88207547	11.55660377
 279	83.475	47.274	20.502	60.49528302	19.33962264	16.03773585
 280	55.866	0	32.671	21.46226415	4.245283019	9.080188679
 281	58.007	0	100	24.76415094	22.16981132	74.41037736
 282	100	0	87.698	81.36792453	22.64150943	62.73584906
 283	0	13.792	67.215	1.768867925	8.844339623	27.71226415
 284	84.123	17.001	58.549	54.36320755	12.97169811	28.53773585
 285	59.579	32.873	15.966	27.83018868	9.198113208	8.018867925
 286	10.41	32.998	28.659	5.188679245	7.66509434	7.547169811
 287	17.231	40.031	85.65	9.080188679	22.87735849	52.35849057
 288	37.568	41.561	10.108	15.21226415	11.08490566	6.721698113
 289	0	69.015	85.092	19.92924528	42.80660377	60.73113208
 290	14.442	100	36.187	45.51886792	73.70283019	39.74056604
 291	100	40.549	0	85.96698113	18.04245283	16.27358491
 292	82.143	45.435	78.429	58.13679245	28.06603774	51.29716981
 293	52.674	0	67.3	19.5754717	9.787735849	30.07075472
 294	0	87.868	66.793	33.13679245	59.66981132	50.58962264
 295	86.53	100	40.524	102.8301887	80.30660377	50.11792453
 296	71.777	85.586	67.232	68.98584906	60.49528302	55.07075472
 297	43.216	100	31.671	56.48584906	74.41037736	39.62264151
 298	39.245	32.908	85.845	15.09433962	20.51886792	52.47641509
 299	0	45.662	67.543	8.608490566	19.81132075	33.01886792
 300	12.161	100	100	46.58018868	91.15566038	103.3018868
 301	67.049	0	85.516	32.31132075	16.74528302	52.94811321
 302	100	89.041	100	116.745283	82.19339623	107.5471698
 303	20.246	60.698	56.526	17.21698113	27.59433962	29.00943396
 304	52.177	55.457	40.416	30.18867925	22.87735849	20.28301887
 305	72.617	87.018	83.932	70.99056604	67.80660377	75.11792453
 306	40.512	16.723	66.475	12.38207547	10.25943396	28.77358491
 307	68.507	49.232	50.605	42.33490566	21.93396226	26.06132075
 308	65.622	100	54.525	74.88207547	79.36320755	53.89150943
 309	54.115	37.24	66.394	25.23584906	17.33490566	33.01886792
 310	100	76.138	31.267	104.5990566	47.99528302	34.31603774
 311	54.728	65.623	0	36.79245283	28.77358491	15.21226415
 312	63.126	12.526	64.37	28.53773585	10.96698113	29.12735849
 313	72.827	18.08	23.704	38.91509434	7.075471698	9.669811321
 314	23.268	15.278	34.947	4.83490566	3.891509434	7.900943396
 315	87.648	68.954	59.645	77.94811321	41.62735849	43.04245283
 316	0	85.595	85.198	31.95754717	62.38207547	70.16509434
 317	35.798	84.371	69.21	38.44339623	56.60377358	52.12264151
 318	36.062	47.494	35.919	16.86320755	16.15566038	14.26886792
 319	86.083	36.277	59.152	60.96698113	19.22169811	31.83962264
 320	58.21	100	30.361	67.68867925	75.70754717	40.80188679
 321	46.745	14.614	32.317	15.44811321	4.716981132	8.490566038
 322	81.573	73.869	86.954	73.46698113	53.89150943	72.87735849
 323	85.991	49.387	48.206	65.09433962	23.93867925	27.59433962
 324	28.062	87.906	19.654	37.26415094	53.30188679	26.53301887
 325	68.992	17.993	85.124	35.61320755	18.63207547	53.65566038
 326	100	66.147	100	100.1179245	55.4245283	95.16509434
 327	33.358	64.806	84.517	24.64622642	39.74056604	59.66981132
 328	41.351	17.736	80.522	13.3254717	14.74056604	43.98584906
 329	100	100	88.719	128.4198113	94.5754717	97.28773585
 330	66.336	0	44.32	31.01415094	6.721698113	15.68396226
 331	64.85	67.09	12.293	46.81603774	31.60377358	18.16037736
 332	15.262	31.268	63.277	5.896226415	12.26415094	26.41509434
 333	15.008	43.663	37.3	8.844339623	13.44339623	12.97169811
 334	0	57.895	38.078	12.97169811	22.40566038	17.21698113
 335	66.599	58.458	67.871	44.81132075	31.95754717	42.0990566
 336	59.191	18.651	15.215	25	5.188679245	6.014150943
 337	66.781	31.14	84.629	35.8490566	21.81603774	54.00943396
 338	88.033	85.158	52.14	90.91981132	59.43396226	45.99056604
 339	36.882	100	100	54.36320755	92.0990566	104.7169811
 340	26.102	33.094	17.006	8.372641509	7.193396226	5.424528302
 341	56.309	36.861	35.862	26.41509434	12.02830189	13.79716981
 342	45.839	65.587	67.033	31.25	35.73113208	41.15566038
 343	83.709	81.172	16.406	80.30660377	49.05660377	29.00943396
 344	0	48.132	13.005	8.726415094	13.91509434	7.429245283
 345	87.176	50.021	100	68.98584906	40.68396226	86.20283019
 346	51.219	84.244	13.73	46.34433962	49.1745283	25.11792453
 347	60.606	71.415	48.406	45.99056604	38.67924528	31.83962264
 348	0	11.359	12.718	1.061320755	1.533018868	1.768867925
 349	86.429	49.705	33.145	66.03773585	22.16981132	20.99056604
 350	34.056	40.958	100	15.21226415	30.18867925	76.41509434
 351	100	30.557	59.628	83.72641509	19.69339623	35.14150943
 352	88.497	26.902	13.449	62.38207547	10.8490566	11.91037736
 353	14.167	51.98	88.218	12.85377358	30.30660377	59.19811321
 354	13.784	12.983	49.37	2.712264151	5.306603774	14.38679245
 355	15.018	88.441	48.062	34.78773585	56.60377358	37.14622642
 356	87.79	25.769	89.215	61.79245283	24.76415094	63.44339623
 357	0	33.206	55.865	4.716981132	11.20283019	20.75471698
 358	74.324	76.029	35.536	62.97169811	43.16037736	29.5990566
 359	65.863	57.223	42.324	42.80660377	25.47169811	23.23113208
 360	30.893	54.646	13.136	18.16037736	18.86792453	10.25943396
 361	0	34.36	28.321	4.599056604	8.018867925	7.547169811
 362	15.443	77.087	85.116	26.88679245	51.76886792	65.80188679
 363	63.381	68.947	68.521	47.16981132	40.56603774	46.10849057
 364	69.733	27.566	42.917	37.14622642	10.96698113	17.33490566
 365	32.754	100	42.76	50.58962264	74.76415094	43.63207547
 366	47.096	29.481	34.829	18.04245283	8.490566038	11.08490566
 367	8.5451	71.948	62.695	21.81603774	39.26886792	37.97169811
 368	0	86.048	29.3	31.01415094	50.58962264	27.12264151
 369	53.697	51.572	85.367	30.4245283	31.13207547	57.78301887
 370	17.608	56.69	12.515	14.1509434	19.69339623	10.14150943
 371	90.638	14.414	49.227	64.03301887	11.91037736	23.70283019
 372	63.248	63.64	89.55	44.69339623	42.68867925	69.10377358
 373	100	85.976	58.455	114.1509434	64.1509434	54.83490566
 374	9.8311	28.027	7.5567	3.891509434	4.83490566	2.948113208
 375	89.831	64.313	69.506	78.06603774	40.09433962	50
 376	31.754	12.995	25.543	7.193396226	3.066037736	5.306603774
 377	75.914	45.966	64.957	49.64622642	23.82075472	37.02830189
 378	7.5735	50.695	58.941	10.73113208	20.99056604	27.12264151
 379	100	69.835	58.912	101.0613208	45.16509434	45.99056604
 380	32.211	34.376	48.339	11.20283019	11.08490566	17.21698113
 381	13.901	12.159	73.555	3.066037736	10.49528302	33.96226415
 382	87.071	9.028	77.653	58.72641509	17.45283019	47.05188679
 383	23.272	85.409	84.29	34.78773585	61.79245283	68.75
 384	93.289	39.48	26.145	72.75943396	17.21698113	17.68867925
 385	65.769	59.63	30.967	43.63207547	26.29716981	19.45754717
 386	100	32.265	41.803	83.96226415	17.21698113	24.1745283
 387	86.568	85.281	86.961	88.44339623	68.86792453	80.54245283
 388	52.577	86.83	30.016	50	54.24528302	30.66037736
 389	47.921	40.199	76.902	22.05188679	21.34433962	43.86792453
 390	22.36	86.619	61.58	35.02358491	56.95754717	45.75471698
 391	52.232	33.601	88.787	23.70283019	22.75943396	58.25471698
 392	0	28.523	86.267	4.363207547	18.04245283	50.94339623
 393	43.497	67.879	39.551	30.54245283	32.54716981	23.46698113
 394	39.877	45.261	0	17.68867925	13.08962264	7.193396226
 395	86.94	12.43	24.699	57.66509434	8.254716981	12.26415094
 396	28.363	55.339	90.398	18.16037736	34.08018868	64.1509434
 397	39.018	70.534	57.879	29.83490566	37.38207547	35.02358491
 398	12.833	28.519	78.828	5.306603774	15.68396226	41.98113208
 399	68.35	31.815	69.975	37.26415094	17.68867925	37.26415094
 400	56.52	26.226	41.626	24.41037736	8.962264151	14.62264151
 401	12.938	46.218	0	9.080188679	12.61792453	6.132075472
 402	8.6938	60.179	26.117	14.62264151	23.11320755	13.79716981
 403	51.995	89.429	96.608	53.41981132	74.52830189	92.33490566
 404	46.905	47.746	48.909	23.23113208	18.75	21.69811321
 405	14.352	81.814	19.479	29.00943396	44.69339623	22.28773585
 406	71.482	38.117	12.273	41.62735849	12.61792453	10.37735849
 407	86.616	60.785	10.012	66.15566038	28.77358491	19.45754717
 408	71.811	88.979	52.186	71.34433962	61.79245283	45.4009434
 409	43.213	100	72.083	56.72169811	81.36792453	66.03773585
 410	73.92	23.444	8.2853	41.27358491	7.66509434	8.018867925
