data/calibration-001332.ti3
CTI3   
ORIGINATOR	"ColorHug Factory"
DESCRIPTOR	"Calibration Target chart information 3"
DEVICE_CLASS	"DISPLAY"
COLOR_REP	"RGB_XYZ"
TARGET_INSTRUMENT	"Hughski ColorHug"
INSTRUMENT_TYPE_SPECTRAL	"NO"
NORMALIZED_TO_Y_100	"NO"
NUMBER_OF_FIELDS	7
NUMBER_OF_SETS	15
BEGIN_DATA_FORMAT
 SAMPLE_ID	RGB_R	RGB_G	RGB_B	XYZ_X	XYZ_Y	XYZ_Z
END_DATA_FORMAT
BEGIN_DATA
 1	0	0	0	0.04577636719	0	0.04577636719
 2	1	1	1	34.65270996	37.39929199	45.45593262
 3	1	0	0	20.5078125	2.746582031	3.570556641
 4	0	1	0	12.54272461	26.68762207	12.31384277
 5	0	0	1	0.8239746094	7.873535156	29.38842773
 6	0	0	0	0.04577636719	0	0.04577636719
 7	1	1	1	34.42382812	37.35351562	45.50170898
 8	1	0	0	20.5078125	2.746582031	3.570556641
 9	0	1	0	12.49694824	26.68762207	12.35961914
 10	0	0	1	0.8239746094	7.873535156	29.38842773
 11	0	0	0	0.04577636719	0	0.04577636719
 12	1	1	1	34.69848633	37.21618652	45.41015625
 13	1	0	0	20.46203613	2.746582031	3.570556641
 14	0	1	0	12.49694824	26.59606934	12.31384277
 15	0	0	1	0.8239746094	7.873535156	29.38842773
END_DATA
