data/calibration-000733.ti3
CTI3
ORIGINATOR	"ColorHug Factory"
DESCRIPTOR	"Calibration Target chart information 3"
DEVICE_CLASS	"DISPLAY"
COLOR_REP	"RGB_XYZ"
TARGET_INSTRUMENT	"Hughski ColorHug"
INSTRUMENT_TYPE_SPECTRAL	"NO"
NORMALIZED_TO_Y_100	"NO"
NUMBER_OF_FIELDS	7
NUMBER_OF_SETS	15
BEGIN_DATA_FORMAT
 SAMPLE_ID	RGB_R	RGB_G	RGB_B	XYZ_X	XYZ_Y	XYZ_Z
END_DATA_FORMAT
BEGIN_DATA
 1	0	0	0	0.04577636719	0	0.09155273438
 2	1	1	1	46.875	33.55407715	39.09301758
 3	1	0	0	29.61730957	3.067016602	4.531860352
 4	0	1	0	15.79284668	24.21569824	11.16943359
 5	0	0	1	0.732421875	6.134033203	23.34594727
 6	0	0	0	0.04577636719	0	0.09155273438
 7	1	1	1	47.0123291	33.59985352	39.04724121
 8	1	0	0	29.66308594	3.067016602	4.486083984
 9	0	1	0	15.93017578	24.30725098	11.16943359
 10	0	0	1	0.732421875	6.134033203	23.34594727
 11	0	0	0	0.04577636719	0	0.09155273438
 12	1	1	1	47.05810547	33.50830078	38.95568848
 13	1	0	0	29.4342041	3.067016602	4.486083984
 14	0	1	0	15.74707031	24.21569824	11.21520996
 15	0	0	1	0.732421875	6.134033203	23.34594727
END_DATA
