data/calibration-000988.ti3
CTI3   
ORIGINATOR	"ColorHug Factory"
DESCRIPTOR	"Calibration Target chart information 3"
DEVICE_CLASS	"DISPLAY"
COLOR_REP	"RGB_XYZ"
TARGET_INSTRUMENT	"Hughski ColorHug"
INSTRUMENT_TYPE_SPECTRAL	"NO"
NORMALIZED_TO_Y_100	"NO"
NUMBER_OF_FIELDS	7
NUMBER_OF_SETS	15
BEGIN_DATA_FORMAT
 SAMPLE_ID	RGB_R	RGB_G	RGB_B	XYZ_X	XYZ_Y	XYZ_Z
END_DATA_FORMAT
BEGIN_DATA
 1	0	0	0	0.09155273438	0.09155273438	0.09155273438
 2	1	1	1	55.20629883	35.52246094	42.20581055
 3	1	0	0	35.15625	3.433227539	5.126953125
 4	0	1	0	18.40209961	25.08544922	11.71875
 5	0	0	1	0.8697509766	6.912231445	25.54321289
 6	0	0	0	0.09155273438	0.09155273438	0.09155273438
 7	1	1	1	54.79431152	35.33935547	41.74804688
 8	1	0	0	34.65270996	3.433227539	5.126953125
 9	0	1	0	18.21899414	25.13122559	11.76452637
 10	0	0	1	0.8697509766	6.958007812	25.36010742
 11	0	0	0	0.09155273438	0.09155273438	0.09155273438
 12	1	1	1	55.02319336	35.5682373	42.25158691
 13	1	0	0	35.0189209	3.387451172	5.081176758
 14	0	1	0	18.31054688	25.08544922	11.71875
 15	0	0	1	0.8697509766	6.958007812	25.49743652
END_DATA
