data/calibration-002242.ti3
CTI3   
ORIGINATOR	"ColorHug Factory"
CREATED	"Wed Nov 20 21:25:21 2013"
DESCRIPTOR	"Calibration Target chart information 3"
DEVICE_CLASS	"DISPLAY"
COLOR_REP	"RGB_XYZ"
TARGET_INSTRUMENT	"Hughski ColorHug"
INSTRUMENT_TYPE_SPECTRAL	"NO"
NORMALIZED_TO_Y_100	"NO"
NUMBER_OF_FIELDS	7
NUMBER_OF_SETS	15
BEGIN_DATA_FORMAT
 SAMPLE_ID	RGB_R	RGB_G	RGB_B	XYZ_X	XYZ_Y	XYZ_Z
END_DATA_FORMAT
BEGIN_DATA
 1	0	0	0	0.091552734375	0.0457763671875	0.1373291015625
 2	1	1	1	78.91845703125	38.63525390625	57.7239990234375
 3	1	0	0	50.7659912109375	4.21142578125	7.049560546875
 4	0	1	0	25.3143310546875	25.360107421875	12.8631591796875
 5	0	0	1	1.4190673828125	9.33837890625	38.1317138671875
 6	0	0	0	0.091552734375	0.0457763671875	0.1373291015625
 7	1	1	1	78.6895751953125	38.818359375	58.04443359375
 8	1	0	0	50.9490966796875	4.2572021484375	7.049560546875
 9	0	1	0	25.2685546875	25.2227783203125	12.9547119140625
 10	0	0	1	1.4190673828125	9.33837890625	37.994384765625
 11	0	0	0	0.091552734375	0.0457763671875	0.1373291015625
 12	1	1	1	79.6966552734375	39.00146484375	57.403564453125
 13	1	0	0	50.6744384765625	4.21142578125	7.049560546875
 14	0	1	0	25.360107421875	25.3143310546875	12.908935546875
 15	0	0	1	1.4190673828125	9.2926025390625	37.90283203125
END_DATA
