data/calibration-002017.ti3
CTI3   
ORIGINATOR	"ColorHug Factory"
CREATED	"Sun May 26 10:08:29 2013"
DESCRIPTOR	"Calibration Target chart information 3"
DEVICE_CLASS	"DISPLAY"
COLOR_REP	"RGB_XYZ"
TARGET_INSTRUMENT	"Hughski ColorHug"
INSTRUMENT_TYPE_SPECTRAL	"NO"
NORMALIZED_TO_Y_100	"NO"
NUMBER_OF_FIELDS	7
NUMBER_OF_SETS	15
BEGIN_DATA_FORMAT
 SAMPLE_ID	RGB_R	RGB_G	RGB_B	XYZ_X	XYZ_Y	XYZ_Z
END_DATA_FORMAT
BEGIN_DATA
 1	0	0	0	0.091552734375	0.091552734375	0.1373291015625
 2	1	1	1	46.0968017578125	37.53662109375	49.8504638671875
 3	1	0	0	28.7933349609375	3.2501220703125	4.669189453125
 4	0	1	0	16.1590576171875	26.092529296875	12.725830078125
 5	0	0	1	1.007080078125	8.60595703125	32.9132080078125
 6	0	0	0	0.091552734375	0.091552734375	0.1373291015625
 7	1	1	1	46.0052490234375	37.7655029296875	49.9420166015625
 8	1	0	0	28.564453125	3.2501220703125	4.669189453125
 9	0	1	0	16.0675048828125	26.092529296875	12.725830078125
 10	0	0	1	1.007080078125	8.5601806640625	32.9132080078125
 11	0	0	0	0.091552734375	0.091552734375	0.1373291015625
 12	1	1	1	45.867919921875	37.445068359375	49.62158203125
 13	1	0	0	28.6102294921875	3.2501220703125	4.669189453125
 14	0	1	0	16.1590576171875	26.2298583984375	12.7716064453125
 15	0	0	1	1.007080078125	8.60595703125	32.7301025390625
END_DATA
