data/calibration-002135.ti3
CTI3   
ORIGINATOR	"ColorHug Factory"
CREATED	"Sun Sep 15 20:50:39 2013"
DESCRIPTOR	"Calibration Target chart information 3"
DEVICE_CLASS	"DISPLAY"
COLOR_REP	"RGB_XYZ"
TARGET_INSTRUMENT	"Hughski ColorHug"
INSTRUMENT_TYPE_SPECTRAL	"NO"
NORMALIZED_TO_Y_100	"NO"
NUMBER_OF_FIELDS	7
NUMBER_OF_SETS	15
BEGIN_DATA_FORMAT
 SAMPLE_ID	RGB_R	RGB_G	RGB_B	XYZ_X	XYZ_Y	XYZ_Z
END_DATA_FORMAT
BEGIN_DATA
 1	0	0	0	0.1373291015625	0.1373291015625	0.18310546875
 2	1	1	1	77.2705078125	39.00146484375	58.685302734375
 3	1	0	0	50.262451171875	4.486083984375	8.056640625
 4	0	1	0	25.2227783203125	25.4058837890625	14.1448974609375
 5	0	0	1	1.28173828125	9.70458984375	36.895751953125
 6	0	0	0	0.18310546875	0.1373291015625	0.18310546875
 7	1	1	1	77.728271484375	39.276123046875	58.9599609375
 8	1	0	0	50.994873046875	4.486083984375	8.056640625
 9	0	1	0	25.1312255859375	25.3143310546875	13.9617919921875
 10	0	0	1	1.28173828125	9.70458984375	37.078857421875
 11	0	0	0	0.18310546875	0.1373291015625	0.18310546875
 12	1	1	1	78.18603515625	39.2303466796875	59.0057373046875
 13	1	0	0	50.9033203125	4.486083984375	8.056640625
 14	0	1	0	25.0396728515625	25.3143310546875	13.9617919921875
 15	0	0	1	1.28173828125	9.6588134765625	36.8499755859375
END_DATA
