data/calibration-002404.ti3
CTI3   
ORIGINATOR	"ColorHug Factory"
CREATED	"Wed May 14 20:31:52 2014"
DESCRIPTOR	"Calibration Target chart information 3"
DEVICE_CLASS	"DISPLAY"
COLOR_REP	"RGB_XYZ"
TARGET_INSTRUMENT	"Hughski ColorHug"
INSTRUMENT_TYPE_SPECTRAL	"NO"
NORMALIZED_TO_Y_100	"NO"
NUMBER_OF_FIELDS	7
NUMBER_OF_SETS	15
BEGIN_DATA_FORMAT
 SAMPLE_ID	RGB_R	RGB_G	RGB_B	XYZ_X	XYZ_Y	XYZ_Z
END_DATA_FORMAT
BEGIN_DATA
 1.0	0.0	0.0	0.0	0.299468994141	0.270034790039	0.352066040039
 2.0	1.0	1.0	1.0	78.01904296875	34.565399169922	60.235290527344
 3.0	1.0	0.0	0.0	50.257659912109	3.917739868164	7.230346679688
 4.0	0.0	1.0	0.0	23.744918823242	21.501312255859	12.172348022461
 5.0	0.0	0.0	1.0	1.405868530273	9.256484985352	39.960968017578
 6.0	0.0	0.0	0.0	0.302352905273	0.272354125977	0.355026245117
 7.0	1.0	1.0	1.0	78.01904296875	34.711853027344	59.795608520508
 8.0	1.0	0.0	0.0	49.648483276367	3.891677856445	7.236740112305
 9.0	0.0	1.0	0.0	23.813949584961	21.729431152344	12.30029296875
 10.0	0.0	0.0	1.0	1.408767700195	9.225219726562	39.766983032227
 11.0	0.0	0.0	0.0	0.305374145508	0.275329589844	0.357040405273
 12.0	1.0	1.0	1.0	78.01904296875	34.711853027344	59.795608520508
 13.0	1.0	0.0	0.0	49.951217651367	3.89909362793	7.262405395508
 14.0	0.0	1.0	0.0	23.953201293945	21.729431152344	12.226852416992
 15.0	0.0	0.0	1.0	1.419509887695	9.277450561523	39.960968017578
END_DATA
