data/calibration-001369.ti3
CTI3   
ORIGINATOR	"ColorHug Factory"
DESCRIPTOR	"Calibration Target chart information 3"
DEVICE_CLASS	"DISPLAY"
COLOR_REP	"RGB_XYZ"
TARGET_INSTRUMENT	"Hughski ColorHug"
INSTRUMENT_TYPE_SPECTRAL	"NO"
NORMALIZED_TO_Y_100	"NO"
NUMBER_OF_FIELDS	7
NUMBER_OF_SETS	15
BEGIN_DATA_FORMAT
 SAMPLE_ID	RGB_R	RGB_G	RGB_B	XYZ_X	XYZ_Y	XYZ_Z
END_DATA_FORMAT
BEGIN_DATA
 1	0	0	0	0.3204345703	0.3662109375	0.4119873047
 2	1	1	1	28.42712402	32.13500977	39.91699219
 3	1	0	0	16.75415039	2.471923828	3.067016602
 4	0	1	0	10.43701172	22.97973633	10.66589355
 5	0	0	1	1.007080078	7.049560547	26.96228027
 6	0	0	0	0.3204345703	0.3662109375	0.4119873047
 7	1	1	1	28.38134766	32.2265625	40.19165039
 8	1	0	0	16.66259766	2.471923828	3.067016602
 9	0	1	0	10.39123535	22.97973633	10.62011719
 10	0	0	1	1.007080078	7.095336914	26.87072754
 11	0	0	0	0.3204345703	0.3662109375	0.4119873047
 12	1	1	1	28.33557129	32.0892334	40.14587402
 13	1	0	0	16.66259766	2.471923828	3.067016602
 14	0	1	0	10.39123535	23.07128906	10.66589355
 15	0	0	1	1.007080078	7.049560547	26.91650391
END_DATA
