data/calibration-000643.ti3
CTI3
ORIGINATOR	"ColorHug Factory"
DESCRIPTOR	"Calibration Target chart information 3"
DEVICE_CLASS	"DISPLAY"
COLOR_REP	"RGB_XYZ"
TARGET_INSTRUMENT	"Hughski ColorHug"
INSTRUMENT_TYPE_SPECTRAL	"NO"
NORMALIZED_TO_Y_100	"NO"
NUMBER_OF_FIELDS	7
NUMBER_OF_SETS	15
BEGIN_DATA_FORMAT
 SAMPLE_ID	RGB_R	RGB_G	RGB_B	XYZ_X	XYZ_Y	XYZ_Z
END_DATA_FORMAT
BEGIN_DATA
 1	0	0	0	0.04577636719	0.04577636719	0.04577636719
 2	1	1	1	56.53381348	35.88867188	41.93115234
 3	1	0	0	35.88867188	3.387451172	5.172729492
 4	0	1	0	18.67675781	25.58898926	11.8560791
 5	0	0	1	0.8239746094	6.729125977	24.71923828
 6	0	0	0	0.04577636719	0.04577636719	0.04577636719
 7	1	1	1	56.44226074	35.79711914	41.83959961
 8	1	0	0	35.65979004	3.387451172	5.172729492
 9	0	1	0	18.63098145	25.63476562	11.90185547
 10	0	0	1	0.8239746094	6.729125977	24.71923828
 11	0	0	0	0.04577636719	0.04577636719	0.04577636719
 12	1	1	1	56.48803711	35.84289551	41.83959961
 13	1	0	0	35.79711914	3.387451172	5.172729492
 14	0	1	0	18.63098145	25.63476562	11.90185547
 15	0	0	1	0.8239746094	6.729125977	24.71923828
END_DATA
