data/calibration-000352.ti3
CTI3
ORIGINATOR	"ColorHug Factory"
DESCRIPTOR	"Calibration Target chart information 3"
DEVICE_CLASS	"DISPLAY"
COLOR_REP	"RGB_XYZ"
TARGET_INSTRUMENT	"Hughski ColorHug"
INSTRUMENT_TYPE_SPECTRAL	"NO"
NORMALIZED_TO_Y_100	"NO"
NUMBER_OF_FIELDS	7
NUMBER_OF_SETS	15
BEGIN_DATA_FORMAT
 SAMPLE_ID	RGB_R	RGB_G	RGB_B	XYZ_X	XYZ_Y	XYZ_Z
END_DATA_FORMAT
BEGIN_DATA
 1	0	0	0	0.09155273438	0.04577636719	0.09155273438
 2	1	1	1	58.27331543	38.54370117	43.16711426
 3	1	0	0	36.94152832	3.707885742	5.264282227
 4	0	1	0	19.22607422	27.83203125	12.31384277
 5	0	0	1	0.8697509766	7.232666016	25.54321289
 6	0	0	0	0.04577636719	0	0.09155273438
 7	1	1	1	58.7310791	38.72680664	43.30444336
 8	1	0	0	36.89575195	3.662109375	5.218505859
 9	0	1	0	19.22607422	27.60314941	12.26806641
 10	0	0	1	0.8697509766	7.186889648	25.58898926
 11	0	0	0	0.04577636719	0	0.09155273438
 12	1	1	1	58.50219727	38.68103027	43.25866699
 13	1	0	0	36.62109375	3.662109375	5.218505859
 14	0	1	0	19.13452148	27.32849121	12.26806641
 15	0	0	1	0.8697509766	7.186889648	25.63476562
END_DATA
