data/calibration-000779.ti3
CTI3   
ORIGINATOR	"ColorHug Factory"
DESCRIPTOR	"Calibration Target chart information 3"
DEVICE_CLASS	"DISPLAY"
COLOR_REP	"RGB_XYZ"
TARGET_INSTRUMENT	"Hughski ColorHug"
INSTRUMENT_TYPE_SPECTRAL	"NO"
NORMALIZED_TO_Y_100	"NO"
NUMBER_OF_FIELDS	7
NUMBER_OF_SETS	15
BEGIN_DATA_FORMAT
 SAMPLE_ID	RGB_R	RGB_G	RGB_B	XYZ_X	XYZ_Y	XYZ_Z
END_DATA_FORMAT
BEGIN_DATA
 1	0	0	0	0.04577636719	0	0.04577636719
 2	1	1	1	64.0411377	41.97692871	50.49133301
 3	1	0	0	40.10009766	3.845214844	6.17980957
 4	0	1	0	20.82824707	29.52575684	14.05334473
 5	0	0	1	0.9613037109	8.148193359	30.12084961
 6	0	0	0	0.04577636719	0	0.04577636719
 7	1	1	1	63.76647949	41.93115234	50.58288574
 8	1	0	0	40.19165039	3.845214844	6.17980957
 9	0	1	0	20.82824707	29.7088623	13.96179199
 10	0	0	1	0.9613037109	8.148193359	30.16662598
 11	0	0	0	0.04577636719	0	0.04577636719
 12	1	1	1	64.08691406	41.93115234	50.26245117
 13	1	0	0	40.14587402	3.845214844	6.17980957
 14	0	1	0	20.73669434	29.66308594	14.00756836
 15	0	0	1	0.9613037109	8.148193359	30.12084961
END_DATA
