data/calibration-001447.ti3
CTI3   
ORIGINATOR	"ColorHug Factory"
DESCRIPTOR	"Calibration Target chart information 3"
DEVICE_CLASS	"DISPLAY"
COLOR_REP	"RGB_XYZ"
TARGET_INSTRUMENT	"Hughski ColorHug"
INSTRUMENT_TYPE_SPECTRAL	"NO"
NORMALIZED_TO_Y_100	"NO"
NUMBER_OF_FIELDS	7
NUMBER_OF_SETS	15
BEGIN_DATA_FORMAT
 SAMPLE_ID	RGB_R	RGB_G	RGB_B	XYZ_X	XYZ_Y	XYZ_Z
END_DATA_FORMAT
BEGIN_DATA
 1	0	0	0	0.3204345703	0.3204345703	0.3662109375
 2	1	1	1	35.70556641	36.52954102	43.35021973
 3	1	0	0	21.37756348	3.067016602	3.753662109
 4	0	1	0	12.90893555	26.32141113	12.03918457
 5	0	0	1	1.098632812	7.781982422	28.51867676
 6	0	0	0	0.3204345703	0.3204345703	0.3662109375
 7	1	1	1	35.79711914	36.75842285	43.8079834
 8	1	0	0	21.33178711	3.021240234	3.799438477
 9	0	1	0	12.95471191	26.45874023	12.03918457
 10	0	0	1	1.098632812	7.781982422	28.42712402
 11	0	0	0	0.3204345703	0.3204345703	0.3662109375
 12	1	1	1	35.61401367	36.71264648	43.85375977
 13	1	0	0	21.33178711	3.067016602	3.753662109
 14	0	1	0	12.95471191	26.3671875	11.9934082
 15	0	0	1	1.098632812	7.781982422	28.51867676
END_DATA
