data/calibration-001165.ti3
CTI3   
ORIGINATOR	"ColorHug Factory"
DESCRIPTOR	"Calibration Target chart information 3"
DEVICE_CLASS	"DISPLAY"
COLOR_REP	"RGB_XYZ"
TARGET_INSTRUMENT	"Hughski ColorHug"
INSTRUMENT_TYPE_SPECTRAL	"NO"
NORMALIZED_TO_Y_100	"NO"
NUMBER_OF_FIELDS	7
NUMBER_OF_SETS	15
BEGIN_DATA_FORMAT
 SAMPLE_ID	RGB_R	RGB_G	RGB_B	XYZ_X	XYZ_Y	XYZ_Z
END_DATA_FORMAT
BEGIN_DATA
 1	0	0	0	0.1373291016	0.1831054688	0.1831054688
 2	1	1	1	23.89526367	35.11047363	39.55078125
 3	1	0	0	13.36669922	2.380371094	2.60925293
 4	0	1	0	9.475708008	25.58898926	11.39831543
 5	0	0	1	0.8239746094	7.232666016	25.86364746
 6	0	0	0	0.1373291016	0.1831054688	0.1831054688
 7	1	1	1	23.89526367	35.06469727	39.55078125
 8	1	0	0	13.32092285	2.380371094	2.60925293
 9	0	1	0	9.521484375	25.72631836	11.39831543
 10	0	0	1	0.8239746094	7.232666016	25.77209473
 11	0	0	0	0.1373291016	0.1831054688	0.1831054688
 12	1	1	1	23.89526367	35.06469727	39.50500488
 13	1	0	0	13.27514648	2.380371094	2.60925293
 14	0	1	0	9.429931641	25.54321289	11.39831543
 15	0	0	1	0.8239746094	7.232666016	25.77209473
END_DATA
