data/calibration-002536.ti3
CTI3   
ORIGINATOR	"ColorHug Factory"
CREATED	"Wed Oct 22 12:12:10 2014"
DESCRIPTOR	"Calibration Target chart information 3"
DEVICE_CLASS	"DISPLAY"
COLOR_REP	"RGB_XYZ"
TARGET_INSTRUMENT	"Hughski ColorHug"
INSTRUMENT_TYPE_SPECTRAL	"NO"
NORMALIZED_TO_Y_100	"NO"
NUMBER_OF_FIELDS	7
NUMBER_OF_SETS	15
BEGIN_DATA_FORMAT
 SAMPLE_ID	RGB_R	RGB_G	RGB_B	XYZ_X	XYZ_Y	XYZ_Z
END_DATA_FORMAT
BEGIN_DATA
 1.0	0.0	0.0	0.0	0.312057495117	0.359069824219	0.432876586914
 2.0	1.0	1.0	1.0	93.090896606445	92.044937133789	96.37646484375
 3.0	1.0	0.0	0.0	0.0	6.481002807617	10.356506347656
 4.0	0.0	1.0	0.0	23.272720336914	65.535995483398	26.597396850586
 5.0	0.0	0.0	1.0	2.684127807617	17.579391479492	56.496551513672
 6.0	0.0	0.0	0.0	0.314315795898	0.360076904297	0.434173583984
 7.0	1.0	1.0	1.0	93.090896606445	92.044937133789	96.37646484375
 8.0	1.0	0.0	0.0	64.503936767578	6.460556030273	10.395935058594
 9.0	0.0	1.0	0.0	23.272720336914	66.064514160156	26.511322021484
 10.0	0.0	0.0	1.0	2.679748535156	17.579391479492	56.496551513672
 11.0	0.0	0.0	0.0	0.315948486328	0.362152099609	0.434860229492
 12.0	1.0	1.0	1.0	93.090896606445	92.044937133789	96.37646484375
 13.0	1.0	0.0	0.0	64.503936767578	6.46565246582	10.356506347656
 14.0	0.0	1.0	0.0	23.272720336914	65.535995483398	26.597396850586
 15.0	0.0	0.0	1.0	2.682373046875	17.693298339844	56.496551513672
END_DATA
