data/calibration-001884.ti3
CTI3   
ORIGINATOR	"ColorHug Factory"
CREATED	"Sat May 25 13:30:00 2013"
DESCRIPTOR	"Calibration Target chart information 3"
DEVICE_CLASS	"DISPLAY"
COLOR_REP	"RGB_XYZ"
TARGET_INSTRUMENT	"Hughski ColorHug"
INSTRUMENT_TYPE_SPECTRAL	"NO"
NORMALIZED_TO_Y_100	"NO"
NUMBER_OF_FIELDS	7
NUMBER_OF_SETS	15
BEGIN_DATA_FORMAT
 SAMPLE_ID	RGB_R	RGB_G	RGB_B	XYZ_X	XYZ_Y	XYZ_Z
END_DATA_FORMAT
BEGIN_DATA
 1	0	0	0	0.0457763671875	0.091552734375	0.1373291015625
 2	1	1	1	39.9627685546875	35.797119140625	48.4771728515625
 3	1	0	0	24.4903564453125	2.7923583984375	3.7994384765625
 4	0	1	0	13.824462890625	24.8565673828125	11.53564453125
 5	0	0	1	0.91552734375	8.3770751953125	33.0963134765625
 6	0	0	0	0.0457763671875	0.091552734375	0.1373291015625
 7	1	1	1	40.283203125	36.2091064453125	48.3856201171875
 8	1	0	0	24.4903564453125	2.74658203125	3.7994384765625
 9	0	1	0	13.824462890625	24.90234375	11.53564453125
 10	0	0	1	0.91552734375	8.3770751953125	33.1878662109375
 11	0	0	0	0.0457763671875	0.091552734375	0.1373291015625
 12	1	1	1	39.9169921875	35.980224609375	48.4771728515625
 13	1	0	0	24.4903564453125	2.7923583984375	3.7994384765625
 14	0	1	0	13.824462890625	24.90234375	11.5814208984375
 15	0	0	1	0.91552734375	8.3770751953125	33.050537109375
END_DATA
