data/calibration-001435.ti3
CTI3   
ORIGINATOR	"ColorHug Factory"
DESCRIPTOR	"Calibration Target chart information 3"
DEVICE_CLASS	"DISPLAY"
COLOR_REP	"RGB_XYZ"
TARGET_INSTRUMENT	"Hughski ColorHug"
INSTRUMENT_TYPE_SPECTRAL	"NO"
NORMALIZED_TO_Y_100	"NO"
NUMBER_OF_FIELDS	7
NUMBER_OF_SETS	15
BEGIN_DATA_FORMAT
 SAMPLE_ID	RGB_R	RGB_G	RGB_B	XYZ_X	XYZ_Y	XYZ_Z
END_DATA_FORMAT
BEGIN_DATA
 1	0	0	0	0.1831054688	0.1831054688	0.2288818359
 2	1	1	1	36.75842285	38.04016113	45.91369629
 3	1	0	0	21.97265625	2.9296875	3.616333008
 4	0	1	0	13.36669922	27.37426758	12.40539551
 5	0	0	1	1.007080078	7.965087891	30.44128418
 6	0	0	0	0.1831054688	0.1831054688	0.2288818359
 7	1	1	1	36.80419922	38.0859375	45.86791992
 8	1	0	0	21.97265625	2.9296875	3.616333008
 9	0	1	0	13.36669922	27.28271484	12.35961914
 10	0	0	1	1.052856445	7.965087891	30.53283691
 11	0	0	0	0.2288818359	0.2288818359	0.2288818359
 12	1	1	1	36.34643555	37.9486084	46.14257812
 13	1	0	0	22.06420898	2.9296875	3.616333008
 14	0	1	0	13.36669922	27.55737305	12.40539551
 15	0	0	1	1.052856445	7.965087891	30.39550781
END_DATA
