data/calibration-001486.ti3
CTI3   
ORIGINATOR	"ColorHug Factory"
DESCRIPTOR	"Calibration Target chart information 3"
DEVICE_CLASS	"DISPLAY"
COLOR_REP	"RGB_XYZ"
TARGET_INSTRUMENT	"Hughski ColorHug"
INSTRUMENT_TYPE_SPECTRAL	"NO"
NORMALIZED_TO_Y_100	"NO"
NUMBER_OF_FIELDS	7
NUMBER_OF_SETS	15
BEGIN_DATA_FORMAT
 SAMPLE_ID	RGB_R	RGB_G	RGB_B	XYZ_X	XYZ_Y	XYZ_Z
END_DATA_FORMAT
BEGIN_DATA
 1	0	0	0	0.2288818359	0.2288818359	0.3204345703
 2	1	1	1	36.52954102	35.0189209	42.66357422
 3	1	0	0	21.92687988	2.838134766	3.616333008
 4	0	1	0	12.86315918	24.85656738	11.35253906
 5	0	0	1	1.007080078	7.461547852	27.78625488
 6	0	0	0	0.2288818359	0.2288818359	0.3204345703
 7	1	1	1	36.07177734	34.8815918	42.66357422
 8	1	0	0	21.92687988	2.838134766	3.616333008
 9	0	1	0	12.86315918	24.85656738	11.35253906
 10	0	0	1	1.052856445	7.461547852	27.87780762
 11	0	0	0	0.2746582031	0.2288818359	0.3204345703
 12	1	1	1	36.52954102	34.97314453	42.66357422
 13	1	0	0	21.92687988	2.838134766	3.616333008
 14	0	1	0	12.81738281	25.03967285	11.3067627
 15	0	0	1	1.052856445	7.461547852	27.87780762
END_DATA
