data/calibration-001311.ti3
CTI3   
ORIGINATOR	"ColorHug Factory"
DESCRIPTOR	"Calibration Target chart information 3"
DEVICE_CLASS	"DISPLAY"
COLOR_REP	"RGB_XYZ"
TARGET_INSTRUMENT	"Hughski ColorHug"
INSTRUMENT_TYPE_SPECTRAL	"NO"
NORMALIZED_TO_Y_100	"NO"
NUMBER_OF_FIELDS	7
NUMBER_OF_SETS	15
BEGIN_DATA_FORMAT
 SAMPLE_ID	RGB_R	RGB_G	RGB_B	XYZ_X	XYZ_Y	XYZ_Z
END_DATA_FORMAT
BEGIN_DATA
 1	0	0	0	0	0	0.04577636719
 2	1	1	1	32.86743164	33.55407715	40.78674316
 3	1	0	0	19.72961426	2.426147461	3.112792969
 4	0	1	0	11.9934082	24.30725098	11.03210449
 5	0	0	1	0.6408691406	6.820678711	26.45874023
 6	0	0	0	0	0	0.09155273438
 7	1	1	1	33.00476074	33.78295898	40.69519043
 8	1	0	0	19.72961426	2.426147461	3.112792969
 9	0	1	0	11.9934082	24.39880371	11.03210449
 10	0	0	1	0.6408691406	6.820678711	26.45874023
 11	0	0	0	0	0	0.09155273438
 12	1	1	1	33.00476074	33.82873535	40.83251953
 13	1	0	0	19.54650879	2.426147461	3.112792969
 14	0	1	0	11.9934082	24.39880371	11.03210449
 15	0	0	1	0.6408691406	6.774902344	26.45874023
END_DATA
