data/calibration-000931.ti3
CTI3   
ORIGINATOR	"ColorHug Factory"
DESCRIPTOR	"Calibration Target chart information 3"
DEVICE_CLASS	"DISPLAY"
COLOR_REP	"RGB_XYZ"
TARGET_INSTRUMENT	"Hughski ColorHug"
INSTRUMENT_TYPE_SPECTRAL	"NO"
NORMALIZED_TO_Y_100	"NO"
NUMBER_OF_FIELDS	7
NUMBER_OF_SETS	15
BEGIN_DATA_FORMAT
 SAMPLE_ID	RGB_R	RGB_G	RGB_B	XYZ_X	XYZ_Y	XYZ_Z
END_DATA_FORMAT
BEGIN_DATA
 1	0	0	0	0.1831054688	0.1831054688	0.2288818359
 2	1	1	1	52.55126953	35.24780273	41.74804688
 3	1	0	0	33.23364258	3.433227539	5.310058594
 4	0	1	0	17.1661377	24.85656738	11.71875
 5	0	0	1	1.007080078	7.049560547	24.58190918
 6	0	0	0	0.1831054688	0.1831054688	0.2288818359
 7	1	1	1	53.23791504	35.4309082	41.79382324
 8	1	0	0	33.23364258	3.433227539	5.310058594
 9	0	1	0	17.07458496	24.90234375	11.71875
 10	0	0	1	1.007080078	7.049560547	24.58190918
 11	0	0	0	0.1831054688	0.1831054688	0.2288818359
 12	1	1	1	53.10058594	35.24780273	41.61071777
 13	1	0	0	33.23364258	3.433227539	5.264282227
 14	0	1	0	17.07458496	24.81079102	11.81030273
 15	0	0	1	1.007080078	7.049560547	24.71923828
END_DATA
