data/calibration-001806.ti3
CTI3   
ORIGINATOR	"ColorHug Factory"
CREATED	"Wed Apr 10 08:33:48 2013"
DESCRIPTOR	"Calibration Target chart information 3"
DEVICE_CLASS	"DISPLAY"
COLOR_REP	"RGB_XYZ"
TARGET_INSTRUMENT	"Hughski ColorHug"
INSTRUMENT_TYPE_SPECTRAL	"NO"
NORMALIZED_TO_Y_100	"NO"
NUMBER_OF_FIELDS	7
NUMBER_OF_SETS	15
BEGIN_DATA_FORMAT
 SAMPLE_ID	RGB_R	RGB_G	RGB_B	XYZ_X	XYZ_Y	XYZ_Z
END_DATA_FORMAT
BEGIN_DATA
 1	0	0	0	0.09155273438	0.09155273438	0.1373291016
 2	1	1	1	43.85375977	41.51916504	51.95617676
 3	1	0	0	26.3671875	3.204345703	4.119873047
 4	0	1	0	15.42663574	29.20532227	13.32092285
 5	0	0	1	1.007080078	9.063720703	34.24072266
 6	0	0	0	0.09155273438	0.09155273438	0.1373291016
 7	1	1	1	43.57910156	41.47338867	52.04772949
 8	1	0	0	26.27563477	3.204345703	4.119873047
 9	0	1	0	15.47241211	29.25109863	13.27514648
 10	0	0	1	1.007080078	9.017944336	34.65270996
 11	0	0	0	0.09155273438	0.09155273438	0.1373291016
 12	1	1	1	43.8079834	41.38183594	51.45263672
 13	1	0	0	26.27563477	3.204345703	4.119873047
 14	0	1	0	15.38085938	28.93066406	13.27514648
 15	0	0	1	1.007080078	9.063720703	34.56115723
END_DATA
