data/calibration-001506.ti3
CTI3   
ORIGINATOR	"ColorHug Factory"
DESCRIPTOR	"Calibration Target chart information 3"
DEVICE_CLASS	"DISPLAY"
COLOR_REP	"RGB_XYZ"
TARGET_INSTRUMENT	"Hughski ColorHug"
INSTRUMENT_TYPE_SPECTRAL	"NO"
NORMALIZED_TO_Y_100	"NO"
NUMBER_OF_FIELDS	7
NUMBER_OF_SETS	15
BEGIN_DATA_FORMAT
 SAMPLE_ID	RGB_R	RGB_G	RGB_B	XYZ_X	XYZ_Y	XYZ_Z
END_DATA_FORMAT
BEGIN_DATA
 1	0	0	0	0.1373291016	0.1373291016	0.1831054688
 2	1	1	1	41.47338867	39.27612305	48.11096191
 3	1	0	0	25.17700195	2.975463867	3.982543945
 4	0	1	0	14.60266113	28.24401855	12.77160645
 5	0	0	1	0.9613037109	8.148193359	31.31103516
 6	0	0	0	0.1373291016	0.1373291016	0.1831054688
 7	1	1	1	41.47338867	39.18457031	48.06518555
 8	1	0	0	25.13122559	3.021240234	3.982543945
 9	0	1	0	14.55688477	28.19824219	12.77160645
 10	0	0	1	0.9613037109	8.102416992	31.31103516
 11	0	0	0	0.1373291016	0.1373291016	0.1831054688
 12	1	1	1	41.56494141	39.18457031	48.06518555
 13	1	0	0	25.13122559	2.975463867	3.982543945
 14	0	1	0	14.46533203	28.19824219	12.81738281
 15	0	0	1	0.9613037109	8.148193359	31.31103516
END_DATA
