data/calibration-000005.ti3
CTI3
DESCRIPTOR	"Calibration Target chart information 3"
ORIGINATOR	"ColorHug Factory"
DEVICE_CLASS	"DISPLAY"
COLOR_REP	"RGB_XYZ"
TARGET_INSTRUMENT	"ColorHug"
INSTRUMENT_TYPE_SPECTRAL	"NO"
LUMINANCE_XYZ_CDM2	"45.433044 38.337708 41.427612"
NORMALIZED_TO_Y_100	"YES"
NUMBER_OF_FIELDS	7
NUMBER_OF_SETS	836
BEGIN_DATA_FORMAT
 SAMPLE_ID	RGB_R	RGB_G	RGB_B	XYZ_X	XYZ_Y	XYZ_Z
END_DATA_FORMAT
BEGIN_DATA
 1	100	100	100	112.3529412	98.23529412	107.6470588
 2	100	100	100	118.8235294	100	105.2941176
 3	100	100	100	118.8235294	97.64705882	105.8823529
 4	100	100	100	117.0588235	98.23529412	107.0588235
 5	33.33	32.622	30.968	11.17647059	9.411764706	9.411764706
 6	100	0	100	74.11764706	26.47058824	74.70588235
 7	100	100	0	114.7058824	81.17647059	44.11764706
 8	0	100	100	44.11764706	91.17647059	94.70588235
 9	0	100	0	41.17647059	72.94117647	33.52941176
 10	0	0	100	2.941176471	18.82352941	62.94117647
 11	100	0	0	72.35294118	9.411764706	11.76470588
 12	0	0	0	0.5882352941	1.176470588	1.176470588
 13	0	52.455	100	11.76470588	35.88235294	71.17647059
 14	100	0	50.3	72.35294118	13.52941176	24.70588235
 15	100	54.739	100	84.11764706	45.29411765	83.52941176
 16	100	52.128	0	83.52941176	25.88235294	18.82352941
 17	0	0	46.181	1.176470588	3.529411765	11.17647059
 18	0	51.141	0	10	16.47058824	8.235294118
 19	0	100	51.348	42.35294118	75.88235294	45.88235294
 20	100	100	52.037	117.0588235	85.88235294	57.64705882
 21	49.216	0	0	16.47058824	2.352941176	3.529411765
 22	56.159	100	0	61.17647059	75.29411765	36.47058824
 23	49.226	100	100	57.05882353	92.94117647	98.23529412
 24	44.487	0	100	14.70588235	20	65.29411765
 25	100	44.498	52.029	80	24.70588235	31.17647059
 26	48.926	48.544	100	24.70588235	34.11764706	72.35294118
 27	51.368	100	47.25	57.64705882	77.05882353	45.88235294
 28	49.893	0	49.033	15.88235294	6.470588235	15.29411765
 29	53.109	51.372	0	25.29411765	18.23529412	10.58823529
 30	0	58.587	53.943	12.94117647	25.88235294	25.29411765
 31	100	28.065	100	73.52941176	31.17647059	75.29411765
 32	0	0	72.874	1.764705882	8.823529412	30
 33	0	26.758	100	4.705882353	22.35294118	65.29411765
 34	0	25.426	0	2.941176471	4.117647059	2.352941176
 35	72.508	0	100	36.47058824	22.94117647	67.64705882
 36	100	27.395	0	75.29411765	13.52941176	13.52941176
 37	74.47	100	100	80	95.88235294	100.5882353
 38	100	0	25.728	71.76470588	10.58823529	15.29411765
 39	73.862	0	0	36.47058824	5.294117647	5.882352941
 40	100	100	25.402	115.8823529	81.76470588	47.64705882
 41	0	75.751	100	25.29411765	57.05882353	80
 42	0	75.172	0	21.76470588	37.64705882	17.64705882
 43	0	100	25.864	42.35294118	73.52941176	36.47058824
 44	100	0	74.801	72.94117647	17.64705882	42.94117647
 45	0	100	75.421	42.94117647	82.35294118	64.11764706
 46	24.577	0	0	4.117647059	1.764705882	1.176470588
 47	26.321	100	0	45.29411765	74.11764706	33.52941176
 48	100	75.835	0	94.70588235	46.47058824	29.41176471
 49	100	100	77.061	116.4705882	90.58823529	78.82352941
 50	71.263	100	0	74.70588235	77.64705882	38.23529412
 51	0	0	15.614	1.176470588	1.764705882	2.352941176
 52	0	30.049	70.936	4.705882353	13.52941176	31.17647059
 53	100	77.691	100	98.23529412	65.88235294	92.94117647
 54	24.486	100	100	47.64705882	90.58823529	96.47058824
 55	100	62.784	31.909	87.05882353	35.88235294	28.23529412
 56	29.552	0	100	7.647058824	18.82352941	64.11764706
 57	32.98	70.921	100	27.05882353	51.76470588	78.82352941
 58	0	27.681	40.241	4.117647059	7.647058824	11.17647059
 59	67.901	71.021	100	50	54.70588235	83.52941176
 60	28.154	100	67.829	47.05882353	80.58823529	57.64705882
 61	71.637	100	70.001	76.47058824	85.29411765	64.11764706
 62	58.822	58.763	53.586	34.70588235	29.41176471	28.82352941
 63	33.466	30.48	0	10	7.058823529	4.117647059
 64	100	73.795	71.277	93.52941176	52.94117647	55.88235294
 65	68.394	29.692	0	32.94117647	9.411764706	7.647058824
 66	70.399	0	29.039	32.94117647	5.882352941	10
 67	28.078	0	26.956	5.882352941	2.352941176	5.294117647
 68	28.532	72.339	0	25.29411765	35.29411765	17.05882353
 69	100	30.941	26.496	75.29411765	15.88235294	17.05882353
 70	34.597	0	73.611	8.235294118	10	32.35294118
 71	71.573	0	72.408	34.11764706	12.94117647	34.70588235
 72	0	71.029	29.412	34.70588235	33.52941176	20
 73	68.386	75.008	0	51.17647059	40.58823529	22.35294118
 74	68.088	27.309	100	34.70588235	25.88235294	70.58823529
 75	100	26.457	73.749	75.29411765	22.35294118	44.11764706
 76	74.344	100	27.392	79.41176471	78.23529412	41.17647059
 77	27.558	100	28.197	45.88235294	74.70588235	37.64705882
 78	31.196	27.465	100	10.58823529	23.52941176	66.47058824
 79	0	75.521	72.824	22.94117647	45.88235294	47.05882353
 80	0	50.93	25.553	10.58823529	17.64705882	11.17647059
 81	32.06	33.584	64.033	11.17647059	14.70588235	26.47058824
 82	81.666	55.38	0	55.88235294	24.70588235	15.88235294
 83	68.257	32.751	58.286	44.70588235	15.88235294	25.88235294
 84	0	55.248	81.585	14.70588235	30	47.64705882
 85	73.781	52.099	100	47.05882353	39.41176471	75.29411765
 86	100	50.537	82.952	81.76470588	35.88235294	58.82352941
 87	23.55	0	50.439	4.705882353	5.294117647	14.11764706
 88	31.335	62.746	31.114	20.58823529	27.64705882	17.64705882
 89	100	18.31	49.418	73.52941176	14.70588235	24.70588235
 90	26.498	48.404	0	12.94117647	15.29411765	8.235294118
 91	47.91	100	85.744	55.88235294	87.05882353	78.82352941
 92	71.829	47.313	31.811	42.35294118	20	17.05882353
 93	31.304	64.132	69.316	22.35294118	35.29411765	38.82352941
 94	80.403	0	54.321	41.17647059	10.58823529	22.35294118
 95	18.455	50.036	100	12.94117647	34.11764706	71.17647059
 96	50.653	100	16.345	55.88235294	75.29411765	37.05882353
 97	80.121	100	52.261	84.70588235	82.94117647	54.11764706
 98	0	22.54	19.289	2.941176471	4.117647059	4.117647059
 99	100	75.273	46.886	94.70588235	48.23529412	40
 100	0	78.618	56.625	25.29411765	45.88235294	35.29411765
 101	51.137	80.627	100	42.94117647	62.94117647	85.29411765
 102	48.446	0	17.864	14.70588235	2.941176471	4.705882353
 103	100	50.023	21.211	81.17647059	25.29411765	20.58823529
 104	50.115	20.118	0	66.47058824	5.294117647	4.705882353
 105	58.099	72.426	33.158	27.64705882	38.82352941	24.70588235
 106	19.364	100	50.197	42.94117647	77.64705882	45.88235294
 107	50.683	19.177	100	20	22.35294118	67.05882353
 108	53.37	0	81.576	19.41176471	14.11764706	42.35294118
 109	47.768	76.245	0	35.88235294	40.58823529	19.41176471
 110	0	18.927	55.503	2.352941176	7.647058824	17.64705882
 111	0	13.277	0	2.352941176	1.764705882	1.764705882
 112	72.862	72.473	75.625	55.88235294	48.23529412	52.35294118
 113	100	13.904	0	71.76470588	10.58823529	12.35294118
 114	86.349	0	100	60	24.70588235	71.76470588
 115	100	41.941	100	79.41176471	36.47058824	79.41176471
 116	100	81.785	16.464	100	54.70588235	32.94117647
 117	0	44.063	52.596	64.70588235	17.05882353	20
 118	0	0	58.917	1.176470588	5.882352941	18.82352941
 119	59.25	24.551	29.789	22.35294118	8.235294118	10
 120	82.73	82.874	100	74.70588235	69.41176471	92.35294118
 121	80.039	0	12.618	43.52941176	5.882352941	8.235294118
 122	60.957	47.729	77.817	33.52941176	27.05882353	45.29411765
 123	100	0	38.618	72.35294118	11.17647059	18.82352941
 124	0	40.09	100	7.647058824	28.23529412	68.23529412
 125	0	15.283	82.322	2.941176471	13.52941176	40.58823529
 126	17.592	81.726	100	30.58823529	64.11764706	82.94117647
 127	100	14.13	100	75.88235294	28.23529412	75.29411765
 128	15.261	100	82.059	45.29411765	84.11764706	71.76470588
 129	47.77	79.418	60.389	39.41176471	49.41176471	40.58823529
 130	18.768	16.429	0	4.705882353	2.941176471	2.352941176
 131	55.634	100	65.763	60	82.35294118	59.41176471
 132	100	100	38.541	117.0588235	84.11764706	51.17647059
 133	17.421	0	83.497	4.117647059	12.35294118	41.76470588
 134	17.237	16.758	100	5.294117647	20.58823529	64.11764706
 135	0	15.067	30.039	1.764705882	3.529411765	5.882352941
 136	0	0	86.505	2.352941176	13.52941176	44.70588235
 137	75.736	72.799	50.02	32.94117647	42.35294118	34.70588235
 138	100	83.323	85.529	92.94117647	67.64705882	76.47058824
 139	100	100	64.894	117.6470588	87.05882353	67.05882353
 140	81.98	84.914	0	77.05882353	55.29411765	30
 141	0	63.757	15.49	15.88235294	26.47058824	14.11764706
 142	49.514	66.135	100	32.35294118	48.23529412	77.64705882
 143	100	0	61.862	72.94117647	15.29411765	31.76470588
 144	24.308	45.41	49.831	26.47058824	17.64705882	20
 145	15.963	0	17.047	2.941176471	1.176470588	2.352941176
 146	87.497	100	100	96.47058824	95.29411765	104.1176471
 147	52.099	25.003	75.752	31.76470588	15.29411765	37.64705882
 148	14.909	81.162	0	27.64705882	44.70588235	20.58823529
 149	0	34.792	14.626	4.705882353	8.235294118	5.294117647
 150	48.39	45.075	22.552	21.17647059	15.29411765	11.17647059
 151	83.545	65.965	100	65.88235294	52.35294118	82.94117647
 152	16.226	62.345	0	17.05882353	25.29411765	11.76470588
 153	63.222	0	14.914	21.76470588	4.705882353	5.882352941
 154	80.449	13.446	0	43.52941176	7.058823529	8.235294118
 155	83.917	41.562	0	52.94117647	16.47058824	12.94117647
 156	100	60.448	46.3	70	35.29411765	32.94117647
 157	15.584	0	34.795	2.941176471	2.352941176	7.058823529
 158	17.144	65.121	100	20	45.88235294	76.47058824
 159	83.602	55.334	62.667	58.82352941	30.58823529	37.64705882
 160	0	82.19	14.22	33.52941176	45.29411765	21.76470588
 161	25.132	74.856	50.616	25.29411765	41.76470588	31.17647059
 162	0	13.769	100	2.941176471	20	64.70588235
 163	87.181	0	0	52.94117647	7.058823529	8.823529412
 164	0	100	39.19	41.76470588	75.29411765	40.58823529
 165	78.047	65.914	19.865	57.05882353	34.11764706	21.17647059
 166	100	63.961	15.865	87.64705882	34.70588235	24.70588235
 167	100	45.955	36.032	79.41176471	23.52941176	24.11764706
 168	15.926	100	16.89	43.52941176	74.11764706	34.11764706
 169	41.459	100	0	50.58823529	74.70588235	34.70588235
 170	48.707	37.288	48.139	20.58823529	14.11764706	18.82352941
 171	83.381	100	13.285	89.41176471	79.41176471	40.58823529
 172	78.129	25.303	75.621	42.94117647	18.23529412	41.17647059
 173	12.396	0	0	1.764705882	1.176470588	1.176470588
 174	37.607	48.336	83.346	18.23529412	27.05882353	48.82352941
 175	35.588	15.356	0	8.823529412	2.941176471	2.941176471
 176	61.245	100	100	65.29411765	94.11764706	98.82352941
 177	100	67.29	87.195	83.52941176	50.58823529	70.58823529
 178	0	0	30.615	17.05882353	2.352941176	5.882352941
 179	35.187	81.789	83.323	34.70588235	57.64705882	62.35294118
 180	39.525	80.194	22.879	34.70588235	44.70588235	24.11764706
 181	50.634	34.593	0	20.58823529	10	6.470588235
 182	14.175	100	63.146	38.82352941	78.82352941	54.70588235
 183	83.493	17.728	34.574	48.23529412	10	14.70588235
 184	23.463	22.014	79.943	7.058823529	14.70588235	38.82352941
 185	18.066	31.847	0	5.882352941	7.058823529	4.117647059
 186	87.201	100	81.361	54.70588235	88.23529412	79.41176471
 187	0	100	87.95	44.11764706	85.88235294	77.64705882
 188	34.476	17.888	46.22	9.411764706	7.058823529	13.52941176
 189	18.277	0	67.39	4.117647059	8.235294118	25.88235294
 190	100	87.972	0	99.41176471	61.76470588	35.88235294
 191	82.925	34.85	100	51.76470588	30.58823529	74.11764706
 192	0	88.016	100	33.52941176	70.58823529	87.64705882
 193	36.104	85.655	100	38.82352941	68.82352941	86.47058824
 194	60.981	0	0	23.52941176	3.529411765	4.705882353
 195	51.466	61.826	78.106	31.76470588	36.47058824	48.82352941
 196	78.427	31.983	22.175	43.52941176	12.35294118	11.76470588
 197	66.017	44.321	0	34.70588235	15.88235294	10.58823529
 198	83.941	0	84.177	49.41176471	17.64705882	48.82352941
 199	20.158	46.612	23.269	11.17647059	15.29411765	10
 200	0	100	62.618	42.35294118	78.23529412	54.11764706
 201	33.832	0	13.933	7.647058824	2.352941176	2.941176471
 202	100	17.286	16.322	66.47058824	11.76470588	14.11764706
 203	0	42.204	83.926	47.05882353	23.52941176	47.05882353
 204	0	87.774	0	30	53.52941176	24.11764706
 205	64.988	0	59.017	27.64705882	9.411764706	22.94117647
 206	14.677	0	100	4.117647059	18.82352941	64.11764706
 207	88.934	82.673	35.021	81.76470588	54.70588235	35.29411765
 208	0	63.778	100	18.23529412	44.11764706	75.88235294
 209	83.429	17.674	100	48.82352941	25.88235294	72.35294118
 210	30.899	100	85.668	48.82352941	86.47058824	76.47058824
 211	83.68	0	41.016	48.23529412	8.823529412	15.88235294
 212	100	63.515	0	87.64705882	34.11764706	22.94117647
 213	85.074	69.987	0	68.23529412	37.05882353	22.35294118
 214	20.801	45.524	69.018	11.17647059	21.17647059	32.94117647
 215	21.382	82.482	73.017	30	54.11764706	51.76470588
 216	100	15.128	64.249	72.35294118	17.05882353	34.70588235
 217	36.522	0	58.427	9.411764706	7.058823529	20
 218	22.466	81.296	33.007	28.82352941	47.05882353	27.05882353
 219	62.531	87.152	0	54.11764706	56.47058824	27.64705882
 220	84.12	85.397	67.886	78.23529412	61.76470588	55.88235294
 221	18.87	27.336	45.389	6.470588235	8.823529412	13.52941176
 222	66.439	100	14.444	62.35294118	77.05882353	38.23529412
 223	41.636	22.147	19.003	18.23529412	5.294117647	5.294117647
 224	61.271	100	81.94	54.11764706	85.29411765	75.88235294
 225	86.013	100	0	92.35294118	79.41176471	40.58823529
 226	37.57	0	0	8.823529412	1.764705882	2.352941176
 227	100	16.132	84.102	72.35294118	22.35294118	53.52941176
 228	0	100	13.619	42.35294118	72.35294118	34.11764706
 229	38.905	100	56.471	51.17647059	78.23529412	50.58823529
 230	100	15.382	34.563	71.76470588	12.35294118	18.23529412
 231	36.656	14.908	100	48.23529412	20.58823529	65.29411765
 232	0	62.593	66.608	15.88235294	31.76470588	35.88235294
 233	66.347	12.528	100	30.58823529	22.35294118	68.82352941
 234	100	43.375	69.233	80	27.64705882	42.94117647
 235	100	56.36	61.236	84.70588235	34.11764706	40
 236	0	86.194	44.955	30	54.70588235	33.52941176
 237	64.527	87.262	100	57.05882353	73.52941176	91.17647059
 238	34.411	0	42.471	7.647058824	4.705882353	11.17647059
 239	80.23	59.707	85.12	56.47058824	39.41176471	60
 240	20.625	19.056	14.791	4.705882353	4.117647059	3.529411765
 241	15.341	34.221	100	7.647058824	25.29411765	67.64705882
 242	36.777	0	87.905	10	14.70588235	47.64705882
 243	34.598	56.247	100	20.58823529	39.41176471	72.35294118
 244	20.86	67.629	17.418	20	30.58823529	15.88235294
 245	44.958	60.843	18.054	25.88235294	25.88235294	14.70588235
 246	37.421	60.193	0	21.76470588	24.11764706	12.35294118
 247	84.011	33.849	42.612	48.23529412	15.88235294	20
 248	17.241	60.339	37.743	15.88235294	25.88235294	18.82352941
 249	50.65	17.261	53.278	17.64705882	8.823529412	18.82352941
 250	45.505	48.926	65.152	21.76470588	23.52941176	32.35294118
 251	44.567	84.081	39.649	39.41176471	51.17647059	31.76470588
 252	100	86.339	72.054	60	67.64705882	63.52941176
 253	68.14	61.135	0	44.70588235	27.64705882	15.29411765
 254	17.93	66.986	81.403	21.17647059	40	52.35294118
 255	39.242	60.215	48.926	22.35294118	27.64705882	24.70588235
 256	20.099	18.77	62.967	4.705882353	9.411764706	22.94117647
 257	34.553	100	14.582	48.23529412	73.52941176	35.29411765
 258	87.345	0	66.694	52.94117647	13.52941176	32.94117647
 259	0	43.714	39.842	7.647058824	14.70588235	13.52941176
 260	100	37.705	13.955	76.47058824	18.23529412	16.47058824
 261	31.265	86.993	0	35.88235294	52.35294118	24.11764706
 262	51.402	82.661	81.338	43.52941176	58.23529412	61.76470588
 263	100	100	12.984	114.7058824	82.35294118	45.29411765
 264	0	37.859	0	5.882352941	9.411764706	4.705882353
 265	62.092	58.215	100	38.23529412	42.94117647	75.88235294
 266	86.186	100	64.1	86.47058824	84.70588235	61.76470588
 267	100	35.251	85.898	77.64705882	28.23529412	57.64705882
 268	63.182	89.992	41.974	58.82352941	60.58823529	38.23529412
 269	13.504	100	0	42.94117647	73.52941176	33.52941176
 270	100	0	13.228	62.94117647	10	12.35294118
 271	63.881	40.826	100	50.58823529	31.17647059	72.35294118
 272	69.387	84.838	20.792	59.41176471	52.94117647	28.82352941
 273	0	70.279	45.136	20	35.88235294	25.29411765
 274	79.094	64.754	40.908	57.05882353	34.11764706	27.64705882
 275	62.385	54.099	17.396	35.29411765	21.76470588	14.11764706
 276	64.408	14.621	0	27.64705882	5.882352941	5.294117647
 277	70.028	15.606	44.651	32.94117647	8.823529412	16.47058824
 278	0	63.544	0	20	26.47058824	12.35294118
 279	83.475	47.274	20.502	53.52941176	20	15.88235294
 280	55.866	0	32.671	20.58823529	4.705882353	8.823529412
 281	58.007	0	100	23.52941176	20.58823529	67.64705882
 282	100	0	87.698	72.35294118	22.35294118	57.05882353
 283	0	13.792	67.215	2.352941176	8.823529412	26.47058824
 284	84.123	17.001	58.549	44.70588235	13.52941176	27.05882353
 285	59.579	32.873	15.966	26.47058824	10	8.235294118
 286	10.41	32.998	28.659	5.294117647	8.823529412	8.235294118
 287	17.231	40.031	85.65	7.647058824	22.94117647	47.64705882
 288	37.568	41.561	10.108	14.70588235	11.76470588	7.647058824
 289	0	69.015	85.092	19.41176471	43.52941176	57.05882353
 290	14.442	100	36.187	42.35294118	75.29411765	39.41176471
 291	100	40.549	0	78.23529412	19.41176471	15.88235294
 292	82.143	45.435	78.429	54.11764706	28.23529412	47.64705882
 293	52.674	0	67.3	18.82352941	10	28.23529412
 294	0	87.868	66.793	24.11764706	59.41176471	49.41176471
 295	86.53	100	40.524	94.11764706	81.17647059	48.82352941
 296	71.777	85.586	67.232	62.94117647	61.76470588	53.52941176
 297	43.216	100	31.671	52.94117647	75.29411765	40
 298	39.245	32.908	85.845	17.05882353	20.58823529	48.23529412
 299	0	45.662	67.543	8.823529412	20	31.17647059
 300	12.161	100	100	43.52941176	91.17647059	95.88235294
 301	67.049	0	85.516	30.58823529	16.47058824	48.23529412
 302	100	89.041	100	107.0588235	80	99.41176471
 303	20.246	60.698	56.526	29.41176471	28.82352941	28.23529412
 304	52.177	55.457	40.416	27.05882353	24.11764706	20
 305	72.617	87.018	83.932	64.11764706	68.23529412	71.17647059
 306	40.512	16.723	66.475	12.35294118	10.58823529	27.05882353
 307	68.507	49.232	50.605	32.94117647	22.94117647	25.88235294
 308	65.622	100	54.525	70	79.41176471	51.76470588
 309	54.115	37.24	66.394	30	17.64705882	31.17647059
 310	100	76.138	31.267	57.64705882	47.64705882	32.94117647
 311	54.728	65.623	0	35.29411765	30.58823529	15.88235294
 312	63.126	12.526	64.37	27.05882353	11.17647059	27.64705882
 313	72.827	18.08	23.704	36.47058824	7.647058824	9.411764706
 314	23.268	15.278	34.947	5.294117647	4.705882353	8.235294118
 315	87.648	68.954	59.645	71.17647059	42.35294118	41.17647059
 316	0	85.595	85.198	31.17647059	62.35294118	65.29411765
 317	35.798	84.371	69.21	36.47058824	58.23529412	49.41176471
 318	36.062	47.494	35.919	19.41176471	17.64705882	14.70588235
 319	86.083	36.277	59.152	50	20	30
 320	58.21	100	30.361	61.17647059	76.47058824	40.58823529
 321	46.745	14.614	32.317	15.29411765	5.294117647	8.823529412
 322	81.573	73.869	86.954	66.47058824	54.11764706	67.05882353
 323	85.991	49.387	48.206	60	24.70588235	26.47058824
 324	28.062	87.906	19.654	35.88235294	55.29411765	26.47058824
 325	68.992	17.993	85.124	32.94117647	18.23529412	49.41176471
 326	100	66.147	100	91.17647059	54.11764706	87.05882353
 327	33.358	64.806	84.517	32.94117647	40.58823529	55.29411765
 328	41.351	17.736	80.522	14.11764706	14.70588235	40.58823529
 329	100	100	88.719	116.4705882	94.70588235	90
 330	66.336	0	44.32	58.82352941	7.058823529	15.29411765
 331	64.85	67.09	12.293	42.94117647	32.94117647	18.82352941
 332	15.262	31.268	63.277	5.882352941	12.35294118	25.29411765
 333	15.008	43.663	37.3	8.823529412	14.11764706	12.94117647
 334	0	57.895	38.078	12.94117647	22.94117647	17.64705882
 335	66.599	58.458	67.871	41.17647059	31.76470588	39.41176471
 336	59.191	18.651	15.215	23.52941176	6.470588235	6.470588235
 337	66.781	31.14	84.629	32.94117647	21.76470588	50
 338	88.033	85.158	52.14	82.35294118	60.58823529	44.11764706
 339	36.882	100	100	50.58823529	91.76470588	97.64705882
 340	26.102	33.094	17.006	8.235294118	8.235294118	5.882352941
 341	56.309	36.861	35.862	15.88235294	12.94117647	14.11764706
 342	45.839	65.587	67.033	28.23529412	36.47058824	39.41176471
 343	83.709	81.172	16.406	73.52941176	50	28.82352941
 344	0	48.132	13.005	8.823529412	15.29411765	8.235294118
 345	87.176	50.021	100	62.94117647	40	77.64705882
 346	51.219	84.244	13.73	42.94117647	50	25.88235294
 347	60.606	71.415	48.406	42.94117647	39.41176471	31.17647059
 348	0	11.359	12.718	1.764705882	2.352941176	2.352941176
 349	86.429	49.705	33.145	58.82352941	22.94117647	20
 350	34.056	40.958	100	14.70588235	29.41176471	70
 351	100	30.557	59.628	68.82352941	20	32.94117647
 352	88.497	26.902	13.449	55.88235294	11.76470588	11.76470588
 353	14.167	51.98	88.218	12.94117647	30	54.70588235
 354	13.784	12.983	49.37	3.529411765	5.882352941	14.11764706
 355	15.018	88.441	48.062	32.94117647	57.05882353	36.47058824
 356	87.79	25.769	89.215	55.29411765	24.70588235	58.23529412
 357	0	33.206	55.865	5.294117647	11.76470588	20
 358	74.324	76.029	35.536	58.23529412	43.52941176	29.41176471
 359	65.863	57.223	42.324	39.41176471	26.47058824	23.52941176
 360	30.893	54.646	13.136	18.82352941	20	11.17647059
 361	0	34.36	28.321	4.705882353	8.823529412	8.235294118
 362	15.443	77.087	85.116	26.47058824	51.76470588	61.17647059
 363	63.381	68.947	68.521	43.52941176	41.17647059	44.70588235
 364	69.733	27.566	42.917	34.70588235	11.76470588	17.05882353
 365	32.754	100	42.76	47.05882353	76.47058824	42.94117647
 366	47.096	29.481	34.829	17.05882353	9.411764706	11.17647059
 367	8.5451	71.948	62.695	21.76470588	40	37.05882353
 368	0	86.048	29.3	30	52.94117647	27.05882353
 369	53.697	51.572	85.367	28.82352941	30.58823529	53.52941176
 370	17.608	56.69	12.515	14.11764706	20.58823529	11.17647059
 371	90.638	14.414	49.227	42.35294118	12.35294118	22.35294118
 372	63.248	63.64	89.55	40.58823529	42.35294118	64.70588235
 373	100	85.976	58.455	104.1176471	64.70588235	52.35294118
 374	9.8311	28.027	7.5567	4.705882353	5.882352941	3.529411765
 375	89.831	64.313	69.506	71.76470588	40	48.23529412
 376	31.754	12.995	25.543	51.76470588	3.529411765	5.294117647
 377	75.914	45.966	64.957	45.88235294	24.11764706	34.70588235
 378	7.5735	50.695	58.941	11.17647059	21.76470588	26.47058824
 379	100	69.835	58.912	67.05882353	45.88235294	44.70588235
 380	32.211	34.376	48.339	11.76470588	12.35294118	16.47058824
 381	13.901	12.159	73.555	3.529411765	10.58823529	31.76470588
 382	87.071	9.028	77.653	51.17647059	17.64705882	42.94117647
 383	23.272	85.409	84.29	32.94117647	61.76470588	63.52941176
 384	93.289	39.48	26.145	66.47058824	18.23529412	17.05882353
 385	65.769	59.63	30.967	41.76470588	27.05882353	19.41176471
 386	100	32.265	41.803	71.76470588	18.23529412	23.52941176
 387	86.568	85.281	86.961	81.17647059	67.05882353	75.29411765
 388	52.577	86.83	30.016	55.88235294	55.29411765	30.58823529
 389	47.921	40.199	76.902	20.58823529	21.76470588	40.58823529
 390	22.36	86.619	61.58	30.58823529	57.64705882	43.52941176
 391	52.232	33.601	88.787	26.47058824	22.94117647	53.52941176
 392	0	28.523	86.267	4.705882353	18.23529412	45.88235294
 393	43.497	67.879	39.551	28.82352941	33.52941176	23.52941176
 394	39.877	45.261	0	22.94117647	14.11764706	7.647058824
 395	86.94	12.43	24.699	51.17647059	8.823529412	12.35294118
 396	28.363	55.339	90.398	17.64705882	34.11764706	59.41176471
 397	39.018	70.534	57.879	28.23529412	38.23529412	33.52941176
 398	12.833	28.519	78.828	5.882352941	15.29411765	38.82352941
 399	68.35	31.815	69.975	34.70588235	18.23529412	34.70588235
 400	56.52	26.226	41.626	22.94117647	9.411764706	14.11764706
 401	12.938	46.218	0	9.411764706	13.52941176	7.058823529
 402	8.6938	60.179	26.117	14.70588235	24.11764706	14.11764706
 403	51.995	89.429	96.608	45.29411765	74.11764706	84.70588235
 404	46.905	47.746	48.909	28.82352941	20	21.76470588
 405	14.352	81.814	19.479	27.64705882	46.47058824	22.94117647
 406	71.482	38.117	12.273	32.35294118	13.52941176	10.58823529
 407	86.616	60.785	10.012	42.35294118	29.41176471	19.41176471
 408	71.811	88.979	52.186	64.70588235	61.76470588	44.11764706
 409	43.213	100	72.083	53.52941176	81.17647059	63.52941176
 410	73.92	23.444	8.2853	37.05882353	8.235294118	8.235294118
 411	40.629	85.534	53.423	38.82352941	55.88235294	39.41176471
 412	38.955	52.128	22.885	19.41176471	19.41176471	12.35294118
 413	46.48	12.229	8.6707	13.52941176	3.529411765	4.117647059
 414	40.855	33.301	22.309	14.11764706	9.411764706	7.647058824
 415	76.365	66.787	61.06	22.94117647	39.41176471	39.41176471
 416	7.5076	12.025	20.59	2.352941176	2.941176471	3.529411765
 417	85.93	27.031	0	51.76470588	11.17647059	10
 418	100	87.757	44.06	103.5294118	63.52941176	45.88235294
