data/calibration-000486.ti3
CTI3
ORIGINATOR	"ColorHug Factory"
DESCRIPTOR	"Calibration Target chart information 3"
DEVICE_CLASS	"DISPLAY"
COLOR_REP	"RGB_XYZ"
TARGET_INSTRUMENT	"Hughski ColorHug"
INSTRUMENT_TYPE_SPECTRAL	"NO"
NORMALIZED_TO_Y_100	"NO"
NUMBER_OF_FIELDS	7
NUMBER_OF_SETS	15
BEGIN_DATA_FORMAT
 SAMPLE_ID	RGB_R	RGB_G	RGB_B	XYZ_X	XYZ_Y	XYZ_Z
END_DATA_FORMAT
BEGIN_DATA
 1	0	0	0	0.04577636719	0	0.04577636719
 2	1	1	1	56.21337891	37.85705566	45.27282715
 3	1	0	0	35.5682373	3.387451172	5.172729492
 4	0	1	0	18.44787598	26.82495117	12.72583008
 5	0	0	1	0.7781982422	7.141113281	27.09960938
 6	0	0	0	0.04577636719	0	0.04577636719
 7	1	1	1	56.53381348	37.90283203	45.36437988
 8	1	0	0	35.4309082	3.387451172	5.172729492
 9	0	1	0	18.44787598	26.91650391	12.77160645
 10	0	0	1	0.7781982422	7.141113281	27.09960938
 11	0	0	0	0.04577636719	0	0.04577636719
 12	1	1	1	56.0760498	37.76550293	45.36437988
 13	1	0	0	35.33935547	3.387451172	5.172729492
 14	0	1	0	18.58520508	27.00805664	12.68005371
 15	0	0	1	0.7781982422	7.141113281	27.00805664
END_DATA
