data/calibration-002108.ti3
CTI3   
ORIGINATOR	"ColorHug Factory"
CREATED	"Sun Sep 15 20:36:26 2013"
DESCRIPTOR	"Calibration Target chart information 3"
DEVICE_CLASS	"DISPLAY"
COLOR_REP	"RGB_XYZ"
TARGET_INSTRUMENT	"Hughski ColorHug"
INSTRUMENT_TYPE_SPECTRAL	"NO"
NORMALIZED_TO_Y_100	"NO"
NUMBER_OF_FIELDS	7
NUMBER_OF_SETS	15
BEGIN_DATA_FORMAT
 SAMPLE_ID	RGB_R	RGB_G	RGB_B	XYZ_X	XYZ_Y	XYZ_Z
END_DATA_FORMAT
BEGIN_DATA
 1	0	0	0	0.274658203125	0.274658203125	0.3662109375
 2	1	1	1	68.8934326171875	35.2020263671875	54.2449951171875
 3	1	0	0	44.49462890625	3.9825439453125	7.0037841796875
 4	0	1	0	22.0184326171875	22.705078125	12.5885009765625
 5	0	0	1	1.28173828125	8.697509765625	34.9273681640625
 6	0	0	0	0.274658203125	0.274658203125	0.3662109375
 7	1	1	1	68.4814453125	35.1104736328125	54.19921875
 8	1	0	0	44.49462890625	3.9825439453125	7.0037841796875
 9	0	1	0	21.97265625	22.7508544921875	12.6800537109375
 10	0	0	1	1.28173828125	8.697509765625	34.6527099609375
 11	0	0	0	0.3204345703125	0.274658203125	0.3662109375
 12	1	1	1	68.756103515625	35.15625	54.290771484375
 13	1	0	0	44.3115234375	3.9825439453125	7.049560546875
 14	0	1	0	21.97265625	22.5677490234375	12.542724609375
 15	0	0	1	1.3275146484375	8.697509765625	34.4696044921875
END_DATA
