data/calibration-001927.ti3
CTI3   
ORIGINATOR	"ColorHug Factory"
CREATED	"Sat May 25 21:40:07 2013"
DESCRIPTOR	"Calibration Target chart information 3"
DEVICE_CLASS	"DISPLAY"
COLOR_REP	"RGB_XYZ"
TARGET_INSTRUMENT	"Hughski ColorHug"
INSTRUMENT_TYPE_SPECTRAL	"NO"
NORMALIZED_TO_Y_100	"NO"
NUMBER_OF_FIELDS	7
NUMBER_OF_SETS	15
BEGIN_DATA_FORMAT
 SAMPLE_ID	RGB_R	RGB_G	RGB_B	XYZ_X	XYZ_Y	XYZ_Z
END_DATA_FORMAT
BEGIN_DATA
 1	0	0	0	0.091552734375	0.091552734375	0.18310546875
 2	1	1	1	46.1883544921875	38.8641357421875	51.544189453125
 3	1	0	0	28.38134765625	3.204345703125	4.57763671875
 4	0	1	0	15.7470703125	26.55029296875	12.7716064453125
 5	0	0	1	1.0528564453125	9.2010498046875	34.7442626953125
 6	0	0	0	0.091552734375	0.091552734375	0.18310546875
 7	1	1	1	45.7763671875	38.6810302734375	52.1392822265625
 8	1	0	0	28.289794921875	3.204345703125	4.57763671875
 9	0	1	0	15.8843994140625	26.5960693359375	12.7716064453125
 10	0	0	1	1.0528564453125	9.246826171875	34.881591796875
 11	0	0	0	0.091552734375	0.091552734375	0.18310546875
 12	1	1	1	45.684814453125	38.6810302734375	52.1392822265625
 13	1	0	0	28.289794921875	3.204345703125	4.57763671875
 14	0	1	0	15.8843994140625	26.5960693359375	12.725830078125
 15	0	0	1	1.0528564453125	9.246826171875	34.6527099609375
END_DATA
