data/calibration-000564.ti3
CTI3
ORIGINATOR	"ColorHug Factory"
DESCRIPTOR	"Calibration Target chart information 3"
DEVICE_CLASS	"DISPLAY"
COLOR_REP	"RGB_XYZ"
TARGET_INSTRUMENT	"Hughski ColorHug"
INSTRUMENT_TYPE_SPECTRAL	"NO"
NORMALIZED_TO_Y_100	"NO"
NUMBER_OF_FIELDS	7
NUMBER_OF_SETS	15
BEGIN_DATA_FORMAT
 SAMPLE_ID	RGB_R	RGB_G	RGB_B	XYZ_X	XYZ_Y	XYZ_Z
END_DATA_FORMAT
BEGIN_DATA
 1	0	0	0	0.1373291016	0.1373291016	0.1373291016
 2	1	1	1	52.68859863	35.2935791	41.33605957
 3	1	0	0	33.59985352	3.387451172	4.943847656
 4	0	1	0	17.53234863	25.13122559	11.5814209
 5	0	0	1	0.8697509766	6.774902344	24.85656738
 6	0	0	0	0.1373291016	0.1373291016	0.1373291016
 7	1	1	1	52.91748047	35.20202637	41.06140137
 8	1	0	0	33.55407715	3.387451172	4.943847656
 9	0	1	0	17.53234863	25.26855469	11.5814209
 10	0	0	1	0.8697509766	6.774902344	24.90234375
 11	0	0	0	0.1373291016	0.1373291016	0.1373291016
 12	1	1	1	52.64282227	35.11047363	41.2902832
 13	1	0	0	33.41674805	3.387451172	4.943847656
 14	0	1	0	17.39501953	25.03967285	11.5814209
 15	0	0	1	0.8697509766	6.820678711	24.90234375
END_DATA
