data/calibration-000991.ti3
CTI3   
ORIGINATOR	"ColorHug Factory"
DESCRIPTOR	"Calibration Target chart information 3"
DEVICE_CLASS	"DISPLAY"
COLOR_REP	"RGB_XYZ"
TARGET_INSTRUMENT	"Hughski ColorHug"
INSTRUMENT_TYPE_SPECTRAL	"NO"
NORMALIZED_TO_Y_100	"NO"
NUMBER_OF_FIELDS	7
NUMBER_OF_SETS	15
BEGIN_DATA_FORMAT
 SAMPLE_ID	RGB_R	RGB_G	RGB_B	XYZ_X	XYZ_Y	XYZ_Z
END_DATA_FORMAT
BEGIN_DATA
 1	0	0	0	0.04577636719	0	0.04577636719
 2	1	1	1	60.92834473	38.95568848	45.45593262
 3	1	0	0	38.4979248	3.707885742	5.584716797
 4	0	1	0	20.27893066	27.78625488	12.72583008
 5	0	0	1	0.9155273438	7.415771484	27.23693848
 6	0	0	0	0.04577636719	0	0
 7	1	1	1	61.34033203	38.63525391	45.22705078
 8	1	0	0	38.81835938	3.753662109	5.584716797
 9	0	1	0	20.41625977	27.69470215	12.72583008
 10	0	0	1	0.9155273438	7.415771484	27.05383301
 11	0	0	0	0.04577636719	0	0
 12	1	1	1	61.3861084	39.00146484	45.73059082
 13	1	0	0	38.86413574	3.753662109	5.584716797
 14	0	1	0	20.2331543	27.64892578	12.68005371
 15	0	0	1	0.9155273438	7.415771484	27.23693848
END_DATA
