data/calibration-002781.ti3
CTI3   
ORIGINATOR	"ColorHug Factory"
CREATED	"Tue May 05 20:53:30 2015"
DESCRIPTOR	"Calibration Target chart information 3"
DEVICE_CLASS	"DISPLAY"
COLOR_REP	"RGB_XYZ"
TARGET_INSTRUMENT	"Hughski ColorHug"
INSTRUMENT_TYPE_SPECTRAL	"NO"
NORMALIZED_TO_Y_100	"NO"
NUMBER_OF_FIELDS	7
NUMBER_OF_SETS	15
BEGIN_DATA_FORMAT
 SAMPLE_ID	RGB_R	RGB_G	RGB_B	XYZ_X	XYZ_Y	XYZ_Z
END_DATA_FORMAT
BEGIN_DATA
 1.0	0.0	0.0	0.0	0.595031738281	0.684204101562	0.749496459961
 2.0	1.0	1.0	1.0	99.902435302734	96.37646484375	105.025634765625
 3.0	1.0	0.0	0.0	70.01708984375	7.249557495117	10.981231689453
 4.0	0.0	1.0	0.0	25.128829956055	68.84033203125	27.215942382812
 5.0	0.0	0.0	1.0	3.604034423828	20.177337646484	65.535995483398
 6.0	0.0	0.0	0.0	0.584014892578	0.671630859375	0.735092163086
 7.0	1.0	1.0	1.0	99.902435302734	96.37646484375	105.025634765625
 8.0	1.0	0.0	0.0	70.01708984375	7.230346679688	10.951858520508
 9.0	0.0	1.0	0.0	25.128829956055	68.84033203125	27.215942382812
 10.0	0.0	0.0	1.0	3.589828491211	20.177337646484	65.535995483398
 11.0	0.0	0.0	0.0	0.57942199707	0.663909912109	0.727264404297
 12.0	1.0	1.0	1.0	99.902435302734	96.37646484375	105.025634765625
 13.0	1.0	0.0	0.0	70.01708984375	7.223983764648	10.951858520508
 14.0	0.0	1.0	0.0	25.128829956055	68.84033203125	27.215942382812
 15.0	0.0	0.0	1.0	3.583541870117	20.177337646484	65.535995483398
END_DATA
