data/calibration-001387.ti3
CTI3   
ORIGINATOR	"ColorHug Factory"
DESCRIPTOR	"Calibration Target chart information 3"
DEVICE_CLASS	"DISPLAY"
COLOR_REP	"RGB_XYZ"
TARGET_INSTRUMENT	"Hughski ColorHug"
INSTRUMENT_TYPE_SPECTRAL	"NO"
NORMALIZED_TO_Y_100	"NO"
NUMBER_OF_FIELDS	7
NUMBER_OF_SETS	15
BEGIN_DATA_FORMAT
 SAMPLE_ID	RGB_R	RGB_G	RGB_B	XYZ_X	XYZ_Y	XYZ_Z
END_DATA_FORMAT
BEGIN_DATA
 1	0	0	0	0.04577636719	0.09155273438	0.1831054688
 2	1	1	1	29.93774414	33.82873535	40.28320312
 3	1	0	0	17.7154541	2.517700195	3.204345703
 4	0	1	0	11.07788086	24.07836914	11.12365723
 5	0	0	1	0.6866455078	7.095336914	26.2298584
 6	0	0	0	0.04577636719	0.09155273438	0.1831054688
 7	1	1	1	29.84619141	33.82873535	40.23742676
 8	1	0	0	17.62390137	2.517700195	3.204345703
 9	0	1	0	11.03210449	24.16992188	11.16943359
 10	0	0	1	0.6866455078	7.095336914	26.00097656
 11	0	0	0	0.04577636719	0.09155273438	0.1831054688
 12	1	1	1	29.66308594	33.46252441	40.10009766
 13	1	0	0	17.62390137	2.517700195	3.204345703
 14	0	1	0	11.03210449	24.21569824	11.07788086
 15	0	0	1	0.6866455078	7.141113281	26.04675293
END_DATA
