data/calibration-001356.ti3
CTI3   
ORIGINATOR	"ColorHug Factory"
DESCRIPTOR	"Calibration Target chart information 3"
DEVICE_CLASS	"DISPLAY"
COLOR_REP	"RGB_XYZ"
TARGET_INSTRUMENT	"Hughski ColorHug"
INSTRUMENT_TYPE_SPECTRAL	"NO"
NORMALIZED_TO_Y_100	"NO"
NUMBER_OF_FIELDS	7
NUMBER_OF_SETS	15
BEGIN_DATA_FORMAT
 SAMPLE_ID	RGB_R	RGB_G	RGB_B	XYZ_X	XYZ_Y	XYZ_Z
END_DATA_FORMAT
BEGIN_DATA
 1	0	0	0	0.1831054688	0.2288818359	0.2288818359
 2	1	1	1	35.0189209	39.87121582	47.92785645
 3	1	0	0	20.73669434	3.067016602	3.753662109
 4	0	1	0	13.00048828	28.61022949	13.09204102
 5	0	0	1	1.052856445	8.605957031	31.35681152
 6	0	0	0	0.2288818359	0.2288818359	0.2746582031
 7	1	1	1	34.8815918	39.77966309	48.01940918
 8	1	0	0	20.55358887	3.067016602	3.753662109
 9	0	1	0	12.95471191	28.61022949	13.09204102
 10	0	0	1	1.052856445	8.560180664	31.49414062
 11	0	0	0	0.2288818359	0.2288818359	0.2746582031
 12	1	1	1	34.97314453	39.82543945	48.01940918
 13	1	0	0	20.5078125	3.067016602	3.753662109
 14	0	1	0	13.00048828	28.61022949	13.09204102
 15	0	0	1	1.052856445	8.560180664	31.35681152
END_DATA
