data/calibration-002594.ti3
CTI3   
ORIGINATOR	"ColorHug Factory"
CREATED	"Wed Dec 03 19:43:48 2014"
DESCRIPTOR	"Calibration Target chart information 3"
DEVICE_CLASS	"DISPLAY"
COLOR_REP	"RGB_XYZ"
TARGET_INSTRUMENT	"Hughski ColorHug"
INSTRUMENT_TYPE_SPECTRAL	"NO"
NORMALIZED_TO_Y_100	"NO"
NUMBER_OF_FIELDS	7
NUMBER_OF_SETS	15
BEGIN_DATA_FORMAT
 SAMPLE_ID	RGB_R	RGB_G	RGB_B	XYZ_X	XYZ_Y	XYZ_Z
END_DATA_FORMAT
BEGIN_DATA
 1.0	0.0	0.0	0.0	0.379379272461	0.392852783203	0.334167480469
 2.0	1.0	1.0	1.0	130.03173828125	91.022216796875	95.255813598633
 3.0	1.0	0.0	0.0	49.05387878418	6.220184326172	9.204483032227
 4.0	0.0	1.0	0.0	25.842269897461	327.679992675781	23.540222167969
 5.0	0.0	0.0	1.0	6.809631347656	18.244979858398	60.235290527344
 6.0	0.0	0.0	0.0	0.365859985352	0.335479736328	0.335220336914
 7.0	1.0	1.0	1.0	101.135787963867	93.090896606445	95.255813598633
 8.0	1.0	0.0	0.0	16.718353271484	6.220184326172	9.194152832031
 9.0	0.0	1.0	0.0	25.440979003906	65.015869140625	23.540222167969
 10.0	0.0	0.0	1.0	6.82096862793	18.164077758789	60.235290527344
 11.0	0.0	0.0	0.0	0.368881225586	0.339172363281	0.336135864258
 12.0	1.0	1.0	1.0	98.698791503906	91.022216796875	95.255813598633
 13.0	1.0	0.0	0.0	52.512817382812	6.215469360352	9.194152832031
 14.0	0.0	1.0	0.0	26.00634765625	65.015869140625	23.540222167969
 15.0	0.0	0.0	1.0	7.135879516602	18.00439453125	60.235290527344
END_DATA
