data/calibration-002100.ti3
CTI3   
ORIGINATOR	"ColorHug Factory"
CREATED	"Sun Sep 15 20:29:12 2013"
DESCRIPTOR	"Calibration Target chart information 3"
DEVICE_CLASS	"DISPLAY"
COLOR_REP	"RGB_XYZ"
TARGET_INSTRUMENT	"Hughski ColorHug"
INSTRUMENT_TYPE_SPECTRAL	"NO"
NORMALIZED_TO_Y_100	"NO"
NUMBER_OF_FIELDS	7
NUMBER_OF_SETS	15
BEGIN_DATA_FORMAT
 SAMPLE_ID	RGB_R	RGB_G	RGB_B	XYZ_X	XYZ_Y	XYZ_Z
END_DATA_FORMAT
BEGIN_DATA
 1	0	0	0	0	0	0
 2	1	1	1	73.0133056640625	37.078857421875	54.656982421875
 3	1	0	0	46.8292236328125	3.570556640625	6.6375732421875
 4	0	1	0	23.2086181640625	24.35302734375	12.6800537109375
 5	0	0	1	0.7781982421875	8.331298828125	34.515380859375
 6	0	0	0	0	0	0
 7	1	1	1	73.42529296875	37.17041015625	54.840087890625
 8	1	0	0	47.0123291015625	3.570556640625	6.683349609375
 9	0	1	0	23.25439453125	24.5361328125	12.6800537109375
 10	0	0	1	0.7781982421875	8.3770751953125	34.7900390625
 11	0	0	0	0	0	0
 12	1	1	1	73.42529296875	37.2161865234375	54.8858642578125
 13	1	0	0	47.1954345703125	3.570556640625	6.683349609375
 14	0	1	0	23.3917236328125	24.5361328125	12.6800537109375
 15	0	0	1	0.7781982421875	8.3770751953125	34.6527099609375
END_DATA
