data/calibration-002166.ti3
CTI3   
ORIGINATOR	"ColorHug Factory"
CREATED	"Wed Nov 20 20:24:02 2013"
DESCRIPTOR	"Calibration Target chart information 3"
DEVICE_CLASS	"DISPLAY"
COLOR_REP	"RGB_XYZ"
TARGET_INSTRUMENT	"Hughski ColorHug"
INSTRUMENT_TYPE_SPECTRAL	"NO"
NORMALIZED_TO_Y_100	"NO"
NUMBER_OF_FIELDS	7
NUMBER_OF_SETS	15
BEGIN_DATA_FORMAT
 SAMPLE_ID	RGB_R	RGB_G	RGB_B	XYZ_X	XYZ_Y	XYZ_Z
END_DATA_FORMAT
BEGIN_DATA
 1	0	0	0	0.18310546875	0.1373291015625	0.18310546875
 2	1	1	1	63.6749267578125	33.0047607421875	49.62158203125
 3	1	0	0	40.6951904296875	3.47900390625	5.4473876953125
 4	0	1	0	20.5078125	21.42333984375	10.711669921875
 5	0	0	1	1.28173828125	7.9193115234375	33.416748046875
 6	0	0	0	0.18310546875	0.1373291015625	0.18310546875
 7	1	1	1	64.178466796875	32.867431640625	49.4842529296875
 8	1	0	0	40.5120849609375	3.4332275390625	5.401611328125
 9	0	1	0	20.4620361328125	21.5606689453125	10.6658935546875
 10	0	0	1	1.28173828125	7.9193115234375	33.3709716796875
 11	0	0	0	0.18310546875	0.1373291015625	0.18310546875
 12	1	1	1	64.0869140625	32.9132080078125	49.4384765625
 13	1	0	0	40.7867431640625	3.4332275390625	5.401611328125
 14	0	1	0	20.5078125	21.5606689453125	10.6201171875
 15	0	0	1	1.28173828125	7.9193115234375	33.416748046875
END_DATA
