data/calibration-001425.ti3
CTI3   
ORIGINATOR	"ColorHug Factory"
DESCRIPTOR	"Calibration Target chart information 3"
DEVICE_CLASS	"DISPLAY"
COLOR_REP	"RGB_XYZ"
TARGET_INSTRUMENT	"Hughski ColorHug"
INSTRUMENT_TYPE_SPECTRAL	"NO"
NORMALIZED_TO_Y_100	"NO"
NUMBER_OF_FIELDS	7
NUMBER_OF_SETS	15
BEGIN_DATA_FORMAT
 SAMPLE_ID	RGB_R	RGB_G	RGB_B	XYZ_X	XYZ_Y	XYZ_Z
END_DATA_FORMAT
BEGIN_DATA
 1	0	0	0	0.3204345703	0.3662109375	0.4119873047
 2	1	1	1	35.4309082	32.86743164	41.4276123
 3	1	0	0	21.74377441	2.746582031	3.707885742
 4	0	1	0	12.68005371	23.4375	11.03210449
 5	0	0	1	1.007080078	7.32421875	27.55737305
 6	0	0	0	0.3204345703	0.3662109375	0.4119873047
 7	1	1	1	35.75134277	32.82165527	41.47338867
 8	1	0	0	21.92687988	2.746582031	3.707885742
 9	0	1	0	12.63427734	23.39172363	11.03210449
 10	0	0	1	1.052856445	7.32421875	27.32849121
 11	0	0	0	0.3204345703	0.3662109375	0.4119873047
 12	1	1	1	35.5682373	32.82165527	41.56494141
 13	1	0	0	21.60644531	2.746582031	3.707885742
 14	0	1	0	12.58850098	23.34594727	11.03210449
 15	0	0	1	1.052856445	7.32421875	27.37426758
END_DATA
