data/calibration-000937.ti3
CTI3   
ORIGINATOR	"ColorHug Factory"
DESCRIPTOR	"Calibration Target chart information 3"
DEVICE_CLASS	"DISPLAY"
COLOR_REP	"RGB_XYZ"
TARGET_INSTRUMENT	"Hughski ColorHug"
INSTRUMENT_TYPE_SPECTRAL	"NO"
NORMALIZED_TO_Y_100	"NO"
NUMBER_OF_FIELDS	7
NUMBER_OF_SETS	15
BEGIN_DATA_FORMAT
 SAMPLE_ID	RGB_R	RGB_G	RGB_B	XYZ_X	XYZ_Y	XYZ_Z
END_DATA_FORMAT
BEGIN_DATA
 1	0	0	0	0.09155273438	0.09155273438	0.09155273438
 2	1	1	1	60.51635742	41.10717773	48.98071289
 3	1	0	0	38.72680664	3.936767578	6.17980957
 4	0	1	0	20.41625977	29.0222168	13.96179199
 5	0	0	1	1.007080078	8.056640625	28.56445312
 6	0	0	0	0.09155273438	0.09155273438	0.09155273438
 7	1	1	1	60.42480469	41.1529541	48.93493652
 8	1	0	0	38.68103027	3.936767578	6.17980957
 9	0	1	0	20.32470703	28.93066406	13.96179199
 10	0	0	1	1.007080078	8.056640625	28.56445312
 11	0	0	0	0.09155273438	0.09155273438	0.09155273438
 12	1	1	1	60.19592285	40.96984863	48.88916016
 13	1	0	0	38.81835938	3.936767578	6.134033203
 14	0	1	0	20.27893066	29.20532227	14.05334473
 15	0	0	1	1.007080078	8.056640625	28.65600586
END_DATA
