data/calibration-000174.ti3
CTI3
DESCRIPTOR	"Calibration Target chart information 3"
ORIGINATOR	"ColorHug Factory"
DEVICE_CLASS	"DISPLAY"
COLOR_REP	"RGB_XYZ"
TARGET_INSTRUMENT	"ColorHug"
INSTRUMENT_TYPE_SPECTRAL	"NO"
LUMINANCE_XYZ_CDM2	"49.083710 33.187866 38.417816"
NORMALIZED_TO_Y_100	"YES"
NUMBER_OF_FIELDS	7
NUMBER_OF_SETS	836
BEGIN_DATA_FORMAT
 SAMPLE_ID	RGB_R	RGB_G	RGB_B	XYZ_X	XYZ_Y	XYZ_Z
END_DATA_FORMAT
BEGIN_DATA
 1	100	100	100	148	100	115.862069
 2	100	100	100	147.5862069	100	115.7241379
 3	100	100	100	148	100	115.7241379
 4	100	100	100	148	100	115.7241379
 5	33.33	32.622	30.968	12.96551724	8.689655172	9.517241379
 6	100	0	100	95.72413793	28.82758621	81.93103448
 7	100	100	0	146.6206897	81.24137931	48.68965517
 8	0	100	100	52	89.93103448	100.9655172
 9	0	100	0	49.93103448	70.75862069	33.79310345
 10	0	0	100	2.344827586	19.17241379	67.72413793
 11	100	0	0	94.06896552	9.793103448	14.75862069
 12	0	0	0	0.275862069	0.275862069	0.4137931034
 13	0	52.455	100	13.65517241	36.13793103	75.44827586
 14	100	0	50.3	94.62068966	13.93103448	29.24137931
 15	100	54.739	100	108.8275862	47.31034483	90.89655172
 16	100	52.128	0	105.7931034	26.06896552	22.62068966
 17	0	0	46.181	0.5517241379	3.448275862	11.86206897
 18	0	51.141	0	11.31034483	16	7.862068966
 19	0	100	51.348	50.62068966	74.89655172	48.55172414
 20	100	100	52.037	146.8965517	85.10344828	64.13793103
 21	49.216	0	0	19.31034483	2.206896552	3.310344828
 22	56.159	100	0	76.13793103	74.06896552	37.79310345
 23	49.226	100	100	70.75862069	92.13793103	104
 24	44.487	0	100	17.37931034	20.82758621	70.20689655
 25	100	44.498	52.029	102.6206897	25.93103448	35.72413793
 26	48.926	48.544	100	30.89655172	35.44827586	77.37931034
 27	51.368	100	47.25	71.17241379	76.96551724	49.37931034
 28	49.893	0	49.033	20.4137931	6.068965517	16.96551724
 29	53.109	51.372	0	34.06896552	18.34482759	11.31034483
 30	0	58.587	53.943	15.5862069	26.06896552	26.89655172
 31	100	28.065	100	98.89655172	33.51724138	84.27586207
 32	0	0	72.874	1.24137931	9.103448276	32
 33	0	26.758	100	4.689655172	23.31034483	69.65517241
 34	0	25.426	0	2.75862069	3.862068966	2.068965517
 35	72.508	0	100	46.06896552	23.86206897	74.89655172
 36	100	27.395	0	96.13793103	14.06896552	16.82758621
 37	74.47	100	100	99.5862069	95.03448276	108.2758621
 38	100	0	25.728	93.65517241	10.75862069	18.34482759
 39	73.862	0	0	46.75862069	4.965517241	7.448275862
 40	100	100	25.402	145.1034483	81.10344828	51.86206897
 41	0	75.751	100	28.55172414	56.96551724	85.10344828
 42	0	75.172	0	26.20689655	36.55172414	17.51724138
 43	0	100	25.864	50.06896552	72	37.37931034
 44	100	0	74.801	94.89655172	19.44827586	48.96551724
 45	0	100	75.421	50.89655172	80.82758621	68.68965517
 46	24.577	0	0	4.551724138	0.6896551724	1.103448276
 47	26.321	100	0	55.31034483	71.72413793	34.75862069
 48	100	75.835	0	122.2068966	47.31034483	32.68965517
 49	100	100	77.061	146.6206897	91.03448276	85.24137931
 50	71.263	100	0	93.51724138	75.72413793	40.4137931
 51	0	0	15.614	0.275862069	0.5517241379	1.655172414
 52	0	30.049	70.936	4.551724138	13.93103448	32.68965517
 53	100	77.691	100	124.6896552	68.4137931	100.9655172
 54	24.486	100	100	56.13793103	90.06896552	101.5172414
 55	100	62.784	31.909	112.137931	35.86206897	32
 56	29.552	0	100	8.551724138	19.86206897	68.55172414
 57	32.98	70.921	100	33.10344828	52.13793103	84.27586207
 58	0	27.681	40.241	3.448275862	7.034482759	11.17241379
 59	67.901	71.021	100	63.5862069	55.44827586	89.37931034
 60	28.154	100	67.829	56.96551724	79.44827586	61.79310345
 61	71.637	100	70.001	94.89655172	83.86206897	69.93103448
 62	58.822	58.763	53.586	43.44827586	28.82758621	30.89655172
 63	33.466	30.48	0	12.27586207	6.344827586	4.137931034
 64	100	73.795	71.277	120.137931	53.65517241	62.62068966
 65	68.394	29.692	0	42.62068966	9.24137931	8.689655172
 66	70.399	0	29.039	41.79310345	5.793103448	11.31034483
 67	28.078	0	26.956	8.689655172	1.931034483	5.103448276
 68	28.532	72.339	0	30.20689655	34.34482759	17.10344828
 69	100	30.941	26.496	97.65517241	16.4137931	21.10344828
 70	34.597	0	73.611	10.06896552	10.34482759	34.48275862
 71	71.573	0	72.408	44.13793103	13.65517241	38.62068966
 72	0	71.029	29.412	23.31034483	33.93103448	20.27586207
 73	68.386	75.008	0	65.37931034	40.68965517	23.5862069
 74	68.088	27.309	100	43.5862069	27.5862069	75.44827586
 75	100	26.457	73.749	97.51724138	23.31034483	50.06896552
 76	74.344	100	27.392	98.20689655	76.82758621	45.24137931
 77	27.558	100	28.197	56.13793103	73.24137931	39.03448276
 78	31.196	27.465	100	12.13793103	24.4137931	71.31034483
 79	0	75.521	72.824	27.44827586	46.06896552	49.79310345
 80	0	50.93	25.553	11.17241379	16.82758621	11.17241379
 81	32.06	33.584	64.033	12.96551724	14.34482759	28.55172414
 82	81.666	55.38	0	72	24.82758621	18.20689655
 83	68.257	32.751	58.286	44.27586207	16	28.82758621
 84	0	55.248	81.585	14.34482759	30.62068966	50.89655172
 85	73.781	52.099	100	59.5862069	40.27586207	82.75862069
 86	100	50.537	82.952	105.2413793	37.10344828	65.10344828
 87	23.55	0	50.439	4.689655172	4.689655172	15.17241379
 88	31.335	62.746	31.114	25.24137931	27.03448276	18.34482759
 89	100	18.31	49.418	94.48275862	15.5862069	29.65517241
 90	26.498	48.404	0	15.31034483	14.75862069	7.862068966
 91	47.91	100	85.744	69.10344828	86.06896552	83.17241379
 92	71.829	47.313	31.811	53.51724138	19.5862069	18.75862069
 93	31.304	64.132	69.316	26.62068966	34.89655172	42.20689655
 94	80.403	0	54.321	56.82758621	10.75862069	25.93103448
 95	18.455	50.036	100	15.17241379	34.89655172	74.89655172
 96	50.653	100	16.345	70.20689655	73.79310345	38.20689655
 97	80.121	100	52.261	107.0344828	81.51724138	57.93103448
 98	0	22.54	19.289	2.344827586	3.724137931	3.724137931
 99	100	75.273	46.886	120.6896552	49.79310345	44.55172414
 100	0	78.618	56.625	29.51724138	45.93103448	37.79310345
 101	51.137	80.627	100	52.55172414	64.27586207	91.03448276
 102	48.446	0	17.864	18.62068966	2.620689655	4.965517241
 103	100	50.023	21.211	104.9655172	25.51724138	24.27586207
 104	50.115	20.118	0	21.65517241	4.551724138	4.551724138
 105	58.099	72.426	33.158	51.44827586	38.20689655	26.34482759
 106	19.364	100	50.197	53.37931034	75.86206897	48.82758621
 107	50.683	19.177	100	24	23.44827586	72.13793103
 108	53.37	0	81.576	24.27586207	14.34482759	45.79310345
 109	47.768	76.245	0	44.55172414	39.72413793	20.96551724
 110	0	18.927	55.503	2.068965517	7.310344828	18.62068966
 111	0	13.277	0	0.9655172414	1.24137931	0.8275862069
 112	72.862	72.473	75.625	69.79310345	48.13793103	57.93103448
 113	100	13.904	0	94.75862069	10.89655172	15.31034483
 114	86.349	0	100	68	26.06896552	78.20689655
 115	100	41.941	100	102.2068966	39.17241379	87.03448276
 116	100	81.785	16.464	127.0344828	54.48275862	37.37931034
 117	0	44.063	52.596	8.689655172	16.27586207	21.51724138
 118	0	0	58.917	0.8275862069	5.793103448	20
 119	59.25	24.551	29.789	31.44827586	7.862068966	11.03448276
 120	82.73	82.874	100	94.20689655	71.17241379	98.62068966
 121	80.039	0	12.618	55.5862069	6.206896552	9.931034483
 122	60.957	47.729	77.817	41.24137931	27.72413793	49.10344828
 123	100	0	38.618	94.20689655	12	22.75862069
 124	0	40.09	100	8.551724138	28.96551724	72
 125	0	15.283	82.322	2.206896552	13.51724138	43.03448276
 126	17.592	81.726	100	36	63.72413793	89.37931034
 127	100	14.13	100	95.5862069	30.20689655	82.34482759
 128	15.261	100	82.059	52.96551724	83.44827586	76.4137931
 129	47.77	79.418	60.389	47.72413793	49.51724138	43.44827586
 130	18.768	16.429	0	3.862068966	2.068965517	1.517241379
 131	55.634	100	65.763	74.75862069	81.24137931	63.03448276
 132	100	100	38.541	146.0689655	82.34482759	56.68965517
 133	17.421	0	83.497	3.586206897	12.68965517	44
 134	17.237	16.758	100	5.24137931	21.10344828	69.24137931
 135	0	15.067	30.039	1.24137931	2.896551724	5.655172414
 136	0	0	86.505	1.793103448	13.65517241	47.86206897
 137	75.736	72.799	50.02	73.93103448	43.03448276	38.20689655
 138	100	83.323	85.529	129.5172414	68.68965517	83.31034483
 139	100	100	64.894	146.8965517	88	73.65517241
 140	81.98	84.914	0	94.34482759	54.48275862	32.27586207
 141	0	63.757	15.49	18.20689655	25.79310345	13.65517241
 142	49.514	66.135	100	40.96551724	48.68965517	83.86206897
 143	100	0	61.862	94.48275862	16	37.10344828
 144	24.308	45.41	49.831	13.51724138	16.96551724	20.96551724
 145	15.963	0	17.047	2.206896552	0.8275862069	2.206896552
 146	87.497	100	100	121.5172414	97.24137931	110.2068966
 147	52.099	25.003	75.752	25.24137931	16	40.68965517
 148	14.909	81.162	0	32.68965517	43.44827586	21.10344828
 149	0	34.792	14.626	5.103448276	7.586206897	4.965517241
 150	48.39	45.075	22.552	27.17241379	14.89655172	11.5862069
 151	83.545	65.965	100	83.17241379	53.10344828	90.34482759
 152	16.226	62.345	0	19.31034483	24.27586207	12
 153	63.222	0	14.914	32.96551724	4	6.75862069
 154	80.449	13.446	0	57.37931034	7.172413793	9.517241379
 155	83.917	41.562	0	68.68965517	16.55172414	14.62068966
 156	100	60.448	46.3	111.0344828	36	37.79310345
 157	15.584	0	34.795	2.206896552	2.206896552	7.034482759
 158	17.144	65.121	100	23.31034483	46.34482759	80.82758621
 159	83.602	55.334	62.667	75.44827586	31.86206897	41.93103448
 160	0	82.19	14.22	32.13793103	44.96551724	22.62068966
 161	25.132	74.856	50.616	30.89655172	40.96551724	32.68965517
 162	0	13.769	100	2.620689655	20.4137931	68.55172414
 163	87.181	0	0	68	7.172413793	10.75862069
 164	0	100	39.19	50.20689655	73.79310345	42.06896552
 165	78.047	65.914	19.865	72.96551724	33.65517241	23.5862069
 166	100	63.961	15.865	112.6896552	35.72413793	28.4137931
 167	100	45.955	36.032	101.9310345	24.4137931	27.72413793
 168	15.926	100	16.89	52.13793103	71.72413793	35.72413793
 169	41.459	100	0	62.89655172	72.55172414	35.72413793
 170	48.707	37.288	48.139	25.10344828	14.06896552	20
 171	83.381	100	13.285	111.4482759	77.51724138	44.13793103
 172	78.129	25.303	75.621	56.27586207	19.17241379	44.96551724
 173	12.396	0	0	1.379310345	0.4137931034	0.5517241379
 174	37.607	48.336	83.346	22.06896552	27.86206897	52.68965517
 175	35.588	15.356	0	10.48275862	2.620689655	2.482758621
 176	61.245	100	100	82.75862069	93.24137931	105.6551724
 177	100	67.29	87.195	115.4482759	52	77.24137931
 178	0	0	30.615	0.4137931034	1.655172414	5.24137931
 179	35.187	81.789	83.323	41.93103448	57.37931034	66.48275862
 180	39.525	80.194	22.879	42.06896552	44.68965517	24.96551724
 181	50.634	34.593	0	25.37931034	9.24137931	6.75862069
 182	14.175	100	63.146	52	78.06896552	57.37931034
 183	83.493	17.728	34.574	62.34482759	10.20689655	17.10344828
 184	23.463	22.014	79.943	7.310344828	14.62068966	42.06896552
 185	18.066	31.847	0	6.75862069	6.206896552	3.448275862
 186	87.201	100	81.361	119.4482759	89.79310345	86.20689655
 187	0	100	87.95	51.31034483	85.51724138	83.5862069
 188	34.476	17.888	46.22	10.62068966	6.344827586	14.34482759
 189	18.277	0	67.39	3.448275862	8	27.44827586
 190	100	87.972	0	132.6896552	62.06896552	39.72413793
 191	82.925	34.85	100	67.31034483	32.55172414	80.4137931
 192	0	88.016	100	39.17241379	71.72413793	92.55172414
 193	36.104	85.655	100	46.75862069	69.37931034	92.27586207
 194	60.981	0	0	30.34482759	3.310344828	4.965517241
 195	51.466	61.826	78.106	38.89655172	36.96551724	52.96551724
 196	78.427	31.983	22.175	56.68965517	12.27586207	13.93103448
 197	66.017	44.321	0	44.55172414	15.72413793	11.44827586
 198	83.941	0	84.177	63.86206897	19.31034483	54.48275862
 199	20.158	46.612	23.269	12.27586207	14.34482759	9.793103448
 200	0	100	62.618	50.48275862	77.51724138	56.96551724
 201	33.832	0	13.933	8.689655172	1.379310345	2.75862069
 202	100	17.286	16.322	94.48275862	11.86206897	16.96551724
 203	0	42.204	83.926	8.689655172	23.5862069	50.20689655
 204	0	87.774	0	36.96551724	52	24.68965517
 205	64.988	0	59.017	35.44827586	9.517241379	25.79310345
 206	14.677	0	100	3.586206897	19.44827586	68.27586207
 207	88.934	82.673	35.021	102.8965517	54.20689655	39.44827586
 208	0	63.778	100	20	44.96551724	80.13793103
 209	83.429	17.674	100	64.13793103	27.44827586	78.06896552
 210	30.899	100	85.668	57.93103448	85.37931034	81.93103448
 211	83.68	0	41.016	61.65517241	9.103448276	19.03448276
 212	100	63.515	0	112	34.75862069	26.62068966
 213	85.074	69.987	0	85.93103448	37.79310345	24.82758621
 214	20.801	45.524	69.018	12.82758621	21.10344828	35.17241379
 215	21.382	82.482	73.017	36.55172414	55.17241379	54.48275862
 216	100	15.128	64.249	95.03448276	17.93103448	39.44827586
 217	36.522	0	58.427	11.44827586	6.75862069	21.24137931
 218	22.466	81.296	33.007	35.31034483	45.93103448	27.44827586
 219	62.531	87.152	0	68	54.75862069	29.51724138
 220	84.12	85.397	67.886	98.20689655	63.03448276	60.4137931
 221	18.87	27.336	45.389	6.206896552	8	14.06896552
 222	66.439	100	14.444	87.31034483	75.5862069	40.55172414
 223	41.636	22.147	19.003	15.5862069	4.965517241	5.793103448
 224	61.271	100	81.94	81.93103448	86.34482759	80.96551724
 225	86.013	100	0	117.1034483	77.93103448	44
 226	37.57	0	0	10.62068966	1.24137931	1.931034483
 227	100	16.132	84.102	95.72413793	24	60.68965517
 228	0	100	13.619	50.34482759	71.31034483	34.89655172
 229	38.905	100	56.471	61.79310345	77.65517241	54.06896552
 230	100	15.382	34.563	94.75862069	12.96551724	21.93103448
 231	36.656	14.908	100	12.96551724	21.65517241	69.93103448
 232	0	62.593	66.608	18.20689655	32	37.93103448
 233	66.347	12.528	100	39.17241379	24	73.65517241
 234	100	43.375	69.233	102.3448276	29.24137931	48.68965517
 235	100	56.36	61.236	108.4137931	35.17241379	45.93103448
 236	0	86.194	44.955	36	53.24137931	35.31034483
 237	64.527	87.262	100	72.4137931	74.06896552	96.96551724
 238	34.411	0	42.471	9.103448276	3.862068966	11.5862069
 239	80.23	59.707	85.12	73.10344828	41.10344828	65.93103448
 240	20.625	19.056	14.791	4.827586207	3.034482759	3.172413793
 241	15.341	34.221	100	8.551724138	26.48275862	71.31034483
 242	36.777	0	87.905	11.5862069	15.31034483	51.44827586
 243	34.598	56.247	100	24.82758621	39.72413793	78.48275862
 244	20.86	67.629	17.418	24.13793103	29.93103448	16.27586207
 245	44.958	60.843	18.054	32	25.24137931	15.5862069
 246	37.421	60.193	0	26.75862069	23.5862069	12.55172414
 247	84.011	33.849	42.612	67.44827586	16.13793103	23.17241379
 248	17.241	60.339	37.743	18.62068966	24.96551724	19.03448276
 249	50.65	17.261	53.278	22.34482759	8.689655172	20.27586207
 250	45.505	48.926	65.152	27.31034483	23.44827586	34.89655172
 251	44.567	84.081	39.649	48.82758621	51.5862069	33.65517241
 252	100	86.339	72.054	132.137931	68.82758621	70.06896552
 253	68.14	61.135	0	55.17241379	26.89655172	17.10344828
 254	17.93	66.986	81.403	23.72413793	40.55172414	55.44827586
 255	39.242	60.215	48.926	28.4137931	27.72413793	26.06896552
 256	20.099	18.77	62.967	5.24137931	9.103448276	24.82758621
 257	34.553	100	14.582	59.31034483	72.55172414	36.4137931
 258	87.345	0	66.694	67.86206897	14.62068966	37.24137931
 259	0	43.714	39.842	8.413793103	14.06896552	14.34482759
 260	100	37.705	13.955	98.48275862	18.48275862	19.72413793
 261	31.265	86.993	0	43.03448276	51.72413793	25.37931034
 262	51.402	82.661	81.338	54.34482759	58.75862069	66.48275862
 263	100	100	12.984	144.4137931	80.82758621	49.24137931
 264	0	37.859	0	6.068965517	8.551724138	4.275862069
 265	62.092	58.215	100	48.13793103	43.17241379	81.65517241
 266	86.186	100	64.1	116.9655172	84.55172414	68.68965517
 267	100	35.251	85.898	100	30.34482759	65.24137931
 268	63.182	89.992	41.974	71.86206897	61.10344828	41.10344828
 269	13.504	100	0	51.31034483	71.17241379	33.93103448
 270	100	0	13.228	93.65517241	10.06896552	15.72413793
 271	63.881	40.826	100	42.06896552	32.82758621	77.51724138
 272	69.387	84.838	20.792	74.20689655	52.96551724	31.5862069
 273	0	70.279	45.136	22.89655172	34.89655172	26.62068966
 274	79.094	64.754	40.908	73.51724138	34.75862069	30.34482759
 275	62.385	54.099	17.396	44.55172414	21.65517241	15.31034483
 276	64.408	14.621	0	35.17241379	5.103448276	6.206896552
 277	70.028	15.606	44.651	42.48275862	8.965517241	18.34482759
 278	0	63.544	0	18.06896552	25.51724138	12.27586207
 279	83.475	47.274	20.502	70.89655172	20.55172414	18.20689655
 280	55.866	0	32.671	25.37931034	4.413793103	9.931034483
 281	58.007	0	100	29.10344828	22.20689655	72.27586207
 282	100	0	87.698	94.06896552	23.5862069	64.13793103
 283	0	13.792	67.215	1.655172414	8.965517241	27.5862069
 284	84.123	17.001	58.549	63.72413793	13.93103448	30.62068966
 285	59.579	32.873	15.966	33.24137931	9.793103448	9.103448276
 286	10.41	32.998	28.659	5.655172414	7.862068966	7.862068966
 287	17.231	40.031	85.65	10.20689655	23.31034483	52.27586207
 288	37.568	41.561	10.108	17.93103448	11.5862069	7.448275862
 289	0	69.015	85.092	22.75862069	43.44827586	60
 290	14.442	100	36.187	51.44827586	73.24137931	41.10344828
 291	100	40.549	0	100.5517241	19.31034483	19.31034483
 292	82.143	45.435	78.429	68.82758621	29.24137931	53.10344828
 293	52.674	0	67.3	23.17241379	10.06896552	30.62068966
 294	0	87.868	66.793	37.93103448	59.72413793	51.44827586
 295	86.53	100	40.524	116.9655172	80.27586207	53.37931034
 296	71.777	85.586	67.232	79.72413793	60.96551724	57.24137931
 297	43.216	100	31.671	64.68965517	74.20689655	41.51724138
 298	39.245	32.908	85.845	17.51724138	20.82758621	51.86206897
 299	0	45.662	67.543	9.517241379	20.4137931	33.51724138
 300	12.161	100	100	52.82758621	90.20689655	101.1034483
 301	67.049	0	85.516	38.34482759	17.24137931	52.96551724
 302	100	89.041	100	135.0344828	83.03448276	107.862069
 303	20.246	60.698	56.526	19.86206897	28.4137931	29.93103448
 304	52.177	55.457	40.416	35.31034483	23.72413793	21.65517241
 305	72.617	87.018	83.932	82.34482759	67.86206897	76
 306	40.512	16.723	66.475	14.62068966	10.62068966	29.10344828
 307	68.507	49.232	50.605	49.65517241	22.89655172	27.86206897
 308	65.622	100	54.525	86.20689655	79.5862069	56.13793103
 309	54.115	37.24	66.394	29.79310345	18.06896552	33.93103448
 310	100	76.138	31.267	121.3793103	48.96551724	37.93103448
 311	54.728	65.623	0	43.03448276	29.65517241	16.82758621
 312	63.126	12.526	64.37	33.93103448	11.44827586	30.34482759
 313	72.827	18.08	23.704	45.93103448	7.586206897	11.17241379
 314	23.268	15.278	34.947	5.379310345	3.862068966	8.137931034
 315	87.648	68.954	59.645	90.75862069	43.03448276	45.93103448
 316	0	85.595	85.198	36.4137931	62.48275862	69.79310345
 317	35.798	84.371	69.21	44.4137931	56.68965517	53.10344828
 318	36.062	47.494	35.919	19.72413793	16.82758621	15.17241379
 319	86.083	36.277	59.152	71.72413793	20.4137931	34.34482759
 320	58.21	100	30.361	77.65517241	75.31034483	43.03448276
 321	46.745	14.614	32.317	18.34482759	4.965517241	9.24137931
 322	81.573	73.869	86.954	84.68965517	54.89655172	74.34482759
 323	85.991	49.387	48.206	76.27586207	25.24137931	30.20689655
 324	28.062	87.906	19.654	43.03448276	53.65517241	28
 325	68.992	17.993	85.124	42.34482759	19.17241379	53.51724138
 326	100	66.147	100	114.8965517	56.68965517	95.72413793
 327	33.358	64.806	84.517	28.68965517	40.27586207	59.31034483
 328	41.351	17.736	80.522	15.5862069	14.89655172	43.86206897
 329	100	100	88.719	145.1034483	94.75862069	99.03448276
 330	66.336	0	44.32	36.96551724	7.172413793	16.96551724
 331	64.85	67.09	12.293	55.17241379	32.27586207	20
 332	15.262	31.268	63.277	6.482758621	12.55172414	26.62068966
 333	15.008	43.663	37.3	10.06896552	13.93103448	13.51724138
 334	0	57.895	38.078	14.89655172	23.03448276	17.93103448
 335	66.599	58.458	67.871	52.4137931	32.96551724	43.5862069
 336	59.191	18.651	15.215	29.79310345	5.517241379	7.034482759
 337	66.781	31.14	84.629	42.20689655	22.48275862	54.06896552
 338	88.033	85.158	52.14	104.5517241	60.55172414	49.37931034
 339	36.882	100	100	62.06896552	91.31034483	102.7586207
 340	26.102	33.094	17.006	9.517241379	7.448275862	5.793103448
 341	56.309	36.861	35.862	31.17241379	12.55172414	14.89655172
 342	45.839	65.587	67.033	36.13793103	36.4137931	42.48275862
 343	83.709	81.172	16.406	92.13793103	49.79310345	31.86206897
 344	0	48.132	13.005	9.931034483	14.34482759	7.862068966
 345	87.176	50.021	100	80.27586207	41.37931034	85.24137931
 346	51.219	84.244	13.73	53.93103448	49.65517241	26.89655172
 347	60.606	71.415	48.406	53.51724138	39.72413793	33.65517241
 348	0	11.359	12.718	0.8275862069	1.379310345	1.655172414
 349	86.429	49.705	33.145	76.68965517	23.44827586	23.31034483
 350	34.056	40.958	100	17.37931034	30.20689655	73.79310345
 351	100	30.557	59.628	97.51724138	21.10344828	38.06896552
 352	88.497	26.902	13.449	72.55172414	11.72413793	14.06896552
 353	14.167	51.98	88.218	14.48275862	30.75862069	57.93103448
 354	13.784	12.983	49.37	2.896551724	5.24137931	14.48275862
 355	15.018	88.441	48.062	39.72413793	56.4137931	38.62068966
 356	87.79	25.769	89.215	72.4137931	25.51724138	64.13793103
 357	0	33.206	55.865	5.103448276	11.5862069	21.10344828
 358	74.324	76.029	35.536	73.79310345	44.13793103	32.13793103
 359	65.863	57.223	42.324	50.20689655	26.48275862	25.10344828
 360	30.893	54.646	13.136	20.27586207	19.44827586	11.03448276
 361	0	34.36	28.321	5.103448276	8.275862069	7.724137931
 362	15.443	77.087	85.116	30.75862069	52.27586207	65.51724138
 363	63.381	68.947	68.521	55.31034483	41.79310345	47.72413793
 364	69.733	27.566	42.917	44.13793103	11.5862069	18.89655172
 365	32.754	100	42.76	58.20689655	74.20689655	44.96551724
 366	47.096	29.481	34.829	21.51724138	8.827586207	11.86206897
 367	8.5451	71.948	62.695	24.96551724	39.86206897	39.31034483
 368	0	86.048	29.3	35.5862069	50.89655172	28.27586207
 369	53.697	51.572	85.367	35.5862069	31.86206897	57.51724138
 370	17.608	56.69	12.515	16.4137931	20.27586207	10.89655172
 371	90.638	14.414	49.227	75.31034483	12.96551724	26.06896552
 372	63.248	63.64	89.55	52.27586207	43.5862069	69.37931034
 373	100	85.976	58.455	129.3793103	64.96551724	58.20689655
 374	9.8311	28.027	7.5567	4.275862069	4.965517241	3.034482759
 375	89.831	64.313	69.506	91.44827586	41.79310345	52.96551724
 376	31.754	12.995	25.543	8.413793103	3.034482759	5.517241379
 377	75.914	45.966	64.957	58.75862069	24.96551724	38.75862069
 378	7.5735	50.695	58.941	12.13793103	21.65517241	27.86206897
 379	100	69.835	58.912	116.2758621	46.48275862	49.79310345
 380	32.211	34.376	48.339	13.10344828	11.5862069	17.79310345
 381	13.901	12.159	73.555	3.172413793	10.62068966	33.65517241
 382	87.071	9.028	77.653	68.96551724	18.34482759	48.55172414
 383	23.272	85.409	84.29	39.86206897	62.06896552	68.68965517
 384	93.289	39.48	26.145	85.37931034	18.34482759	20.27586207
 385	65.769	59.63	30.967	51.17241379	27.17241379	21.37931034
 386	100	32.265	41.803	97.37931034	18.62068966	27.17241379
 387	86.568	85.281	86.961	102.4827586	69.10344828	82.06896552
 388	52.577	86.83	30.016	57.79310345	54.48275862	32.55172414
 389	47.921	40.199	76.902	25.93103448	21.93103448	44
 390	22.36	86.619	61.58	40.13793103	56.68965517	46.89655172
 391	52.232	33.601	88.787	27.72413793	23.44827586	57.37931034
 392	0	28.523	86.267	4.551724138	18.06896552	49.65517241
 393	43.497	67.879	39.551	35.5862069	33.24137931	24.82758621
 394	39.877	45.261	0	20.82758621	13.65517241	8
 395	86.94	12.43	24.699	67.72413793	8.965517241	14.34482759
 396	28.363	55.339	90.398	21.10344828	34.75862069	63.03448276
 397	39.018	70.534	57.879	34.75862069	38.20689655	36.27586207
 398	12.833	28.519	78.828	5.793103448	15.86206897	41.37931034
 399	68.35	31.815	69.975	44	18.48275862	38.62068966
 400	56.52	26.226	41.626	28.96551724	9.517241379	15.72413793
 401	12.938	46.218	0	10.34482759	12.96551724	6.482758621
 402	8.6938	60.179	26.117	16.82758621	23.5862069	14.62068966
 403	51.995	89.429	96.608	60.96551724	74.06896552	91.31034483
 404	46.905	47.746	48.909	27.31034483	19.44827586	22.89655172
 405	14.352	81.814	19.479	33.10344828	45.24137931	23.5862069
 406	71.482	38.117	12.273	49.10344828	13.51724138	12
 407	86.616	60.785	10.012	82.89655172	30.06896552	22.06896552
 408	71.811	88.979	52.186	82.34482759	62.34482759	47.86206897
 409	43.213	100	72.083	64.96551724	81.79310345	67.5862069
 410	73.92	23.444	8.2853	48.13793103	8.137931034	9.379310345
 411	40.629	85.534	53.423	47.86206897	55.44827586	42.06896552
 412	38.955	52.128	22.885	23.44827586	18.48275862	12.68965517
 413	46.48	12.229	8.6707	17.65517241	3.034482759	4
 414	40.855	33.301	22.309	17.51724138	8.551724138	8
 415	76.365	66.787	61.06	70.62068966	39.5862069	43.03448276
 416	7.5076	12.025	20.59	1.517241379	1.793103448	3.172413793
