data/calibration-000613.ti3
CTI3
ORIGINATOR	"ColorHug Factory"
DESCRIPTOR	"Calibration Target chart information 3"
DEVICE_CLASS	"DISPLAY"
COLOR_REP	"RGB_XYZ"
TARGET_INSTRUMENT	"Hughski ColorHug"
INSTRUMENT_TYPE_SPECTRAL	"NO"
NORMALIZED_TO_Y_100	"NO"
NUMBER_OF_FIELDS	7
NUMBER_OF_SETS	15
BEGIN_DATA_FORMAT
 SAMPLE_ID	RGB_R	RGB_G	RGB_B	XYZ_X	XYZ_Y	XYZ_Z
END_DATA_FORMAT
BEGIN_DATA
 1	0	0	0	0	0	0.04577636719
 2	1	1	1	49.98779297	35.38513184	39.59655762
 3	1	0	0	31.72302246	3.204345703	4.531860352
 4	0	1	0	16.79992676	25.26855469	11.21520996
 5	0	0	1	0.7781982422	6.729125977	23.7121582
 6	0	0	0	0	0	0.04577636719
 7	1	1	1	50.58288574	35.52246094	39.68811035
 8	1	0	0	31.44836426	3.204345703	4.531860352
 9	0	1	0	16.79992676	25.26855469	11.16943359
 10	0	0	1	0.7781982422	6.729125977	23.7121582
 11	0	0	0	0	0	0.04577636719
 12	1	1	1	50.58288574	35.52246094	39.64233398
 13	1	0	0	31.67724609	3.204345703	4.531860352
 14	0	1	0	16.70837402	25.22277832	11.16943359
 15	0	0	1	0.7781982422	6.729125977	23.75793457
END_DATA
