data/calibration-002820.ti3
CTI3   
ORIGINATOR	"ColorHug Factory"
CREATED	"Tue May 05 21:35:41 2015"
DESCRIPTOR	"Calibration Target chart information 3"
DEVICE_CLASS	"DISPLAY"
COLOR_REP	"RGB_XYZ"
TARGET_INSTRUMENT	"Hughski ColorHug"
INSTRUMENT_TYPE_SPECTRAL	"NO"
NORMALIZED_TO_Y_100	"NO"
NUMBER_OF_FIELDS	7
NUMBER_OF_SETS	15
BEGIN_DATA_FORMAT
 SAMPLE_ID	RGB_R	RGB_G	RGB_B	XYZ_X	XYZ_Y	XYZ_Z
END_DATA_FORMAT
BEGIN_DATA
 1.0	0.0	0.0	0.0	0.519424438477	0.499176025391	0.621017456055
 2.0	1.0	1.0	1.0	117.028564453125	103.696197509766	112.219177246094
 3.0	1.0	0.0	0.0	84.453598022461	7.922622680664	12.880493164062
 4.0	0.0	1.0	0.0	27.125823974609	73.142852783203	27.959030151367
 5.0	0.0	0.0	1.0	3.831604003906	21.277908325195	69.423721313477
 6.0	0.0	0.0	0.0	0.519729614258	0.497650146484	0.619705200195
 7.0	1.0	1.0	1.0	117.028564453125	103.696197509766	112.219177246094
 8.0	1.0	0.0	0.0	84.453598022461	7.922622680664	12.860275268555
 9.0	0.0	1.0	0.0	27.125823974609	73.142852783203	27.959030151367
 10.0	0.0	0.0	1.0	3.831604003906	21.277908325195	69.423721313477
 11.0	0.0	0.0	0.0	0.518402099609	0.499298095703	0.620178222656
 12.0	1.0	1.0	1.0	117.028564453125	103.696197509766	112.219177246094
 13.0	1.0	0.0	0.0	84.453598022461	7.922622680664	12.860275268555
 14.0	0.0	1.0	0.0	27.03630065918	73.142852783203	27.959030151367
 15.0	0.0	0.0	1.0	3.829818725586	21.277908325195	69.423721313477
END_DATA
