data/calibration-000476.ti3
CTI3
ORIGINATOR	"ColorHug Factory"
DESCRIPTOR	"Calibration Target chart information 3"
DEVICE_CLASS	"DISPLAY"
COLOR_REP	"RGB_XYZ"
TARGET_INSTRUMENT	"Hughski ColorHug"
INSTRUMENT_TYPE_SPECTRAL	"NO"
NORMALIZED_TO_Y_100	"NO"
NUMBER_OF_FIELDS	7
NUMBER_OF_SETS	15
BEGIN_DATA_FORMAT
 SAMPLE_ID	RGB_R	RGB_G	RGB_B	XYZ_X	XYZ_Y	XYZ_Z
END_DATA_FORMAT
BEGIN_DATA
 1	0	0	0	0	0	0.04577636719
 2	1	1	1	56.03027344	36.94152832	42.11425781
 3	1	0	0	35.06469727	3.387451172	5.081176758
 4	0	1	0	18.63098145	26.41296387	12.08496094
 5	0	0	1	0.8239746094	6.729125977	24.67346191
 6	0	0	0	0	0	0.04577636719
 7	1	1	1	55.89294434	36.80419922	42.02270508
 8	1	0	0	35.20202637	3.387451172	5.035400391
 9	0	1	0	18.67675781	26.41296387	12.08496094
 10	0	0	1	0.8239746094	6.729125977	24.67346191
 11	0	0	0	0	0	0.04577636719
 12	1	1	1	55.98449707	36.98730469	42.06848145
 13	1	0	0	34.8815918	3.387451172	5.035400391
 14	0	1	0	18.44787598	26.41296387	12.08496094
 15	0	0	1	0.8239746094	6.729125977	24.67346191
END_DATA
