data/calibration-000725.ti3
CTI3
ORIGINATOR	"ColorHug Factory"
DESCRIPTOR	"Calibration Target chart information 3"
DEVICE_CLASS	"DISPLAY"
COLOR_REP	"RGB_XYZ"
TARGET_INSTRUMENT	"Hughski ColorHug"
INSTRUMENT_TYPE_SPECTRAL	"NO"
NORMALIZED_TO_Y_100	"NO"
NUMBER_OF_FIELDS	7
NUMBER_OF_SETS	15
BEGIN_DATA_FORMAT
 SAMPLE_ID	RGB_R	RGB_G	RGB_B	XYZ_X	XYZ_Y	XYZ_Z
END_DATA_FORMAT
BEGIN_DATA
 1	0	0	0	0	0.04577636719	0.04577636719
 2	1	1	1	59.96704102	39.59655762	45.08972168
 3	1	0	0	38.04016113	3.799438477	5.630493164
 4	0	1	0	20.00427246	28.19824219	12.90893555
 5	0	0	1	0.8697509766	7.415771484	26.18408203
 6	0	0	0	0	0.04577636719	0
 7	1	1	1	60.01281738	39.64233398	45.08972168
 8	1	0	0	37.8112793	3.799438477	5.630493164
 9	0	1	0	20.0958252	28.24401855	12.95471191
 10	0	0	1	0.8697509766	7.415771484	26.3671875
 11	0	0	0	0	0.04577636719	0
 12	1	1	1	59.87548828	39.64233398	45.08972168
 13	1	0	0	38.04016113	3.799438477	5.630493164
 14	0	1	0	19.95849609	28.19824219	12.95471191
 15	0	0	1	0.9155273438	7.415771484	26.27563477
END_DATA
