data/calibration-002418.ti3
CTI3   
ORIGINATOR	"ColorHug Factory"
CREATED	"Wed Jun 11 20:29:25 2014"
DESCRIPTOR	"Calibration Target chart information 3"
DEVICE_CLASS	"DISPLAY"
COLOR_REP	"RGB_XYZ"
TARGET_INSTRUMENT	"Hughski ColorHug"
INSTRUMENT_TYPE_SPECTRAL	"NO"
NORMALIZED_TO_Y_100	"NO"
NUMBER_OF_FIELDS	7
NUMBER_OF_SETS	15
BEGIN_DATA_FORMAT
 SAMPLE_ID	RGB_R	RGB_G	RGB_B	XYZ_X	XYZ_Y	XYZ_Z
END_DATA_FORMAT
BEGIN_DATA
 1.0	0.0	0.0	0.0	0.201385498047	0.174697875977	0.244201660156
 2.0	1.0	1.0	1.0	66.064514160156	30.340728759766	50.257659912109
 3.0	1.0	0.0	0.0	41.373733520508	3.380920410156	5.764953613281
 4.0	0.0	1.0	0.0	20.479995727539	19.140182495117	10.227203369141
 5.0	0.0	0.0	1.0	1.337020874023	7.861801147461	33.711929321289
 6.0	0.0	0.0	0.0	0.202194213867	0.174697875977	0.243804931641
 7.0	1.0	1.0	1.0	65.015869140625	30.453521728516	49.951217651367
 8.0	1.0	0.0	0.0	41.373733520508	3.365646362305	5.700759887695
 9.0	0.0	1.0	0.0	20.479995727539	19.230041503906	10.291442871094
 10.0	0.0	0.0	1.0	1.342727661133	7.907333374023	33.573760986328
 11.0	0.0	0.0	0.0	0.203002929688	0.175506591797	0.24479675293
 12.0	1.0	1.0	1.0	65.015869140625	30.340728759766	49.951217651367
 13.0	1.0	0.0	0.0	41.583755493164	3.371185302734	5.696792602539
 14.0	0.0	1.0	0.0	20.531326293945	19.412307739258	10.278533935547
 15.0	0.0	0.0	1.0	1.338562011719	7.869354248047	33.436721801758
END_DATA
