data/calibration-000072.ti3
CTI3
DESCRIPTOR	"Calibration Target chart information 3"
ORIGINATOR	"ColorHug Factory"
DEVICE_CLASS	"DISPLAY"
COLOR_REP	"RGB_XYZ"
TARGET_INSTRUMENT	"ColorHug"
INSTRUMENT_TYPE_SPECTRAL	"NO"
LUMINANCE_XYZ_CDM2	"52.345276 41.713715 48.477173"
NORMALIZED_TO_Y_100	"YES"
NUMBER_OF_FIELDS	7
NUMBER_OF_SETS	836
BEGIN_DATA_FORMAT
 SAMPLE_ID	RGB_R	RGB_G	RGB_B	XYZ_X	XYZ_Y	XYZ_Z
END_DATA_FORMAT
BEGIN_DATA
 1	100	100	100	122.1491228	99.78070175	116.4473684
 2	100	100	100	126.0964912	99.89035088	116.4473684
 3	100	100	100	126.6447368	100	115.1315789
 4	100	100	100	126.6447368	100	116.4473684
 5	33.33	32.622	30.968	26.86403509	7.236842105	8.004385965
 6	100	0	100	74.45175439	27.30263158	81.46929825
 7	100	100	0	124.7807018	81.35964912	47.47807018
 8	0	100	100	57.01754386	91.55701754	103.1798246
 9	0	100	0	42.3245614	72.36842105	34.10087719
 10	0	0	100	3.289473684	19.29824561	69.40789474
 11	100	0	0	76.20614035	8.771929825	13.04824561
 12	0	0	0	1.973684211	0.8771929825	1.096491228
 13	0	52.455	100	10.96491228	33.44298246	76.20614035
 14	100	0	50.3	75.87719298	12.06140351	24.89035088
 15	100	54.739	100	87.82894737	42.98245614	89.47368421
 16	100	52.128	0	86.40350877	22.5877193	19.73684211
 17	0	0	46.181	1.535087719	3.399122807	10.30701754
 18	0	51.141	0	8.771929825	14.14473684	7.236842105
 19	0	100	51.348	42.3245614	76.09649123	46.38157895
 20	100	100	52.037	124.5614035	84.97807018	60.19736842
 21	49.216	0	0	14.14473684	2.302631579	3.179824561
 22	56.159	100	0	60.63596491	74.56140351	37.28070175
 23	49.226	100	100	58.77192982	93.31140351	105.7017544
 24	44.487	0	100	13.26754386	20.39473684	71.49122807
 25	100	44.498	52.029	83.55263158	22.03947368	30.59210526
 26	48.926	48.544	100	29.27631579	32.6754386	77.4122807
 27	51.368	100	47.25	57.12719298	76.75438596	46.82017544
 28	49.893	0	49.033	15.57017544	5.372807018	14.36403509
 29	53.109	51.372	0	24.56140351	15.89912281	9.868421053
 30	0	58.587	53.943	13.15789474	23.13596491	23.46491228
 31	100	28.065	100	80.04385965	31.25	83.99122807
 32	0	0	72.874	24.23245614	8.662280702	29.71491228
 33	0	26.758	100	4.495614035	22.69736842	71.1622807
 34	0	25.426	0	2.521929825	3.728070175	2.412280702
 35	72.508	0	100	36.62280702	23.13596491	75.54824561
 36	100	27.395	0	77.30263158	12.17105263	14.80263158
 37	74.47	100	100	82.78508772	95.50438596	109.4298246
 38	100	0	25.728	76.53508772	9.539473684	16.00877193
 39	73.862	0	0	37.82894737	4.714912281	6.798245614
 40	100	100	25.402	117.5438596	82.23684211	50.10964912
 41	0	75.751	100	25	54.93421053	86.73245614
 42	0	75.172	0	21.27192982	34.64912281	16.99561404
 43	0	100	25.864	40.78947368	72.69736842	36.84210526
 44	100	0	74.801	77.19298246	17.3245614	44.40789474
 45	0	100	75.421	44.73684211	81.57894737	66.3377193
 46	24.577	0	0	3.837719298	1.206140351	1.535087719
 47	26.321	100	0	45.39473684	72.80701754	34.53947368
 48	100	75.835	0	84.86842105	43.96929825	30.04385965
 49	100	100	77.061	125.6578947	90.57017544	81.35964912
 50	71.263	100	0	89.58333333	76.4254386	39.80263158
 51	0	0	15.614	8.442982456	1.096491228	1.973684211
 52	0	30.049	70.936	3.947368421	12.17105263	29.8245614
 53	100	77.691	100	103.9473684	65.46052632	100.4385965
 54	24.486	100	100	47.80701754	91.99561404	103.9473684
 55	100	62.784	31.909	91.3377193	32.01754386	27.85087719
 56	29.552	0	100	15.57017544	19.84649123	70.50438596
 57	32.98	70.921	100	25.43859649	49.78070175	84.75877193
 58	0	27.681	40.241	5.043859649	6.140350877	9.539473684
 59	67.901	71.021	100	50.21929825	52.74122807	88.81578947
 60	28.154	100	67.829	47.14912281	79.93421053	59.75877193
 61	71.637	100	70.001	76.53508772	83.99122807	66.66666667
 62	58.822	58.763	53.586	33.00438596	25.10964912	26.4254386
 63	33.466	30.48	0	8.662280702	5.48245614	3.837719298
 64	100	73.795	71.277	98.79385965	49.56140351	56.57894737
 65	68.394	29.692	0	33.22368421	7.894736842	7.565789474
 66	70.399	0	29.039	32.89473684	5.263157895	9.649122807
 67	28.078	0	26.956	7.565789474	2.083333333	4.714912281
 68	28.532	72.339	0	22.69736842	32.01754386	16.00877193
 69	100	30.941	26.496	78.8377193	13.9254386	18.20175439
 70	34.597	0	73.611	17.98245614	9.539473684	31.68859649
 71	71.573	0	72.408	32.89473684	12.28070175	34.97807018
 72	0	71.029	29.412	18.96929825	31.57894737	18.42105263
 73	68.386	75.008	0	51.4254386	38.26754386	21.71052632
 74	68.088	27.309	100	34.64912281	26.09649123	76.53508772
 75	100	26.457	73.749	78.94736842	20.28508772	45.06578947
 76	74.344	100	27.392	81.46929825	77.85087719	43.96929825
 77	27.558	100	28.197	46.05263158	73.5745614	38.04824561
 78	31.196	27.465	100	9.320175439	23.35526316	72.5877193
 79	0	75.521	72.824	22.14912281	43.64035088	46.38157895
 80	0	50.93	25.553	8.881578947	14.80263158	9.868421053
 81	32.06	33.584	64.033	9.320175439	12.28070175	25.43859649
 82	81.666	55.38	0	56.14035088	22.03947368	16.00877193
 83	68.257	32.751	58.286	34.42982456	13.48684211	24.89035088
 84	0	55.248	81.585	11.62280702	27.63157895	47.36842105
 85	73.781	52.099	100	46.92982456	37.39035088	82.45614035
 86	100	50.537	82.952	85.41666667	32.89473684	59.97807018
 87	23.55	0	50.439	5.48245614	4.385964912	13.15789474
 88	31.335	62.746	31.114	18.85964912	24.45175439	16.11842105
 89	100	18.31	49.418	77.85087719	13.48684211	25.43859649
 90	26.498	48.404	0	23.35526316	12.71929825	7.01754386
 91	47.91	100	85.744	55.81140351	85.63596491	81.03070175
 92	71.829	47.313	31.811	46.05263158	16.66666667	15.78947368
 93	31.304	64.132	69.316	22.25877193	31.57894737	38.59649123
 94	80.403	0	54.321	45.06578947	9.429824561	22.47807018
 95	18.455	50.036	100	13.26754386	32.56578947	76.75438596
 96	50.653	100	16.345	57.12719298	74.67105263	37.60964912
 97	80.121	100	52.261	89.25438596	81.68859649	54.8245614
 98	0	22.54	19.289	2.412280702	3.618421053	3.728070175
 99	100	75.273	46.886	99.23245614	45.94298246	39.80263158
 100	0	78.618	56.625	34.10087719	43.31140351	34.53947368
 101	51.137	80.627	100	40.67982456	61.84210526	91.77631579
 102	48.446	0	17.864	13.37719298	2.631578947	4.385964912
 103	100	50.023	21.211	84.75877193	22.14912281	21.1622807
 104	50.115	20.118	0	27.30263158	4.166666667	4.166666667
 105	58.099	72.426	33.158	39.36403509	35.0877193	23.13596491
 106	19.364	100	50.197	44.29824561	76.4254386	46.38157895
 107	50.683	19.177	100	20.72368421	22.69736842	73.24561404
 108	53.37	0	81.576	17.76315789	13.04824561	42.43421053
 109	47.768	76.245	0	33.99122807	37.28070175	19.40789474
 110	0	18.927	55.503	2.192982456	6.578947368	16.55701754
 111	0	13.277	0	1.315789474	1.644736842	1.425438596
 112	72.862	72.473	75.625	55.26315789	44.07894737	53.28947368
 113	100	13.904	0	76.97368421	9.539473684	13.48684211
 114	86.349	0	100	55.37280702	25.10964912	78.8377193
 115	100	41.941	100	83.44298246	36.0745614	86.51315789
 116	100	81.785	16.464	102.6315789	51.4254386	34.42982456
 117	0	44.063	52.596	7.456140351	13.81578947	18.42105263
 118	0	0	58.917	1.425438596	5.592105263	18.20175439
 119	59.25	24.551	29.789	23.5745614	6.907894737	9.320175439
 120	82.73	82.874	100	75.98684211	68.53070175	98.79385965
 121	80.039	0	12.618	45.1754386	5.701754386	8.662280702
 122	60.957	47.729	77.817	32.01754386	24.01315789	44.40789474
 123	100	0	38.618	76.20614035	10.63596491	19.62719298
 124	0	40.09	100	17.21491228	27.08333333	73.5745614
 125	0	15.283	82.322	2.521929825	12.5	40.57017544
 126	17.592	81.726	100	29.27631579	61.95175439	90.46052632
 127	100	14.13	100	78.17982456	28.50877193	82.78508772
 128	15.261	100	82.059	44.51754386	83.55263158	74.56140351
 129	47.77	79.418	60.389	36.84210526	46.38157895	39.80263158
 130	18.768	16.429	0	3.50877193	2.302631579	1.973684211
 131	55.634	100	65.763	61.40350877	81.14035088	60.41666667
 132	100	100	38.541	124.2324561	83.33333333	54.49561404
 133	17.421	0	83.497	3.399122807	12.06140351	42.21491228
 134	17.237	16.758	100	4.824561404	20.94298246	71.27192982
 135	0	15.067	30.039	1.644736842	2.960526316	5.153508772
 136	0	0	86.505	2.192982456	13.04824561	45.94298246
 137	75.736	72.799	50.02	58.22368421	39.80263158	33.77192982
 138	100	83.323	85.529	103.2894737	65.46052632	79.16666667
 139	100	100	64.894	124.2324561	87.60964912	70.50438596
 140	81.98	84.914	0	76.20614035	51.97368421	30.15350877
 141	0	63.757	15.49	14.80263158	23.79385965	12.60964912
 142	49.514	66.135	100	31.25	45.83333333	83.55263158
 143	100	0	61.862	77.08333333	14.14473684	32.78508772
 144	24.308	45.41	49.831	20.1754386	14.25438596	17.76315789
 145	15.963	0	17.047	2.302631579	1.425438596	2.521929825
 146	87.497	100	100	101.6447368	98.13596491	113.4868421
 147	52.099	25.003	75.752	33.00438596	14.03508772	36.84210526
 148	14.909	81.162	0	26.09649123	41.88596491	20.28508772
 149	0	34.792	14.626	4.276315789	6.578947368	4.495614035
 150	48.39	45.075	22.552	19.18859649	12.60964912	9.75877193
 151	83.545	65.965	100	65.89912281	49.78070175	89.9122807
 152	16.226	62.345	0	15.57017544	22.36842105	11.18421053
 153	63.222	0	14.914	24.89035088	3.837719298	5.921052632
 154	80.449	13.446	0	43.09210526	6.359649123	8.442982456
 155	83.917	41.562	0	50.98684211	14.03508772	12.60964912
 156	100	60.448	46.3	89.47368421	31.57894737	32.6754386
 157	15.584	0	34.795	15.89912281	2.412280702	6.140350877
 158	17.144	65.121	100	18.42105263	44.07894737	82.01754386
 159	83.602	55.334	62.667	59.64912281	27.85087719	36.84210526
 160	0	82.19	14.22	26.20614035	43.31140351	21.60087719
 161	25.132	74.856	50.616	24.45175439	38.26754386	29.38596491
 162	0	13.769	100	3.179824561	20.28508772	70.39473684
 163	87.181	0	0	54.05701754	6.578947368	9.649122807
 164	0	100	39.19	42.54385965	74.67105263	40.78947368
 165	78.047	65.914	19.865	57.6754386	30.37280702	20.94298246
 166	100	63.961	15.865	91.99561404	32.34649123	25.32894737
 167	100	45.955	36.032	84.75877193	20.83333333	23.68421053
 168	15.926	100	16.89	43.64035088	73.24561404	35.63596491
 169	41.459	100	0	51.31578947	73.90350877	35.74561404
 170	48.707	37.288	48.139	18.09210526	11.62280702	16.77631579
 171	83.381	100	13.285	92.98245614	78.8377193	43.53070175
 172	78.129	25.303	75.621	44.73684211	16.88596491	41.11842105
 173	12.396	0	0	1.754385965	0.9868421053	1.206140351
 174	37.607	48.336	83.346	15.67982456	24.45175439	48.46491228
 175	35.588	15.356	0	7.565789474	2.631578947	2.631578947
 176	61.245	100	100	67.21491228	94.40789474	108.1140351
 177	100	67.29	87.195	95.50438596	47.91666667	72.03947368
 178	0	0	30.615	1.864035088	1.973684211	4.934210526
 179	35.187	81.789	83.323	32.78508772	54.8245614	62.93859649
 180	39.525	80.194	22.879	32.78508772	42.43421053	23.24561404
 181	50.634	34.593	0	20.72368421	7.894736842	5.921052632
 182	14.175	100	63.146	42.98245614	78.8377193	55.59210526
 183	83.493	17.728	34.574	48.79385965	8.771929825	14.47368421
 184	23.463	22.014	79.943	9.978070175	13.37719298	39.25438596
 185	18.066	31.847	0	5.263157895	5.592105263	3.50877193
 186	87.201	100	81.361	100.877193	89.9122807	82.89473684
 187	0	100	87.95	43.96929825	86.29385965	82.56578947
 188	34.476	17.888	46.22	7.675438596	5.592105263	12.28070175
 189	18.277	0	67.39	3.179824561	7.565789474	25.43859649
 190	100	87.972	0	110.9649123	60.0877193	37.60964912
 191	82.925	34.85	100	53.39912281	30.37280702	80.81140351
 192	0	88.016	100	33.44298246	70.83333333	94.40789474
 193	36.104	85.655	100	37.17105263	67.76315789	93.75
 194	60.981	0	0	23.02631579	3.289473684	4.714912281
 195	51.466	61.826	78.106	29.05701754	32.78508772	48.5745614
 196	78.427	31.983	22.175	44.29824561	10.41666667	11.95175439
 197	66.017	44.321	0	33.99122807	13.37719298	9.868421053
 198	83.941	0	84.177	50	17.54385965	51.4254386
 199	20.158	46.612	23.269	12.60964912	12.28070175	8.662280702
 200	0	100	62.618	42.76315789	78.39912281	54.49561404
 201	33.832	0	13.933	11.84210526	1.754385965	2.74122807
 202	100	17.286	16.322	76.31578947	10.41666667	14.9122807
 203	0	42.204	83.926	7.675438596	20.83333333	47.47807018
 204	0	87.774	0	30.37280702	50.98684211	24.34210526
 205	64.988	0	59.017	27.19298246	8.442982456	22.80701754
 206	14.677	0	100	3.728070175	19.62719298	70.28508772
 207	88.934	82.673	35.021	84.75877193	51.64473684	35.52631579
 208	0	63.778	100	16.3377193	42.54385965	81.46929825
 209	83.429	17.674	100	50.43859649	26.09649123	78.61842105
 210	30.899	100	85.668	48.24561404	85.74561404	80.04385965
 211	83.68	0	41.016	48.90350877	8.004385965	16.11842105
 212	100	63.515	0	91.77631579	31.35964912	23.90350877
 213	85.074	69.987	0	68.53070175	35.0877193	22.69736842
 214	20.801	45.524	69.018	29.93421053	18.31140351	31.68859649
 215	21.382	82.482	73.017	27.96052632	52.4122807	51.31578947
 216	100	15.128	64.249	74.89035088	15.67982456	35.19736842
 217	36.522	0	58.427	16.55701754	6.140350877	18.85964912
 218	22.466	81.296	33.007	27.85087719	43.75	25.32894737
 219	62.531	87.152	0	53.72807018	53.39912281	28.07017544
 220	84.12	85.397	67.886	79.60526316	60.0877193	56.35964912
 221	18.87	27.336	45.389	5.701754386	7.01754386	12.17105263
 222	66.439	100	14.444	70.94298246	76.53508772	39.9122807
 223	41.636	22.147	19.003	18.85964912	4.495614035	5.153508772
 224	61.271	100	81.94	66.88596491	86.73245614	77.85087719
 225	86.013	100	0	98.5745614	79.05701754	43.64035088
 226	37.57	0	0	8.004385965	1.644736842	2.192982456
 227	100	16.132	84.102	76.09649123	21.60087719	56.46929825
 228	0	100	13.619	46.38157895	73.24561404	34.86842105
 229	38.905	100	56.471	50.87719298	78.39912281	51.86403509
 230	100	15.382	34.563	77.52192982	11.29385965	18.75
 231	36.656	14.908	100	10.41666667	21.38157895	72.36842105
 232	0	62.593	66.608	14.58333333	29.27631579	35.0877193
 233	66.347	12.528	100	29.38596491	23.24561404	75.32894737
 234	100	43.375	69.233	82.89473684	25.32894737	43.96929825
 235	100	56.36	61.236	88.04824561	31.14035088	40.89912281
 236	0	86.194	44.955	29.71491228	51.64473684	32.6754386
 237	64.527	87.262	100	57.89473684	72.80701754	98.68421053
 238	34.411	0	42.471	7.01754386	3.728070175	9.978070175
 239	80.23	59.707	85.12	57.34649123	37.17105263	61.62280702
 240	20.625	19.056	14.791	10.41666667	3.070175439	3.070175439
 241	15.341	34.221	100	7.01754386	25.21929825	73.13596491
 242	36.777	0	87.905	8.662280702	14.47368421	49.67105263
 243	34.598	56.247	100	18.53070175	37.17105263	79.27631579
 244	20.86	67.629	17.418	18.96929825	27.85087719	15.13157895
 245	44.958	60.843	18.054	23.68421053	22.69736842	13.70614035
 246	37.421	60.193	0	19.84649123	21.27192982	11.40350877
 247	84.011	33.849	42.612	52.96052632	13.59649123	19.51754386
 248	17.241	60.339	37.743	27.74122807	22.36842105	16.66666667
 249	50.65	17.261	53.278	16.11842105	7.456140351	17.43421053
 250	45.505	48.926	65.152	19.51754386	20.39473684	31.25
 251	44.567	84.081	39.649	37.71929825	49.01315789	30.59210526
 252	100	86.339	72.054	110.8552632	65.78947368	65.35087719
 253	68.14	61.135	0	42.76315789	24.23245614	15.24122807
 254	17.93	66.986	81.403	19.51754386	37.5	52.08333333
 255	39.242	60.215	48.926	20.83333333	24.34210526	22.5877193
 256	20.099	18.77	62.967	4.385964912	8.223684211	22.36842105
 257	34.553	100	14.582	47.69736842	74.01315789	36.0745614
 258	87.345	0	66.694	52.85087719	13.15789474	33.99122807
 259	0	43.714	39.842	6.688596491	11.95175439	12.17105263
 260	100	37.705	13.955	77.74122807	15.67982456	17.10526316
 261	31.265	86.993	0	34.75877193	50.65789474	24.67105263
 262	51.402	82.661	81.338	41.44736842	56.25	62.5
 263	100	100	12.984	124.4517544	81.68859649	48.24561404
 264	0	37.859	0	5.263157895	7.456140351	4.166666667
 265	62.092	58.215	100	37.17105263	40.67982456	83.22368421
 266	86.186	100	64.1	96.71052632	84.75877193	65.46052632
 267	100	35.251	85.898	81.79824561	26.86403509	61.0745614
 268	63.182	89.992	41.974	57.78508772	59.64912281	38.15789474
 269	13.504	100	0	43.75	73.02631579	34.53947368
 270	100	0	13.228	75.87719298	8.99122807	13.81578947
 271	63.881	40.826	100	32.78508772	30.48245614	78.8377193
 272	69.387	84.838	20.792	59.53947368	51.09649123	29.60526316
 273	0	70.279	45.136	18.53070175	32.45614035	24.01315789
 274	79.094	64.754	40.908	57.89473684	31.35964912	26.53508772
 275	62.385	54.099	17.396	34.21052632	18.96929825	13.26754386
 276	64.408	14.621	0	27.08333333	4.605263158	5.701754386
 277	70.028	15.606	44.651	32.89473684	7.894736842	15.57017544
 278	0	63.544	0	14.58333333	23.5745614	11.73245614
 279	83.475	47.274	20.502	54.60526316	17.65350877	15.78947368
 280	55.866	0	32.671	19.18859649	4.057017544	8.442982456
 281	58.007	0	100	22.47807018	21.82017544	73.68421053
 282	100	0	87.698	77.4122807	21.71052632	60.96491228
 283	0	13.792	67.215	4.495614035	8.333333333	25.65789474
 284	84.123	17.001	58.549	50.87719298	12.17105263	26.75438596
 285	59.579	32.873	15.966	25	8.333333333	7.894736842
 286	10.41	32.998	28.659	4.714912281	6.907894737	6.907894737
 287	17.231	40.031	85.65	8.004385965	20.83333333	49.45175439
 288	37.568	41.561	10.108	12.60964912	9.868421053	6.359649123
 289	0	69.015	85.092	18.42105263	40.57017544	57.89473684
 290	14.442	100	36.187	43.20175439	74.89035088	40.24122807
 291	100	40.549	0	81.68859649	16.66666667	16.88596491
 292	82.143	45.435	78.429	55.48245614	25.43859649	48.5745614
 293	52.674	0	67.3	17.10526316	9.210526316	27.96052632
 294	0	87.868	66.793	31.25	58.55263158	49.12280702
 295	86.53	100	40.524	96.05263158	81.46929825	51.20614035
 296	71.777	85.586	67.232	64.47368421	58.88157895	53.50877193
 297	43.216	100	31.671	52.4122807	75.54824561	40.24122807
 298	39.245	32.908	85.845	12.71929825	18.75	49.45175439
 299	0	45.662	67.543	7.675438596	17.87280702	30.48245614
 300	12.161	100	100	44.51754386	91.99561404	105.0438596
 301	67.049	0	85.516	29.93421053	16.00877193	50.32894737
 302	100	89.041	100	113.4868421	81.14035088	108.7719298
 303	20.246	60.698	56.526	15.67982456	25.43859649	26.64473684
 304	52.177	55.457	40.416	26.09649123	20.83333333	18.53070175
 305	72.617	87.018	83.932	66.77631579	66.00877193	72.80701754
 306	40.512	16.723	66.475	10.74561404	9.429824561	26.53508772
 307	68.507	49.232	50.605	37.93859649	19.73684211	23.79385965
 308	65.622	100	54.525	70.61403509	80.04385965	54.05701754
 309	54.115	37.24	66.394	22.03947368	15.46052632	30.37280702
 310	100	76.138	31.267	100.3289474	45.83333333	34.53947368
 311	54.728	65.623	0	33.00438596	27.08333333	15.24122807
 312	63.126	12.526	64.37	25.98684211	10.0877193	26.97368421
 313	72.827	18.08	23.704	36.0745614	6.798245614	9.649122807
 314	23.268	15.278	34.947	4.276315789	3.618421053	7.127192982
 315	87.648	68.954	59.645	72.14912281	39.58333333	41.3377193
 316	0	85.595	85.198	32.12719298	60.19736842	67.43421053
 317	35.798	84.371	69.21	34.75877193	54.60526316	49.78070175
 318	36.062	47.494	35.919	14.14473684	14.25438596	12.71929825
 319	86.083	36.277	59.152	57.01754386	17.54385965	30.26315789
 320	58.21	100	30.361	62.93859649	76.31578947	41.88596491
 321	46.745	14.614	32.317	13.37719298	4.276315789	7.675438596
 322	81.573	73.869	86.954	67.76315789	51.64473684	70.39473684
 323	85.991	49.387	48.206	61.18421053	21.82017544	26.20614035
 324	28.062	87.906	19.654	34.75877193	52.85087719	26.97368421
 325	68.992	17.993	85.124	33.00438596	17.54385965	51.09649123
 326	100	66.147	100	94.73684211	53.28947368	95.39473684
 327	33.358	64.806	84.517	29.38596491	37.17105263	56.46929825
 328	41.351	17.736	80.522	11.40350877	13.48684211	40.78947368
 329	100	100	88.719	125.3289474	95.28508772	97.36842105
 330	66.336	0	44.32	29.05701754	6.359649123	14.58333333
 331	64.85	67.09	12.293	42.87280702	30.04385965	18.20175439
 332	15.262	31.268	63.277	5.263157895	11.0745614	24.23245614
 333	15.008	43.663	37.3	7.675438596	11.95175439	11.62280702
 334	0	57.895	38.078	11.73245614	20.72368421	15.78947368
 335	66.599	58.458	67.871	40.57017544	29.60526316	39.47368421
 336	59.191	18.651	15.215	22.47807018	5.043859649	6.140350877
 337	66.781	31.14	84.629	32.6754386	20.06578947	51.20614035
 338	88.033	85.158	52.14	85.0877193	57.45614035	44.95614035
 339	36.882	100	100	52.85087719	93.53070175	106.3596491
 340	26.102	33.094	17.006	7.346491228	6.578947368	5.263157895
 341	56.309	36.861	35.862	22.91666667	10.52631579	12.39035088
 342	45.839	65.587	67.033	27.30263158	33.44298246	38.70614035
 343	83.709	81.172	16.406	74.78070175	48.02631579	29.49561404
 344	0	48.132	13.005	7.785087719	12.5	7.127192982
 345	87.176	50.021	100	63.59649123	38.81578947	86.29385965
 346	51.219	84.244	13.73	42.3245614	47.5877193	25.21929825
 347	60.606	71.415	48.406	41.22807018	36.51315789	29.93421053
 348	0	11.359	12.718	1.425438596	1.644736842	1.973684211
 349	86.429	49.705	33.145	61.40350877	20.39473684	20.06578947
 350	34.056	40.958	100	14.36403509	28.50877193	75.98684211
 351	100	30.557	59.628	79.49561404	18.09210526	33.55263158
 352	88.497	26.902	13.449	61.18421053	10.19736842	12.28070175
 353	14.167	51.98	88.218	12.06140351	27.96052632	55.48245614
 354	13.784	12.983	49.37	2.521929825	4.824561404	12.71929825
 355	15.018	88.441	48.062	32.34649123	55.26315789	35.74561404
 356	87.79	25.769	89.215	57.12719298	23.02631579	60.30701754
 357	0	33.206	55.865	11.51315789	10.0877193	18.75
 358	74.324	76.029	35.536	58.77192982	41.55701754	28.94736842
 359	65.863	57.223	42.324	38.81578947	23.46491228	21.60087719
 360	30.893	54.646	13.136	14.69298246	17.21491228	9.75877193
 361	0	34.36	28.321	4.276315789	7.236842105	6.907894737
 362	15.443	77.087	85.116	24.56140351	49.56140351	62.82894737
 363	63.381	68.947	68.521	42.87280702	38.04824561	43.53070175
 364	69.733	27.566	42.917	33.88157895	9.868421053	15.89912281
 365	32.754	100	42.76	47.80701754	76.31578947	43.53070175
 366	47.096	29.481	34.829	15.46052632	7.456140351	9.868421053
 367	8.5451	71.948	62.695	19.95614035	37.17105263	35.74561404
 368	0	86.048	29.3	29.16666667	50.21929825	27.08333333
 369	53.697	51.572	85.367	26.4254386	28.39912281	54.8245614
 370	17.608	56.69	12.515	12.71929825	18.42105263	9.978070175
 371	90.638	14.414	49.227	59.32017544	11.18421053	22.47807018
 372	63.248	63.64	89.55	41.11842105	40.35087719	66.88596491
 373	100	85.976	58.455	110.0877193	62.71929825	54.16666667
 374	9.8311	28.027	7.5567	3.947368421	4.605263158	3.179824561
 375	89.831	64.313	69.506	74.23245614	37.93859649	48.46491228
 376	31.754	12.995	25.543	8.881578947	2.960526316	5.043859649
 377	75.914	45.966	64.957	45.61403509	21.71052632	34.97807018
 378	7.5735	50.695	58.941	9.539473684	19.18859649	25.10964912
 379	100	69.835	58.912	95.61403509	42.98245614	44.95614035
 380	32.211	34.376	48.339	10.0877193	9.868421053	15.35087719
 381	13.901	12.159	73.555	2.960526316	9.868421053	31.68859649
 382	87.071	9.028	77.653	55.81140351	16.55701754	44.84649123
 383	23.272	85.409	84.29	32.56578947	59.42982456	66.44736842
 384	93.289	39.48	26.145	68.64035088	15.78947368	17.65350877
 385	65.769	59.63	30.967	40.46052632	24.34210526	18.64035088
 386	100	32.265	41.803	76.97368421	15.89912281	23.35526316
 387	86.568	85.281	86.961	84.10087719	66.3377193	78.50877193
 388	52.577	86.83	30.016	45.94298246	53.28947368	30.37280702
 389	47.921	40.199	76.902	18.85964912	19.18859649	41.00877193
 390	22.36	86.619	61.58	32.56578947	55.70175439	44.07894737
 391	52.232	33.601	88.787	20.61403509	21.05263158	55.48245614
 392	0	28.523	86.267	5.372807018	16.88596491	48.02631579
 393	43.497	67.879	39.551	26.53508772	30.81140351	22.14912281
 394	39.877	45.261	0	14.9122807	11.73245614	7.127192982
 395	86.94	12.43	24.699	54.05701754	8.004385965	12.5
 396	28.363	55.339	90.398	16.22807018	31.90789474	61.29385965
 397	39.018	70.534	57.879	26.4254386	35.63596491	32.89473684
 398	12.833	28.519	78.828	4.824561404	14.47368421	39.03508772
 399	68.35	31.815	69.975	33.6622807	16.11842105	35.19736842
 400	56.52	26.226	41.626	21.38157895	8.114035088	13.26754386
 401	12.938	46.218	0	7.894736842	11.29385965	6.140350877
 402	8.6938	60.179	26.117	13.04824561	21.38157895	13.15789474
 403	51.995	89.429	96.608	48.68421053	73.24561404	91.99561404
 404	46.905	47.746	48.909	19.62719298	16.44736842	19.40789474
 405	14.352	81.814	19.479	26.64473684	43.42105263	22.47807018
 406	71.482	38.117	12.273	37.60964912	11.40350877	10.19736842
 407	86.616	60.785	10.012	65.67982456	26.97368421	19.62719298
 408	71.811	88.979	52.186	66.55701754	60.41666667	44.40789474
 409	43.213	100	72.083	53.39912281	82.45614035	65.57017544
 410	73.92	23.444	8.2853	38.15789474	7.346491228	8.333333333
 411	40.629	85.534	53.423	37.17105263	52.74122807	38.37719298
