data/calibration-001215.ti3
CTI3   
ORIGINATOR	"ColorHug Factory"
DESCRIPTOR	"Calibration Target chart information 3"
DEVICE_CLASS	"DISPLAY"
COLOR_REP	"RGB_XYZ"
TARGET_INSTRUMENT	"Hughski ColorHug"
INSTRUMENT_TYPE_SPECTRAL	"NO"
NORMALIZED_TO_Y_100	"NO"
NUMBER_OF_FIELDS	7
NUMBER_OF_SETS	15
BEGIN_DATA_FORMAT
 SAMPLE_ID	RGB_R	RGB_G	RGB_B	XYZ_X	XYZ_Y	XYZ_Z
END_DATA_FORMAT
BEGIN_DATA
 1	0	0	0	0.1831054688	0.1831054688	0.2746582031
 2	1	1	1	33.23364258	36.30065918	42.70935059
 3	1	0	0	19.68383789	2.838134766	3.479003906
 4	0	1	0	12.26806641	26.27563477	11.94763184
 5	0	0	1	0.9155273438	7.461547852	27.64892578
 6	0	0	0	0.1831054688	0.1831054688	0.2746582031
 7	1	1	1	33.27941895	36.34643555	42.75512695
 8	1	0	0	19.68383789	2.838134766	3.479003906
 9	0	1	0	12.26806641	26.13830566	11.94763184
 10	0	0	1	0.9613037109	7.461547852	27.60314941
 11	0	0	0	0.1831054688	0.1831054688	0.2746582031
 12	1	1	1	33.14208984	36.25488281	42.70935059
 13	1	0	0	19.68383789	2.838134766	3.479003906
 14	0	1	0	12.26806641	26.18408203	11.9934082
 15	0	0	1	0.9613037109	7.461547852	27.51159668
END_DATA
