data/calibration-001313.ti3
CTI3   
ORIGINATOR	"ColorHug Factory"
DESCRIPTOR	"Calibration Target chart information 3"
DEVICE_CLASS	"DISPLAY"
COLOR_REP	"RGB_XYZ"
TARGET_INSTRUMENT	"Hughski ColorHug"
INSTRUMENT_TYPE_SPECTRAL	"NO"
NORMALIZED_TO_Y_100	"NO"
NUMBER_OF_FIELDS	7
NUMBER_OF_SETS	15
BEGIN_DATA_FORMAT
 SAMPLE_ID	RGB_R	RGB_G	RGB_B	XYZ_X	XYZ_Y	XYZ_Z
END_DATA_FORMAT
BEGIN_DATA
 1	0	0	0	0.04577636719	0.04577636719	0.1373291016
 2	1	1	1	34.69848633	32.73010254	39.68811035
 3	1	0	0	21.24023438	2.563476562	3.524780273
 4	0	1	0	12.40539551	23.94104004	11.07788086
 5	0	0	1	0.6408691406	6.500244141	25.40588379
 6	0	0	0	0.04577636719	0.04577636719	0.1373291016
 7	1	1	1	34.69848633	32.73010254	39.77966309
 8	1	0	0	21.33178711	2.563476562	3.524780273
 9	0	1	0	12.40539551	23.75793457	11.07788086
 10	0	0	1	0.6408691406	6.500244141	25.40588379
 11	0	0	0	0.04577636719	0.09155273438	0.1373291016
 12	1	1	1	34.60693359	32.6385498	39.68811035
 13	1	0	0	21.33178711	2.563476562	3.524780273
 14	0	1	0	12.40539551	23.8494873	11.12365723
 15	0	0	1	0.6408691406	6.500244141	25.36010742
END_DATA
