data/calibration-001648.ti3
CTI3   
ORIGINATOR	"ColorHug Factory"
CREATED	"Thu Feb 14 22:37:27 2013"
DESCRIPTOR	"Calibration Target chart information 3"
DEVICE_CLASS	"DISPLAY"
COLOR_REP	"RGB_XYZ"
TARGET_INSTRUMENT	"Hughski ColorHug"
INSTRUMENT_TYPE_SPECTRAL	"NO"
NORMALIZED_TO_Y_100	"NO"
NUMBER_OF_FIELDS	7
NUMBER_OF_SETS	15
BEGIN_DATA_FORMAT
 SAMPLE_ID	RGB_R	RGB_G	RGB_B	XYZ_X	XYZ_Y	XYZ_Z
END_DATA_FORMAT
BEGIN_DATA
 1	0	0	0	0.04577636719	0.04577636719	0.09155273438
 2	1	1	1	32.6385498	38.3605957	48.20251465
 3	1	0	0	18.90563965	2.655029297	3.387451172
 4	0	1	0	11.94763184	26.73339844	12.40539551
 5	0	0	1	0.8697509766	8.560180664	31.99768066
 6	0	0	0	0.04577636719	0.04577636719	0.09155273438
 7	1	1	1	32.54699707	38.0859375	48.29406738
 8	1	0	0	18.85986328	2.655029297	3.387451172
 9	0	1	0	11.90185547	26.96228027	12.40539551
 10	0	0	1	0.8697509766	8.605957031	32.40966797
 11	0	0	0	0.04577636719	0.04577636719	0.09155273438
 12	1	1	1	32.73010254	38.31481934	48.29406738
 13	1	0	0	19.04296875	2.655029297	3.387451172
 14	0	1	0	11.94763184	26.96228027	12.45117188
 15	0	0	1	0.8697509766	8.560180664	32.04345703
END_DATA
