data/calibration-000854.ti3
CTI3   
ORIGINATOR	"ColorHug Factory"
DESCRIPTOR	"Calibration Target chart information 3"
DEVICE_CLASS	"DISPLAY"
COLOR_REP	"RGB_XYZ"
TARGET_INSTRUMENT	"Hughski ColorHug"
INSTRUMENT_TYPE_SPECTRAL	"NO"
NORMALIZED_TO_Y_100	"NO"
NUMBER_OF_FIELDS	7
NUMBER_OF_SETS	15
BEGIN_DATA_FORMAT
 SAMPLE_ID	RGB_R	RGB_G	RGB_B	XYZ_X	XYZ_Y	XYZ_Z
END_DATA_FORMAT
BEGIN_DATA
 1	0	0	0	0.09155273438	0.04577636719	0.09155273438
 2	1	1	1	64.95666504	43.02978516	51.22375488
 3	1	0	0	41.19873047	4.302978516	6.546020508
 4	0	1	0	22.01843262	30.34973145	14.60266113
 5	0	0	1	1.007080078	8.46862793	30.21240234
 6	0	0	0	0.09155273438	0.04577636719	0.09155273438
 7	1	1	1	65.09399414	42.93823242	51.17797852
 8	1	0	0	41.65649414	4.302978516	6.546020508
 9	0	1	0	21.92687988	30.21240234	14.60266113
 10	0	0	1	1.007080078	8.514404297	30.12084961
 11	0	0	0	0.09155273438	0.04577636719	0.09155273438
 12	1	1	1	65.09399414	42.89245605	51.13220215
 13	1	0	0	41.56494141	4.302978516	6.546020508
 14	0	1	0	21.97265625	30.30395508	14.6484375
 15	0	0	1	1.007080078	8.46862793	30.16662598
END_DATA
