data/calibration-001771.ti3
CTI3   
ORIGINATOR	"ColorHug Factory"
CREATED	"Tue Mar 26 19:57:44 2013"
DESCRIPTOR	"Calibration Target chart information 3"
DEVICE_CLASS	"DISPLAY"
COLOR_REP	"RGB_XYZ"
TARGET_INSTRUMENT	"Hughski ColorHug"
INSTRUMENT_TYPE_SPECTRAL	"NO"
NORMALIZED_TO_Y_100	"NO"
NUMBER_OF_FIELDS	7
NUMBER_OF_SETS	15
BEGIN_DATA_FORMAT
 SAMPLE_ID	RGB_R	RGB_G	RGB_B	XYZ_X	XYZ_Y	XYZ_Z
END_DATA_FORMAT
BEGIN_DATA
 1	0	0	0	0	0.04577636719	0.09155273438
 2	1	1	1	43.39599609	38.54370117	47.92785645
 3	1	0	0	26.04675293	2.975463867	4.028320312
 4	0	1	0	14.73999023	26.87072754	12.31384277
 5	0	0	1	0.9155273438	8.239746094	31.21948242
 6	0	0	0	0	0.04577636719	0.09155273438
 7	1	1	1	43.62487793	38.58947754	48.06518555
 8	1	0	0	26.2298584	2.975463867	4.028320312
 9	0	1	0	14.7857666	26.91650391	12.35961914
 10	0	0	1	0.9155273438	8.239746094	31.26525879
 11	0	0	0	0.04577636719	0.04577636719	0.09155273438
 12	1	1	1	43.62487793	38.58947754	48.06518555
 13	1	0	0	26.00097656	2.975463867	4.028320312
 14	0	1	0	14.7857666	27.00805664	12.35961914
 15	0	0	1	0.9155273438	8.239746094	31.31103516
END_DATA
