data/calibration-002464.ti3
CTI3   
ORIGINATOR	"ColorHug Factory"
CREATED	"Wed Jun 11 20:01:01 2014"
DESCRIPTOR	"Calibration Target chart information 3"
DEVICE_CLASS	"DISPLAY"
COLOR_REP	"RGB_XYZ"
TARGET_INSTRUMENT	"Hughski ColorHug"
INSTRUMENT_TYPE_SPECTRAL	"NO"
NORMALIZED_TO_Y_100	"NO"
NUMBER_OF_FIELDS	7
NUMBER_OF_SETS	15
BEGIN_DATA_FORMAT
 SAMPLE_ID	RGB_R	RGB_G	RGB_B	XYZ_X	XYZ_Y	XYZ_Z
END_DATA_FORMAT
BEGIN_DATA
 1.0	0.0	0.0	0.0	0.480651855469	0.429321289062	0.500335693359
 2.0	1.0	1.0	1.0	67.147537231445	31.267166137695	53.54248046875
 3.0	1.0	0.0	0.0	43.115783691406	3.631195068359	6.522277832031
 4.0	0.0	1.0	0.0	20.634750366211	19.551300048828	11.191253662109
 5.0	0.0	0.0	1.0	1.431655883789	8.623153686523	35.310333251953
 6.0	0.0	0.0	0.0	0.480834960938	0.431335449219	0.502105712891
 7.0	1.0	1.0	1.0	67.147537231445	31.267166137695	52.851608276367
 8.0	1.0	0.0	0.0	43.115783691406	3.621566772461	6.569366455078
 9.0	0.0	1.0	0.0	20.686859130859	19.504760742188	11.055328369141
 10.0	0.0	0.0	1.0	1.438201904297	8.650466918945	35.463195800781
 11.0	0.0	0.0	0.0	0.483673095703	0.43212890625	0.505645751953
 12.0	1.0	1.0	1.0	67.147537231445	31.507690429688	53.194793701172
 13.0	1.0	0.0	0.0	43.115783691406	3.6328125	6.532684326172
 14.0	0.0	1.0	0.0	20.739227294922	19.551300048828	11.115325927734
 15.0	0.0	0.0	1.0	1.438446044922	8.66877746582	35.310333251953
END_DATA
