data/calibration-001909.ti3
CTI3   
ORIGINATOR	"ColorHug Factory"
CREATED	"Sat May 25 21:31:23 2013"
DESCRIPTOR	"Calibration Target chart information 3"
DEVICE_CLASS	"DISPLAY"
COLOR_REP	"RGB_XYZ"
TARGET_INSTRUMENT	"Hughski ColorHug"
INSTRUMENT_TYPE_SPECTRAL	"NO"
NORMALIZED_TO_Y_100	"NO"
NUMBER_OF_FIELDS	7
NUMBER_OF_SETS	15
BEGIN_DATA_FORMAT
 SAMPLE_ID	RGB_R	RGB_G	RGB_B	XYZ_X	XYZ_Y	XYZ_Z
END_DATA_FORMAT
BEGIN_DATA
 1	0	0	0	0.0457763671875	0.091552734375	0.1373291015625
 2	1	1	1	40.6951904296875	36.8499755859375	51.177978515625
 3	1	0	0	24.627685546875	2.7008056640625	3.9825439453125
 4	0	1	0	13.916015625	25.726318359375	12.359619140625
 5	0	0	1	0.91552734375	8.3770751953125	34.7442626953125
 6	0	0	0	0.091552734375	0.091552734375	0.1373291015625
 7	1	1	1	40.46630859375	36.6668701171875	51.08642578125
 8	1	0	0	24.90234375	2.7008056640625	3.9825439453125
 9	0	1	0	13.916015625	25.543212890625	12.26806640625
 10	0	0	1	0.91552734375	8.4228515625	34.6527099609375
 11	0	0	0	0.091552734375	0.091552734375	0.1373291015625
 12	1	1	1	40.83251953125	36.7584228515625	51.08642578125
 13	1	0	0	24.627685546875	2.7008056640625	3.9825439453125
 14	0	1	0	13.824462890625	25.5889892578125	12.26806640625
 15	0	0	1	0.91552734375	8.4228515625	34.698486328125
END_DATA
