data/calibration-000876.ti3
CTI3   
ORIGINATOR	"ColorHug Factory"
DESCRIPTOR	"Calibration Target chart information 3"
DEVICE_CLASS	"DISPLAY"
COLOR_REP	"RGB_XYZ"
TARGET_INSTRUMENT	"Hughski ColorHug"
INSTRUMENT_TYPE_SPECTRAL	"NO"
NORMALIZED_TO_Y_100	"NO"
NUMBER_OF_FIELDS	7
NUMBER_OF_SETS	15
BEGIN_DATA_FORMAT
 SAMPLE_ID	RGB_R	RGB_G	RGB_B	XYZ_X	XYZ_Y	XYZ_Z
END_DATA_FORMAT
BEGIN_DATA
 1	0	0	0	0.09155273438	0.09155273438	0.1373291016
 2	1	1	1	54.51965332	36.71264648	44.17419434
 3	1	0	0	34.42382812	3.616333008	5.676269531
 4	0	1	0	18.03588867	26.04675293	12.63427734
 5	0	0	1	0.9155273438	7.278442383	25.77209473
 6	0	0	0	0.1373291016	0.09155273438	0.1373291016
 7	1	1	1	54.70275879	36.89575195	44.26574707
 8	1	0	0	34.42382812	3.616333008	5.676269531
 9	0	1	0	18.12744141	25.9552002	12.54272461
 10	0	0	1	0.9155273438	7.278442383	25.72631836
 11	0	0	0	0.1373291016	0.09155273438	0.1831054688
 12	1	1	1	54.74853516	37.03308105	44.26574707
 13	1	0	0	34.51538086	3.616333008	5.676269531
 14	0	1	0	18.12744141	25.90942383	12.54272461
 15	0	0	1	0.9155273438	7.278442383	25.77209473
END_DATA
