data/calibration-002479.ti3
CTI3   
ORIGINATOR	"ColorHug Factory"
CREATED	"Wed Jun 11 20:05:26 2014"
DESCRIPTOR	"Calibration Target chart information 3"
DEVICE_CLASS	"DISPLAY"
COLOR_REP	"RGB_XYZ"
TARGET_INSTRUMENT	"Hughski ColorHug"
INSTRUMENT_TYPE_SPECTRAL	"NO"
NORMALIZED_TO_Y_100	"NO"
NUMBER_OF_FIELDS	7
NUMBER_OF_SETS	15
BEGIN_DATA_FORMAT
 SAMPLE_ID	RGB_R	RGB_G	RGB_B	XYZ_X	XYZ_Y	XYZ_Z
END_DATA_FORMAT
BEGIN_DATA
 1.0	0.0	0.0	0.0	71.859634399414	31.507690429688	50.567886352539
 2.0	1.0	1.0	1.0	75.851837158203	33.851226806641	54.613327026367
 3.0	1.0	0.0	0.0	48.761901855469	3.831604003906	6.287017822266
 4.0	0.0	1.0	0.0	23.540222167969	21.059112548828	11.145568847656
 5.0	0.0	0.0	1.0	1.467834472656	8.659606933594	36.900894165039
 6.0	0.0	0.0	0.0	0.260025024414	0.221694946289	0.295974731445
 7.0	1.0	1.0	1.0	76.560745239258	33.573760986328	54.613327026367
 8.0	1.0	0.0	0.0	0.0	3.844192504883	6.320983886719
 9.0	0.0	1.0	0.0	23.676300048828	21.059112548828	11.02555847168
 10.0	0.0	0.0	1.0	1.46467590332	8.659606933594	36.900894165039
 11.0	0.0	0.0	0.0	0.262725830078	0.223663330078	0.298080444336
 12.0	1.0	1.0	1.0	76.560745239258	33.711929321289	54.613327026367
 13.0	1.0	0.0	0.0	49.05387878418	3.856872558594	6.320983886719
 14.0	0.0	1.0	0.0	23.744918823242	21.059112548828	11.070266723633
 15.0	0.0	0.0	1.0	1.473907470703	8.66877746582	36.900894165039
END_DATA
