data/calibration-001686.ti3
CTI3   
ORIGINATOR	"ColorHug Factory"
CREATED	"Thu Feb 14 23:10:56 2013"
DESCRIPTOR	"Calibration Target chart information 3"
DEVICE_CLASS	"DISPLAY"
COLOR_REP	"RGB_XYZ"
TARGET_INSTRUMENT	"Hughski ColorHug"
INSTRUMENT_TYPE_SPECTRAL	"NO"
NORMALIZED_TO_Y_100	"NO"
NUMBER_OF_FIELDS	7
NUMBER_OF_SETS	15
BEGIN_DATA_FORMAT
 SAMPLE_ID	RGB_R	RGB_G	RGB_B	XYZ_X	XYZ_Y	XYZ_Z
END_DATA_FORMAT
BEGIN_DATA
 1	0	0	0	0	0	0.04577636719
 2	1	1	1	26.91650391	34.42382812	44.03686523
 3	1	0	0	15.10620117	2.151489258	2.60925293
 4	0	1	0	9.704589844	23.8494873	10.84899902
 5	0	0	1	0.6866455078	7.827758789	29.84619141
 6	0	0	0	0	0.09155273438	0.04577636719
 7	1	1	1	26.87072754	34.37805176	44.03686523
 8	1	0	0	15.0604248	2.197265625	2.60925293
 9	0	1	0	9.750366211	23.89526367	10.84899902
 10	0	0	1	0.6866455078	7.827758789	29.84619141
 11	0	0	0	0.09155273438	0.09155273438	0.04577636719
 12	1	1	1	26.82495117	34.51538086	44.0826416
 13	1	0	0	15.0604248	2.197265625	2.60925293
 14	0	1	0	9.704589844	23.98681641	10.89477539
 15	0	0	1	0.6866455078	7.827758789	29.89196777
END_DATA
