data/calibration-001219.ti3
CTI3   
ORIGINATOR	"ColorHug Factory"
DESCRIPTOR	"Calibration Target chart information 3"
DEVICE_CLASS	"DISPLAY"
COLOR_REP	"RGB_XYZ"
TARGET_INSTRUMENT	"Hughski ColorHug"
INSTRUMENT_TYPE_SPECTRAL	"NO"
NORMALIZED_TO_Y_100	"NO"
NUMBER_OF_FIELDS	7
NUMBER_OF_SETS	15
BEGIN_DATA_FORMAT
 SAMPLE_ID	RGB_R	RGB_G	RGB_B	XYZ_X	XYZ_Y	XYZ_Z
END_DATA_FORMAT
BEGIN_DATA
 1	0	0	0	0.09155273438	0.1373291016	0.1831054688
 2	1	1	1	35.0189209	34.42382812	40.55786133
 3	1	0	0	21.01135254	2.655029297	3.479003906
 4	0	1	0	12.58850098	24.94812012	11.35253906
 5	0	0	1	0.8239746094	6.958007812	25.90942383
 6	0	0	0	0.09155273438	0.1373291016	0.1831054688
 7	1	1	1	34.8815918	34.42382812	40.51208496
 8	1	0	0	20.96557617	2.655029297	3.479003906
 9	0	1	0	12.54272461	25.03967285	11.39831543
 10	0	0	1	0.8239746094	6.958007812	25.90942383
 11	0	0	0	0.09155273438	0.1373291016	0.1831054688
 12	1	1	1	34.92736816	34.42382812	40.51208496
 13	1	0	0	20.9197998	2.655029297	3.433227539
 14	0	1	0	12.54272461	25.08544922	11.39831543
 15	0	0	1	0.8239746094	6.958007812	25.90942383
END_DATA
