data/calibration-002275.ti3
CTI3   
ORIGINATOR	"ColorHug Factory"
CREATED	"Tue Jan 21 19:36:47 2014"
DESCRIPTOR	"Calibration Target chart information 3"
DEVICE_CLASS	"DISPLAY"
COLOR_REP	"RGB_XYZ"
TARGET_INSTRUMENT	"Hughski ColorHug"
INSTRUMENT_TYPE_SPECTRAL	"NO"
NORMALIZED_TO_Y_100	"NO"
NUMBER_OF_FIELDS	7
NUMBER_OF_SETS	15
BEGIN_DATA_FORMAT
 SAMPLE_ID	RGB_R	RGB_G	RGB_B	XYZ_X	XYZ_Y	XYZ_Z
END_DATA_FORMAT
BEGIN_DATA
 1.0	0.0	0.0	0.0	0.359741210938	0.323791503906	0.385269165039
 2.0	1.0	1.0	1.0	78.01904296875	34.276138305664	51.522003173828
 3.0	1.0	0.0	0.0	49.349395751953	4.065505981445	6.59049987793
 4.0	0.0	1.0	0.0	24.30859375	22.505493164062	11.36198425293
 5.0	0.0	0.0	1.0	1.548873901367	8.15934753418	33.300811767578
 6.0	0.0	0.0	0.0	0.364639282227	0.329986572266	0.390518188477
 7.0	1.0	1.0	1.0	78.769226074219	34.276138305664	51.522003173828
 8.0	1.0	0.0	0.0	49.648483276367	4.047424316406	6.601119995117
 9.0	0.0	1.0	0.0	24.165191650391	22.692520141602	11.346252441406
 10.0	0.0	0.0	1.0	1.555038452148	8.143127441406	33.300811767578
 11.0	0.0	0.0	0.0	0.368072509766	0.332595825195	0.39143371582
 12.0	1.0	1.0	1.0	78.01904296875	34.420166015625	52.178329467773
 13.0	1.0	0.0	0.0	49.951217651367	4.051422119141	6.617111206055
 14.0	0.0	1.0	0.0	24.165191650391	22.443832397461	11.377777099609
 15.0	0.0	0.0	1.0	1.55534362793	8.094848632812	33.573760986328
END_DATA
