data/calibration-000328.ti3
CTI3
DESCRIPTOR	"Calibration Target chart information 3"
ORIGINATOR	"ColorHug Factory"
DEVICE_CLASS	"DISPLAY"
COLOR_REP	"RGB_XYZ"
TARGET_INSTRUMENT	"ColorHug"
INSTRUMENT_TYPE_SPECTRAL	"NO"
LUMINANCE_XYZ_CDM2	"48.431396 34.915924 40.214539"
NORMALIZED_TO_Y_100	"YES"
NUMBER_OF_FIELDS	7
NUMBER_OF_SETS	836
BEGIN_DATA_FORMAT
 SAMPLE_ID	RGB_R	RGB_G	RGB_B	XYZ_X	XYZ_Y	XYZ_Z
END_DATA_FORMAT
BEGIN_DATA
 1	100	100	100	132.1148825	99.21671018	114.4908616
 2	100	100	100	140.2088773	100	114.7519582
 3	100	100	100	140.078329	99.60835509	114.8825065
 4	100	100	100	140.078329	99.47780679	114.6214099
 5	33.33	32.622	30.968	11.74934726	8.224543081	8.877284595
 6	100	0	100	89.94778068	27.80678851	80.67885117
 7	100	100	0	138.6422977	81.46214099	47.65013055
 8	0	100	100	48.82506527	90.8616188	100.9138381
 9	0	100	0	47.12793734	71.54046997	33.42036554
 10	0	0	100	2.088772846	18.4073107	66.84073107
 11	100	0	0	88.25065274	9.007832898	13.5770235
 12	0	0	0	0	0	0.1305483029
 13	0	52.455	100	12.53263708	35.37859008	75.06527415
 14	100	0	50.3	88.25065274	13.05483029	27.67624021
 15	100	54.739	100	102.2193211	46.08355091	89.68668407
 16	100	52.128	0	99.60835509	25.32637076	21.27937337
 17	0	0	46.181	0.3916449086	3.002610966	11.09660574
 18	0	51.141	0	10.31331593	15.66579634	7.310704961
 19	0	100	51.348	47.65013055	75.97911227	47.91122715
 20	100	100	52.037	138.772846	85.37859008	62.66318538
 21	49.216	0	0	17.62402089	1.82767624	2.74151436
 22	56.159	100	0	71.01827676	74.54308094	37.20626632
 23	49.226	100	100	66.84073107	92.55874674	103.6553525
 24	44.487	0	100	15.92689295	19.97389034	68.79895561
 25	100	44.498	52.029	96.34464752	25.06527415	34.20365535
 26	48.926	48.544	100	28.59007833	34.59530026	76.76240209
 27	51.368	100	47.25	66.84073107	77.54569191	48.69451697
 28	49.893	0	49.033	18.53785901	5.483028721	15.92689295
 29	53.109	51.372	0	31.20104439	17.75456919	10.57441253
 30	0	58.587	53.943	14.36031332	25.58746736	25.97911227
 31	100	28.065	100	92.95039164	32.50652742	83.42036554
 32	0	0	72.874	0.9138381201	8.485639687	30.93994778
 33	0	26.758	100	4.177545692	22.5848564	68.92950392
 34	0	25.426	0	2.349869452	3.524804178	1.697127937
 35	72.508	0	100	42.95039164	22.845953	73.75979112
 36	100	27.395	0	91.25326371	13.31592689	15.66579634
 37	74.47	100	100	94.12532637	95.3002611	107.8328982
 38	100	0	25.728	88.51174935	10.05221932	17.10182768
 39	73.862	0	0	43.08093995	4.438642298	6.657963446
 40	100	100	25.402	138.5117493	82.11488251	51.04438642
 41	0	75.751	100	26.76240209	56.13577023	84.59530026
 42	0	75.172	0	24.41253264	36.4229765	16.97127937
 43	0	100	25.864	47.12793734	72.45430809	36.68407311
 44	100	0	74.801	88.90339426	18.2767624	47.12793734
 45	0	100	75.421	48.04177546	81.5926893	68.0156658
 46	24.577	0	0	4.046997389	0.3916449086	0.6527415144
 47	26.321	100	0	51.82767624	72.45430809	34.20365535
 48	100	75.835	0	115.0130548	46.60574413	31.46214099
 49	100	100	77.061	138.1201044	91.25326371	84.07310705
 50	71.263	100	0	88.25065274	76.37075718	39.81723238
 51	0	0	15.614	0.1305483029	0.2610966057	1.174934726
 52	0	30.049	70.936	4.046997389	13.18537859	31.5926893
 53	100	77.691	100	117.7545692	68.2767624	99.8694517
 54	24.486	100	100	52.74151436	91.25326371	101.5665796
 55	100	62.784	31.909	104.6997389	35.37859008	30.67885117
 56	29.552	0	100	7.702349869	19.06005222	68.2767624
 57	32.98	70.921	100	30.80939948	51.82767624	83.81201044
 58	0	27.681	40.241	3.002610966	6.527415144	10.44386423
 59	67.901	71.021	100	59.39947781	54.83028721	87.98955614
 60	28.154	100	67.829	53.00261097	80.15665796	61.22715405
 61	71.637	100	70.001	89.42558747	84.46475196	69.19060052
 62	58.822	58.763	53.586	40.20887728	28.19843342	29.76501305
 63	33.466	30.48	0	11.09660574	5.874673629	3.65535248
 64	100	73.795	71.277	113.7075718	52.74151436	60.31331593
 65	68.394	29.692	0	39.68668407	8.61618799	7.963446475
 66	70.399	0	29.039	38.90339426	5.221932115	10.31331593
 67	28.078	0	26.956	5.483028721	1.566579634	4.438642298
 68	28.532	72.339	0	27.93733681	34.20365535	16.44908616
 69	100	30.941	26.496	91.90600522	15.53524804	19.71279373
 70	34.597	0	73.611	9.007832898	9.660574413	33.28981723
 71	71.573	0	72.408	40.8616188	12.79373368	37.07571802
 72	0	71.029	29.412	21.54046997	33.55091384	19.58224543
 73	68.386	75.008	0	60.96605744	40.33942559	22.7154047
 74	68.088	27.309	100	40.46997389	26.76240209	74.93472585
 75	100	26.457	73.749	91.77545692	22.19321149	48.43342037
 76	74.344	100	27.392	92.29765013	77.67624021	44.38642298
 77	27.558	100	28.197	52.08877285	72.845953	38.12010444
 78	31.196	27.465	100	11.09660574	23.49869452	70.36553525
 79	0	75.521	72.824	25.45691906	45.69190601	48.69451697
 80	0	50.93	25.553	10.18276762	16.31853786	10.57441253
 81	32.06	33.584	64.033	11.74934726	13.5770235	27.4151436
 82	81.666	55.38	0	67.23237598	24.28198433	17.23237598
 83	68.257	32.751	58.286	40.9921671	15.27415144	27.54569191
 84	0	55.248	81.585	13.05483029	29.89556136	49.73890339
 85	73.781	52.099	100	55.87467363	39.42558747	81.46214099
 86	100	50.537	82.952	98.17232376	36.4229765	63.96866841
 87	23.55	0	50.439	4.177545692	4.177545692	14.36031332
 88	31.335	62.746	31.114	23.36814621	26.63185379	17.49347258
 89	100	18.31	49.418	89.55613577	14.75195822	28.19843342
 90	26.498	48.404	0	13.96866841	14.36031332	7.310704961
 91	47.91	100	85.744	64.88250653	86.4229765	82.63707572
 92	71.829	47.313	31.811	49.60835509	18.92950392	17.75456919
 93	31.304	64.132	69.316	24.54308094	34.20365535	41.38381201
 94	80.403	0	54.321	52.61096606	10.05221932	24.54308094
 95	18.455	50.036	100	13.96866841	33.94255875	74.67362924
 96	50.653	100	16.345	66.05744125	74.28198433	37.72845953
 97	80.121	100	52.261	101.0443864	81.7232376	57.18015666
 98	0	22.54	19.289	1.958224543	3.394255875	3.263707572
 99	100	75.273	46.886	114.229765	49.21671018	43.08093995
 100	0	78.618	56.625	27.4151436	45.4308094	36.94516971
 101	51.137	80.627	100	49.47780679	63.96866841	90.7310705
 102	48.446	0	17.864	16.97127937	2.219321149	4.308093995
 103	100	50.023	21.211	98.43342037	24.80417755	23.10704961
 104	50.115	20.118	0	19.84334204	4.177545692	3.916449086
 105	58.099	72.426	33.158	48.04177546	37.72845953	25.45691906
 106	19.364	100	50.197	50	75.84856397	47.91122715
 107	50.683	19.177	100	22.06266319	22.7154047	71.01827676
 108	53.37	0	81.576	22.32375979	13.5770235	44.64751958
 109	47.768	76.245	0	41.38381201	39.68668407	20.23498695
 110	0	18.927	55.503	1.697127937	6.788511749	17.88511749
 111	0	13.277	0	0.6527415144	1.044386423	0.5221932115
 112	72.862	72.473	75.625	65.01305483	47.65013055	56.65796345
 113	100	13.904	0	88.38120104	10.18276762	14.09921671
 114	86.349	0	100	63.8381201	25.06527415	76.76240209
 115	100	41.941	100	96.47519582	38.12010444	86.1618799
 116	100	81.785	16.464	118.6684073	54.30809399	36.1618799
 117	0	44.063	52.596	7.963446475	15.66579634	20.62663185
 118	0	0	58.917	0.5221932115	5.221932115	19.19060052
 119	59.25	24.551	29.789	28.98172324	7.310704961	10.18276762
 120	82.73	82.874	100	88.64229765	70.62663185	97.65013055
 121	80.039	0	12.618	52.08877285	5.613577023	9.007832898
 122	60.957	47.729	77.817	37.98955614	26.63185379	47.91122715
 123	100	0	38.618	87.98955614	11.22715405	21.54046997
 124	0	40.09	100	7.832898172	28.06788512	71.80156658
 125	0	15.283	82.322	1.82767624	12.79373368	42.29765013
 126	17.592	81.726	100	33.42036554	63.8381201	88.77284595
 127	100	14.13	100	90.07832898	28.98172324	81.7232376
 128	15.261	100	82.059	49.60835509	83.81201044	75.71801567
 129	47.77	79.418	60.389	44.64751958	49.08616188	42.55874674
 130	18.768	16.429	0	3.394255875	1.697127937	1.174934726
 131	55.634	100	65.763	70.49608355	80.80939948	62.27154047
 132	100	100	38.541	137.4673629	83.42036554	55.35248042
 133	17.421	0	83.497	3.133159269	12.01044386	43.21148825
 134	17.237	16.758	100	4.699738903	20.36553525	68.2767624
 135	0	15.067	30.039	1.044386423	2.610966057	5.091383812
 136	0	0	86.505	1.436031332	12.79373368	46.73629243
 137	75.736	72.799	50.02	69.45169713	42.55874674	36.94516971
 138	100	83.323	85.529	121.54047	68.92950392	82.24543081
 139	100	100	64.894	138.1201044	87.72845953	71.67101828
 140	81.98	84.914	0	87.85900783	53.91644909	31.20104439
 141	0	63.757	15.49	16.71018277	25.45691906	13.05483029
 142	49.514	66.135	100	37.85900783	48.04177546	83.28981723
 143	100	0	61.862	88.12010444	15.14360313	35.24804178
 144	24.308	45.41	49.831	12.27154047	16.31853786	19.97389034
 145	15.963	0	17.047	1.82767624	0.5221932115	1.82767624
 146	87.497	100	100	114.0992167	97.12793734	110.7049608
 147	52.099	25.003	75.752	23.10704961	15.14360313	39.42558747
 148	14.909	81.162	0	30.41775457	43.47258486	20.62663185
 149	0	34.792	14.626	4.569190601	7.180156658	4.438642298
 150	48.39	45.075	22.552	24.93472585	14.36031332	10.83550914
 151	83.545	65.965	100	78.06788512	52.08877285	88.90339426
 152	16.226	62.345	0	17.75456919	24.02088773	11.35770235
 153	63.222	0	14.914	30.41775457	3.524804178	6.005221932
 154	80.449	13.446	0	53.26370757	6.527415144	8.61618799
 155	83.917	41.562	0	64.09921671	15.92689295	13.5770235
 156	100	60.448	46.3	103.2637076	34.98694517	36.1618799
 157	15.584	0	34.795	1.82767624	1.82767624	6.396866841
 158	17.144	65.121	100	21.54046997	45.82245431	80.54830287
 159	83.602	55.334	62.667	70.36553525	31.07049608	40.46997389
 160	0	82.19	14.22	29.76501305	44.90861619	22.06266319
 161	25.132	74.856	50.616	28.85117493	40.60052219	31.8537859
 162	0	13.769	100	2.219321149	19.71279373	67.88511749
 163	87.181	0	0	62.92428198	6.527415144	9.791122715
 164	0	100	39.19	46.73629243	73.49869452	41.51436031
 165	78.047	65.914	19.865	67.75456919	33.28981723	22.5848564
 166	100	63.961	15.865	105.7441253	35.24804178	27.154047
 167	100	45.955	36.032	96.47519582	23.62924282	26.37075718
 168	15.926	100	16.89	48.56396867	72.06266319	34.98694517
 169	41.459	100	0	59.0078329	73.10704961	35.24804178
 170	48.707	37.288	48.139	23.10704961	13.4464752	19.06005222
 171	83.381	100	13.285	105.4830287	78.19843342	43.47258486
 172	78.129	25.303	75.621	52.48041775	18.2767624	43.73368146
 173	12.396	0	0	1.174934726	0.1305483029	0.2610966057
 174	37.607	48.336	83.346	20.10443864	27.154047	51.30548303
 175	35.588	15.356	0	9.53002611	2.349869452	2.088772846
 176	61.245	100	100	77.54569191	93.34203655	105.2219321
 177	100	67.29	87.195	108.4856397	51.43603133	75.58746736
 178	0	0	30.615	0.1305483029	1.305483029	4.699738903
 179	35.187	81.789	83.323	38.90339426	57.18015666	65.66579634
 180	39.525	80.194	22.879	39.16449086	44.38642298	24.15143603
 181	50.634	34.593	0	23.36814621	8.746736292	6.135770235
 182	14.175	100	63.146	48.69451697	78.32898172	57.04960836
 183	83.493	17.728	34.574	57.96344648	9.53002611	15.92689295
 184	23.463	22.014	79.943	6.527415144	13.8381201	40.7310705
 185	18.066	31.847	0	6.135770235	5.874673629	3.002610966
 186	87.201	100	81.361	112.6631854	89.81723238	84.46475196
 187	0	100	87.95	48.04177546	85.24804178	82.89817232
 188	34.476	17.888	46.22	12.27154047	5.874673629	13.5770235
 189	18.277	0	67.39	2.872062663	7.310704961	26.37075718
 190	100	87.972	0	124.0208877	62.01044386	38.51174935
 191	82.925	34.85	100	62.53263708	31.5926893	78.98172324
 192	0	88.016	100	36.5535248	71.67101828	91.90600522
 193	36.104	85.655	100	43.34203655	68.92950392	91.77545692
 194	60.981	0	0	27.67624021	2.872062663	4.308093995
 195	51.466	61.826	78.106	36.03133159	36.03133159	51.69712794
 196	78.427	31.983	22.175	52.48041775	11.61879896	12.92428198
 197	66.017	44.321	0	41.1227154	15.01305483	10.57441253
 198	83.941	0	84.177	58.48563969	18.2767624	53.13315927
 199	20.158	46.612	23.269	11.22715405	13.8381201	9.138381201
 200	0	100	62.618	47.12793734	78.19843342	55.74412533
 201	33.832	0	13.933	7.702349869	1.044386423	2.349869452
 202	100	17.286	16.322	88.38120104	11.22715405	15.79634465
 203	0	42.204	83.926	7.963446475	22.7154047	49.21671018
 204	0	87.774	0	34.07310705	51.82767624	24.28198433
 205	64.988	0	59.017	32.50652742	8.746736292	24.54308094
 206	14.677	0	100	3.133159269	18.66840731	67.49347258
 207	88.934	82.673	35.021	95.82245431	53.78590078	37.98955614
 208	0	63.778	100	18.2767624	43.99477807	79.11227154
 209	83.429	17.674	100	59.1383812	26.50130548	77.154047
 210	30.899	100	85.668	54.17754569	84.98694517	80.54830287
 211	83.68	0	41.016	56.78851175	8.485639687	17.88511749
 212	100	63.515	0	103.5248042	34.07310705	25.32637076
 213	85.074	69.987	0	80.02610966	37.33681462	23.75979112
 214	20.801	45.524	69.018	11.74934726	20.36553525	34.07310705
 215	21.382	82.482	73.017	33.94255875	54.6997389	53.65535248
 216	100	15.128	64.249	88.64229765	16.97127937	37.98955614
 217	36.522	0	58.427	9.660574413	6.135770235	20.36553525
 218	22.466	81.296	33.007	32.63707572	45.69190601	26.76240209
 219	62.531	87.152	0	63.96866841	54.83028721	28.72062663
 220	84.12	85.397	67.886	91.90600522	62.92428198	59.0078329
 221	18.87	27.336	45.389	5.613577023	7.441253264	13.31592689
 222	66.439	100	14.444	81.20104439	75.58746736	39.94778068
 223	41.636	22.147	19.003	14.09921671	4.569190601	5.091383812
 224	61.271	100	81.94	76.37075718	86.03133159	79.24281984
 225	86.013	100	0	109.6605744	78.19843342	43.21148825
 226	37.57	0	0	9.53002611	0.9138381201	1.566579634
 227	100	16.132	84.102	89.03394256	22.845953	59.0078329
 228	0	100	13.619	46.73629243	72.06266319	34.46475196
 229	38.905	100	56.471	57.70234987	77.54569191	53.00261097
 230	100	15.382	34.563	88.12010444	12.27154047	20.49608355
 231	36.656	14.908	100	11.74934726	20.88772846	69.45169713
 232	0	62.593	66.608	16.57963446	31.33159269	36.94516971
 233	66.347	12.528	100	36.03133159	23.10704961	73.49869452
 234	100	43.375	69.233	95.03916449	27.93733681	47.38903394
 235	100	56.36	61.236	101.0443864	34.46475196	44.38642298
 236	0	86.194	44.955	33.28981723	52.74151436	34.46475196
 237	64.527	87.262	100	67.36292428	73.49869452	96.86684073
 238	34.411	0	42.471	8.224543081	3.394255875	10.83550914
 239	80.23	59.707	85.12	67.49347258	40.20887728	64.49086162
 240	20.625	19.056	14.791	4.308093995	2.610966057	2.610966057
 241	15.341	34.221	100	7.702349869	25.45691906	71.01827676
 242	36.777	0	87.905	10.44386423	14.49086162	50.65274151
 243	34.598	56.247	100	22.845953	38.77284595	78.06788512
 244	20.86	67.629	17.418	22.19321149	29.37336815	15.53524804
 245	44.958	60.843	18.054	29.63446475	24.80417755	14.75195822
 246	37.421	60.193	0	24.54308094	23.10704961	11.87989556
 247	84.011	33.849	42.612	62.53263708	15.27415144	21.80156658
 248	17.241	60.339	37.743	16.97127937	24.54308094	18.2767624
 249	50.65	17.261	53.278	20.36553525	8.093994778	19.32114883
 250	45.505	48.926	65.152	25.06527415	22.5848564	33.68146214
 251	44.567	84.081	39.649	45.16971279	51.04438642	32.89817232
 252	100	86.339	72.054	123.3681462	68.53785901	68.66840731
 253	68.14	61.135	0	50.65274151	26.63185379	16.18798956
 254	17.93	66.986	81.403	21.80156658	39.81723238	54.30809399
 255	39.242	60.215	48.926	25.97911227	27.154047	25.19582245
 256	20.099	18.77	62.967	4.699738903	8.485639687	23.89033943
 257	34.553	100	14.582	54.96083551	72.845953	35.63968668
 258	87.345	0	66.694	63.31592689	13.8381201	35.77023499
 259	0	43.714	39.842	7.571801567	13.5770235	13.5770235
 260	100	37.705	13.955	92.03655352	17.62402089	18.4073107
 261	31.265	86.993	0	40.20887728	51.69712794	24.80417755
 262	51.402	82.661	81.338	50.39164491	58.8772846	65.27415144
 263	100	100	12.984	134.7258486	80.80939948	48.30287206
 264	0	37.859	0	5.352480418	8.093994778	3.785900783
 265	62.092	58.215	100	44.51697128	42.55874674	81.7232376
 266	86.186	100	64.1	109.7911227	84.59530026	67.10182768
 267	100	35.251	85.898	91.77545692	29.24281984	63.96866841
 268	63.182	89.992	41.974	67.36292428	61.35770235	40.20887728
 269	13.504	100	0	48.04177546	71.80156658	33.42036554
 270	100	0	13.228	86.4229765	9.268929504	14.49086162
 271	63.881	40.826	100	38.90339426	31.8537859	77.02349869
 272	69.387	84.838	20.792	69.58224543	52.61096606	30.80939948
 273	0	70.279	45.136	21.14882507	34.59530026	25.84856397
 274	79.094	64.754	40.908	67.62402089	33.94255875	29.24281984
 275	62.385	54.099	17.396	41.1227154	21.01827676	14.36031332
 276	64.408	14.621	0	32.24543081	4.569190601	5.483028721
 277	70.028	15.606	44.651	39.16449086	8.355091384	17.23237598
 278	0	63.544	0	16.57963446	25.06527415	11.74934726
 279	83.475	47.274	20.502	65.01305483	19.84334204	17.23237598
 280	55.866	0	32.671	23.10704961	3.916449086	9.138381201
 281	58.007	0	100	26.63185379	21.14882507	71.54046997
 282	100	0	87.698	87.98955614	22.5848564	62.53263708
 283	0	13.792	67.215	1.305483029	8.355091384	26.76240209
 284	84.123	17.001	58.549	59.0078329	13.05483029	29.24281984
 285	59.579	32.873	15.966	30.28720627	9.268929504	8.355091384
 286	10.41	32.998	28.659	5.091383812	7.441253264	7.310704961
 287	17.231	40.031	85.65	9.268929504	22.45430809	51.17493473
 288	37.568	41.561	10.108	16.31853786	11.09660574	6.788511749
 289	0	69.015	85.092	21.01827676	42.68929504	59.39947781
 290	14.442	100	36.187	48.17232376	73.49869452	40.60052219
 291	100	40.549	0	93.47258486	18.66840731	18.0156658
 292	82.143	45.435	78.429	63.4464752	28.32898172	51.95822454
 293	52.674	0	67.3	21.01827676	9.399477807	29.50391645
 294	0	87.868	66.793	35.37859008	59.66057441	50.91383812
 295	86.53	100	40.524	110.0522193	80.54830287	51.95822454
 296	71.777	85.586	67.232	74.02088773	60.96605744	56.00522193
 297	43.216	100	31.671	59.92167102	73.89033943	40.7310705
 298	39.245	32.908	85.845	16.05744125	20.10443864	50.78328982
 299	0	45.662	67.543	8.746736292	19.84334204	32.50652742
 300	12.161	100	100	49.34725849	90.46997389	100.9138381
 301	67.049	0	85.516	35.11749347	16.31853786	51.30548303
 302	100	89.041	100	126.3707572	82.24543081	106.6579634
 303	20.246	60.698	56.526	18.1462141	27.67624021	28.98172324
 304	52.177	55.457	40.416	32.50652742	23.10704961	20.62663185
 305	72.617	87.018	83.932	76.37075718	67.62402089	74.93472585
 306	40.512	16.723	66.475	13.18537859	9.921671018	28.06788512
 307	68.507	49.232	50.605	45.95300261	22.19321149	26.63185379
 308	65.622	100	54.525	80.41775457	79.76501305	55.22193211
 309	54.115	37.24	66.394	27.2845953	17.23237598	32.76762402
 310	100	76.138	31.267	113.3159269	48.17232376	36.5535248
 311	54.728	65.623	0	39.42558747	29.24281984	16.05744125
 312	63.126	12.526	64.37	31.07049608	10.70496084	29.11227154
 313	72.827	18.08	23.704	42.16710183	7.049608355	10.18276762
 314	23.268	15.278	34.947	4.699738903	3.524804178	7.571801567
 315	87.648	68.954	59.645	84.20365535	42.42819843	44.38642298
 316	0	85.595	85.198	33.81201044	62.40208877	69.19060052
 317	35.798	84.371	69.21	41.1227154	56.26631854	52.08877285
 318	36.062	47.494	35.919	17.88511749	16.31853786	14.36031332
 319	86.083	36.277	59.152	66.05744125	19.58224543	32.89817232
 320	58.21	100	30.361	72.06266319	75.71801567	42.16710183
 321	46.745	14.614	32.317	16.71018277	4.438642298	8.355091384
 322	81.573	73.869	86.954	78.85117493	54.17754569	73.23759791
 323	85.991	49.387	48.206	70.23498695	24.41253264	28.98172324
 324	28.062	87.906	19.654	40.07832898	53.65535248	27.2845953
 325	68.992	17.993	85.124	38.77284595	18.2767624	52.08877285
 326	100	66.147	100	106.9190601	55.22193211	93.86422977
 327	33.358	64.806	84.517	26.37075718	39.68668407	58.48563969
 328	41.351	17.736	80.522	14.09921671	14.09921671	42.55874674
 329	100	100	88.719	136.0313316	94.51697128	97.65013055
 330	66.336	0	44.32	33.81201044	6.527415144	15.92689295
 331	64.85	67.09	12.293	50.91383812	32.11488251	19.19060052
 332	15.262	31.268	63.277	5.744125326	12.01044386	25.71801567
 333	15.008	43.663	37.3	9.007832898	13.4464752	12.79373368
 334	0	57.895	38.078	13.5770235	22.5848564	17.23237598
 335	66.599	58.458	67.871	48.30287206	32.24543081	42.42819843
 336	59.191	18.651	15.215	27.2845953	5.091383812	6.266318538
 337	66.781	31.14	84.629	39.03394256	21.54046997	52.61096606
 338	88.033	85.158	52.14	97.51958225	60.05221932	48.04177546
 339	36.882	100	100	57.96344648	90.8616188	102.4804178
 340	26.102	33.094	17.006	8.61618799	7.049608355	5.221932115
 341	56.309	36.861	35.862	28.59007833	12.01044386	13.96866841
 342	45.839	65.587	67.033	33.42036554	35.90078329	41.25326371
 343	83.709	81.172	16.406	86.5535248	49.73890339	30.67885117
 344	0	48.132	13.005	9.007832898	13.96866841	7.441253264
 345	87.176	50.021	100	74.15143603	40.46997389	84.72584856
 346	51.219	84.244	13.73	50.26109661	49.47780679	26.10966057
 347	60.606	71.415	48.406	49.21671018	39.29503916	32.63707572
 348	0	11.359	12.718	0.5221932115	1.044386423	1.305483029
 349	86.429	49.705	33.145	70.75718016	22.7154047	22.19321149
 350	34.056	40.958	100	16.05744125	29.37336815	72.845953
 351	100	30.557	59.628	90.07832898	20.10443864	36.4229765
 352	88.497	26.902	13.449	66.97127937	11.09660574	13.05483029
 353	14.167	51.98	88.218	13.31592689	30.15665796	57.04960836
 354	13.784	12.983	49.37	2.349869452	4.830287206	13.8381201
 355	15.018	88.441	48.062	36.68407311	56.52741514	37.72845953
 356	87.79	25.769	89.215	66.84073107	24.41253264	63.05483029
 357	0	33.206	55.865	4.438642298	10.96605744	20.36553525
 358	74.324	76.029	35.536	68.1462141	43.86422977	31.07049608
 359	65.863	57.223	42.324	46.08355091	25.97911227	23.89033943
 360	30.893	54.646	13.136	18.4073107	18.92950392	10.44386423
 361	0	34.36	28.321	4.438642298	7.702349869	7.180156658
 362	15.443	77.087	85.116	28.32898172	51.30548303	64.36031332
 363	63.381	68.947	68.521	50.78328982	40.7310705	46.47519582
 364	69.733	27.566	42.917	40.20887728	10.96605744	17.75456919
 365	32.754	100	42.76	54.04699739	75.06527415	44.51697128
 366	47.096	29.481	34.829	19.45169713	8.355091384	11.09660574
 367	8.5451	71.948	62.695	22.97650131	39.29503916	37.98955614
 368	0	86.048	29.3	32.76762402	51.04438642	27.67624021
 369	53.697	51.572	85.367	32.63707572	30.93994778	56.52741514
 370	17.608	56.69	12.515	14.88250653	19.97389034	10.31331593
 371	90.638	14.414	49.227	69.71279373	12.01044386	24.54308094
 372	63.248	63.64	89.55	48.17232376	42.68929504	68.1462141
 373	100	85.976	58.455	121.9321149	64.62140992	56.78851175
 374	9.8311	28.027	7.5567	3.65535248	4.569190601	2.610966057
 375	89.831	64.313	69.506	84.72584856	40.7310705	51.17493473
 376	31.754	12.995	25.543	7.441253264	2.610966057	4.960835509
 377	75.914	45.966	64.957	53.78590078	24.15143603	37.59791123
 378	7.5735	50.695	58.941	11.09660574	21.01827676	27.02349869
 379	100	69.835	58.912	107.310705	45.95300261	48.30287206
 380	32.211	34.376	48.339	11.74934726	10.96605744	16.97127937
 381	13.901	12.159	73.555	2.74151436	9.921671018	32.89817232
 382	87.071	9.028	77.653	63.18537859	17.36292428	47.12793734
 383	23.272	85.409	84.29	36.94516971	61.87989556	68.2767624
 384	93.289	39.48	26.145	78.72062663	17.62402089	19.06005222
 385	65.769	59.63	30.967	47.12793734	26.76240209	20.36553525
 386	100	32.265	41.803	90.9921671	17.62402089	25.71801567
 387	86.568	85.281	86.961	95.03916449	69.06005222	80.80939948
 388	52.577	86.83	30.016	53.78590078	54.17754569	31.5926893
 389	47.921	40.199	76.902	23.75979112	21.27937337	43.08093995
 390	22.36	86.619	61.58	37.07571802	56.65796345	46.21409922
 391	52.232	33.601	88.787	25.45691906	22.45430809	56.52741514
 392	0	28.523	86.267	4.046997389	17.36292428	48.82506527
 393	43.497	67.879	39.551	32.89817232	33.02872063	24.02088773
 394	39.877	45.261	0	18.92950392	13.18537859	7.441253264
 395	86.94	12.43	24.699	62.27154047	8.224543081	13.18537859
 396	28.363	55.339	90.398	19.19060052	33.81201044	62.53263708
 397	39.018	70.534	57.879	31.8537859	37.72845953	35.37859008
 398	12.833	28.519	78.828	5.091383812	15.14360313	40.46997389
 399	68.35	31.815	69.975	40.20887728	17.62402089	37.33681462
 400	56.52	26.226	41.626	26.50130548	8.877284595	14.88250653
 401	12.938	46.218	0	9.268929504	12.53263708	6.005221932
 402	8.6938	60.179	26.117	15.40469974	23.23759791	13.96866841
 403	51.995	89.429	96.608	56.65796345	74.28198433	90.33942559
 404	46.905	47.746	48.909	25.06527415	18.79895561	21.93211488
 405	14.352	81.814	19.479	30.80939948	45.16971279	22.97650131
 406	71.482	38.117	12.273	45.16971279	12.92428198	10.96605744
 407	86.616	60.785	10.012	76.10966057	29.50391645	20.88772846
 408	71.811	88.979	52.186	76.24020888	62.14099217	46.73629243
 409	43.213	100	72.083	60.44386423	81.33159269	66.57963446
 410	73.92	23.444	8.2853	44.38642298	7.571801567	8.485639687
