data/calibration-001213.ti3
CTI3   
ORIGINATOR	"ColorHug Factory"
DESCRIPTOR	"Calibration Target chart information 3"
DEVICE_CLASS	"DISPLAY"
COLOR_REP	"RGB_XYZ"
TARGET_INSTRUMENT	"Hughski ColorHug"
INSTRUMENT_TYPE_SPECTRAL	"NO"
NORMALIZED_TO_Y_100	"NO"
NUMBER_OF_FIELDS	7
NUMBER_OF_SETS	15
BEGIN_DATA_FORMAT
 SAMPLE_ID	RGB_R	RGB_G	RGB_B	XYZ_X	XYZ_Y	XYZ_Z
END_DATA_FORMAT
BEGIN_DATA
 1	0	0	0	0.04577636719	0.04577636719	0.1373291016
 2	1	1	1	30.02929688	35.88867188	41.79382324
 3	1	0	0	17.578125	2.426147461	2.975463867
 4	0	1	0	11.16943359	26.13830566	11.39831543
 5	0	0	1	0.6866455078	7.141113281	27.60314941
 6	0	0	0	0.04577636719	0.04577636719	0.1373291016
 7	1	1	1	30.07507324	35.75134277	41.74804688
 8	1	0	0	17.53234863	2.426147461	2.9296875
 9	0	1	0	11.12365723	26.00097656	11.35253906
 10	0	0	1	0.732421875	7.141113281	27.37426758
 11	0	0	0	0.04577636719	0.04577636719	0.1373291016
 12	1	1	1	29.66308594	35.5682373	41.70227051
 13	1	0	0	17.48657227	2.426147461	2.9296875
 14	0	1	0	11.07788086	25.9552002	11.3067627
 15	0	0	1	0.732421875	7.141113281	27.32849121
END_DATA
