data/calibration-002846.ti3
CTI3   
ORIGINATOR	"ColorHug Factory"
CREATED	"Tue May 05 21:57:19 2015"
DESCRIPTOR	"Calibration Target chart information 3"
DEVICE_CLASS	"DISPLAY"
COLOR_REP	"RGB_XYZ"
TARGET_INSTRUMENT	"Hughski ColorHug"
INSTRUMENT_TYPE_SPECTRAL	"NO"
NORMALIZED_TO_Y_100	"NO"
NUMBER_OF_FIELDS	7
NUMBER_OF_SETS	15
BEGIN_DATA_FORMAT
 SAMPLE_ID	RGB_R	RGB_G	RGB_B	XYZ_X	XYZ_Y	XYZ_Z
END_DATA_FORMAT
BEGIN_DATA
 1.0	0.0	0.0	0.0	0.463806152344	0.49055480957	0.5751953125
 2.0	1.0	1.0	1.0	105.025634765625	99.902435302734	109.226654052734
 3.0	1.0	0.0	0.0	74.472717285156	7.230346679688	10.951858520508
 4.0	0.0	1.0	0.0	25.924041748047	70.620681762695	27.397979736328
 5.0	0.0	0.0	1.0	3.460906982422	20.428924560547	68.266662597656
 6.0	0.0	0.0	0.0	0.468109130859	0.495697021484	0.579711914062
 7.0	1.0	1.0	1.0	105.025634765625	99.902435302734	109.226654052734
 8.0	1.0	0.0	0.0	74.472717285156	7.236740112305	10.966522216797
 9.0	0.0	1.0	0.0	25.924041748047	70.620681762695	27.397979736328
 10.0	0.0	0.0	1.0	3.463836669922	20.428924560547	68.266662597656
 11.0	0.0	0.0	0.0	0.469177246094	0.495941162109	0.580200195312
 12.0	1.0	1.0	1.0	105.025634765625	99.902435302734	109.226654052734
 13.0	1.0	0.0	0.0	74.472717285156	7.236740112305	10.951858520508
 14.0	0.0	1.0	0.0	25.924041748047	70.620681762695	27.397979736328
 15.0	0.0	0.0	1.0	3.463836669922	20.428924560547	68.266662597656
END_DATA
