data/calibration-000492.ti3
CTI3
ORIGINATOR	"ColorHug Factory"
DESCRIPTOR	"Calibration Target chart information 3"
DEVICE_CLASS	"DISPLAY"
COLOR_REP	"RGB_XYZ"
TARGET_INSTRUMENT	"Hughski ColorHug"
INSTRUMENT_TYPE_SPECTRAL	"NO"
NORMALIZED_TO_Y_100	"NO"
NUMBER_OF_FIELDS	7
NUMBER_OF_SETS	15
BEGIN_DATA_FORMAT
 SAMPLE_ID	RGB_R	RGB_G	RGB_B	XYZ_X	XYZ_Y	XYZ_Z
END_DATA_FORMAT
BEGIN_DATA
 1	0	0	0	0.04577636719	0.04577636719	0.09155273438
 2	1	1	1	62.57629395	39.50500488	44.63195801
 3	1	0	0	39.91699219	3.936767578	5.813598633
 4	0	1	0	20.73669434	28.42712402	12.90893555
 5	0	0	1	0.9613037109	7.461547852	26.2298584
 6	0	0	0	0.04577636719	0.04577636719	0.09155273438
 7	1	1	1	62.48474121	39.73388672	45.04394531
 8	1	0	0	39.87121582	3.890991211	5.767822266
 9	0	1	0	20.69091797	28.28979492	12.86315918
 10	0	0	1	0.9613037109	7.461547852	26.27563477
 11	0	0	0	0.04577636719	0.04577636719	0.09155273438
 12	1	1	1	62.62207031	39.68811035	44.54040527
 13	1	0	0	39.82543945	3.890991211	5.813598633
 14	0	1	0	20.7824707	28.42712402	12.90893555
 15	0	0	1	0.9613037109	7.461547852	26.27563477
END_DATA
