data/calibration-001224.ti3
CTI3   
ORIGINATOR	"ColorHug Factory"
DESCRIPTOR	"Calibration Target chart information 3"
DEVICE_CLASS	"DISPLAY"
COLOR_REP	"RGB_XYZ"
TARGET_INSTRUMENT	"Hughski ColorHug"
INSTRUMENT_TYPE_SPECTRAL	"NO"
NORMALIZED_TO_Y_100	"NO"
NUMBER_OF_FIELDS	7
NUMBER_OF_SETS	15
BEGIN_DATA_FORMAT
 SAMPLE_ID	RGB_R	RGB_G	RGB_B	XYZ_X	XYZ_Y	XYZ_Z
END_DATA_FORMAT
BEGIN_DATA
 1	0	0	0	0.09155273438	0.09155273438	0.1373291016
 2	1	1	1	26.0925293	36.39221191	42.52624512
 3	1	0	0	14.73999023	2.471923828	2.746582031
 4	0	1	0	10.16235352	26.45874023	11.71875
 5	0	0	1	0.8239746094	7.690429688	28.19824219
 6	0	0	0	0.09155273438	0.09155273438	0.1373291016
 7	1	1	1	26.0925293	36.43798828	42.52624512
 8	1	0	0	14.69421387	2.471923828	2.746582031
 9	0	1	0	10.16235352	26.41296387	11.71875
 10	0	0	1	0.8239746094	7.690429688	28.10668945
 11	0	0	0	0.09155273438	0.1373291016	0.1373291016
 12	1	1	1	26.13830566	36.57531738	42.57202148
 13	1	0	0	14.60266113	2.471923828	2.746582031
 14	0	1	0	10.16235352	26.27563477	11.71875
 15	0	0	1	0.8239746094	7.690429688	28.19824219
END_DATA
