data/calibration-002866.ti3
CTI3   
ORIGINATOR	"ColorHug Factory"
CREATED	"Tue May 05 22:10:33 2015"
DESCRIPTOR	"Calibration Target chart information 3"
DEVICE_CLASS	"DISPLAY"
COLOR_REP	"RGB_XYZ"
TARGET_INSTRUMENT	"Hughski ColorHug"
INSTRUMENT_TYPE_SPECTRAL	"NO"
NORMALIZED_TO_Y_100	"NO"
NUMBER_OF_FIELDS	7
NUMBER_OF_SETS	15
BEGIN_DATA_FORMAT
 SAMPLE_ID	RGB_R	RGB_G	RGB_B	XYZ_X	XYZ_Y	XYZ_Z
END_DATA_FORMAT
BEGIN_DATA
 1.0	0.0	0.0	0.0	0.882843017578	0.919097900391	0.989242553711
 2.0	1.0	1.0	1.0	109.226654052734	96.37646484375	106.389602661133
 3.0	1.0	0.0	0.0	78.769226074219	7.494964599609	12.525985717773
 4.0	0.0	1.0	0.0	25.599990844727	68.266662597656	27.03630065918
 5.0	0.0	0.0	1.0	4.133193969727	20.029327392578	66.064514160156
 6.0	0.0	0.0	0.0	0.8896484375	0.925643920898	0.997436523438
 7.0	1.0	1.0	1.0	109.226654052734	96.37646484375	106.389602661133
 8.0	1.0	0.0	0.0	78.769226074219	7.501831054688	12.545166015625
 9.0	0.0	1.0	0.0	25.599990844727	68.84033203125	27.03630065918
 10.0	0.0	0.0	1.0	4.135284423828	20.029327392578	66.064514160156
 11.0	0.0	0.0	0.0	0.890518188477	0.92658996582	0.997924804688
 12.0	1.0	1.0	1.0	109.226654052734	96.37646484375	106.389602661133
 13.0	1.0	0.0	0.0	78.769226074219	7.515594482422	12.564407348633
 14.0	0.0	1.0	0.0	25.599990844727	68.84033203125	27.03630065918
 15.0	0.0	0.0	1.0	4.139450073242	20.029327392578	66.064514160156
END_DATA
