data/calibration-001457.ti3
CTI3   
ORIGINATOR	"ColorHug Factory"
DESCRIPTOR	"Calibration Target chart information 3"
DEVICE_CLASS	"DISPLAY"
COLOR_REP	"RGB_XYZ"
TARGET_INSTRUMENT	"Hughski ColorHug"
INSTRUMENT_TYPE_SPECTRAL	"NO"
NORMALIZED_TO_Y_100	"NO"
NUMBER_OF_FIELDS	7
NUMBER_OF_SETS	15
BEGIN_DATA_FORMAT
 SAMPLE_ID	RGB_R	RGB_G	RGB_B	XYZ_X	XYZ_Y	XYZ_Z
END_DATA_FORMAT
BEGIN_DATA
 1	0	0	0	0.04577636719	0.09155273438	0.09155273438
 2	1	1	1	32.04345703	34.46960449	40.8782959
 3	1	0	0	19.04296875	2.655029297	3.25012207
 4	0	1	0	11.39831543	24.62768555	11.07788086
 5	0	0	1	0.732421875	7.186889648	26.73339844
 6	0	0	0	0.04577636719	0.09155273438	0.09155273438
 7	1	1	1	32.18078613	34.51538086	40.92407227
 8	1	0	0	19.08874512	2.655029297	3.25012207
 9	0	1	0	11.3067627	24.67346191	11.07788086
 10	0	0	1	0.732421875	7.232666016	26.59606934
 11	0	0	0	0.04577636719	0.09155273438	0.09155273438
 12	1	1	1	32.04345703	34.46960449	40.8782959
 13	1	0	0	18.85986328	2.655029297	3.25012207
 14	0	1	0	11.26098633	24.62768555	10.98632812
 15	0	0	1	0.732421875	7.232666016	26.6418457
END_DATA
