data/calibration-000696.ti3
CTI3
ORIGINATOR	"ColorHug Factory"
DESCRIPTOR	"Calibration Target chart information 3"
DEVICE_CLASS	"DISPLAY"
COLOR_REP	"RGB_XYZ"
TARGET_INSTRUMENT	"Hughski ColorHug"
INSTRUMENT_TYPE_SPECTRAL	"NO"
NORMALIZED_TO_Y_100	"NO"
NUMBER_OF_FIELDS	7
NUMBER_OF_SETS	15
BEGIN_DATA_FORMAT
 SAMPLE_ID	RGB_R	RGB_G	RGB_B	XYZ_X	XYZ_Y	XYZ_Z
END_DATA_FORMAT
BEGIN_DATA
 1	0	0	0	0	0.04577636719	0.04577636719
 2	1	1	1	66.74194336	42.16003418	48.56872559
 3	1	0	0	42.52624512	3.982543945	5.996704102
 4	0	1	0	22.56774902	30.48706055	13.77868652
 5	0	0	1	0.9613037109	7.781982422	28.61022949
 6	0	0	0	0	0.04577636719	0.04577636719
 7	1	1	1	66.28417969	42.16003418	48.61450195
 8	1	0	0	42.80090332	3.982543945	5.996704102
 9	0	1	0	22.47619629	30.48706055	13.82446289
 10	0	0	1	0.9613037109	7.781982422	28.47290039
 11	0	0	0	0.04577636719	0.04577636719	0.04577636719
 12	1	1	1	66.46728516	42.16003418	48.43139648
 13	1	0	0	42.75512695	3.982543945	5.996704102
 14	0	1	0	22.43041992	30.48706055	13.82446289
 15	0	0	1	0.9613037109	7.781982422	28.79333496
END_DATA
