data/calibration-000639.ti3
CTI3
ORIGINATOR	"ColorHug Factory"
DESCRIPTOR	"Calibration Target chart information 3"
DEVICE_CLASS	"DISPLAY"
COLOR_REP	"RGB_XYZ"
TARGET_INSTRUMENT	"Hughski ColorHug"
INSTRUMENT_TYPE_SPECTRAL	"NO"
NORMALIZED_TO_Y_100	"NO"
NUMBER_OF_FIELDS	7
NUMBER_OF_SETS	15
BEGIN_DATA_FORMAT
 SAMPLE_ID	RGB_R	RGB_G	RGB_B	XYZ_X	XYZ_Y	XYZ_Z
END_DATA_FORMAT
BEGIN_DATA
 1	0	0	0	0.04577636719	0.04577636719	0.04577636719
 2	1	1	1	52.41394043	36.16333008	41.97692871
 3	1	0	0	33.14208984	3.341674805	5.126953125
 4	0	1	0	17.48657227	25.86364746	11.9934082
 5	0	0	1	0.8239746094	6.912231445	24.81079102
 6	0	0	0	0.04577636719	0.04577636719	0.04577636719
 7	1	1	1	52.04772949	36.02600098	41.93115234
 8	1	0	0	33.14208984	3.341674805	5.081176758
 9	0	1	0	17.53234863	25.72631836	11.9934082
 10	0	0	1	0.8239746094	6.912231445	24.71923828
 11	0	0	0	0.04577636719	0.04577636719	0.04577636719
 12	1	1	1	52.00195312	35.93444824	41.83959961
 13	1	0	0	33.05053711	3.341674805	5.081176758
 14	0	1	0	17.53234863	25.72631836	11.9934082
 15	0	0	1	0.8239746094	6.866455078	24.58190918
END_DATA
