data/calibration-002378.ti3
CTI3   
ORIGINATOR	"ColorHug Factory"
CREATED	"Wed May 14 20:10:03 2014"
DESCRIPTOR	"Calibration Target chart information 3"
DEVICE_CLASS	"DISPLAY"
COLOR_REP	"RGB_XYZ"
TARGET_INSTRUMENT	"Hughski ColorHug"
INSTRUMENT_TYPE_SPECTRAL	"NO"
NORMALIZED_TO_Y_100	"NO"
NUMBER_OF_FIELDS	7
NUMBER_OF_SETS	15
BEGIN_DATA_FORMAT
 SAMPLE_ID	RGB_R	RGB_G	RGB_B	XYZ_X	XYZ_Y	XYZ_Z
END_DATA_FORMAT
BEGIN_DATA
 1.0	0.0	0.0	0.0	0.260025024414	0.226165771484	0.270614624023
 2.0	1.0	1.0	1.0	69.423721313477	32.899597167969	55.351348876953
 3.0	1.0	0.0	0.0	44.042999267578	3.768157958984	6.907241821289
 4.0	0.0	1.0	0.0	21.222793579102	20.277221679688	11.753219604492
 5.0	0.0	0.0	1.0	1.293731689453	8.894668579102	35.617385864258
 6.0	0.0	0.0	0.0	0.262725830078	0.228210449219	0.27294921875
 7.0	1.0	1.0	1.0	69.423721313477	33.032257080078	55.351348876953
 8.0	1.0	0.0	0.0	44.042999267578	3.76643371582	6.930618286133
 9.0	0.0	1.0	0.0	21.501312255859	20.277221679688	11.770111083984
 10.0	0.0	0.0	1.0	1.292510986328	8.799133300781	35.617385864258
 11.0	0.0	0.0	0.0	0.263824462891	0.230285644531	0.275329589844
 12.0	1.0	1.0	1.0	70.01708984375	32.899597167969	54.979858398438
 13.0	1.0	0.0	0.0	43.807479858398	3.775100708008	6.930618286133
 14.0	0.0	1.0	0.0	21.167953491211	20.227157592773	11.787048339844
 15.0	0.0	0.0	1.0	1.298461914062	8.846649169922	35.463195800781
END_DATA
