data/calibration-001016.ti3
CTI3   
ORIGINATOR	"ColorHug Factory"
DESCRIPTOR	"Calibration Target chart information 3"
DEVICE_CLASS	"DISPLAY"
COLOR_REP	"RGB_XYZ"
TARGET_INSTRUMENT	"Hughski ColorHug"
INSTRUMENT_TYPE_SPECTRAL	"NO"
NORMALIZED_TO_Y_100	"NO"
NUMBER_OF_FIELDS	7
NUMBER_OF_SETS	15
BEGIN_DATA_FORMAT
 SAMPLE_ID	RGB_R	RGB_G	RGB_B	XYZ_X	XYZ_Y	XYZ_Z
END_DATA_FORMAT
BEGIN_DATA
 1	0	0	0	0.09155273438	0	0
 2	1	1	1	34.51538086	39.13879395	42.48046875
 3	1	0	0	20.0958252	2.792358398	3.112792969
 4	0	1	0	12.58850098	28.79333496	12.03918457
 5	0	0	1	0.732421875	7.461547852	27.42004395
 6	0	0	0	0.09155273438	0	0
 7	1	1	1	34.24072266	38.68103027	42.57202148
 8	1	0	0	20.27893066	2.792358398	3.112792969
 9	0	1	0	12.63427734	28.70178223	11.9934082
 10	0	0	1	0.732421875	7.461547852	27.37426758
 11	0	0	0	0.09155273438	0	0
 12	1	1	1	34.42382812	39.00146484	42.66357422
 13	1	0	0	20.05004883	2.792358398	3.112792969
 14	0	1	0	12.68005371	28.70178223	11.9934082
 15	0	0	1	0.732421875	7.461547852	27.42004395
END_DATA
