data/calibration-002513.ti3
CTI3   
ORIGINATOR	"ColorHug Factory"
CREATED	"Wed Oct 22 09:41:23 2014"
DESCRIPTOR	"Calibration Target chart information 3"
DEVICE_CLASS	"DISPLAY"
COLOR_REP	"RGB_XYZ"
TARGET_INSTRUMENT	"Hughski ColorHug"
INSTRUMENT_TYPE_SPECTRAL	"NO"
NORMALIZED_TO_Y_100	"NO"
NUMBER_OF_FIELDS	7
NUMBER_OF_SETS	15
BEGIN_DATA_FORMAT
 SAMPLE_ID	RGB_R	RGB_G	RGB_B	XYZ_X	XYZ_Y	XYZ_Z
END_DATA_FORMAT
BEGIN_DATA
 1.0	0.0	0.0	0.0	0.137847900391	0.158615112305	0.205062866211
 2.0	1.0	1.0	1.0	91.022216796875	90.02197265625	91.022216796875
 3.0	1.0	0.0	0.0	63.503875732422	5.970840454102	9.547775268555
 4.0	0.0	1.0	0.0	22.567489624023	65.015869140625	24.749237060547
 5.0	0.0	0.0	1.0	2.445358276367	16.786880493164	53.54248046875
 6.0	0.0	0.0	0.0	0.138092041016	0.158950805664	0.205474853516
 7.0	1.0	1.0	1.0	91.022216796875	90.02197265625	91.022216796875
 8.0	1.0	0.0	0.0	63.503875732422	5.940536499023	9.536666870117
 9.0	0.0	1.0	0.0	22.567489624023	65.015869140625	24.749237060547
 10.0	0.0	0.0	1.0	2.443176269531	16.85595703125	53.54248046875
 11.0	0.0	0.0	0.0	0.137847900391	0.159286499023	0.205474853516
 12.0	1.0	1.0	1.0	91.022216796875	90.02197265625	91.022216796875
 13.0	1.0	0.0	0.0	63.015380859375	5.936218261719	9.525573730469
 14.0	0.0	1.0	0.0	22.505493164062	64.503936767578	24.749237060547
 15.0	0.0	0.0	1.0	2.452682495117	16.786880493164	53.894729614258
END_DATA
