data/calibration-001617.ti3
CTI3   
ORIGINATOR	"ColorHug Factory"
DESCRIPTOR	"Calibration Target chart information 3"
DEVICE_CLASS	"DISPLAY"
COLOR_REP	"RGB_XYZ"
TARGET_INSTRUMENT	"Hughski ColorHug"
INSTRUMENT_TYPE_SPECTRAL	"NO"
NORMALIZED_TO_Y_100	"NO"
NUMBER_OF_FIELDS	7
NUMBER_OF_SETS	15
BEGIN_DATA_FORMAT
 SAMPLE_ID	RGB_R	RGB_G	RGB_B	XYZ_X	XYZ_Y	XYZ_Z
END_DATA_FORMAT
BEGIN_DATA
 1	0	0	0	0.1373291016	0.1831054688	0.2746582031
 2	1	1	1	31.35681152	31.72302246	39.82543945
 3	1	0	0	18.67675781	2.517700195	3.295898438
 4	0	1	0	11.35253906	22.56774902	10.71166992
 5	0	0	1	0.8239746094	6.958007812	26.2298584
 6	0	0	0	0.1373291016	0.1831054688	0.2746582031
 7	1	1	1	31.08215332	31.49414062	39.77966309
 8	1	0	0	18.72253418	2.517700195	3.295898438
 9	0	1	0	11.3067627	22.61352539	10.71166992
 10	0	0	1	0.8239746094	6.958007812	26.27563477
 11	0	0	0	0.1373291016	0.1831054688	0.2746582031
 12	1	1	1	31.08215332	31.63146973	39.82543945
 13	1	0	0	18.81408691	2.517700195	3.295898438
 14	0	1	0	11.39831543	22.56774902	10.71166992
 15	0	0	1	0.8239746094	6.958007812	25.9552002
END_DATA
