data/calibration-002096.ti3
CTI3   
ORIGINATOR	"ColorHug Factory"
CREATED	"Sun Sep 15 20:29:11 2013"
DESCRIPTOR	"Calibration Target chart information 3"
DEVICE_CLASS	"DISPLAY"
COLOR_REP	"RGB_XYZ"
TARGET_INSTRUMENT	"Hughski ColorHug"
INSTRUMENT_TYPE_SPECTRAL	"NO"
NORMALIZED_TO_Y_100	"NO"
NUMBER_OF_FIELDS	7
NUMBER_OF_SETS	15
BEGIN_DATA_FORMAT
 SAMPLE_ID	RGB_R	RGB_G	RGB_B	XYZ_X	XYZ_Y	XYZ_Z
END_DATA_FORMAT
BEGIN_DATA
 1	0	0	0	0.0457763671875	0	0.091552734375
 2	1	1	1	68.3441162109375	36.2548828125	54.8858642578125
 3	1	0	0	43.39599609375	3.7994384765625	7.0037841796875
 4	0	1	0	21.6064453125	23.25439453125	12.908935546875
 5	0	0	1	1.0528564453125	8.7432861328125	34.1949462890625
 6	0	0	0	0.0457763671875	0	0.091552734375
 7	1	1	1	68.1610107421875	35.980224609375	54.7943115234375
 8	1	0	0	43.8079833984375	3.7994384765625	7.0037841796875
 9	0	1	0	21.6522216796875	23.345947265625	12.8631591796875
 10	0	0	1	1.0528564453125	8.7432861328125	34.3780517578125
 11	0	0	0	0.0457763671875	0	0.091552734375
 12	1	1	1	68.6187744140625	36.2548828125	54.8858642578125
 13	1	0	0	43.76220703125	3.7994384765625	7.0037841796875
 14	0	1	0	21.78955078125	23.3917236328125	12.908935546875
 15	0	0	1	1.0528564453125	8.7432861328125	34.1949462890625
END_DATA
