data/calibration-000850.ti3
CTI3   
ORIGINATOR	"ColorHug Factory"
DESCRIPTOR	"Calibration Target chart information 3"
DEVICE_CLASS	"DISPLAY"
COLOR_REP	"RGB_XYZ"
TARGET_INSTRUMENT	"Hughski ColorHug"
INSTRUMENT_TYPE_SPECTRAL	"NO"
NORMALIZED_TO_Y_100	"NO"
NUMBER_OF_FIELDS	7
NUMBER_OF_SETS	15
BEGIN_DATA_FORMAT
 SAMPLE_ID	RGB_R	RGB_G	RGB_B	XYZ_X	XYZ_Y	XYZ_Z
END_DATA_FORMAT
BEGIN_DATA
 1	0	0	0	0.1373291016	0.1373291016	0.1373291016
 2	1	1	1	55.20629883	39.04724121	45.54748535
 3	1	0	0	34.8815918	3.662109375	5.493164062
 4	0	1	0	18.85986328	27.92358398	12.90893555
 5	0	0	1	1.007080078	7.690429688	27.23693848
 6	0	0	0	0.1373291016	0.1373291016	0.1373291016
 7	1	1	1	55.2520752	39.04724121	45.63903809
 8	1	0	0	35.06469727	3.662109375	5.493164062
 9	0	1	0	18.81408691	27.69470215	12.95471191
 10	0	0	1	1.007080078	7.736206055	27.09960938
 11	0	0	0	0.1373291016	0.1373291016	0.1373291016
 12	1	1	1	54.93164062	38.90991211	45.54748535
 13	1	0	0	34.97314453	3.707885742	5.493164062
 14	0	1	0	18.81408691	28.01513672	12.95471191
 15	0	0	1	1.007080078	7.690429688	27.14538574
END_DATA
