data/calibration-002817.ti3
CTI3   
ORIGINATOR	"ColorHug Factory"
CREATED	"Tue May 05 21:31:18 2015"
DESCRIPTOR	"Calibration Target chart information 3"
DEVICE_CLASS	"DISPLAY"
COLOR_REP	"RGB_XYZ"
TARGET_INSTRUMENT	"Hughski ColorHug"
INSTRUMENT_TYPE_SPECTRAL	"NO"
NORMALIZED_TO_Y_100	"NO"
NUMBER_OF_FIELDS	7
NUMBER_OF_SETS	15
BEGIN_DATA_FORMAT
 SAMPLE_ID	RGB_R	RGB_G	RGB_B	XYZ_X	XYZ_Y	XYZ_Z
END_DATA_FORMAT
BEGIN_DATA
 1.0	0.0	0.0	0.0	0.546997070312	0.561813354492	0.631256103516
 2.0	1.0	1.0	1.0	117.028564453125	102.399993896484	112.219177246094
 3.0	1.0	0.0	0.0	84.453598022461	8.359176635742	13.955703735352
 4.0	0.0	1.0	0.0	26.684036254883	71.859634399414	28.346008300781
 5.0	0.0	0.0	1.0	3.849609375	21.113388061523	67.147537231445
 6.0	0.0	0.0	0.0	0.547805786133	0.563049316406	0.628692626953
 7.0	1.0	1.0	1.0	117.028564453125	102.399993896484	112.219177246094
 8.0	1.0	0.0	0.0	84.453598022461	8.350662231445	13.93196105957
 9.0	0.0	1.0	0.0	26.684036254883	71.859634399414	28.346008300781
 10.0	0.0	0.0	1.0	3.849609375	21.113388061523	67.147537231445
 11.0	0.0	0.0	0.0	0.547653198242	0.563095092773	0.628219604492
 12.0	1.0	1.0	1.0	117.028564453125	102.399993896484	112.219177246094
 13.0	1.0	0.0	0.0	84.453598022461	8.350662231445	13.93196105957
 14.0	0.0	1.0	0.0	26.684036254883	71.859634399414	28.346008300781
 15.0	0.0	0.0	1.0	3.847808837891	21.113388061523	67.147537231445
END_DATA
