data/calibration-000504.ti3
CTI3
ORIGINATOR	"ColorHug Factory"
DESCRIPTOR	"Calibration Target chart information 3"
DEVICE_CLASS	"DISPLAY"
COLOR_REP	"RGB_XYZ"
TARGET_INSTRUMENT	"Hughski ColorHug"
INSTRUMENT_TYPE_SPECTRAL	"NO"
NORMALIZED_TO_Y_100	"NO"
NUMBER_OF_FIELDS	7
NUMBER_OF_SETS	15
BEGIN_DATA_FORMAT
 SAMPLE_ID	RGB_R	RGB_G	RGB_B	XYZ_X	XYZ_Y	XYZ_Z
END_DATA_FORMAT
BEGIN_DATA
 1	0	0	0	0.09155273438	0.09155273438	0.09155273438
 2	1	1	1	59.32617188	37.49084473	43.85375977
 3	1	0	0	37.62817383	3.662109375	5.493164062
 4	0	1	0	19.63806152	26.59606934	12.45117188
 5	0	0	1	1.007080078	7.186889648	26.00097656
 6	0	0	0	0.09155273438	0.09155273438	0.09155273438
 7	1	1	1	59.50927734	37.53662109	43.89953613
 8	1	0	0	37.53662109	3.662109375	5.493164062
 9	0	1	0	19.63806152	26.41296387	12.49694824
 10	0	0	1	1.007080078	7.186889648	25.77209473
 11	0	0	0	0.09155273438	0.09155273438	0.09155273438
 12	1	1	1	59.32617188	37.49084473	43.9453125
 13	1	0	0	37.53662109	3.662109375	5.493164062
 14	0	1	0	19.63806152	26.41296387	12.49694824
 15	0	0	1	1.007080078	7.186889648	25.86364746
END_DATA
