data/calibration-002119.ti3
CTI3   
ORIGINATOR	"ColorHug Factory"
CREATED	"Sun Sep 15 20:43:42 2013"
DESCRIPTOR	"Calibration Target chart information 3"
DEVICE_CLASS	"DISPLAY"
COLOR_REP	"RGB_XYZ"
TARGET_INSTRUMENT	"Hughski ColorHug"
INSTRUMENT_TYPE_SPECTRAL	"NO"
NORMALIZED_TO_Y_100	"NO"
NUMBER_OF_FIELDS	7
NUMBER_OF_SETS	15
BEGIN_DATA_FORMAT
 SAMPLE_ID	RGB_R	RGB_G	RGB_B	XYZ_X	XYZ_Y	XYZ_Z
END_DATA_FORMAT
BEGIN_DATA
 1	0	0	0	0.091552734375	0.0457763671875	0.091552734375
 2	1	1	1	73.516845703125	33.8287353515625	46.69189453125
 3	1	0	0	47.2412109375	3.8909912109375	6.134033203125
 4	0	1	0	23.8494873046875	22.613525390625	10.8489990234375
 5	0	0	1	1.190185546875	7.4615478515625	29.84619140625
 6	0	0	0	0.091552734375	0.0457763671875	0.091552734375
 7	1	1	1	73.42529296875	33.8287353515625	46.600341796875
 8	1	0	0	47.4700927734375	3.8909912109375	6.134033203125
 9	0	1	0	23.895263671875	22.4761962890625	10.8489990234375
 10	0	0	1	1.190185546875	7.415771484375	29.7088623046875
 11	0	0	0	0.091552734375	0.0457763671875	0.091552734375
 12	1	1	1	73.2421875	33.7371826171875	46.69189453125
 13	1	0	0	47.515869140625	3.8909912109375	6.134033203125
 14	0	1	0	23.8494873046875	22.613525390625	10.8489990234375
 15	0	0	1	1.190185546875	7.4615478515625	29.84619140625
END_DATA
