data/calibration-000857.ti3
CTI3   
ORIGINATOR	"ColorHug Factory"
DESCRIPTOR	"Calibration Target chart information 3"
DEVICE_CLASS	"DISPLAY"
COLOR_REP	"RGB_XYZ"
TARGET_INSTRUMENT	"Hughski ColorHug"
INSTRUMENT_TYPE_SPECTRAL	"NO"
NORMALIZED_TO_Y_100	"NO"
NUMBER_OF_FIELDS	7
NUMBER_OF_SETS	15
BEGIN_DATA_FORMAT
 SAMPLE_ID	RGB_R	RGB_G	RGB_B	XYZ_X	XYZ_Y	XYZ_Z
END_DATA_FORMAT
BEGIN_DATA
 1	0	0	0	0.09155273438	0.09155273438	0.1373291016
 2	1	1	1	54.24499512	36.66687012	43.48754883
 3	1	0	0	34.01184082	3.387451172	5.264282227
 4	0	1	0	17.9901123	25.9552002	12.1307373
 5	0	0	1	0.9155273438	7.278442383	25.90942383
 6	0	0	0	0.09155273438	0.09155273438	0.1373291016
 7	1	1	1	54.15344238	36.34643555	43.02978516
 8	1	0	0	34.01184082	3.433227539	5.264282227
 9	0	1	0	17.94433594	26.00097656	12.22229004
 10	0	0	1	0.9155273438	7.278442383	25.9552002
 11	0	0	0	0.09155273438	0.09155273438	0.1373291016
 12	1	1	1	53.69567871	36.43798828	43.30444336
 13	1	0	0	34.14916992	3.433227539	5.264282227
 14	0	1	0	17.94433594	25.9552002	12.1307373
 15	0	0	1	0.9155273438	7.278442383	25.9552002
END_DATA
