data/calibration-000817.ti3
CTI3   
ORIGINATOR	"ColorHug Factory"
DESCRIPTOR	"Calibration Target chart information 3"
DEVICE_CLASS	"DISPLAY"
COLOR_REP	"RGB_XYZ"
TARGET_INSTRUMENT	"Hughski ColorHug"
INSTRUMENT_TYPE_SPECTRAL	"NO"
NORMALIZED_TO_Y_100	"NO"
NUMBER_OF_FIELDS	7
NUMBER_OF_SETS	15
BEGIN_DATA_FORMAT
 SAMPLE_ID	RGB_R	RGB_G	RGB_B	XYZ_X	XYZ_Y	XYZ_Z
END_DATA_FORMAT
BEGIN_DATA
 1	0	0	0	0.04577636719	0.04577636719	0.09155273438
 2	1	1	1	52.4597168	37.17041016	43.48754883
 3	1	0	0	33.18786621	3.524780273	5.218505859
 4	0	1	0	17.7154541	26.5045166	12.45117188
 5	0	0	1	0.8697509766	7.186889648	25.77209473
 6	0	0	0	0.04577636719	0.04577636719	0.09155273438
 7	1	1	1	52.5970459	37.17041016	43.35021973
 8	1	0	0	33.05053711	3.524780273	5.218505859
 9	0	1	0	17.62390137	26.41296387	12.40539551
 10	0	0	1	0.8697509766	7.232666016	25.63476562
 11	0	0	0	0.04577636719	0.04577636719	0.09155273438
 12	1	1	1	52.55126953	37.17041016	43.39599609
 13	1	0	0	33.05053711	3.524780273	5.218505859
 14	0	1	0	17.66967773	26.45874023	12.49694824
 15	0	0	1	0.8697509766	7.186889648	25.77209473
END_DATA
