data/calibration-002712.ti3
CTI3   
ORIGINATOR	"ColorHug Factory"
CREATED	"Thu Mar 26 20:22:50 2015"
DESCRIPTOR	"Calibration Target chart information 3"
DEVICE_CLASS	"DISPLAY"
COLOR_REP	"RGB_XYZ"
TARGET_INSTRUMENT	"Hughski ColorHug"
INSTRUMENT_TYPE_SPECTRAL	"NO"
NORMALIZED_TO_Y_100	"NO"
NUMBER_OF_FIELDS	7
NUMBER_OF_SETS	15
BEGIN_DATA_FORMAT
 SAMPLE_ID	RGB_R	RGB_G	RGB_B	XYZ_X	XYZ_Y	XYZ_Z
END_DATA_FORMAT
BEGIN_DATA
 1.0	0.0	0.0	0.0	0.324890136719	0.344253540039	0.37841796875
 2.0	1.0	1.0	1.0	60.68147277832	55.727890014648	59.3623046875
 3.0	1.0	0.0	0.0	44.042999267578	4.538497924805	7.613372802734
 4.0	0.0	1.0	0.0	14.628570556641	39.766983032227	16.094299316406
 5.0	0.0	0.0	1.0	2.151260375977	11.425369262695	35.158798217773
 6.0	0.0	0.0	0.0	0.323303222656	0.344223022461	0.377792358398
 7.0	1.0	1.0	1.0	60.68147277832	55.727890014648	59.795608520508
 8.0	1.0	0.0	0.0	43.807479858398	4.553634643555	7.613372802734
 9.0	0.0	1.0	0.0	14.70735168457	40.354675292969	16.286270141602
 10.0	0.0	0.0	1.0	2.147872924805	11.425369262695	35.158798217773
 11.0	0.0	0.0	0.0	0.32405090332	0.347015380859	0.379547119141
 12.0	1.0	1.0	1.0	60.68147277832	55.727890014648	59.3623046875
 13.0	1.0	0.0	0.0	43.807479858398	4.612609863281	7.699234008789
 14.0	0.0	1.0	0.0	14.840576171875	40.756210327148	16.286270141602
 15.0	0.0	0.0	1.0	2.181610107422	11.489471435547	35.463195800781
END_DATA
