data/calibration-000856.ti3
CTI3   
ORIGINATOR	"ColorHug Factory"
DESCRIPTOR	"Calibration Target chart information 3"
DEVICE_CLASS	"DISPLAY"
COLOR_REP	"RGB_XYZ"
TARGET_INSTRUMENT	"Hughski ColorHug"
INSTRUMENT_TYPE_SPECTRAL	"NO"
NORMALIZED_TO_Y_100	"NO"
NUMBER_OF_FIELDS	7
NUMBER_OF_SETS	15
BEGIN_DATA_FORMAT
 SAMPLE_ID	RGB_R	RGB_G	RGB_B	XYZ_X	XYZ_Y	XYZ_Z
END_DATA_FORMAT
BEGIN_DATA
 1	0	0	0	0.04577636719	0.04577636719	0.09155273438
 2	1	1	1	55.75561523	39.59655762	46.50878906
 3	1	0	0	35.15625	3.662109375	5.218505859
 4	0	1	0	18.63098145	27.96936035	12.95471191
 5	0	0	1	1.007080078	8.010864258	28.42712402
 6	0	0	0	0.04577636719	0.04577636719	0.09155273438
 7	1	1	1	55.8013916	39.45922852	46.14257812
 8	1	0	0	35.11047363	3.662109375	5.218505859
 9	0	1	0	18.63098145	27.78625488	12.95471191
 10	0	0	1	1.007080078	8.010864258	28.42712402
 11	0	0	0	0.04577636719	0.04577636719	0.09155273438
 12	1	1	1	55.6640625	39.50500488	46.50878906
 13	1	0	0	35.06469727	3.662109375	5.218505859
 14	0	1	0	18.76831055	27.78625488	12.95471191
 15	0	0	1	1.007080078	7.965087891	28.33557129
END_DATA
