data/calibration-001273.ti3
CTI3   
ORIGINATOR	"ColorHug Factory"
DESCRIPTOR	"Calibration Target chart information 3"
DEVICE_CLASS	"DISPLAY"
COLOR_REP	"RGB_XYZ"
TARGET_INSTRUMENT	"Hughski ColorHug"
INSTRUMENT_TYPE_SPECTRAL	"NO"
NORMALIZED_TO_Y_100	"NO"
NUMBER_OF_FIELDS	7
NUMBER_OF_SETS	15
BEGIN_DATA_FORMAT
 SAMPLE_ID	RGB_R	RGB_G	RGB_B	XYZ_X	XYZ_Y	XYZ_Z
END_DATA_FORMAT
BEGIN_DATA
 1	0	0	0	0	0	0
 2	1	1	1	27.14538574	31.44836426	40.14587402
 3	1	0	0	15.24353027	1.922607422	2.426147461
 4	0	1	0	9.475708008	22.10998535	9.979248047
 5	0	0	1	0.5493164062	6.729125977	26.96228027
 6	0	0	0	0	0	0
 7	1	1	1	27.32849121	31.8145752	40.23742676
 8	1	0	0	15.24353027	1.922607422	2.426147461
 9	0	1	0	9.475708008	22.20153809	10.02502441
 10	0	0	1	0.5493164062	6.729125977	27.00805664
 11	0	0	0	0	0	0
 12	1	1	1	27.09960938	31.67724609	40.14587402
 13	1	0	0	15.24353027	1.922607422	2.426147461
 14	0	1	0	9.521484375	22.24731445	10.02502441
 15	0	0	1	0.5493164062	6.774902344	26.96228027
END_DATA
