data/calibration-000471.ti3
CTI3
ORIGINATOR	"ColorHug Factory"
DESCRIPTOR	"Calibration Target chart information 3"
DEVICE_CLASS	"DISPLAY"
COLOR_REP	"RGB_XYZ"
TARGET_INSTRUMENT	"Hughski ColorHug"
INSTRUMENT_TYPE_SPECTRAL	"NO"
NORMALIZED_TO_Y_100	"NO"
NUMBER_OF_FIELDS	7
NUMBER_OF_SETS	15
BEGIN_DATA_FORMAT
 SAMPLE_ID	RGB_R	RGB_G	RGB_B	XYZ_X	XYZ_Y	XYZ_Z
END_DATA_FORMAT
BEGIN_DATA
 1	0	0	0	0.09155273438	0.09155273438	0.09155273438
 2	1	1	1	53.05480957	35.70556641	40.8782959
 3	1	0	0	33.27941895	3.341674805	4.852294922
 4	0	1	0	17.578125	25.22277832	11.4440918
 5	0	0	1	0.8697509766	6.866455078	24.35302734
 6	0	0	0	0.09155273438	0.09155273438	0.09155273438
 7	1	1	1	53.05480957	35.75134277	40.8782959
 8	1	0	0	33.27941895	3.341674805	4.852294922
 9	0	1	0	17.4407959	25.17700195	11.53564453
 10	0	0	1	0.8697509766	6.866455078	24.26147461
 11	0	0	0	0.09155273438	0.09155273438	0.09155273438
 12	1	1	1	53.0090332	35.52246094	40.92407227
 13	1	0	0	33.23364258	3.341674805	4.852294922
 14	0	1	0	17.578125	25.26855469	11.4440918
 15	0	0	1	0.8697509766	6.866455078	24.39880371
END_DATA
