data/calibration-002199.ti3
CTI3   
ORIGINATOR	"ColorHug Factory"
CREATED	"Wed Nov 20 21:01:15 2013"
DESCRIPTOR	"Calibration Target chart information 3"
DEVICE_CLASS	"DISPLAY"
COLOR_REP	"RGB_XYZ"
TARGET_INSTRUMENT	"Hughski ColorHug"
INSTRUMENT_TYPE_SPECTRAL	"NO"
NORMALIZED_TO_Y_100	"NO"
NUMBER_OF_FIELDS	7
NUMBER_OF_SETS	15
BEGIN_DATA_FORMAT
 SAMPLE_ID	RGB_R	RGB_G	RGB_B	XYZ_X	XYZ_Y	XYZ_Z
END_DATA_FORMAT
BEGIN_DATA
 1	0	0	0	0.18310546875	0.1373291015625	0.2288818359375
 2	1	1	1	69.854736328125	32.5469970703125	49.7589111328125
 3	1	0	0	44.49462890625	3.47900390625	5.8135986328125
 4	0	1	0	22.15576171875	21.240234375	10.6658935546875
 5	0	0	1	1.3275146484375	7.7362060546875	32.9132080078125
 6	0	0	0	0.18310546875	0.1373291015625	0.2288818359375
 7	1	1	1	69.7174072265625	32.4554443359375	49.5758056640625
 8	1	0	0	44.036865234375	3.47900390625	5.767822265625
 9	0	1	0	22.15576171875	21.240234375	10.6201171875
 10	0	0	1	1.3275146484375	7.7362060546875	32.77587890625
 11	0	0	0	0.18310546875	0.1373291015625	0.2288818359375
 12	1	1	1	69.7174072265625	32.3638916015625	49.530029296875
 13	1	0	0	44.4488525390625	3.47900390625	5.767822265625
 14	0	1	0	21.9268798828125	21.148681640625	10.6201171875
 15	0	0	1	1.3275146484375	7.7362060546875	32.8216552734375
END_DATA
