data/calibration-000747.ti3
CTI3
ORIGINATOR	"ColorHug Factory"
DESCRIPTOR	"Calibration Target chart information 3"
DEVICE_CLASS	"DISPLAY"
COLOR_REP	"RGB_XYZ"
TARGET_INSTRUMENT	"Hughski ColorHug"
INSTRUMENT_TYPE_SPECTRAL	"NO"
NORMALIZED_TO_Y_100	"NO"
NUMBER_OF_FIELDS	7
NUMBER_OF_SETS	15
BEGIN_DATA_FORMAT
 SAMPLE_ID	RGB_R	RGB_G	RGB_B	XYZ_X	XYZ_Y	XYZ_Z
END_DATA_FORMAT
BEGIN_DATA
 1	0	0	0	0.04577636719	0	0.04577636719
 2	1	1	1	61.06567383	40.46630859	46.78344727
 3	1	0	0	38.63525391	3.799438477	5.630493164
 4	0	1	0	20.27893066	28.83911133	13.22937012
 5	0	0	1	0.9155273438	7.64465332	27.78625488
 6	0	0	0	0.04577636719	0	0.04577636719
 7	1	1	1	60.28747559	40.23742676	46.78344727
 8	1	0	0	38.77258301	3.799438477	5.630493164
 9	0	1	0	20.46203613	28.79333496	13.22937012
 10	0	0	1	0.9155273438	7.690429688	27.64892578
 11	0	0	0	0.04577636719	0	0.04577636719
 12	1	1	1	60.69946289	40.19165039	46.7376709
 13	1	0	0	38.63525391	3.799438477	5.676269531
 14	0	1	0	20.32470703	28.83911133	13.22937012
 15	0	0	1	0.9155273438	7.690429688	27.78625488
END_DATA
