data/calibration-001222.ti3
CTI3   
ORIGINATOR	"ColorHug Factory"
DESCRIPTOR	"Calibration Target chart information 3"
DEVICE_CLASS	"DISPLAY"
COLOR_REP	"RGB_XYZ"
TARGET_INSTRUMENT	"Hughski ColorHug"
INSTRUMENT_TYPE_SPECTRAL	"NO"
NORMALIZED_TO_Y_100	"NO"
NUMBER_OF_FIELDS	7
NUMBER_OF_SETS	15
BEGIN_DATA_FORMAT
 SAMPLE_ID	RGB_R	RGB_G	RGB_B	XYZ_X	XYZ_Y	XYZ_Z
END_DATA_FORMAT
BEGIN_DATA
 1	0	0	0	0.09155273438	0.09155273438	0.1373291016
 2	1	1	1	21.10290527	34.79003906	40.23742676
 3	1	0	0	11.48986816	2.197265625	2.243041992
 4	0	1	0	8.651733398	25.68054199	11.07788086
 5	0	0	1	0.7781982422	7.095336914	27.00805664
 6	0	0	0	0.09155273438	0.09155273438	0.1373291016
 7	1	1	1	21.14868164	34.8815918	40.28320312
 8	1	0	0	11.53564453	2.197265625	2.243041992
 9	0	1	0	8.651733398	25.72631836	11.12365723
 10	0	0	1	0.7781982422	7.095336914	27.05383301
 11	0	0	0	0.09155273438	0.09155273438	0.1373291016
 12	1	1	1	21.10290527	34.7442627	40.23742676
 13	1	0	0	11.48986816	2.197265625	2.243041992
 14	0	1	0	8.651733398	25.58898926	11.07788086
 15	0	0	1	0.7781982422	7.095336914	26.96228027
END_DATA
