data/calibration-001882.ti3
CTI3   
ORIGINATOR	"ColorHug Factory"
CREATED	"Wed Apr 10 09:53:23 2013"
DESCRIPTOR	"Calibration Target chart information 3"
DEVICE_CLASS	"DISPLAY"
COLOR_REP	"RGB_XYZ"
TARGET_INSTRUMENT	"Hughski ColorHug"
INSTRUMENT_TYPE_SPECTRAL	"NO"
NORMALIZED_TO_Y_100	"NO"
NUMBER_OF_FIELDS	7
NUMBER_OF_SETS	15
BEGIN_DATA_FORMAT
 SAMPLE_ID	RGB_R	RGB_G	RGB_B	XYZ_X	XYZ_Y	XYZ_Z
END_DATA_FORMAT
BEGIN_DATA
 1	0	0	0	0	0.04577636719	0.04577636719
 2	1	1	1	36.34643555	42.66357422	53.97033691
 3	1	0	0	21.51489258	3.021240234	3.616333008
 4	0	1	0	13.22937012	29.93774414	13.32092285
 5	0	0	1	0.8239746094	9.796142578	36.75842285
 6	0	0	0	0.09155273438	0.04577636719	0.04577636719
 7	1	1	1	36.20910645	42.57202148	53.74145508
 8	1	0	0	21.51489258	3.021240234	3.616333008
 9	0	1	0	13.22937012	29.75463867	13.27514648
 10	0	0	1	0.8239746094	9.796142578	36.57531738
 11	0	0	0	0.09155273438	0.04577636719	0.04577636719
 12	1	1	1	35.98022461	42.43469238	53.64990234
 13	1	0	0	21.51489258	3.021240234	3.616333008
 14	0	1	0	13.22937012	29.89196777	13.22937012
 15	0	0	1	0.8239746094	9.796142578	36.52954102
END_DATA
