data/calibration-002615.ti3
CTI3   
ORIGINATOR	"ColorHug Factory"
CREATED	"Wed Dec 03 20:14:01 2014"
DESCRIPTOR	"Calibration Target chart information 3"
DEVICE_CLASS	"DISPLAY"
COLOR_REP	"RGB_XYZ"
TARGET_INSTRUMENT	"Hughski ColorHug"
INSTRUMENT_TYPE_SPECTRAL	"NO"
NORMALIZED_TO_Y_100	"NO"
NUMBER_OF_FIELDS	7
NUMBER_OF_SETS	15
BEGIN_DATA_FORMAT
 SAMPLE_ID	RGB_R	RGB_G	RGB_B	XYZ_X	XYZ_Y	XYZ_Z
END_DATA_FORMAT
BEGIN_DATA
 1.0	0.0	0.0	0.0	0.529602050781	0.704376220703	0.889846801758
 2.0	1.0	1.0	1.0	70.01708984375	97.523803710938	102.399993896484
 3.0	1.0	0.0	0.0	42.666656494141	5.645751953125	6.965972900391
 4.0	0.0	1.0	0.0	23.141235351562	68.84033203125	27.03630065918
 5.0	0.0	0.0	1.0	2.837539672852	20.37809753418	66.064514160156
 6.0	0.0	0.0	0.0	0.531188964844	0.704864501953	0.889556884766
 7.0	1.0	1.0	1.0	69.423721313477	96.37646484375	102.399993896484
 8.0	1.0	0.0	0.0	42.445587158203	5.63410949707	6.948257446289
 9.0	0.0	1.0	0.0	23.141235351562	68.84033203125	26.947357177734
 10.0	0.0	0.0	1.0	2.835571289062	20.327529907227	66.064514160156
 11.0	0.0	0.0	0.0	0.530426025391	0.705657958984	0.890808105469
 12.0	1.0	1.0	1.0	69.423721313477	96.37646484375	102.399993896484
 13.0	1.0	0.0	0.0	42.445587158203	5.63410949707	6.942367553711
 14.0	0.0	1.0	0.0	23.076049804688	68.84033203125	26.947357177734
 15.0	0.0	0.0	1.0	2.836563110352	20.327529907227	66.064514160156
END_DATA
