data/calibration-001360.ti3
CTI3   
ORIGINATOR	"ColorHug Factory"
DESCRIPTOR	"Calibration Target chart information 3"
DEVICE_CLASS	"DISPLAY"
COLOR_REP	"RGB_XYZ"
TARGET_INSTRUMENT	"Hughski ColorHug"
INSTRUMENT_TYPE_SPECTRAL	"NO"
NORMALIZED_TO_Y_100	"NO"
NUMBER_OF_FIELDS	7
NUMBER_OF_SETS	15
BEGIN_DATA_FORMAT
 SAMPLE_ID	RGB_R	RGB_G	RGB_B	XYZ_X	XYZ_Y	XYZ_Z
END_DATA_FORMAT
BEGIN_DATA
 1	0	0	0	0.09155273438	0.09155273438	0.1373291016
 2	1	1	1	45.54748535	44.95239258	55.48095703
 3	1	0	0	27.60314941	3.295898438	4.302978516
 4	0	1	0	16.38793945	32.40966797	14.73999023
 5	0	0	1	1.007080078	9.429931641	36.75842285
 6	0	0	0	0.09155273438	0.09155273438	0.1373291016
 7	1	1	1	45.36437988	44.90661621	55.5267334
 8	1	0	0	27.55737305	3.295898438	4.302978516
 9	0	1	0	16.38793945	32.31811523	14.60266113
 10	0	0	1	1.007080078	9.429931641	36.75842285
 11	0	0	0	0.09155273438	0.09155273438	0.1373291016
 12	1	1	1	45.27282715	44.76928711	55.5267334
 13	1	0	0	27.37426758	3.295898438	4.302978516
 14	0	1	0	16.29638672	32.3638916	14.60266113
 15	0	0	1	1.007080078	9.429931641	36.80419922
END_DATA
