data/calibration-000544.ti3
CTI3
ORIGINATOR	"ColorHug Factory"
DESCRIPTOR	"Calibration Target chart information 3"
DEVICE_CLASS	"DISPLAY"
COLOR_REP	"RGB_XYZ"
TARGET_INSTRUMENT	"Hughski ColorHug"
INSTRUMENT_TYPE_SPECTRAL	"NO"
NORMALIZED_TO_Y_100	"NO"
NUMBER_OF_FIELDS	7
NUMBER_OF_SETS	15
BEGIN_DATA_FORMAT
 SAMPLE_ID	RGB_R	RGB_G	RGB_B	XYZ_X	XYZ_Y	XYZ_Z
END_DATA_FORMAT
BEGIN_DATA
 1	0	0	0	0.04577636719	0	0.04577636719
 2	1	1	1	52.27661133	35.2935791	41.24450684
 3	1	0	0	32.95898438	3.295898438	5.035400391
 4	0	1	0	17.39501953	25.08544922	11.81030273
 5	0	0	1	0.8239746094	6.637573242	24.12414551
 6	0	0	0	0.04577636719	0	0.04577636719
 7	1	1	1	52.04772949	35.20202637	41.06140137
 8	1	0	0	32.95898438	3.295898438	5.035400391
 9	0	1	0	17.34924316	25.08544922	11.81030273
 10	0	0	1	0.8239746094	6.591796875	23.98681641
 11	0	0	0	0.04577636719	0	0.04577636719
 12	1	1	1	52.23083496	35.33935547	41.10717773
 13	1	0	0	32.91320801	3.295898438	5.035400391
 14	0	1	0	17.34924316	25.08544922	11.76452637
 15	0	0	1	0.8239746094	6.637573242	24.12414551
END_DATA
