data/calibration-002206.ti3
CTI3   
ORIGINATOR	"ColorHug Factory"
CREATED	"Wed Nov 20 21:06:38 2013"
DESCRIPTOR	"Calibration Target chart information 3"
DEVICE_CLASS	"DISPLAY"
COLOR_REP	"RGB_XYZ"
TARGET_INSTRUMENT	"Hughski ColorHug"
INSTRUMENT_TYPE_SPECTRAL	"NO"
NORMALIZED_TO_Y_100	"NO"
NUMBER_OF_FIELDS	7
NUMBER_OF_SETS	15
BEGIN_DATA_FORMAT
 SAMPLE_ID	RGB_R	RGB_G	RGB_B	XYZ_X	XYZ_Y	XYZ_Z
END_DATA_FORMAT
BEGIN_DATA
 1	0	0	0	0.0457763671875	0.0457763671875	0.1373291015625
 2	1	1	1	73.1048583984375	34.60693359375	54.5654296875
 3	1	0	0	47.79052734375	3.4332275390625	6.04248046875
 4	0	1	0	23.3917236328125	22.796630859375	11.71875
 5	0	0	1	1.190185546875	8.2855224609375	36.7584228515625
 6	0	0	0	0.0457763671875	0.0457763671875	0.1373291015625
 7	1	1	1	74.15771484375	34.698486328125	54.5196533203125
 8	1	0	0	47.7447509765625	3.4332275390625	6.0882568359375
 9	0	1	0	23.4832763671875	22.796630859375	11.71875
 10	0	0	1	1.190185546875	8.2855224609375	36.7584228515625
 11	0	0	0	0.0457763671875	0.0457763671875	0.1373291015625
 12	1	1	1	73.883056640625	34.6527099609375	54.5654296875
 13	1	0	0	47.698974609375	3.4332275390625	6.04248046875
 14	0	1	0	23.3917236328125	22.8424072265625	11.71875
 15	0	0	1	1.190185546875	8.2855224609375	36.2548828125
END_DATA
