data/calibration-000853.ti3
CTI3   
ORIGINATOR	"ColorHug Factory"
DESCRIPTOR	"Calibration Target chart information 3"
DEVICE_CLASS	"DISPLAY"
COLOR_REP	"RGB_XYZ"
TARGET_INSTRUMENT	"Hughski ColorHug"
INSTRUMENT_TYPE_SPECTRAL	"NO"
NORMALIZED_TO_Y_100	"NO"
NUMBER_OF_FIELDS	7
NUMBER_OF_SETS	15
BEGIN_DATA_FORMAT
 SAMPLE_ID	RGB_R	RGB_G	RGB_B	XYZ_X	XYZ_Y	XYZ_Z
END_DATA_FORMAT
BEGIN_DATA
 1	0	0	0	0.09155273438	0.09155273438	0.1373291016
 2	1	1	1	56.99157715	36.66687012	43.35021973
 3	1	0	0	36.66687012	3.570556641	5.493164062
 4	0	1	0	19.63806152	26.45874023	12.40539551
 5	0	0	1	0.9155273438	7.049560547	25.81787109
 6	0	0	0	0.09155273438	0.09155273438	0.1373291016
 7	1	1	1	57.76977539	36.80419922	43.5333252
 8	1	0	0	37.07885742	3.570556641	5.493164062
 9	0	1	0	19.50073242	26.5045166	12.35961914
 10	0	0	1	0.9155273438	7.049560547	25.9552002
 11	0	0	0	0.09155273438	0.09155273438	0.1373291016
 12	1	1	1	57.54089355	36.75842285	43.44177246
 13	1	0	0	37.07885742	3.570556641	5.493164062
 14	0	1	0	19.45495605	26.41296387	12.40539551
 15	0	0	1	0.9155273438	7.049560547	25.77209473
END_DATA
