data/calibration-001220.ti3
CTI3   
ORIGINATOR	"ColorHug Factory"
DESCRIPTOR	"Calibration Target chart information 3"
DEVICE_CLASS	"DISPLAY"
COLOR_REP	"RGB_XYZ"
TARGET_INSTRUMENT	"Hughski ColorHug"
INSTRUMENT_TYPE_SPECTRAL	"NO"
NORMALIZED_TO_Y_100	"NO"
NUMBER_OF_FIELDS	7
NUMBER_OF_SETS	15
BEGIN_DATA_FORMAT
 SAMPLE_ID	RGB_R	RGB_G	RGB_B	XYZ_X	XYZ_Y	XYZ_Z
END_DATA_FORMAT
BEGIN_DATA
 1	0	0	0	0.3662109375	0.3662109375	0.4577636719
 2	1	1	1	39.23034668	41.56494141	47.97363281
 3	1	0	0	23.52905273	3.433227539	4.165649414
 4	0	1	0	14.41955566	30.34973145	13.68713379
 5	0	0	1	1.190185547	8.605957031	30.99060059
 6	0	0	0	0.3662109375	0.4119873047	0.4577636719
 7	1	1	1	39.27612305	41.56494141	47.51586914
 8	1	0	0	23.5748291	3.433227539	4.211425781
 9	0	1	0	14.46533203	30.16662598	13.73291016
 10	0	0	1	1.190185547	8.651733398	30.76171875
 11	0	0	0	0.3662109375	0.4119873047	0.4577636719
 12	1	1	1	39.36767578	41.51916504	48.01940918
 13	1	0	0	23.5748291	3.433227539	4.165649414
 14	0	1	0	14.41955566	30.16662598	13.73291016
 15	0	0	1	1.190185547	8.651733398	30.80749512
END_DATA
