data/calibration-001325.ti3
CTI3   
ORIGINATOR	"ColorHug Factory"
DESCRIPTOR	"Calibration Target chart information 3"
DEVICE_CLASS	"DISPLAY"
COLOR_REP	"RGB_XYZ"
TARGET_INSTRUMENT	"Hughski ColorHug"
INSTRUMENT_TYPE_SPECTRAL	"NO"
NORMALIZED_TO_Y_100	"NO"
NUMBER_OF_FIELDS	7
NUMBER_OF_SETS	15
BEGIN_DATA_FORMAT
 SAMPLE_ID	RGB_R	RGB_G	RGB_B	XYZ_X	XYZ_Y	XYZ_Z
END_DATA_FORMAT
BEGIN_DATA
 1	0	0	0	0.4119873047	0.3662109375	0.4119873047
 2	1	1	1	35.75134277	36.57531738	43.6706543
 3	1	0	0	21.46911621	3.067016602	3.890991211
 4	0	1	0	13.13781738	26.59606934	12.40539551
 5	0	0	1	1.190185547	7.736206055	28.15246582
 6	0	0	0	0.4119873047	0.3662109375	0.4119873047
 7	1	1	1	35.93444824	36.71264648	43.35021973
 8	1	0	0	21.42333984	3.067016602	3.890991211
 9	0	1	0	13.13781738	26.59606934	12.40539551
 10	0	0	1	1.190185547	7.781982422	28.10668945
 11	0	0	0	0.4119873047	0.3662109375	0.4119873047
 12	1	1	1	35.88867188	36.75842285	43.6706543
 13	1	0	0	21.51489258	3.067016602	3.890991211
 14	0	1	0	13.13781738	26.55029297	12.40539551
 15	0	0	1	1.190185547	7.781982422	28.10668945
END_DATA
