data/calibration-000074.ti3
CTI3
DESCRIPTOR	"Calibration Target chart information 3"
ORIGINATOR	"ColorHug Factory"
DEVICE_CLASS	"DISPLAY"
COLOR_REP	"RGB_XYZ"
TARGET_INSTRUMENT	"ColorHug"
INSTRUMENT_TYPE_SPECTRAL	"NO"
LUMINANCE_XYZ_CDM2	"52.585602 37.960052 44.368744"
NORMALIZED_TO_Y_100	"YES"
NUMBER_OF_FIELDS	7
NUMBER_OF_SETS	836
BEGIN_DATA_FORMAT
 SAMPLE_ID	RGB_R	RGB_G	RGB_B	XYZ_X	XYZ_Y	XYZ_Z
END_DATA_FORMAT
BEGIN_DATA
 1	100	100	100	136.1445783	99.87951807	116.746988
 2	100	100	100	139.6385542	100	116.8674699
 3	100	100	100	138.1927711	99.87951807	116.746988
 4	100	100	100	139.6385542	99.87951807	116.746988
 5	33.33	32.622	30.968	24.69879518	7.228915663	7.831325301
 6	100	0	100	85.78313253	27.71084337	82.1686747
 7	100	100	0	137.4698795	81.3253012	48.79518072
 8	0	100	100	59.75903614	91.08433735	102.0481928
 9	0	100	0	47.22891566	72.65060241	34.09638554
 10	0	0	100	2.891566265	19.03614458	68.55421687
 11	100	0	0	87.10843373	9.036144578	14.21686747
 12	0	0	0	0.9638554217	0.6024096386	0.6024096386
 13	0	52.455	100	11.92771084	33.73493976	75.6626506
 14	100	0	50.3	87.10843373	12.40963855	26.38554217
 15	100	54.739	100	100.3614458	43.85542169	90.60240964
 16	100	52.128	0	97.34939759	23.37349398	20.96385542
 17	0	0	46.181	0.9638554217	3.13253012	10
 18	0	51.141	0	9.638554217	14.09638554	6.987951807
 19	0	100	51.348	47.22891566	75.54216867	46.98795181
 20	100	100	52.037	136.746988	84.69879518	61.92771084
 21	49.216	0	0	16.02409639	2.048192771	3.012048193
 22	56.159	100	0	68.43373494	74.93975904	37.8313253
 23	49.226	100	100	66.02409639	93.01204819	104.939759
 24	44.487	0	100	14.81927711	20.24096386	70.48192771
 25	100	44.498	52.029	94.69879518	22.65060241	32.04819277
 26	48.926	48.544	100	30.36144578	32.65060241	76.98795181
 27	51.368	100	47.25	64.3373494	77.46987952	47.71084337
 28	49.893	0	49.033	17.34939759	5.180722892	14.3373494
 29	53.109	51.372	0	28.07228916	16.14457831	10
 30	0	58.587	53.943	14.3373494	23.37349398	23.4939759
 31	100	28.065	100	91.56626506	31.56626506	84.09638554
 32	0	0	72.874	36.98795181	8.43373494	29.75903614
 33	0	26.758	100	4.457831325	22.28915663	70
 34	0	25.426	0	2.530120482	3.493975904	1.927710843
 35	72.508	0	100	42.28915663	23.01204819	75.42168675
 36	100	27.395	0	89.51807229	12.53012048	15.90361446
 37	74.47	100	100	92.89156627	95.6626506	109.6385542
 38	100	0	25.728	87.71084337	9.879518072	16.98795181
 39	73.862	0	0	42.89156627	4.698795181	7.108433735
 40	100	100	25.402	132.2891566	81.92771084	51.20481928
 41	0	75.751	100	27.10843373	54.93975904	85.54216867
 42	0	75.172	0	23.61445783	35.42168675	16.98795181
 43	0	100	25.864	46.02409639	73.25301205	36.74698795
 44	100	0	74.801	88.07228916	17.71084337	45.78313253
 45	0	100	75.421	48.79518072	81.3253012	66.62650602
 46	24.577	0	0	3.975903614	0.843373494	1.204819277
 47	26.321	100	0	50.60240964	72.53012048	34.81927711
 48	100	75.835	0	97.10843373	44.81927711	31.56626506
 49	100	100	77.061	137.5903614	90.48192771	83.01204819
 50	71.263	100	0	99.27710843	76.74698795	40.60240964
 51	0	0	15.614	3.13253012	0.843373494	1.56626506
 52	0	30.049	70.936	3.975903614	12.04819277	30
 53	100	77.691	100	116.2650602	66.26506024	101.0843373
 54	24.486	100	100	52.77108434	91.44578313	103.0120482
 55	100	62.784	31.909	103.9759036	33.01204819	29.39759036
 56	29.552	0	100	13.73493976	19.51807229	69.51807229
 57	32.98	70.921	100	28.79518072	49.87951807	83.61445783
 58	0	27.681	40.241	5.180722892	6.024096386	9.156626506
 59	67.901	71.021	100	56.98795181	53.37349398	88.6746988
 60	28.154	100	67.829	52.77108434	80	60.48192771
 61	71.637	100	70.001	87.34939759	83.61445783	67.71084337
 62	58.822	58.763	53.586	37.46987952	25.78313253	27.22891566
 63	33.466	30.48	0	9.638554217	5.301204819	3.614457831
 64	100	73.795	71.277	111.8072289	51.08433735	58.91566265
 65	68.394	29.692	0	38.07228916	7.951807229	7.951807229
 66	70.399	0	29.039	37.95180723	5.301204819	10
 67	28.078	0	26.956	8.192771084	1.807228916	4.337349398
 68	28.532	72.339	0	25.78313253	32.65060241	16.14457831
 69	100	30.941	26.496	90	14.3373494	19.39759036
 70	34.597	0	73.611	17.95180723	9.397590361	31.68674699
 71	71.573	0	72.408	38.07228916	12.40963855	35.90361446
 72	0	71.029	29.412	20.96385542	31.92771084	18.55421687
 73	68.386	75.008	0	58.55421687	39.03614458	22.53012048
 74	68.088	27.309	100	39.15662651	25.90361446	75.6626506
 75	100	26.457	73.749	90.36144578	20.84337349	46.62650602
 76	74.344	100	27.392	91.56626506	78.07228916	44.3373494
 77	27.558	100	28.197	51.3253012	73.85542169	38.31325301
 78	31.196	27.465	100	10	23.13253012	71.44578313
 79	0	75.521	72.824	24.69879518	44.09638554	46.74698795
 80	0	50.93	25.553	9.518072289	14.81927711	9.638554217
 81	32.06	33.584	64.033	10.24096386	12.1686747	25.42168675
 82	81.666	55.38	0	64.81927711	22.53012048	16.86746988
 83	68.257	32.751	58.286	39.39759036	13.73493976	25.54216867
 84	0	55.248	81.585	12.53012048	27.8313253	47.46987952
 85	73.781	52.099	100	53.97590361	37.59036145	81.56626506
 86	100	50.537	82.952	97.34939759	33.73493976	61.44578313
 87	23.55	0	50.439	4.819277108	4.096385542	12.89156627
 88	31.335	62.746	31.114	21.20481928	24.81927711	16.14457831
 89	100	18.31	49.418	88.19277108	13.85542169	26.5060241
 90	26.498	48.404	0	24.09638554	12.77108434	6.746987952
 91	47.91	100	85.744	62.65060241	86.5060241	81.56626506
 92	71.829	47.313	31.811	52.04819277	16.98795181	16.26506024
 93	31.304	64.132	69.316	24.3373494	31.92771084	38.79518072
 94	80.403	0	54.321	51.56626506	9.638554217	23.13253012
 95	18.455	50.036	100	13.61445783	32.40963855	75.54216867
 96	50.653	100	16.345	63.73493976	74.57831325	37.95180723
 97	80.121	100	52.261	100.3614458	81.44578313	55.90361446
 98	0	22.54	19.289	2.168674699	3.373493976	3.253012048
 99	100	75.273	46.886	112.6506024	47.34939759	41.3253012
 100	0	78.618	56.625	36.26506024	43.85542169	34.81927711
 101	51.137	80.627	100	46.14457831	62.53012048	91.20481928
 102	48.446	0	17.864	15.06024096	2.409638554	4.21686747
 103	100	50.023	21.211	96.14457831	22.77108434	22.53012048
 104	50.115	20.118	0	28.43373494	3.975903614	3.975903614
 105	58.099	72.426	33.158	44.81927711	35.6626506	23.73493976
 106	19.364	100	50.197	49.51807229	75.90361446	46.86746988
 107	50.683	19.177	100	22.1686747	22.40963855	72.53012048
 108	53.37	0	81.576	20.24096386	13.13253012	42.65060241
 109	47.768	76.245	0	38.6746988	37.95180723	19.87951807
 110	0	18.927	55.503	2.048192771	6.385542169	16.38554217
 111	0	13.277	0	1.084337349	1.325301205	0.9638554217
 112	72.862	72.473	75.625	62.89156627	45.54216867	54.3373494
 113	100	13.904	0	87.95180723	9.879518072	14.57831325
 114	86.349	0	100	63.4939759	25.18072289	78.79518072
 115	100	41.941	100	94.93975904	36.62650602	86.98795181
 116	100	81.785	16.464	115.1807229	52.77108434	35.90361446
 117	0	44.063	52.596	7.710843373	13.73493976	18.43373494
 118	0	0	58.917	1.204819277	5.301204819	18.07228916
 119	59.25	24.551	29.789	26.98795181	6.86746988	9.397590361
 120	82.73	82.874	100	86.14457831	69.51807229	98.79518072
 121	80.039	0	12.618	51.3253012	5.78313253	9.156626506
 122	60.957	47.729	77.817	35.78313253	24.21686747	45.18072289
 123	100	0	38.618	87.22891566	10.96385542	20.72289157
 124	0	40.09	100	16.38554217	26.98795181	72.28915663
 125	0	15.283	82.322	2.289156627	12.28915663	40.48192771
 126	17.592	81.726	100	32.40963855	62.1686747	89.63855422
 127	100	14.13	100	88.91566265	28.79518072	83.01204819
 128	15.261	100	82.059	49.63855422	83.61445783	74.57831325
 129	47.77	79.418	60.389	41.3253012	46.86746988	40.24096386
 130	18.768	16.429	0	3.493975904	1.927710843	1.445783133
 131	55.634	100	65.763	68.6746988	81.08433735	61.08433735
 132	100	100	38.541	137.7108434	83.25301205	55.06024096
 133	17.421	0	83.497	3.373493976	11.80722892	41.80722892
 134	17.237	16.758	100	4.819277108	20.48192771	69.87951807
 135	0	15.067	30.039	1.325301205	2.65060241	4.698795181
 136	0	0	86.505	2.048192771	12.77108434	45.6626506
 137	75.736	72.799	50.02	66.38554217	40.48192771	34.81927711
 138	100	83.323	85.529	116.5060241	66.38554217	80.72289157
 139	100	100	64.894	137.7108434	87.59036145	71.3253012
 140	81.98	84.914	0	86.14457831	52.89156627	31.20481928
 141	0	63.757	15.49	16.02409639	23.97590361	12.53012048
 142	49.514	66.135	100	35.18072289	46.5060241	83.61445783
 143	100	0	61.862	86.98795181	14.57831325	34.09638554
 144	24.308	45.41	49.831	20.48192771	14.3373494	17.71084337
 145	15.963	0	17.047	2.168674699	1.084337349	2.048192771
 146	87.497	100	100	114.2168675	97.46987952	113.0120482
 147	52.099	25.003	75.752	34.57831325	13.97590361	37.10843373
 148	14.909	81.162	0	29.27710843	42.53012048	20.36144578
 149	0	34.792	14.626	4.337349398	6.385542169	4.096385542
 150	48.39	45.075	22.552	21.92771084	12.65060241	9.759036145
 151	83.545	65.965	100	75.30120482	50.12048193	89.75903614
 152	16.226	62.345	0	16.86746988	22.53012048	11.08433735
 153	63.222	0	14.914	28.6746988	3.734939759	6.024096386
 154	80.449	13.446	0	50.12048193	6.506024096	9.036144578
 155	83.917	41.562	0	59.39759036	14.3373494	13.37349398
 156	100	60.448	46.3	101.9277108	32.53012048	34.09638554
 157	15.584	0	34.795	12.53012048	2.048192771	5.78313253
 158	17.144	65.121	100	20.36144578	44.21686747	80.84337349
 159	83.602	55.334	62.667	67.8313253	28.6746988	37.95180723
 160	0	82.19	14.22	29.15662651	43.85542169	21.80722892
 161	25.132	74.856	50.616	27.34939759	39.03614458	29.63855422
 162	0	13.769	100	2.891566265	19.87951807	69.27710843
 163	87.181	0	0	62.40963855	6.746987952	10.36144578
 164	0	100	39.19	47.34939759	74.09638554	40.96385542
 165	78.047	65.914	19.865	65.54216867	31.20481928	21.80722892
 166	100	63.961	15.865	103.373494	33.13253012	26.62650602
 167	100	45.955	36.032	95.78313253	21.44578313	24.93975904
 168	15.926	100	16.89	48.55421687	73.01204819	35.54216867
 169	41.459	100	0	57.46987952	73.37349398	35.90361446
 170	48.707	37.288	48.139	20.36144578	11.56626506	16.86746988
 171	83.381	100	13.285	104.8192771	78.31325301	44.09638554
 172	78.129	25.303	75.621	51.3253012	16.98795181	42.04819277
 173	12.396	0	0	1.445783133	0.6024096386	0.7228915663
 174	37.607	48.336	83.346	17.59036145	24.69879518	48.79518072
 175	35.588	15.356	0	8.313253012	2.409638554	2.289156627
 176	61.245	100	100	74.81927711	92.77108434	106.626506
 177	100	67.29	87.195	106.1445783	49.03614458	73.97590361
 178	0	0	30.615	0.7228915663	1.56626506	4.457831325
 179	35.187	81.789	83.323	36.62650602	55.42168675	63.37349398
 180	39.525	80.194	22.879	36.74698795	42.89156627	23.37349398
 181	50.634	34.593	0	23.61445783	7.831325301	5.903614458
 182	14.175	100	63.146	47.95180723	78.55421687	55.78313253
 183	83.493	17.728	34.574	55.78313253	8.915662651	15.06024096
 184	23.463	22.014	79.943	9.638554217	13.25301205	38.79518072
 185	18.066	31.847	0	5.542168675	5.421686747	3.13253012
 186	87.201	100	81.361	111.0843373	89.03614458	83.4939759
 187	0	100	87.95	48.43373494	85.54216867	82.28915663
 188	34.476	17.888	46.22	8.43373494	5.421686747	11.92771084
 189	18.277	0	67.39	3.253012048	7.34939759	25.18072289
 190	100	87.972	0	124.0963855	60.72289157	38.79518072
 191	82.925	34.85	100	61.08433735	30.48192771	80.48192771
 192	0	88.016	100	36.74698795	70.96385542	93.37349398
 193	36.104	85.655	100	41.56626506	67.95180723	92.77108434
 194	60.981	0	0	26.26506024	3.13253012	4.698795181
 195	51.466	61.826	78.106	33.01204819	33.37349398	48.79518072
 196	78.427	31.983	22.175	51.08433735	10.60240964	12.40963855
 197	66.017	44.321	0	39.03614458	13.4939759	10.24096386
 198	83.941	0	84.177	57.8313253	17.71084337	52.04819277
 199	20.158	46.612	23.269	12.65060241	12.1686747	8.43373494
 200	0	100	62.618	46.98795181	78.31325301	54.93975904
 201	33.832	0	13.933	12.04819277	1.445783133	2.409638554
 202	100	17.286	16.322	86.5060241	10.72289157	15.90361446
 203	0	42.204	83.926	7.831325301	20.84337349	47.34939759
 204	0	87.774	0	33.97590361	51.08433735	24.45783133
 205	64.988	0	59.017	31.20481928	8.43373494	23.13253012
 206	14.677	0	100	3.493975904	19.15662651	69.27710843
 207	88.934	82.673	35.021	94.81927711	52.04819277	36.98795181
 208	0	63.778	100	17.8313253	42.53012048	79.75903614
 209	83.429	17.674	100	58.19277108	26.14457831	77.71084337
 210	30.899	100	85.668	53.25301205	84.3373494	79.75903614
 211	83.68	0	41.016	56.38554217	8.192771084	16.86746988
 212	100	63.515	0	103.1325301	32.04819277	25.30120482
 213	85.074	69.987	0	78.79518072	35.78313253	23.61445783
 214	20.801	45.524	69.018	31.08433735	18.43373494	31.92771084
 215	21.382	82.482	73.017	31.3253012	52.65060241	52.1686747
 216	100	15.128	64.249	85.54216867	16.02409639	36.62650602
 217	36.522	0	58.427	16.26506024	5.903614458	18.79518072
 218	22.466	81.296	33.007	31.08433735	44.3373494	25.54216867
 219	62.531	87.152	0	61.08433735	53.97590361	28.79518072
 220	84.12	85.397	67.886	89.63855422	60.72289157	57.71084337
 221	18.87	27.336	45.389	5.78313253	6.746987952	11.80722892
 222	66.439	100	14.444	80.48192771	76.26506024	40.36144578
 223	41.636	22.147	19.003	20	4.337349398	4.819277108
 224	61.271	100	81.94	74.69879518	86.02409639	78.55421687
 225	86.013	100	0	109.6385542	78.91566265	43.97590361
 226	37.57	0	0	8.554216867	1.325301205	1.927710843
 227	100	16.132	84.102	87.46987952	21.92771084	57.95180723
 228	0	100	13.619	50.72289157	72.28915663	34.81927711
 229	38.905	100	56.471	56.74698795	78.07228916	51.68674699
 230	100	15.382	34.563	87.46987952	11.56626506	19.75903614
 231	36.656	14.908	100	11.08433735	20.96385542	70.84337349
 232	0	62.593	66.608	15.90361446	29.51807229	35.18072289
 233	66.347	12.528	100	33.61445783	23.01204819	74.81927711
 234	100	43.375	69.233	93.97590361	25.78313253	45.42168675
 235	100	56.36	61.236	99.03614458	31.92771084	42.53012048
 236	0	86.194	44.955	32.89156627	52.1686747	32.77108434
 237	64.527	87.262	100	65.6626506	73.01204819	97.95180723
 238	34.411	0	42.471	7.469879518	3.373493976	9.638554217
 239	80.23	59.707	85.12	65.54216867	37.71084337	62.1686747
 240	20.625	19.056	14.791	9.397590361	2.771084337	2.65060241
 241	15.341	34.221	100	7.34939759	24.81927711	72.04819277
 242	36.777	0	87.905	9.397590361	14.21686747	48.91566265
 243	34.598	56.247	100	20.60240964	37.46987952	78.19277108
 244	20.86	67.629	17.418	21.08433735	28.19277108	15.06024096
 245	44.958	60.843	18.054	26.74698795	22.89156627	13.73493976
 246	37.421	60.193	0	22.1686747	21.44578313	11.3253012
 247	84.011	33.849	42.612	60.24096386	13.85542169	20.24096386
 248	17.241	60.339	37.743	29.39759036	22.53012048	16.5060241
 249	50.65	17.261	53.278	18.19277108	7.34939759	17.34939759
 250	45.505	48.926	65.152	22.04819277	20.60240964	31.44578313
 251	44.567	84.081	39.649	42.28915663	49.27710843	30.96385542
 252	100	86.339	72.054	122.8915663	66.74698795	67.22891566
 253	68.14	61.135	0	48.91566265	24.57831325	15.78313253
 254	17.93	66.986	81.403	21.20481928	37.71084337	52.04819277
 255	39.242	60.215	48.926	23.37349398	24.69879518	22.77108434
 256	20.099	18.77	62.967	4.578313253	7.951807229	22.1686747
 257	34.553	100	14.582	53.61445783	73.4939759	36.14457831
 258	87.345	0	66.694	60.84337349	13.4939759	34.81927711
 259	0	43.714	39.842	6.987951807	11.80722892	11.92771084
 260	100	37.705	13.955	89.87951807	16.14457831	18.19277108
 261	31.265	86.993	0	38.55421687	50.60240964	24.81927711
 262	51.402	82.661	81.338	46.86746988	56.86746988	63.13253012
 263	100	100	12.984	137.2289157	81.68674699	48.91566265
 264	0	37.859	0	5.060240964	7.228915663	3.734939759
 265	62.092	58.215	100	42.1686747	40.96385542	82.65060241
 266	86.186	100	64.1	109.5180723	85.06024096	66.14457831
 267	100	35.251	85.898	91.92771084	27.59036145	62.40963855
 268	63.182	89.992	41.974	64.93975904	59.87951807	38.79518072
 269	13.504	100	0	48.43373494	72.65060241	34.45783133
 270	100	0	13.228	86.14457831	9.277108434	14.81927711
 271	63.881	40.826	100	37.10843373	30.48192771	77.8313253
 272	69.387	84.838	20.792	66.98795181	51.68674699	30.12048193
 273	0	70.279	45.136	20.48192771	32.89156627	24.09638554
 274	79.094	64.754	40.908	65.78313253	31.92771084	27.34939759
 275	62.385	54.099	17.396	38.91566265	19.27710843	13.61445783
 276	64.408	14.621	0	30.84337349	4.457831325	5.78313253
 277	70.028	15.606	44.651	37.8313253	7.831325301	15.90361446
 278	0	63.544	0	15.90361446	23.73493976	11.56626506
 279	83.475	47.274	20.502	62.89156627	17.8313253	16.5060241
 280	55.866	0	32.671	21.56626506	3.855421687	8.313253012
 281	58.007	0	100	25.30120482	21.44578313	72.53012048
 282	100	0	87.698	87.46987952	21.92771084	61.56626506
 283	0	13.792	67.215	2.65060241	8.072289157	25.42168675
 284	84.123	17.001	58.549	57.8313253	12.28915663	27.59036145
 285	59.579	32.873	15.966	28.55421687	8.313253012	7.831325301
 286	10.41	32.998	28.659	4.698795181	6.626506024	6.506024096
 287	17.231	40.031	85.65	8.554216867	20.72289157	49.27710843
 288	37.568	41.561	10.108	13.97590361	9.638554217	6.144578313
 289	0	69.015	85.092	20.24096386	40.84337349	57.71084337
 290	14.442	100	36.187	48.07228916	74.09638554	40
 291	100	40.549	0	91.56626506	17.10843373	17.95180723
 292	82.143	45.435	78.429	62.40963855	25.90361446	49.27710843
 293	52.674	0	67.3	19.27710843	9.036144578	27.95180723
 294	0	87.868	66.793	34.69879518	59.03614458	48.91566265
 295	86.53	100	40.524	108.5542169	80.96385542	51.44578313
 296	71.777	85.586	67.232	72.04819277	59.27710843	54.21686747
 297	43.216	100	31.671	58.79518072	74.81927711	40.12048193
 298	39.245	32.908	85.845	14.09638554	18.6746988	48.79518072
 299	0	45.662	67.543	8.072289157	17.71084337	30.48192771
 300	12.161	100	100	49.51807229	91.08433735	103.1325301
 301	67.049	0	85.516	34.3373494	16.02409639	50.24096386
 302	100	89.041	100	126.0240964	81.56626506	108.4337349
 303	20.246	60.698	56.526	16.86746988	25.6626506	26.62650602
 304	52.177	55.457	40.416	29.63855422	21.20481928	18.6746988
 305	72.617	87.018	83.932	74.93975904	66.5060241	73.01204819
 306	40.512	16.723	66.475	11.80722892	9.277108434	26.62650602
 307	68.507	49.232	50.605	43.37349398	20.12048193	24.3373494
 308	65.622	100	54.525	79.75903614	80	54.69879518
 309	54.115	37.24	66.394	24.81927711	15.54216867	30.72289157
 310	100	76.138	31.267	112.7710843	46.74698795	35.6626506
 311	54.728	65.623	0	37.46987952	27.46987952	15.54216867
 312	63.126	12.526	64.37	29.75903614	10.12048193	27.46987952
 313	72.827	18.08	23.704	41.44578313	6.746987952	10
 314	23.268	15.278	34.947	4.457831325	3.373493976	6.746987952
 315	87.648	68.954	59.645	81.92771084	40.24096386	42.89156627
 316	0	85.595	85.198	33.97590361	60.48192771	67.34939759
 317	35.798	84.371	69.21	38.79518072	54.93975904	49.87951807
 318	36.062	47.494	35.919	15.6626506	14.3373494	12.65060241
 319	86.083	36.277	59.152	64.69879518	17.8313253	31.20481928
 320	58.21	100	30.361	71.08433735	75.90361446	42.04819277
 321	46.745	14.614	32.317	14.81927711	4.096385542	7.469879518
 322	81.573	73.869	86.954	76.98795181	52.28915663	71.3253012
 323	85.991	49.387	48.206	69.63855422	22.1686747	26.98795181
 324	28.062	87.906	19.654	38.6746988	52.65060241	27.10843373
 325	68.992	17.993	85.124	37.71084337	17.59036145	50.60240964
 326	100	66.147	100	105.5421687	53.73493976	95.06024096
 327	33.358	64.806	84.517	29.75903614	37.34939759	56.02409639
 328	41.351	17.736	80.522	12.65060241	13.37349398	40.84337349
 329	100	100	88.719	136.9879518	94.57831325	97.22891566
 330	66.336	0	44.32	33.01204819	6.265060241	14.69879518
 331	64.85	67.09	12.293	48.19277108	30.48192771	18.55421687
 332	15.262	31.268	63.277	5.421686747	10.84337349	23.85542169
 333	15.008	43.663	37.3	8.192771084	11.68674699	11.20481928
 334	0	57.895	38.078	12.77108434	20.72289157	15.54216867
 335	66.599	58.458	67.871	46.02409639	29.87951807	40
 336	59.191	18.651	15.215	25.54216867	4.819277108	6.144578313
 337	66.781	31.14	84.629	37.34939759	20.12048193	51.08433735
 338	88.033	85.158	52.14	95.6626506	57.95180723	46.26506024
 339	36.882	100	100	57.22891566	92.04819277	104.2168675
 340	26.102	33.094	17.006	7.831325301	6.385542169	4.819277108
 341	56.309	36.861	35.862	26.02409639	10.48192771	12.40963855
 342	45.839	65.587	67.033	30.72289157	33.61445783	39.03614458
 343	83.709	81.172	16.406	84.21686747	48.19277108	30.24096386
 344	0	48.132	13.005	8.313253012	12.40963855	6.746987952
 345	87.176	50.021	100	72.65060241	38.6746988	84.81927711
 346	51.219	84.244	13.73	47.59036145	48.31325301	25.54216867
 347	60.606	71.415	48.406	46.86746988	37.34939759	30.36144578
 348	0	11.359	12.718	1.084337349	1.325301205	1.445783133
 349	86.429	49.705	33.145	69.87951807	20.84337349	20.84337349
 350	34.056	40.958	100	14.93975904	27.95180723	73.73493976
 351	100	30.557	59.628	88.79518072	18.55421687	34.81927711
 352	88.497	26.902	13.449	69.27710843	10.36144578	12.89156627
 353	14.167	51.98	88.218	12.65060241	28.07228916	55.06024096
 354	13.784	12.983	49.37	2.409638554	4.457831325	12.40963855
 355	15.018	88.441	48.062	36.14457831	55.42168675	36.14457831
 356	87.79	25.769	89.215	65.42168675	23.25301205	60.84337349
 357	0	33.206	55.865	11.44578313	9.879518072	18.43373494
 358	74.324	76.029	35.536	66.98795181	41.92771084	29.63855422
 359	65.863	57.223	42.324	44.09638554	23.85542169	21.92771084
 360	30.893	54.646	13.136	16.26506024	17.22891566	9.638554217
 361	0	34.36	28.321	4.337349398	6.987951807	6.506024096
 362	15.443	77.087	85.116	27.46987952	49.87951807	62.53012048
 363	63.381	68.947	68.521	48.6746988	38.79518072	44.3373494
 364	69.733	27.566	42.917	38.91566265	10	16.26506024
 365	32.754	100	42.76	53.25301205	75.18072289	43.61445783
 366	47.096	29.481	34.829	17.10843373	7.34939759	9.638554217
 367	8.5451	71.948	62.695	22.1686747	37.8313253	36.14457831
 368	0	86.048	29.3	32.53012048	50.60240964	27.10843373
 369	53.697	51.572	85.367	29.75903614	28.79518072	54.21686747
 370	17.608	56.69	12.515	13.97590361	18.43373494	9.759036145
 371	90.638	14.414	49.227	68.31325301	11.3253012	23.25301205
 372	63.248	63.64	89.55	46.5060241	40.84337349	66.62650602
 373	100	85.976	58.455	120.4819277	63.13253012	55.30120482
 374	9.8311	28.027	7.5567	3.614457831	4.337349398	2.65060241
 375	89.831	64.313	69.506	84.3373494	38.43373494	49.27710843
 376	31.754	12.995	25.543	8.072289157	2.65060241	4.578313253
 377	75.914	45.966	64.957	52.53012048	22.04819277	35.42168675
 378	7.5735	50.695	58.941	10.24096386	19.15662651	24.93975904
 379	100	69.835	58.912	106.5060241	43.73493976	46.62650602
 380	32.211	34.376	48.339	10.72289157	9.638554217	15.06024096
 381	13.901	12.159	73.555	2.771084337	9.518072289	31.3253012
 382	87.071	9.028	77.653	63.61445783	16.62650602	45.6626506
 383	23.272	85.409	84.29	35.90361446	60.36144578	66.26506024
 384	93.289	39.48	26.145	77.95180723	16.02409639	18.43373494
 385	65.769	59.63	30.967	45.42168675	24.69879518	19.03614458
 386	100	32.265	41.803	87.10843373	16.26506024	24.45783133
 387	86.568	85.281	86.961	94.45783133	66.98795181	79.03614458
 388	52.577	86.83	30.016	51.08433735	53.61445783	30.84337349
 389	47.921	40.199	76.902	20.96385542	19.27710843	40.84337349
 390	22.36	86.619	61.58	36.26506024	55.90361446	44.3373494
 391	52.232	33.601	88.787	23.13253012	20.96385542	55.06024096
 392	0	28.523	86.267	5.180722892	16.5060241	47.46987952
 393	43.497	67.879	39.551	30.12048193	31.20481928	22.28915663
 394	39.877	45.261	0	16.5060241	11.68674699	6.86746988
 395	86.94	12.43	24.699	61.68674699	8.072289157	13.13253012
 396	28.363	55.339	90.398	17.59036145	31.92771084	60.36144578
 397	39.018	70.534	57.879	29.63855422	35.90361446	33.01204819
 398	12.833	28.519	78.828	4.819277108	14.21686747	38.6746988
 399	68.35	31.815	69.975	38.55421687	16.14457831	35.42168675
 400	56.52	26.226	41.626	24.3373494	7.951807229	13.25301205
 401	12.938	46.218	0	8.313253012	11.20481928	5.662650602
 402	8.6938	60.179	26.117	14.21686747	21.56626506	13.01204819
 403	51.995	89.429	96.608	54.57831325	73.4939759	90.96385542
 404	46.905	47.746	48.909	21.92771084	16.5060241	19.39759036
 405	14.352	81.814	19.479	29.75903614	43.85542169	22.40963855
 406	71.482	38.117	12.273	43.01204819	11.44578313	10.48192771
 407	86.616	60.785	10.012	74.69879518	27.59036145	20.48192771
 408	71.811	88.979	52.186	75.42168675	60.84337349	45.06024096
 409	43.213	100	72.083	59.27710843	81.80722892	65.78313253
 410	73.92	23.444	8.2853	43.4939759	7.34939759	8.674698795
 411	40.629	85.534	53.423	41.92771084	53.37349398	38.6746988
