data/calibration-000821.ti3
CTI3   
ORIGINATOR	"ColorHug Factory"
DESCRIPTOR	"Calibration Target chart information 3"
DEVICE_CLASS	"DISPLAY"
COLOR_REP	"RGB_XYZ"
TARGET_INSTRUMENT	"Hughski ColorHug"
INSTRUMENT_TYPE_SPECTRAL	"NO"
NORMALIZED_TO_Y_100	"NO"
NUMBER_OF_FIELDS	7
NUMBER_OF_SETS	15
BEGIN_DATA_FORMAT
 SAMPLE_ID	RGB_R	RGB_G	RGB_B	XYZ_X	XYZ_Y	XYZ_Z
END_DATA_FORMAT
BEGIN_DATA
 1	0	0	0	0.09155273438	0.04577636719	0.09155273438
 2	1	1	1	58.04443359	38.3605957	46.69189453
 3	1	0	0	36.84997559	3.570556641	5.53894043
 4	0	1	0	19.04296875	27.32849121	13.04626465
 5	0	0	1	0.8697509766	7.553100586	28.01513672
 6	0	0	0	0.09155273438	0.04577636719	0.09155273438
 7	1	1	1	58.09020996	38.63525391	46.7376709
 8	1	0	0	37.03308105	3.570556641	5.53894043
 9	0	1	0	19.04296875	27.42004395	12.95471191
 10	0	0	1	0.8697509766	7.553100586	28.15246582
 11	0	0	0	0.09155273438	0.04577636719	0.09155273438
 12	1	1	1	58.09020996	38.63525391	46.7376709
 13	1	0	0	36.66687012	3.570556641	5.493164062
 14	0	1	0	19.04296875	27.42004395	12.95471191
 15	0	0	1	0.8697509766	7.553100586	28.15246582
END_DATA
