data/calibration-001277.ti3
CTI3   
ORIGINATOR	"ColorHug Factory"
DESCRIPTOR	"Calibration Target chart information 3"
DEVICE_CLASS	"DISPLAY"
COLOR_REP	"RGB_XYZ"
TARGET_INSTRUMENT	"Hughski ColorHug"
INSTRUMENT_TYPE_SPECTRAL	"NO"
NORMALIZED_TO_Y_100	"NO"
NUMBER_OF_FIELDS	7
NUMBER_OF_SETS	15
BEGIN_DATA_FORMAT
 SAMPLE_ID	RGB_R	RGB_G	RGB_B	XYZ_X	XYZ_Y	XYZ_Z
END_DATA_FORMAT
BEGIN_DATA
 1	0	0	0	0	0.04577636719	0.04577636719
 2	1	1	1	45.08972168	47.24121094	56.39648438
 3	1	0	0	27.14538574	3.616333008	4.531860352
 4	0	1	0	16.06750488	33.59985352	15.15197754
 5	0	0	1	0.8697509766	9.750366211	35.79711914
 6	0	0	0	0	0.04577636719	0.04577636719
 7	1	1	1	44.81506348	47.19543457	56.30493164
 8	1	0	0	27.00805664	3.616333008	4.531860352
 9	0	1	0	16.02172852	33.55407715	15.10620117
 10	0	0	1	0.8697509766	9.750366211	35.93444824
 11	0	0	0	0	0.04577636719	0.04577636719
 12	1	1	1	44.40307617	47.05810547	56.16760254
 13	1	0	0	26.73339844	3.616333008	4.531860352
 14	0	1	0	15.97595215	33.92028809	15.19775391
 15	0	0	1	0.8697509766	9.704589844	35.88867188
END_DATA
