data/calibration-000686.ti3
CTI3
ORIGINATOR	"ColorHug Factory"
DESCRIPTOR	"Calibration Target chart information 3"
DEVICE_CLASS	"DISPLAY"
COLOR_REP	"RGB_XYZ"
TARGET_INSTRUMENT	"Hughski ColorHug"
INSTRUMENT_TYPE_SPECTRAL	"NO"
NORMALIZED_TO_Y_100	"NO"
NUMBER_OF_FIELDS	7
NUMBER_OF_SETS	15
BEGIN_DATA_FORMAT
 SAMPLE_ID	RGB_R	RGB_G	RGB_B	XYZ_X	XYZ_Y	XYZ_Z
END_DATA_FORMAT
BEGIN_DATA
 1	0	0	0	0	0	0.04577636719
 2	1	1	1	55.98449707	40.42053223	46.78344727
 3	1	0	0	35.65979004	3.524780273	5.081176758
 4	0	1	0	18.85986328	28.97644043	12.95471191
 5	0	0	1	0.8697509766	7.690429688	28.42712402
 6	0	0	0	0	0	0.04577636719
 7	1	1	1	56.57958984	40.6036377	47.0123291
 8	1	0	0	35.5682373	3.570556641	5.081176758
 9	0	1	0	19.04296875	29.06799316	12.95471191
 10	0	0	1	0.8697509766	7.690429688	28.33557129
 11	0	0	0	0	0	0.04577636719
 12	1	1	1	56.71691895	40.7409668	46.82922363
 13	1	0	0	35.65979004	3.570556641	5.081176758
 14	0	1	0	19.08874512	29.20532227	13.00048828
 15	0	0	1	0.8697509766	7.690429688	28.33557129
END_DATA
