data/calibration-001738.ti3
CTI3   
ORIGINATOR	"ColorHug Factory"
CREATED	"Wed Feb 20 20:24:23 2013"
DESCRIPTOR	"Calibration Target chart information 3"
DEVICE_CLASS	"DISPLAY"
COLOR_REP	"RGB_XYZ"
TARGET_INSTRUMENT	"Hughski ColorHug"
INSTRUMENT_TYPE_SPECTRAL	"NO"
NORMALIZED_TO_Y_100	"NO"
NUMBER_OF_FIELDS	7
NUMBER_OF_SETS	15
BEGIN_DATA_FORMAT
 SAMPLE_ID	RGB_R	RGB_G	RGB_B	XYZ_X	XYZ_Y	XYZ_Z
END_DATA_FORMAT
BEGIN_DATA
 1	0	0	0	0	0	0.09155273438
 2	1	1	1	36.25488281	36.71264648	46.14257812
 3	1	0	0	21.46911621	2.60925293	3.387451172
 4	0	1	0	12.68005371	25.9552002	11.71875
 5	0	0	1	0.8239746094	7.919311523	30.80749512
 6	0	0	0	0	0	0.09155273438
 7	1	1	1	36.25488281	36.80419922	46.18835449
 8	1	0	0	21.37756348	2.60925293	3.387451172
 9	0	1	0	12.72583008	26.04675293	11.71875
 10	0	0	1	0.8239746094	7.919311523	30.89904785
 11	0	0	0	0.04577636719	0	0.09155273438
 12	1	1	1	35.98022461	36.57531738	46.09680176
 13	1	0	0	21.46911621	2.60925293	3.387451172
 14	0	1	0	12.72583008	25.86364746	11.71875
 15	0	0	1	0.8239746094	7.919311523	30.89904785
END_DATA
