data/calibration-001715.ti3
CTI3   
ORIGINATOR	"ColorHug Factory"
CREATED	"Wed Feb 20 20:07:25 2013"
DESCRIPTOR	"Calibration Target chart information 3"
DEVICE_CLASS	"DISPLAY"
COLOR_REP	"RGB_XYZ"
TARGET_INSTRUMENT	"Hughski ColorHug"
INSTRUMENT_TYPE_SPECTRAL	"NO"
NORMALIZED_TO_Y_100	"NO"
NUMBER_OF_FIELDS	7
NUMBER_OF_SETS	15
BEGIN_DATA_FORMAT
 SAMPLE_ID	RGB_R	RGB_G	RGB_B	XYZ_X	XYZ_Y	XYZ_Z
END_DATA_FORMAT
BEGIN_DATA
 1	0	0	0	0.04577636719	0.04577636719	0.09155273438
 2	1	1	1	31.49414062	36.52954102	45.68481445
 3	1	0	0	17.89855957	2.426147461	2.975463867
 4	0	1	0	11.12365723	25.86364746	11.4440918
 5	0	0	1	0.8239746094	8.056640625	30.62438965
 6	0	0	0	0.04577636719	0.04577636719	0.09155273438
 7	1	1	1	31.26525879	36.62109375	45.50170898
 8	1	0	0	17.76123047	2.380371094	2.975463867
 9	0	1	0	11.12365723	25.68054199	11.4440918
 10	0	0	1	0.8239746094	8.056640625	30.62438965
 11	0	0	0	0.04577636719	0.04577636719	0.09155273438
 12	1	1	1	31.31103516	36.48376465	45.54748535
 13	1	0	0	17.7154541	2.380371094	2.9296875
 14	0	1	0	11.07788086	25.58898926	11.4440918
 15	0	0	1	0.8239746094	8.010864258	30.39550781
END_DATA
