data/calibration-000935.ti3
CTI3   
ORIGINATOR	"ColorHug Factory"
DESCRIPTOR	"Calibration Target chart information 3"
DEVICE_CLASS	"DISPLAY"
COLOR_REP	"RGB_XYZ"
TARGET_INSTRUMENT	"Hughski ColorHug"
INSTRUMENT_TYPE_SPECTRAL	"NO"
NORMALIZED_TO_Y_100	"NO"
NUMBER_OF_FIELDS	7
NUMBER_OF_SETS	15
BEGIN_DATA_FORMAT
 SAMPLE_ID	RGB_R	RGB_G	RGB_B	XYZ_X	XYZ_Y	XYZ_Z
END_DATA_FORMAT
BEGIN_DATA
 1	0	0	0	0	0.04577636719	0.04577636719
 2	1	1	1	55.20629883	34.69848633	41.74804688
 3	1	0	0	35.11047363	3.25012207	5.172729492
 4	0	1	0	18.21899414	24.53613281	11.48986816
 5	0	0	1	0.8239746094	6.683349609	24.85656738
 6	0	0	0	0	0.04577636719	0.04577636719
 7	1	1	1	55.11474609	34.7442627	41.83959961
 8	1	0	0	35.20202637	3.204345703	5.172729492
 9	0	1	0	18.21899414	24.53613281	11.53564453
 10	0	0	1	0.8239746094	6.683349609	24.67346191
 11	0	0	0	0.04577636719	0.04577636719	0.04577636719
 12	1	1	1	54.93164062	34.51538086	41.74804688
 13	1	0	0	35.24780273	3.204345703	5.172729492
 14	0	1	0	18.26477051	24.71923828	11.5814209
 15	0	0	1	0.8239746094	6.683349609	24.76501465
END_DATA
