data/calibration-001694.ti3
CTI3   
ORIGINATOR	"ColorHug Factory"
CREATED	"Thu Feb 14 23:18:58 2013"
DESCRIPTOR	"Calibration Target chart information 3"
DEVICE_CLASS	"DISPLAY"
COLOR_REP	"RGB_XYZ"
TARGET_INSTRUMENT	"Hughski ColorHug"
INSTRUMENT_TYPE_SPECTRAL	"NO"
NORMALIZED_TO_Y_100	"NO"
NUMBER_OF_FIELDS	7
NUMBER_OF_SETS	15
BEGIN_DATA_FORMAT
 SAMPLE_ID	RGB_R	RGB_G	RGB_B	XYZ_X	XYZ_Y	XYZ_Z
END_DATA_FORMAT
BEGIN_DATA
 1	0	0	0	0.09155273438	0.09155273438	0.1373291016
 2	1	1	1	40.23742676	38.68103027	51.58996582
 3	1	0	0	23.62060547	2.746582031	3.845214844
 4	0	1	0	13.50402832	26.7791748	12.45117188
 5	0	0	1	0.9155273438	8.743286133	34.60693359
 6	0	0	0	0.09155273438	0.09155273438	0.1373291016
 7	1	1	1	40.23742676	38.63525391	51.58996582
 8	1	0	0	23.52905273	2.746582031	3.845214844
 9	0	1	0	13.45825195	26.7791748	12.49694824
 10	0	0	1	0.9155273438	8.743286133	34.65270996
 11	0	0	0	0.09155273438	0.1373291016	0.1373291016
 12	1	1	1	40.14587402	38.72680664	51.77307129
 13	1	0	0	23.62060547	2.746582031	3.845214844
 14	0	1	0	13.50402832	26.7791748	12.45117188
 15	0	0	1	0.9613037109	8.7890625	34.42382812
END_DATA
