data/calibration-002704.ti3
CTI3   
ORIGINATOR	"ColorHug Factory"
CREATED	"Thu Mar 26 20:16:49 2015"
DESCRIPTOR	"Calibration Target chart information 3"
DEVICE_CLASS	"DISPLAY"
COLOR_REP	"RGB_XYZ"
TARGET_INSTRUMENT	"Hughski ColorHug"
INSTRUMENT_TYPE_SPECTRAL	"NO"
NORMALIZED_TO_Y_100	"NO"
NUMBER_OF_FIELDS	7
NUMBER_OF_SETS	15
BEGIN_DATA_FORMAT
 SAMPLE_ID	RGB_R	RGB_G	RGB_B	XYZ_X	XYZ_Y	XYZ_Z
END_DATA_FORMAT
BEGIN_DATA
 1.0	0.0	0.0	0.0	0.403884887695	0.384216308594	0.448593139648
 2.0	1.0	1.0	1.0	56.109588623047	49.349395751953	51.522003173828
 3.0	1.0	0.0	0.0	40.959991455078	4.089859008789	6.57991027832
 4.0	0.0	1.0	0.0	13.234237670898	36.088104248047	13.676116943359
 5.0	0.0	0.0	1.0	2.130004882812	10.126068115234	31.629333496094
 6.0	0.0	0.0	0.0	0.403533935547	0.384231567383	0.448715209961
 7.0	1.0	1.0	1.0	55.727890014648	49.648483276367	51.522003173828
 8.0	1.0	0.0	0.0	41.165817260742	4.063491821289	6.553588867188
 9.0	0.0	1.0	0.0	13.149276733398	36.088104248047	13.676116943359
 10.0	0.0	0.0	1.0	2.12336730957	9.953826904297	31.507690429688
 11.0	0.0	0.0	0.0	0.405883789062	0.38362121582	0.448867797852
 12.0	1.0	1.0	1.0	56.109588623047	49.951217651367	51.522003173828
 13.0	1.0	0.0	0.0	41.165817260742	4.091903686523	6.564102172852
 14.0	0.0	1.0	0.0	13.212890625	36.088104248047	13.676116943359
 15.0	0.0	0.0	1.0	2.130554199219	10.039215087891	31.751937866211
END_DATA
