data/calibration-001841.ti3
CTI3   
ORIGINATOR	"ColorHug Factory"
CREATED	"Wed Apr 10 09:06:49 2013"
DESCRIPTOR	"Calibration Target chart information 3"
DEVICE_CLASS	"DISPLAY"
COLOR_REP	"RGB_XYZ"
TARGET_INSTRUMENT	"Hughski ColorHug"
INSTRUMENT_TYPE_SPECTRAL	"NO"
NORMALIZED_TO_Y_100	"NO"
NUMBER_OF_FIELDS	7
NUMBER_OF_SETS	15
BEGIN_DATA_FORMAT
 SAMPLE_ID	RGB_R	RGB_G	RGB_B	XYZ_X	XYZ_Y	XYZ_Z
END_DATA_FORMAT
BEGIN_DATA
 1	0	0	0	0.1373291016	0.1831054688	0.2288818359
 2	1	1	1	39.87121582	39.27612305	50.72021484
 3	1	0	0	23.62060547	2.883911133	3.890991211
 4	0	1	0	13.91601562	27.42004395	12.54272461
 5	0	0	1	1.052856445	8.7890625	34.42382812
 6	0	0	0	0.1373291016	0.1831054688	0.2288818359
 7	1	1	1	39.87121582	39.09301758	50.67443848
 8	1	0	0	23.75793457	2.9296875	3.845214844
 9	0	1	0	13.96179199	27.42004395	12.58850098
 10	0	0	1	1.052856445	8.7890625	34.46960449
 11	0	0	0	0.1373291016	0.1831054688	0.2288818359
 12	1	1	1	39.91699219	39.23034668	50.76599121
 13	1	0	0	23.66638184	2.9296875	3.890991211
 14	0	1	0	14.00756836	27.51159668	12.58850098
 15	0	0	1	1.052856445	8.834838867	34.28649902
END_DATA
