data/colorhug-dell-precision-m4300.ti3
CTI3   

DESCRIPTOR "Argyll Calibration Target chart information 3"
ORIGINATOR "Argyll dispread"
CREATED "Tue Jan 10 10:22:56 2012"
KEYWORD "DEVICE_CLASS"
DEVICE_CLASS "DISPLAY"
KEYWORD "COLOR_REP"
COLOR_REP "RGB_XYZ"
KEYWORD "TARGET_INSTRUMENT"
TARGET_INSTRUMENT "Hughski ColorHug"
KEYWORD "INSTRUMENT_TYPE_SPECTRAL"
INSTRUMENT_TYPE_SPECTRAL "NO"
KEYWORD "LUMINANCE_XYZ_CDM2"
LUMINANCE_XYZ_CDM2 "195.025620 190.812958 222.215759"
KEYWORD "NORMALIZED_TO_Y_100"
NORMALIZED_TO_Y_100 "YES"

NUMBER_OF_FIELDS 7
BEGIN_DATA_FORMAT
SAMPLE_ID RGB_R RGB_G RGB_B XYZ_X XYZ_Y XYZ_Z 
END_DATA_FORMAT

NUMBER_OF_SETS 836
BEGIN_DATA
1 100.00 100.00 100.00 102.21 100.00 116.46 
2 100.00 100.00 100.00 102.38 100.07 116.38 
3 100.00 100.00 100.00 102.21 100.00 116.46 
4 100.00 100.00 100.00 102.38 100.07 116.38 
5 33.330 32.622 30.968 15.947 13.405 25.534 
6 100.00 0.0000 100.00 70.252 43.950 100.40 
7 100.00 100.00 0.0000 73.125 78.433 17.106 
8 0.0000 100.00 100.00 62.482 78.623 117.69 
9 0.0000 100.00 0.0000 33.245 57.279 18.235 
10 0.0000 0.0000 100.00 30.549 22.866 101.45 
11 100.00 0.0000 0.0000 41.015 22.606 0.94105 
12 0.0000 0.0000 0.0000 1.2889 1.2292 2.1734 
13 0.0000 52.455 100.00 39.789 37.999 108.97 
14 100.00 0.0000 50.300 52.103 28.699 40.529 
15 100.00 54.739 100.00 80.404 60.695 108.04 
16 100.00 52.128 0.0000 49.919 36.922 7.7498 
17 0.0000 0.0000 46.181 10.644 6.4112 35.709 
18 0.0000 51.141 0.0000 9.6831 15.143 8.6871 
19 0.0000 100.00 51.348 44.333 63.372 57.823 
20 100.00 100.00 52.037 84.815 85.284 58.647 
21 49.216 0.0000 0.0000 10.107 5.7403 2.8821 
22 56.159 100.00 0.0000 45.209 63.430 18.641 
23 49.226 100.00 100.00 71.677 83.566 118.07 
24 44.487 0.0000 100.00 38.125 26.404 102.34 
25 100.00 44.498 52.029 59.517 40.610 47.788 
26 48.926 48.544 100.00 47.736 40.513 108.51 
27 51.368 100.00 47.250 52.926 67.885 53.542 
28 49.893 0.0000 49.033 20.817 11.730 40.087 
29 53.109 51.372 0.0000 20.097 20.766 9.0666 
30 0.0000 58.587 53.943 24.466 26.638 53.179 
31 100.00 28.065 100.00 73.902 49.582 103.29 
32 0.0000 0.0000 72.874 21.715 13.996 73.784 
33 0.0000 26.758 100.00 33.843 27.872 104.15 
34 0.0000 25.426 0.0000 4.2263 5.6113 4.6805 
35 72.508 0.0000 100.00 50.156 32.946 101.87 
36 100.00 27.395 0.0000 44.331 27.905 3.4611 
37 74.470 100.00 100.00 84.195 90.218 118.08 
38 100.00 0.0000 25.728 45.036 24.601 15.356 
39 73.862 0.0000 0.0000 22.094 12.183 3.1105 
40 100.00 100.00 25.402 76.992 80.650 31.417 
41 0.0000 75.751 100.00 49.565 55.125 114.57 
42 0.0000 75.172 0.0000 19.770 32.309 14.839 
43 0.0000 100.00 25.864 37.266 59.273 32.649 
44 100.00 0.0000 74.801 62.863 36.244 78.057 
45 0.0000 100.00 75.421 54.938 70.654 94.907 
46 24.577 0.0000 0.0000 4.3906 2.7694 2.5673 
47 26.321 100.00 0.0000 36.722 58.765 17.962 
48 100.00 75.835 0.0000 59.852 54.311 13.797 
49 100.00 100.00 77.061 95.864 93.061 97.240 
50 71.263 100.00 0.0000 52.875 67.652 18.478 
51 0.0000 0.0000 15.614 3.3110 2.3726 9.2917 
52 0.0000 30.049 70.936 24.476 19.122 73.995 
53 100.00 77.691 100.00 90.404 78.475 113.22 
54 24.486 100.00 100.00 65.451 80.193 117.46 
55 100.00 62.784 31.909 59.462 47.213 30.038 
56 29.552 0.0000 100.00 34.492 24.655 102.17 
57 32.980 70.921 100.00 52.123 53.545 113.15 
58 0.0000 27.681 40.241 12.161 10.408 33.050 
59 67.901 71.021 100.00 64.597 60.097 113.85 
60 28.154 100.00 67.829 55.236 70.066 83.254 
61 71.637 100.00 70.001 72.234 79.359 87.145 
62 58.822 58.763 53.586 37.474 33.885 53.997 
63 33.466 30.480 0.0000 10.147 9.9147 5.4224 
64 100.00 73.795 71.277 78.922 65.456 84.109 
65 68.394 29.692 0.0000 22.465 16.205 5.6803 
66 70.399 0.0000 29.039 24.722 13.584 20.652 
67 28.078 0.0000 26.956 9.3884 5.4680 18.268 
68 28.532 72.339 0.0000 22.178 31.922 13.992 
69 100.00 30.941 26.496 49.331 31.089 19.502 
70 34.597 0.0000 73.611 27.255 16.569 76.883 
71 71.573 0.0000 72.408 40.947 24.130 74.872 
72 0.0000 71.029 29.412 22.411 31.576 30.503 
73 68.386 75.008 0.0000 37.473 41.723 15.382 
74 68.088 27.309 100.00 51.301 36.825 105.64 
75 100.00 26.457 73.749 65.068 40.383 78.330 
76 74.344 100.00 27.392 59.225 71.001 34.798 
77 27.558 100.00 28.197 41.478 61.488 34.951 
78 31.196 27.465 100.00 38.319 30.355 104.98 
79 0.0000 75.521 72.824 40.398 45.923 86.536 
80 0.0000 50.930 25.553 13.594 17.460 22.302 
81 32.060 33.584 64.033 26.774 20.528 64.558 
82 81.666 55.380 0.0000 37.340 31.334 9.6381 
83 68.257 32.751 58.286 37.135 25.581 56.483 
84 0.0000 55.248 81.585 35.604 33.472 95.461 
85 73.781 52.099 100.00 60.482 48.790 108.77 
86 100.00 50.537 82.952 74.793 52.856 96.142 
87 23.550 0.0000 50.439 14.992 8.7527 41.682 
88 31.335 62.746 31.114 23.900 27.794 31.218 
89 100.00 18.310 49.418 53.572 31.297 40.598 
90 26.498 48.404 0.0000 12.270 15.311 8.1065 
91 47.910 100.00 85.744 68.205 79.146 110.03 
92 71.829 47.313 31.811 33.711 26.800 28.099 
93 31.304 64.132 69.316 37.928 37.612 78.734 
94 80.403 0.0000 54.321 38.372 21.680 46.626 
95 18.455 50.036 100.00 40.980 37.416 108.46 
96 50.653 100.00 16.345 45.104 63.252 26.312 
97 80.121 100.00 52.261 69.992 77.241 59.268 
98 0.0000 22.540 19.289 6.4474 6.3030 13.917 
99 100.00 75.273 46.886 69.475 59.918 48.916 
100 0.0000 78.618 56.625 34.554 43.476 62.040 
101 51.137 80.627 100.00 62.119 64.981 116.44 
102 48.446 0.0000 17.864 12.218 6.7543 11.318 
103 100.00 50.023 21.211 52.362 37.455 18.926 
104 50.115 20.118 0.0000 12.576 9.3347 4.0583 
105 58.099 72.426 33.158 36.775 40.116 35.331 
106 19.364 100.00 50.197 46.104 64.068 57.079 
107 50.683 19.177 100.00 41.946 30.649 104.14 
108 53.370 0.0000 81.576 35.998 22.321 88.814 
109 47.768 76.245 0.0000 28.790 37.667 15.635 
110 0.0000 18.927 55.503 15.848 11.256 49.466 
111 0.0000 13.277 0.0000 2.4908 3.0731 3.3685 
112 72.862 72.473 75.625 60.690 54.848 91.920 
113 100.00 13.904 0.0000 42.371 24.228 2.2401 
114 86.349 0.0000 100.00 59.595 38.351 101.31 
115 100.00 41.941 100.00 76.575 54.509 104.89 
116 100.00 81.785 16.464 65.127 61.660 22.279 
117 0.0000 44.063 52.596 19.479 18.708 48.133 
118 0.0000 0.0000 58.917 15.267 9.1634 52.076 
119 59.250 24.551 29.789 21.943 14.996 22.845 
120 82.730 82.874 100.00 80.494 76.844 116.03 
121 80.039 0.0000 12.618 27.371 14.973 8.0164 
122 60.957 47.729 77.817 45.690 35.502 89.864 
123 100.00 0.0000 38.618 48.525 26.715 27.284 
124 0.0000 40.090 100.00 36.626 32.477 106.55 
125 0.0000 15.283 82.322 27.320 19.236 89.747 
126 17.592 81.726 100.00 54.722 61.998 115.81 
127 100.00 14.130 100.00 71.454 45.794 101.59 
128 15.261 100.00 82.059 59.470 74.192 104.54 
129 47.770 79.418 60.389 45.640 50.077 69.259 
130 18.768 16.429 0.0000 4.9073 4.6270 3.8817 
131 55.634 100.00 65.763 62.168 73.561 80.516 
132 100.00 100.00 38.541 80.304 82.695 43.419 
133 17.421 0.0000 83.497 28.446 18.747 90.457 
134 17.237 16.758 100.00 33.990 26.194 103.23 
135 0.0000 15.067 30.039 7.5798 6.1276 20.727 
136 0.0000 0.0000 86.505 27.587 18.848 93.701 
137 75.736 72.799 50.020 51.260 48.475 52.819 
138 100.00 83.323 85.529 90.182 79.777 106.20 
139 100.00 100.00 64.894 89.995 88.694 77.663 
140 81.980 84.914 0.0000 50.949 55.945 16.366 
141 0.0000 63.757 15.490 16.337 24.406 18.290 
142 49.514 66.135 100.00 54.105 51.656 112.65 
143 100.00 0.0000 61.862 56.905 32.006 57.162 
144 24.308 45.410 49.831 22.026 20.075 46.217 
145 15.963 0.0000 17.047 5.1500 3.1328 10.384 
146 87.497 100.00 100.00 92.924 94.858 117.47 
147 52.099 25.003 75.752 36.135 24.733 82.325 
148 14.909 81.162 0.0000 24.239 38.710 15.860 
149 0.0000 34.792 14.626 8.0069 9.5852 12.933 
150 48.390 45.075 22.552 20.075 18.675 19.746 
151 83.545 65.965 100.00 72.251 61.408 111.65 
152 16.226 62.345 0.0000 15.308 22.803 11.260 
153 63.222 0.0000 14.914 17.733 9.6916 9.1755 
154 80.449 13.446 0.0000 27.527 16.377 3.3793 
155 83.917 41.562 0.0000 34.707 25.536 6.6591 
156 100.00 60.448 46.300 62.416 47.819 44.219 
157 15.584 0.0000 34.795 9.1503 5.3200 25.317 
158 17.144 65.121 100.00 46.304 46.978 111.85 
159 83.602 55.334 62.667 54.605 41.677 66.301 
160 0.0000 82.190 14.220 25.289 40.120 22.372 
161 25.132 74.856 50.616 33.717 40.294 53.399 
162 0.0000 13.769 100.00 31.751 24.710 102.65 
163 87.181 0.0000 0.0000 31.000 16.894 2.4270 
164 0.0000 100.00 39.190 40.555 61.025 44.830 
165 78.047 65.914 19.865 41.535 38.615 22.134 
166 100.00 63.961 15.865 56.373 45.823 17.605 
167 100.00 45.955 36.032 54.738 37.595 30.976 
168 15.926 100.00 16.890 37.083 58.890 26.624 
169 41.459 100.00 0.0000 40.201 60.737 18.029 
170 48.707 37.288 48.139 25.272 19.780 42.646 
171 83.381 100.00 13.285 62.296 72.592 23.850 
172 78.129 25.303 75.621 49.872 32.065 82.328 
173 12.396 0.0000 0.0000 2.5076 1.9098 2.1709 
174 37.607 48.336 83.346 40.161 33.885 96.255 
175 35.588 15.356 0.0000 8.0531 6.2667 3.5795 
176 61.245 100.00 100.00 76.706 86.065 118.17 
177 100.00 67.290 87.195 82.699 65.847 104.55 
178 0.0000 0.0000 30.615 6.3338 4.1842 20.228 
179 35.187 81.789 83.323 54.148 58.600 105.37 
180 39.525 80.194 22.879 32.357 42.600 28.387 
181 50.634 34.593 0.0000 15.313 13.355 6.8180 
182 14.175 100.00 63.146 50.487 67.329 75.075 
183 83.493 17.728 34.574 36.322 21.887 26.135 
184 23.463 22.014 79.943 30.269 21.813 87.666 
185 18.066 31.847 0.0000 7.3344 8.6072 6.0939 
186 87.201 100.00 81.361 88.183 89.345 104.02 
187 0.0000 100.00 87.950 60.142 75.170 111.37 
188 34.476 17.888 46.220 17.565 11.711 37.558 
189 18.277 0.0000 67.390 21.107 12.924 65.731 
190 100.00 87.972 0.0000 66.333 65.945 16.363 
191 82.925 34.850 100.00 62.366 45.089 105.59 
192 0.0000 88.016 100.00 56.246 67.122 116.89 
193 36.104 85.655 100.00 60.537 67.594 116.44 
194 60.981 0.0000 0.0000 14.982 8.4624 2.8725 
195 51.466 61.826 78.106 46.512 41.803 92.252 
196 78.427 31.983 22.175 32.248 22.083 17.343 
197 66.017 44.321 0.0000 24.253 20.783 7.6553 
198 83.941 0.0000 84.177 54.105 32.616 91.903 
199 20.158 46.612 23.269 14.317 16.090 20.467 
200 0.0000 100.00 62.618 48.802 66.346 74.086 
201 33.832 0.0000 13.933 8.0066 4.5398 9.0166 
202 100.00 17.286 16.322 44.728 26.188 10.068 
203 0.0000 42.204 83.926 32.842 28.346 95.250 
204 0.0000 87.774 0.0000 26.274 44.236 17.226 
205 64.988 0.0000 59.017 30.845 17.741 53.512 
206 14.677 0.0000 100.00 32.055 23.294 102.17 
207 88.934 82.673 35.021 61.398 60.204 38.929 
208 0.0000 63.778 100.00 44.041 45.201 111.44 
209 83.429 17.674 100.00 59.404 39.930 102.92 
210 30.899 100.00 85.668 63.861 76.633 109.81 
211 83.680 0.0000 41.016 36.453 20.229 31.498 
212 100.00 63.515 0.0000 53.818 43.985 10.370 
213 85.074 69.987 0.0000 45.458 42.881 13.209 
214 20.801 45.524 69.018 29.342 25.277 73.832 
215 21.382 82.482 73.017 46.755 54.154 88.634 
216 100.00 15.128 64.249 58.997 34.840 61.376 
217 36.522 0.0000 58.427 20.939 12.035 53.087 
218 22.466 81.296 33.007 31.548 43.114 37.035 
219 62.531 87.152 0.0000 40.675 51.748 17.628 
220 84.120 85.397 67.886 71.369 68.398 81.877 
221 18.870 27.336 45.389 15.711 12.600 38.003 
222 66.439 100.00 14.444 51.817 67.062 24.684 
223 41.636 22.147 19.003 13.182 9.5924 14.482 
224 61.271 100.00 81.940 71.965 80.552 104.72 
225 86.013 100.00 0.0000 62.667 72.710 17.423 
226 37.570 0.0000 0.0000 7.1822 4.2698 2.4138 
227 100.00 16.132 84.102 68.269 41.936 91.902 
228 0.0000 100.00 13.619 34.822 57.927 23.844 
229 38.905 100.00 56.471 52.892 67.927 66.098 
230 100.00 15.382 34.563 48.705 28.083 25.179 
231 36.656 14.908 100.00 37.600 27.651 103.58 
232 0.0000 62.593 66.608 31.295 33.201 72.529 
233 66.347 12.528 100.00 47.879 32.818 103.00 
234 100.00 43.375 69.233 66.696 44.871 74.101 
235 100.00 56.360 61.236 66.791 48.810 63.566 
236 0.0000 86.194 44.955 34.650 48.229 49.136 
237 64.527 87.262 100.00 71.510 74.689 117.09 
238 34.411 0.0000 42.471 14.651 8.4353 32.503 
239 80.230 59.707 85.120 63.735 51.093 101.13 
240 20.625 19.056 14.791 7.3067 6.2022 10.673 
241 15.341 34.221 100.00 36.774 30.799 105.64 
242 36.777 0.0000 87.905 33.881 22.284 96.146 
243 34.598 56.247 100.00 46.087 42.734 109.38 
244 20.860 67.629 17.418 20.645 28.761 20.559 
245 44.958 60.843 18.054 23.157 26.595 19.493 
246 37.421 60.193 0.0000 18.606 23.735 10.722 
247 84.011 33.849 42.612 41.948 28.076 36.499 
248 17.241 60.339 37.743 21.840 25.722 35.977 
249 50.650 17.261 53.278 24.175 15.501 46.652 
250 45.505 48.926 65.152 33.861 28.516 68.550 
251 44.567 84.081 39.649 39.737 49.507 44.286 
252 100.00 86.339 72.054 86.202 77.725 88.035 
253 68.140 61.135 0.0000 30.616 30.471 10.772 
254 17.930 66.986 81.403 42.119 42.452 98.342 
255 39.242 60.215 48.926 29.649 30.057 48.296 
256 20.099 18.770 62.967 21.310 14.914 60.738 
257 34.553 100.00 14.582 40.140 60.659 25.003 
258 87.345 0.0000 66.694 48.492 27.719 64.419 
259 0.0000 43.714 39.842 15.258 16.351 33.970 
260 100.00 37.705 13.955 48.112 31.879 11.713 
261 31.265 86.993 0.0000 30.415 45.902 17.352 
262 51.402 82.661 81.338 57.981 61.040 102.57 
263 100.00 100.00 12.984 74.525 79.012 22.790 
264 0.0000 37.859 0.0000 6.6533 9.5914 6.8927 
265 62.092 58.215 100.00 56.018 49.218 109.97 
266 86.186 100.00 64.100 79.380 82.709 77.536 
267 100.00 35.251 85.898 72.031 47.730 95.931 
268 63.182 89.992 41.974 50.988 59.454 48.226 
269 13.504 100.00 0.0000 34.441 57.667 18.410 
270 100.00 0.0000 13.228 42.591 23.255 6.5503 
271 63.881 40.826 100.00 51.892 40.530 107.10 
272 69.387 84.838 20.792 46.106 53.172 27.718 
273 0.0000 70.279 45.136 26.055 33.139 45.245 
274 79.094 64.754 40.908 47.021 41.094 41.019 
275 62.385 54.099 17.396 27.441 25.612 18.024 
276 64.408 14.621 0.0000 17.934 11.196 3.8422 
277 70.028 15.606 44.651 30.015 18.300 35.728 
278 0.0000 63.544 0.0000 14.092 22.608 11.602 
279 83.475 47.274 20.502 38.644 29.444 18.065 
280 55.866 0.0000 32.671 18.322 10.299 23.167 
281 58.007 0.0000 100.00 42.823 29.056 102.40 
282 100.00 0.0000 87.698 68.045 40.468 94.703 
283 0.0000 13.792 67.215 20.403 13.616 66.708 
284 84.123 17.001 58.549 44.455 26.560 53.912 
285 59.579 32.873 15.966 20.635 15.915 13.738 
286 10.410 32.998 28.659 10.939 11.041 22.211 
287 17.231 40.031 85.650 34.947 29.047 97.586 
288 37.568 41.561 10.108 14.260 14.549 11.334 
289 0.0000 69.015 85.092 42.329 44.426 102.16 
290 14.442 100.00 36.187 41.240 61.340 42.000 
291 100.00 40.549 0.0000 46.758 31.886 5.6733 
292 82.143 45.435 78.429 57.718 41.560 89.056 
293 52.674 0.0000 67.300 29.084 17.187 66.115 
294 0.0000 87.868 66.793 43.789 55.354 79.040 
295 86.530 100.00 40.524 70.888 77.254 46.518 
296 71.777 85.586 67.232 62.929 64.319 80.841 
297 43.216 100.00 31.671 46.155 64.005 38.244 
298 39.245 32.908 85.845 38.020 28.839 97.138 
299 0.0000 45.662 67.543 25.927 23.540 69.840 
300 12.161 100.00 100.00 63.678 79.011 117.87 
301 67.049 0.0000 85.516 43.759 27.057 93.359 
302 100.00 89.041 100.00 96.351 89.416 115.67 
303 20.246 60.698 56.526 28.573 29.817 58.071 
304 52.177 55.457 40.416 29.077 27.144 38.188 
305 72.617 87.018 83.932 71.644 71.570 106.35 
306 40.512 16.723 66.475 26.897 17.743 66.191 
307 68.507 49.232 50.605 37.652 29.723 47.636 
308 65.622 100.00 54.525 61.774 72.674 62.883 
309 54.115 37.240 66.394 34.557 25.555 68.924 
310 100.00 76.138 31.267 65.342 57.761 33.361 
311 54.728 65.623 0.0000 25.927 29.759 12.067 
312 63.126 12.526 64.370 33.494 20.420 62.744 
313 72.827 18.080 23.704 26.410 16.195 16.900 
314 23.268 15.278 34.947 11.771 8.2065 26.257 
315 87.648 68.954 59.645 61.741 51.878 65.196 
316 0.0000 85.595 85.198 51.413 60.111 106.86 
317 35.798 84.371 69.210 48.946 55.711 84.157 
318 36.062 47.494 35.919 20.642 19.803 31.545 
319 86.083 36.277 59.152 49.480 33.134 57.243 
320 58.210 100.00 30.361 51.072 66.341 37.199 
321 46.745 14.614 32.317 16.399 10.310 24.146 
322 81.573 73.869 86.954 71.768 63.411 106.78 
323 85.991 49.387 48.206 48.417 35.329 44.817 
324 28.062 87.906 19.654 33.020 48.481 27.281 
325 68.992 17.993 85.124 46.603 30.597 93.869 
326 100.00 66.147 100.00 84.703 68.482 110.16 
327 33.358 64.806 84.517 45.399 43.733 101.37 
328 41.351 17.736 80.522 33.988 22.947 88.816 
329 100.00 100.00 88.719 100.14 96.973 111.73 
330 66.336 0.0000 44.320 26.019 14.470 34.346 
331 64.850 67.090 12.293 32.804 34.631 17.323 
332 15.262 31.268 63.277 22.693 17.798 62.538 
333 15.008 43.663 37.300 16.185 16.314 32.563 
334 0.0000 57.895 38.078 19.198 23.029 35.555 
335 66.599 58.458 67.871 47.042 39.579 75.241 
336 59.191 18.651 15.215 17.875 11.603 11.157 
337 66.781 31.140 84.629 47.455 33.273 95.892 
338 88.033 85.158 52.140 67.337 65.448 57.972 
339 36.882 100.00 100.00 68.375 81.663 117.93 
340 26.102 33.094 17.006 11.042 10.733 14.201 
341 56.309 36.861 35.862 24.574 19.166 30.565 
342 45.839 65.587 67.033 40.896 39.510 75.796 
343 83.709 81.172 16.406 52.496 54.031 23.505 
344 0.0000 48.132 13.005 10.414 14.572 13.292 
345 87.176 50.021 100.00 69.008 52.583 108.07 
346 51.219 84.244 13.730 35.908 47.076 23.179 
347 60.606 71.415 48.406 41.482 42.097 49.626 
348 0.0000 11.359 12.718 3.6014 3.4190 7.9867 
349 86.429 49.705 33.145 44.638 33.311 29.114 
350 34.056 40.958 100.00 41.811 35.239 107.09 
351 100.00 30.557 59.628 59.533 37.162 56.751 
352 88.497 26.902 13.449 36.779 23.189 10.185 
353 14.167 51.980 88.218 38.488 34.672 102.39 
354 13.784 12.983 49.370 14.086 9.4109 40.202 
355 15.018 88.441 48.062 38.339 52.175 53.020 
356 87.790 25.769 89.215 61.636 40.287 99.775 
357 0.0000 33.206 55.865 18.475 15.598 51.426 
358 74.324 76.029 35.536 47.687 48.275 37.882 
359 65.863 57.223 42.324 36.439 31.969 40.867 
360 30.893 54.646 13.136 16.649 19.886 15.261 
361 0.0000 34.360 28.321 10.407 10.832 22.434 
362 15.443 77.087 85.116 48.420 52.389 105.72 
363 63.381 68.947 68.521 50.212 46.557 78.677 
364 69.733 27.566 42.917 31.307 20.828 35.870 
365 32.754 100.00 42.760 46.541 64.093 49.438 
366 47.096 29.481 34.829 19.381 14.463 28.668 
367 8.5451 71.948 62.695 34.589 39.350 70.147 
368 0.0000 86.048 29.300 30.450 45.679 34.455 
369 53.697 51.572 85.367 46.726 38.232 100.62 
370 17.608 56.690 12.515 15.125 20.136 15.396 
371 90.638 14.414 49.227 45.549 26.450 40.570 
372 63.248 63.640 89.550 56.681 49.726 107.66 
373 100.00 85.976 58.455 79.600 73.116 66.224 
374 9.8311 28.027 7.5567 6.1585 7.2125 7.7706 
375 89.831 64.313 69.506 65.402 52.277 78.740 
376 31.754 12.995 25.543 10.699 7.3181 17.553 
377 75.914 45.966 64.957 47.416 34.809 67.948 
378 7.5735 50.695 58.941 24.038 23.509 58.263 
379 100.00 69.835 58.912 71.115 57.704 63.133 
380 32.211 34.376 48.339 20.572 16.642 42.241 
381 13.901 12.159 73.555 24.334 16.069 77.095 
382 87.071 9.0280 77.653 54.252 32.408 83.196 
383 23.272 85.409 84.290 53.539 60.947 105.97 
384 93.289 39.480 26.145 45.707 31.281 20.690 
385 65.769 59.630 30.967 34.129 31.406 30.313 
386 100.00 32.265 41.803 53.378 33.861 34.078 
387 86.568 85.281 86.961 81.372 76.393 109.22 
388 52.577 86.830 30.016 41.176 51.828 35.722 
389 47.921 40.199 76.902 37.968 29.082 86.314 
390 22.360 86.619 61.580 43.800 53.877 71.742 
391 52.232 33.601 88.787 42.877 31.910 100.70 
392 0.0000 28.523 86.267 30.903 24.147 96.221 
393 43.497 67.879 39.551 31.295 34.195 40.499 
394 39.877 45.261 0.0000 14.482 15.532 8.1926 
395 86.940 12.430 24.699 35.447 20.390 16.498 
396 28.363 55.339 90.398 42.685 38.535 106.22 
397 39.018 70.534 57.879 37.393 39.859 63.035 
398 12.833 28.519 78.828 28.986 22.039 86.513 
399 68.350 31.815 69.975 41.715 28.719 73.887 
400 56.520 26.226 41.626 24.104 16.751 33.975 
401 12.938 46.218 0.0000 9.6536 13.395 7.8459 
402 8.6938 60.179 26.117 17.776 23.300 24.968 
403 51.995 89.429 96.608 66.683 73.037 117.09 
404 46.905 47.746 48.909 27.301 23.521 45.703 
405 14.352 81.814 19.479 27.019 40.874 25.375 
406 71.482 38.117 12.273 27.219 20.726 12.168 
407 86.616 60.785 10.012 43.447 37.319 14.375 
408 71.811 88.979 52.186 57.996 62.669 58.845 
409 43.213 100.00 72.083 60.914 73.251 90.365 
410 73.920 23.444 8.2853 25.386 16.376 8.1793 
411 40.629 85.534 53.423 43.631 52.987 59.098 
412 38.955 52.128 22.885 19.576 20.699 21.150 
413 46.480 12.229 8.6707 11.133 7.1860 6.8619 
414 40.855 33.301 22.309 15.565 13.473 17.390 
415 76.365 66.787 61.060 53.120 46.430 66.265 
416 7.5076 12.025 20.590 5.6655 4.1767 14.069 
417 85.930 27.031 0.0000 33.075 21.220 5.1277 
418 100.00 87.757 44.060 75.112 71.147 48.107 
419 41.543 25.624 54.896 23.518 16.449 49.983 
420 59.533 76.669 91.789 61.967 60.644 112.76 
421 58.226 12.079 28.862 19.385 11.531 20.350 
422 50.514 8.8602 88.281 38.337 24.960 97.500 
423 41.983 0.0000 31.301 13.535 7.7758 21.784 
424 28.024 36.455 77.877 32.716 25.929 86.650 
425 12.718 41.027 11.129 9.7183 12.159 11.712 
426 26.194 75.573 88.088 50.371 53.312 107.96 
427 28.936 71.474 37.671 28.665 34.741 39.405 
428 90.497 74.770 26.512 56.140 51.691 29.250 
429 17.514 75.984 41.507 30.254 38.629 44.343 
430 16.621 64.069 68.891 34.847 35.879 77.822 
431 12.420 21.661 36.669 11.333 8.8386 28.478 
432 52.915 46.814 10.465 19.649 18.644 12.298 
433 56.979 91.194 52.490 51.955 61.307 59.520 
434 25.140 52.299 42.419 21.629 21.792 39.611 
435 25.587 6.8296 13.004 6.5239 4.4043 8.1152 
436 55.018 14.818 41.328 21.458 13.087 32.873 
437 93.397 56.942 87.959 73.814 55.570 103.51 
438 28.374 12.057 85.683 32.065 21.817 94.876 
439 78.265 6.7088 92.468 53.498 33.978 100.64 
440 39.694 71.314 6.3658 24.658 32.569 15.662 
441 73.259 45.059 87.294 55.316 41.118 101.08 
442 26.381 57.692 76.454 37.438 34.733 88.083 
443 66.587 33.629 31.299 27.580 19.708 25.911 
444 88.523 74.434 46.718 59.591 54.019 47.974 
445 76.836 59.920 49.912 45.801 38.458 48.472 
446 33.152 90.418 31.148 38.085 52.714 37.027 
447 55.924 53.388 68.505 40.519 33.705 74.917 
448 77.248 91.798 41.448 60.145 66.082 47.614 
449 26.737 89.225 45.445 39.911 53.323 50.158 
450 87.642 100.00 25.942 67.709 75.509 32.428 
451 68.631 100.00 40.532 58.748 71.034 46.186 
452 14.485 50.449 49.078 21.123 21.218 45.076 
453 10.654 10.664 89.702 30.365 21.669 97.795 
454 31.962 49.108 62.920 29.514 25.847 65.287 
455 8.6779 22.468 68.278 22.449 16.194 68.568 
456 74.727 90.586 6.3447 49.991 58.795 20.509 
457 0.0000 12.136 44.106 10.802 7.4875 33.782 
458 43.350 78.123 73.610 49.512 52.122 89.330 
459 10.925 11.786 9.5801 4.3308 3.5048 7.1713 
460 15.591 37.386 50.832 18.717 16.717 45.057 
461 10.685 68.959 9.3113 18.472 27.997 16.387 
462 92.017 72.247 12.692 53.022 48.225 18.686 
463 89.839 77.431 73.400 73.550 64.915 88.573 
464 47.450 74.511 18.753 30.212 37.725 23.510 
465 50.097 90.816 69.461 56.387 64.167 85.291 
466 82.755 34.052 82.994 57.537 39.377 93.532 
467 46.786 72.919 85.794 52.996 52.124 105.66 
468 9.3304 90.457 73.518 49.635 60.899 91.004 
469 88.590 61.902 22.128 47.532 39.877 22.155 
470 100.00 61.262 74.222 74.532 56.171 85.417 
471 86.777 8.8992 8.4672 32.224 18.216 5.8145 
472 39.582 85.966 11.798 33.385 46.815 22.545 
473 85.958 0.0000 24.986 33.692 18.530 16.044 
474 80.299 22.552 47.163 38.374 23.636 39.175 
475 7.2180 45.128 76.547 30.638 26.491 84.816 
476 55.989 48.521 58.428 34.271 28.092 58.037 
477 50.728 10.774 73.284 32.022 20.098 76.414 
478 71.269 10.344 11.008 22.344 12.959 8.2620 
479 91.768 45.194 10.385 42.336 30.786 10.922 
480 7.8976 42.553 25.130 11.965 13.629 21.110 
481 54.269 55.846 25.175 25.721 25.329 24.172 
482 41.937 24.646 5.4249 11.450 9.4953 6.0583 
483 89.502 33.423 70.991 56.983 37.257 74.775 
484 75.301 54.745 14.159 34.198 29.522 15.701 
485 76.653 6.2202 65.750 41.203 23.928 64.255 
486 58.072 77.769 7.4688 34.248 41.825 18.435 
487 27.429 73.801 76.267 44.851 46.972 92.631 
488 39.961 56.279 74.128 39.027 34.718 84.024 
489 23.430 28.561 70.622 26.735 19.928 73.725 
490 91.285 49.258 68.377 60.520 43.054 73.814 
491 95.591 89.122 11.382 65.410 66.625 21.161 
492 28.451 92.151 76.841 55.119 65.506 96.677 
493 26.242 26.080 53.808 19.617 14.274 48.228 
494 15.957 92.746 24.983 34.809 52.731 31.966 
495 13.563 9.1545 61.533 18.465 11.701 57.518 
496 13.216 24.593 54.939 17.513 13.246 48.602 
497 91.885 89.769 79.537 85.071 80.005 100.72 
498 100.00 88.684 29.334 71.801 69.917 33.735 
499 34.090 65.771 20.136 22.946 28.853 21.963 
